/* XPM */
static char *mb_gate_ms[] = {
/* columns rows colors chars-per-pixel */
"256 256 256 2 ",
"   c #0B090B",
".  c #12090B",
"X  c #0D0C13",
"o  c #140D12",
"O  c #0E1317",
"+  c #15161B",
"@  c #1B161B",
"#  c #16191E",
"$  c #19191F",
"%  c #161216",
"&  c #2D1A1F",
"*  c #21171D",
"=  c #33191E",
"-  c #1A271E",
";  c #15391A",
":  c #0E241A",
">  c #20261E",
",  c #282B1C",
"<  c #28361B",
"1  c #35361D",
"2  c #352918",
"3  c #1C1524",
"4  c #161B21",
"5  c #1B1C22",
"6  c #171724",
"7  c #141B29",
"8  c #221D23",
"9  c #241C2A",
"0  c #291B24",
"q  c #381E29",
"w  c #271931",
"e  c #1E2026",
"r  c #1B232A",
"t  c #172729",
"y  c #1D2332",
"u  c #192932",
"i  c #182C36",
"p  c #16333E",
"a  c #1A343A",
"s  c #12302F",
"d  c #212226",
"f  c #23242B",
"g  c #26282F",
"h  c #282726",
"j  c #3F2027",
"k  c #38232A",
"l  c #273729",
"z  c #313C2B",
"x  c #212634",
"c  c #272931",
"v  c #2A2B34",
"b  c #212839",
"n  c #2D2F38",
"m  c #292538",
"M  c #382A33",
"N  c #2C3135",
"B  c #2D313A",
"V  c #283836",
"C  c #31333D",
"Z  c #373A37",
"A  c #55221D",
"S  c #68231A",
"D  c #7A281D",
"F  c #421B26",
"G  c #511D2A",
"H  c #43242B",
"J  c #492428",
"K  c #552B29",
"L  c #472936",
"P  c #42353B",
"I  c #45393D",
"U  c #48373A",
"Y  c #533538",
"T  c #6B312D",
"R  c #44161C",
"E  c #134916",
"W  c #0D5712",
"Q  c #2F4319",
"!  c #374E15",
"~  c #056806",
"^  c #057805",
"/  c #0B6A13",
"(  c #177A19",
")  c #117013",
"_  c #26701C",
"`  c #154B31",
"'  c #2E4133",
"]  c #27483A",
"[  c #344436",
"{  c #2F522F",
"}  c #187827",
"|  c #177133",
" . c #2B6B31",
".. c #4B4C14",
"X. c #556F18",
"o. c #464436",
"O. c #46463F",
"+. c #49463B",
"@. c #4B4B3B",
"#. c #484B37",
"$. c #554739",
"%. c #4A533C",
"&. c #4A5637",
"*. c #55563A",
"=. c #4D552C",
"-. c #73483B",
";. c #4D6733",
":. c #516732",
">. c #696612",
",. c #173A45",
"<. c #0F3746",
"1. c #2A2947",
"2. c #2C2B49",
"3. c #2D2447",
"4. c #312E4C",
"5. c #293648",
"6. c #343641",
"7. c #363944",
"8. c #393B46",
"9. c #30304E",
"0. c #3B3E4A",
"q. c #3B3745",
"w. c #322E55",
"e. c #283959",
"r. c #333252",
"t. c #343259",
"y. c #3A375F",
"u. c #353B56",
"i. c #2E2A51",
"p. c #192879",
"a. c #2A3D62",
"s. c #363A65",
"d. c #301F48",
"f. c #463A40",
"g. c #483A43",
"h. c #553544",
"j. c #6A354A",
"k. c #70324F",
"l. c #743453",
"z. c #413C75",
"x. c #1A4549",
"c. c #0D4959",
"v. c #154856",
"b. c #18565B",
"n. c #16524D",
"m. c #274948",
"M. c #3E414D",
"N. c #344547",
"B. c #2A534B",
"V. c #2A5849",
"C. c #325D4C",
"Z. c #3A5B49",
"A. c #274757",
"S. c #394D55",
"D. c #3A4859",
"F. c #275855",
"G. c #3A535B",
"H. c #375A5A",
"J. c #176A4E",
"K. c #33614D",
"L. c #386647",
"P. c #2C6657",
"I. c #346352",
"U. c #396757",
"Y. c #2B6B49",
"T. c #0B5767",
"R. c #1A5868",
"E. c #0D5D73",
"W. c #16516B",
"Q. c #294567",
"!. c #33496A",
"~. c #375962",
"^. c #395B64",
"/. c #3B5D6A",
"(. c #365966",
"). c #265677",
"_. c #304F73",
"`. c #05636C",
"'. c #076977",
"]. c #196776",
"[. c #04727C",
"{. c #177479",
"}. c #186A6A",
"|. c #256667",
" X c #3C6161",
".X c #39626B",
"XX c #246876",
"oX c #366979",
"OX c #2E7570",
"+X c #474640",
"@X c #4A4A43",
"#X c #474647",
"$X c #534A44",
"%X c #415E4C",
"&X c #495844",
"*X c #535B47",
"=X c #424452",
"-X c #484B5A",
";X c #445956",
":X c #575554",
">X c #664E49",
",X c #56614A",
"<X c #476657",
"1X c #496A55",
"2X c #434868",
"3X c #485765",
"4X c #545769",
"5X c #4F577A",
"6X c #7C4766",
"7X c #6E4D6B",
"8X c #43676B",
"9X c #436473",
"0X c #456778",
"qX c #516C6C",
"wX c #636465",
"eX c #812B1E",
"rX c #903024",
"tX c #B0382A",
"yX c #864237",
"uX c #863A58",
"iX c #935047",
"pX c #985255",
"aX c #058606",
"sX c #039505",
"dX c #0C8716",
"fX c #128716",
"gX c #0E892D",
"hX c #1C8F11",
"jX c #078E49",
"kX c #108A6E",
"lX c #659E42",
"zX c #A7A70D",
"xX c #C0C009",
"cX c #102A8F",
"vX c #20339C",
"bX c #1734AB",
"nX c #335589",
"mX c #067886",
"MX c #177786",
"NX c #136E8B",
"BX c #217688",
"VX c #2B718B",
"CX c #2B68A1",
"ZX c #475197",
"AX c #4F6A89",
"SX c #4756AA",
"DX c #686C87",
"FX c #1339C6",
"GX c #4361C8",
"HX c #3E46AE",
"JX c #078696",
"KX c #0A868B",
"LX c #238599",
"PX c #2393AA",
"IX c #1195AE",
"UX c #28A4C6",
/* pixels */
"5 5 5 5 5 5 5 5 5 5 5 5 5 5 5 5 5 5 5 5 5 5 5 5 5 5 5 5 5 5 5 5 5 5 5 5 5 5 5 5 5 5 5 5 5 5 5 5 5 5 5 5 5 5 5 5 5 5 5 5 5 5 5 5 5 5 5 5 5 5 5 5 5 5 5 5 5 5 5 5 5 5 5 5 5 5 5 5 5 5 5 5 5 5 5 5 5 5 5 5 5 5 5 5 5 5 5 5 5 5 5 5 5 5 5 5 5 5 5 5 5 5 5 5 5 5 5 5 5 5 5 5 5 5 5 5 5 5 5 5 5 5 5 5 5 5 5 5 5 5 5 5 5 5 5 5 5 5 5 5 5 5 5 5 5 5 5 5 5 5 5 5 5 5 5 5 5 5 5 5 5 5 5 5 5 5 5 5 5 5 5 5 5 5 5 5 5 5 5 5 5 5 5 5 5 5 5 5 5 5 5 5 5 5 5 5 5 5 5 5 5 5 5 5 5 5 5 5 5 5 5 5 5 5 5 5 5 5 5 5 5 5 5 5 5 5 5 5 5 5 5 5 5 5 5 5 ",
"5 5 5 5 5 5 5 5 5 5 5 5 5 5 5 5 5 5 5 5 5 5 $ $ 6 $ $ 5 5 5 5 5 5 5 5 5 5 5 5 5 5 5 5 5 5 5 5 5 5 5 5 5 5 5 5 5 5 5 5 5 5 5 5 5 5 5 5 5 5 5 5 5 5 5 5 5 5 5 5 5 5 5 5 5 5 5 5 5 5 5 5 5 5 5 5 5 5 5 5 5 5 5 5 5 5 5 5 5 5 5 5 5 5 5 5 5 5 5 5 5 5 5 5 5 5 5 5 5 5 5 5 5 5 5 5 5 5 5 5 5 5 5 5 5 5 5 5 5 5 5 5 5 5 5 5 5 5 5 5 5 5 5 5 5 5 5 5 5 5 5 + 5 + $ 5 $ $ 5 # + + # # + 5 # 4 # $ $ # + 5 5 $ + 5 5 # $ + # + 5 5 + 5 + # $ + + 5 + $ + $ + # 5 + 5 5 # $ # + 5 5 5 5 $ $ 5 @ $ @ 5 @ @ 5 @ $ @ 5 @ $ @ 5 5 5 5 5 5 5 5 ",
"@ 5 5 5 5 $ @ @ @ @ $ 5 5 @ @ @ @ @ $ 5 5 5 <.m.C.,.7 $ 5 5 5 5 5 5 5 5 5 5 5 5 5 5 5 5 5 5 5 5 5 5 5 5 5 5 5 5 5 5 5 5 5 5 5 5 5 5 5 5 5 5 5 5 5 5 5 5 5 5 5 5 5 5 5 5 5 5 5 5 5 5 5 5 5 5 5 5 5 5 5 5 5 5 5 5 5 5 5 5 5 5 5 5 5 5 5 5 5 5 5 5 5 5 5 5 5 5 5 5 5 5 5 5 5 5 5 5 5 5 5 5 5 5 5 5 5 5 5 5 5 5 5 5 5 5 5 5 5 5 5 5 5 5 5 5 5 5 5 5 5 d 0.5 0.C g B C e 8.-X=X6.7.=X5 C c 6.c n 8.-Xf # c -Xg f C B 3X7.=Xv 5 0.5 8.0.C M.=X5 M.6.M.n -XC f -Xf c C B 6.0.5 5 v @ i ,.r ,.,.x.5 ,.x.r x.u ,.e ,.a x.r 5 5 5 - E W E ",
"PX,.@ 5 $ r BXLXLXLXBX@ b.LXLXLXLXXXr $ 7 A.lXlXlXlX1Xi $ 5 5 5 5 5 5 5 5 5 5 5 5 5 5 5 5 5 5 5 5 5 5 5 5 5 5 5 5 5 5 5 5 5 5 5 5 5 5 5 5 5 5 5 5 5 5 5 5 5 5 5 5 5 5 5 5 5 5 5 5 5 5 5 5 5 5 5 5 5 5 5 5 5 5 5 5 5 5 5 5 5 5 5 5 5 5 5 5 5 5 5 5 5 5 5 5 5 5 5 5 5 5 5 5 5 5 5 5 5 5 5 5 5 5 5 5 5 5 5 5 5 5 5 5 5 5 5 5 5 5 5 5 5 5 5 5 5 5 5 $ g DX0.wX-Xn -X-Xe v 4X8.=X3XDXv wX-X4X4X-X3X0.-X+ 4X-XC =XDXf 4X8.wXc d DX0.wX-XM.-X=X-X4XC -XM.=X-X-XwXf 4 DX0.3XDX5 5 B % ,.XXv.].R.XXx.R.x.,.BXx.XXx.XXb.R.r 5 5 5 - W E W ",
"UXx.@ e @ XXUXPXLXPXBX% R.UXLXLXPXUXXX% m.lX:.5 6 Q lX].r $ 5 5 5 5 5 5 5 5 5 5 5 5 5 5 5 5 5 5 5 5 5 5 5 5 5 5 5 5 5 5 5 5 5 5 5 5 5 5 5 5 5 5 5 5 5 5 5 5 5 5 5 5 5 5 5 5 5 5 5 5 5 5 5 5 5 5 5 5 5 5 5 5 5 5 5 5 5 5 5 5 5 5 5 5 5 5 5 5 5 5 5 5 5 5 5 5 5 5 5 5 5 5 5 5 5 5 5 5 5 5 5 5 5 5 5 5 5 5 5 5 5 5 5 5 5 5 5 5 5 5 5 5 5 5 5 5 5 5 $ g 4XwX3X-X-X=X3X0.g -X7.-X3X4X-XwX4X-X4XwX-X-X-X+ 3X-X4X4XwX8.-XC wXf f 4XwX3X-XM.-X-X0.M.4X-X=X-X-X-X4Xd f wX=X3XwXf 5 B @ ,.XXXXb.R.].v.b.R.b.XXv.b.XX].a R.x.@ 5 5 - W E W ",
"UX,.@ 5 @ BXPXe % @ @ % R.UXr o 5 PXBX7 OX:.X 5 r ,.y BX,.5 5 5 5 5 5 5 5 5 5 5 5 5 5 5 5 5 5 5 5 5 5 5 5 5 5 5 5 5 5 5 5 5 5 5 5 5 5 5 5 5 5 5 5 5 5 5 5 5 5 5 5 5 5 5 5 5 5 5 5 5 5 5 5 5 5 5 5 5 5 5 5 5 5 5 5 5 5 5 5 5 5 5 5 5 5 5 5 5 5 5 5 5 5 5 5 5 5 5 5 5 5 5 5 5 5 5 5 5 5 5 5 5 5 5 5 5 5 5 5 5 5 5 5 5 5 5 5 5 5 5 5 5 5 5 5 5 5 5 5 e n n v f =Xf B =Xf v n C C 8.n d g C d B C =X5 $ f M.C c 5 n v f M.c 5 n n v 7.v 8.8.5 0.n 7.c =Xv d =Xf c c n C 6.5 5 c $ r a a u ,.,.5 a x.r ,.u u a i a ,.r 5 5 5 e ; E ; ",
"UX,.@ e @ R.UXPXPXPXb.o R.UX,.r a PXBX@ v.LXx.@ r i @ ].R.5 5 5 5 5 5 5 5 5 5 5 5 5 5 5 5 5 5 5 5 5 5 5 5 5 5 5 5 5 5 5 5 5 5 5 5 5 5 5 5 5 5 5 5 5 5 5 5 5 5 5 5 5 5 5 5 5 5 5 5 5 5 5 5 5 5 5 5 5 5 5 5 5 5 5 5 5 5 5 5 5 5 5 5 5 5 5 5 5 5 5 5 5 5 5 5 5 5 5 5 5 5 5 5 5 5 5 5 5 5 5 5 5 5 5 5 5 5 5 5 5 5 5 5 5 5 5 5 5 5 5 5 5 5 5 5 5 5 5 5 5 $ # $ 5 + 5 # + 5 $ $ # # + # 5 $ # 5 # # + 5 5 4 + # $ 5 # $ 5 + $ 5 $ # $ + $ + + 5 + $ + $ + $ 5 + 5 $ 4 $ # + 5 5 5 5 5 $ $ $ @ @ 5 @ @ 5 @ $ $ $ $ $ @ 5 5 5 5 5 5 3 5 ",
"UX,.@ 5 5 5 R.LXBXPXUXe R.UXUXUXUXUXb.5 BXUX].o $ 5 @ XXR.5 5 5 5 5 5 5 5 5 5 5 5 5 5 5 5 5 5 5 5 5 5 5 5 5 5 5 5 5 5 5 5 5 5 5 5 5 5 5 5 5 5 5 5 5 5 5 5 5 5 5 5 5 5 5 5 5 5 5 5 5 5 5 5 5 5 5 5 5 5 5 5 5 5 5 5 5 5 5 5 5 5 5 5 5 5 5 5 5 5 5 5 5 5 5 5 5 5 5 5 5 5 5 5 5 5 5 5 5 5 5 5 5 5 5 5 5 5 5 4 $ 5 5 5 5 5 5 $ 5 5 5 5 5 5 5 5 5 5 4 5 5 5 5 5 5 5 5 5 5 5 5 5 5 5 5 5 5 5 5 5 5 5 5 5 5 5 5 5 5 5 5 5 5 5 5 5 5 5 5 5 5 5 5 5 5 5 5 5 5 5 5 5 5 5 5 $ $ 5 4 $ 5 $ 4 4 4 5 4 5 4 5 5 5 5 5 5 5 $ 5 4 4 5 # $ 5 5 $ # ",
"UX,.@ 5 5 5 @ @ o x.UXu R.UXXXR.].v.@ u ].BXUXb.a % a BX,.$ 5 5 5 5 5 5 5 5 5 5 5 5 5 5 5 5 5 5 5 5 5 5 5 5 5 5 5 5 5 5 5 5 5 5 5 5 5 5 5 5 5 5 5 5 5 5 5 5 5 5 5 5 5 5 5 5 5 5 5 5 5 5 5 5 5 5 5 5 5 5 5 5 5 5 5 5 5 5 5 5 5 5 5 5 5 5 5 5 5 5 5 5 5 5 5 5 5 r 5 5 5 5 5 5 5 5 5 5 5 5 5 5 5 5 5 5 5 4 c B 5 5 n 5 5 5 v f 5 d 5 5 5 5 5 5 5 g f 5 5 5 5 5 5 5 5 5 5 5 5 5 5 5 5 5 5 5 r 5 5 5 5 5 5 5 5 5 5 5 e W 5 5 5 5 @ @ $ 5 5 5 c.T.t $ 5 5 5 5 5 5 5 r ,.,.r g c f n B n v f v d c 5 5 r a a r $ v f 6.v f 6.c f f n 8.",
"UXPXPXPXv.u PXPXPXUXPX5 R.UXr o @ @ 5 @ 5 PXLXUXPX,.BXR.r $ 5 5 5 5 5 5 5 5 5 5 5 5 5 5 5 5 5 5 5 5 5 5 5 5 5 5 5 5 5 5 5 5 5 5 5 5 5 5 5 5 5 5 5 5 5 5 5 5 5 5 5 5 5 5 5 5 5 5 5 5 5 5 5 5 5 5 5 5 5 5 5 5 5 5 5 5 5 5 5 5 5 5 5 5 5 5 5 5 5 5 5 5 5 5 5 $ a a $ 5 5 5 5 5 5 5 5 5 5 5 5 5 5 5 5 5 5 # C 6.6.=XM.=XM.C =Xv c 0.8.8.0.=X0.C =X-Xv $ 5 5 5 5 5 5 5 5 5 5 5 5 5 5 5 5 5 5 r ,.5 5 5 5 5 5 5 5 5 3 E aX; 3 $ i c.T.b.$ 5 5 T.`.p @ 5 5 5 5 5 5 $ i R.R.i n =X8.=X0.C -X6.0.f 7.$ 5 r ,.,.r 5 -X6.=X0.8.f =XC n B 8.",
"BXBXBXBX,.u BXBXBXBX,.% v.BXu 5 5 5 5 5 u ,.x.PXR.BXR.u $ 5 5 5 5 5 5 5 5 5 5 5 5 5 5 5 5 5 5 5 5 5 5 5 5 5 5 5 5 5 5 5 5 5 5 5 5 5 5 5 5 5 5 5 5 5 5 5 5 5 5 5 5 5 5 5 5 5 5 5 5 5 5 5 5 5 5 5 5 5 5 5 5 5 5 5 5 5 5 5 5 5 5 5 5 5 5 5 5 5 5 5 5 5 5 5 5 $ i a $ 5 5 5 5 5 5 5 5 5 5 5 5 5 5 5 5 5 5 5 d 0.-X7.M.=X0.6.C c v 0.=XB =X6.7.-X0.8.c $ 5 5 5 5 5 5 5 5 5 5 5 5 5 5 5 5 5 5 r ,.5 5 5 5 5 5 5 5 5 5 E E E 3 5 r i p p 5 5 5 c.T.i $ 5 5 5 5 5 5 $ i R.R.i g =X=X7.0.n C -X7.7.C $ 5 u ,.,.r n =X=XM.8.8.B 0.6.8.g 6.",
"@ @ @ @ $ 5 @ @ @ @ @ 5 $ @ 5 5 5 5 5 5 5 % i ,.r ,.5 5 5 5 5 5 5 5 5 5 5 5 5 5 5 5 5 5 5 5 5 5 5 5 5 5 5 5 5 5 5 5 5 5 5 5 5 5 5 5 5 5 5 5 5 5 5 5 5 5 5 5 5 5 5 5 5 5 5 5 5 5 5 5 5 5 5 5 5 5 5 5 5 5 5 5 5 5 5 5 5 5 5 5 5 5 5 5 5 5 5 5 5 5 5 5 5 5 5 5 5 5 5 5 5 5 5 5 5 5 5 5 5 5 5 5 5 5 5 5 5 5 f c e c d g f c c d n 8.5 5 f g c d g f f 5 5 5 5 5 5 5 5 5 5 5 5 5 5 5 5 5 5 5 5 5 5 5 5 5 5 5 5 5 5 5 5 3 5 5 5 5 $ @ @ 5 5 5 r r 5 5 5 5 5 5 5 5 5 e u u r 5 f f d v g 5 f e v 5 5 5 r u u 5 f 5 f n f 5 n 5 f c 5 f ",
"5 5 5 5 5 5 5 5 5 5 5 4 5 5 5 5 5 5 5 5 5 5 $ @ $ @ $ 5 5 5 5 5 5 5 5 5 5 5 5 5 5 5 5 5 5 5 5 5 5 5 5 5 5 5 5 5 5 5 5 5 5 5 5 5 5 5 5 5 5 5 5 5 5 5 5 5 5 5 5 5 5 5 5 5 5 5 5 5 5 5 5 5 5 5 5 5 5 5 5 5 5 5 5 5 5 5 5 5 5 5 5 5 5 5 5 5 5 5 5 5 5 5 5 5 5 5 5 $ 5 5 5 5 5 5 5 5 5 5 5 5 5 5 5 5 5 5 5 5 # # $ # $ # $ # # # e 5 # 4 $ # # $ # $ # 5 5 5 5 5 5 5 5 5 5 5 5 5 5 5 5 5 5 5 $ 5 5 5 5 5 5 5 5 5 5 5 5 5 5 5 5 5 5 5 5 5 5 5 $ $ 5 5 5 5 5 5 5 5 5 $ $ $ $ $ $ $ $ + # 4 # $ + $ 5 5 $ $ $ $ $ 5 $ + $ $ + 4 # # 5 $ ",
"f f f f f f f f f f f f f f f f f f f f f f f f f f f f f f f f f f f f f f f f f f f f f f f f f f f f f f f f f f f f f f f f f f f f f f f f f f f f f f f f f f f f f f f f f f f f f f f f f f f f f f f f f f f f f f f f f f f f f f f f f f f f f f f f f f f f f f f f f f f f f f f f f f f f f f f f f f f f f f d f f f f f f f f f f f f f f f f f f f f f f f f f f f f f f f f f f f f f f f f f f f f f f f f f f f f f f f f f f f f f f f f f f f f f f f f f f f f f f f f f f f f f f f f f f f f f f f f f ",
"v v v v v v v v v c c v c v c v v v c v v v v c c c c c c c c c c c c c c c c c c c c c c c c c c c c c c c c c c c c c c c c c c c c c c c c c c c c c c c c c c c c c c c c c c c c c c c c c c c c c c c c c c c c c c c c c c c c c c c c c c c c c c c c c c c c c c c c c c c c c c c c c c c c c c c c c c c c c c c v v c c c c c c c c c c c c c c c c c c c c c c c c c c c c c c c c c c c c c c v v v v c c c c c c v v c c c c c c v c c c c v c g g g g g g g g g g g g g c c c c c c c c c c c c c c c c c c c g ",
"$ $ $ $ $ # # $ $ $ $ $ $ $ 4 $ $ $ $ $ $ $ $ $ $ $ $ $ $ $ $ $ $ $ $ $ $ $ $ $ $ $ $ $ $ $ $ $ $ $ $ $ $ $ $ $ $ $ $ $ $ $ $ $ $ $ $ $ $ $ $ $ $ $ $ $ $ $ $ $ $ $ $ $ $ $ $ $ $ $ $ $ $ $ $ $ $ $ $ $ $ $ $ $ $ $ $ $ $ $ $ $ $ $ $ $ $ $ $ $ $ $ $ $ $ $ $ $ $ $ $ $ $ $ $ $ $ $ $ $ $ $ $ $ $ $ $ $ $ $ $ $ $ $ $ $ $ $ $ $ $ $ $ $ $ $ $ $ $ $ $ $ $ $ $ $ $ $ $ $ $ $ $ $ $ $ $ $ $ $ $ $ $ $ $ $ $ $ # + + # $ $ $ $ $ $ $ $ 5 $ $ $ $ 4 # $ 4 4 5 # e v v v v v v v v v v v v v c c c c c c c c c c c c c c c c c c c c ",
"e 5 5 5 5 f d e 5 5 5 5 5 5 5 e e e 5 5 5 e 5 5 5 5 5 5 5 5 5 5 5 5 5 5 5 5 5 5 5 5 5 5 5 5 5 5 5 5 5 5 5 5 5 5 5 5 5 5 5 5 5 5 5 5 5 5 5 5 5 5 5 5 5 5 5 5 5 5 5 5 5 5 5 5 5 5 5 5 5 5 5 5 5 5 5 5 5 5 5 5 5 5 5 5 5 5 5 5 5 5 5 5 5 5 5 5 5 5 5 5 5 5 5 5 5 5 5 5 5 5 5 5 5 5 5 5 5 5 5 5 5 5 5 5 5 5 5 5 5 5 5 5 5 5 5 5 5 5 5 5 5 5 5 5 5 5 5 5 5 5 5 5 5 5 5 5 5 5 5 5 5 5 5 5 5 5 5 5 5 5 5 5 5 5 5 5 g 7.8.n 5 5 5 5 5 5 5 5 # 5 5 5 5 5 d 5 5 5 5 4 c =XM.=XM.0.0.0.0.0.=XM.M.0.f d d d d d d d d d d d d d d d d d d d ",
"6.0.8.B C n 0.8.0.B c =Xv 8.d 7.v M.n 6.B M.6.n n $ 5 5 5 5 5 5 5 5 5 5 5 5 5 5 5 5 5 5 5 5 5 5 5 5 5 5 5 5 5 5 5 5 5 5 5 5 5 5 5 5 5 5 5 5 5 5 5 5 5 5 5 5 5 5 5 5 5 5 5 5 5 5 5 5 5 5 5 5 5 5 5 5 5 5 5 5 5 5 5 5 5 5 5 5 5 5 5 5 5 5 5 5 5 5 5 5 5 5 5 5 5 5 5 5 5 5 5 5 5 5 5 5 5 5 5 5 5 5 5 5 5 5 5 5 5 5 5 5 5 5 5 5 5 5 5 5 5 5 5 5 5 5 5 5 5 5 5 5 5 5 5 5 5 5 5 5 5 5 5 5 5 5 5 5 5 5 5 5 5 5 5 + 8.4X-XM.5 5 5 5 5 $ v C n 5 5 5 $ c 7.C e n C # c 0.3X-X=X-X-X-XM.-X3X8.0.8.5 4 5 5 5 5 5 5 5 5 5 5 5 5 5 5 5 5 5 4 ",
"=Xn 0.7.B 5 C 8.=XC C =X=X8.v 6.8.=X8.=X=XC C =XC # 5 5 5 5 5 5 5 5 5 5 5 5 5 5 5 5 5 5 5 5 5 5 5 5 5 5 5 5 5 5 5 5 5 5 5 5 5 5 5 5 5 5 5 5 5 5 5 5 5 5 5 5 5 5 5 5 5 5 5 5 5 5 5 5 5 5 5 5 5 5 5 5 5 5 5 5 5 5 5 5 5 5 5 5 5 5 5 5 5 5 5 5 5 5 5 5 5 5 5 5 5 5 5 5 5 5 5 5 5 5 5 5 5 5 5 5 5 5 5 5 5 5 5 5 5 5 5 5 5 5 5 5 5 5 5 5 5 5 5 5 5 5 5 5 5 5 5 5 5 5 5 5 5 5 5 5 5 5 5 5 5 5 5 5 5 5 5 5 5 5 5 + 0.=XM.4X# 5 5 5 5 $ v 0.0.v $ 5 # C v 0.7.=XC + c 0.-X4X4X4X4X4X4XwX4X8.0.8.5 5 5 5 5 5 5 5 5 5 5 5 5 5 5 5 5 5 5 5 ",
"v # n c B g g f g v n g n g 5 B C f B d n 5 d f f 4 5 5 5 5 5 5 5 5 5 5 5 5 5 5 5 5 5 5 5 5 5 5 5 5 5 5 5 5 5 5 5 5 5 5 5 5 5 5 5 5 5 5 5 5 5 5 5 5 5 5 5 5 5 5 5 5 5 5 5 5 5 5 5 5 5 5 5 5 5 5 5 5 5 5 5 5 5 5 5 5 5 5 5 5 5 5 5 5 5 5 5 5 5 5 5 5 5 5 5 5 5 5 5 5 5 5 5 5 5 5 5 5 5 5 5 5 5 5 5 5 5 5 5 5 5 5 5 5 5 5 5 5 5 5 5 5 5 5 5 5 5 5 5 5 5 5 5 5 5 5 5 5 5 5 5 5 5 5 5 5 5 5 5 5 5 5 5 5 5 5 5 $ n =X4XwX$ 5 5 5 5 4 c n f f 5 5 5 e 6.f B n v $ c 0.-X3X-X4X4X=X-X3X-X0.M.n 5 5 5 5 5 5 5 5 5 5 5 5 5 5 5 5 5 5 5 5 ",
"5 e 5 5 5 5 5 5 5 5 5 5 5 5 5 5 5 5 5 5 5 5 5 5 5 5 5 5 5 5 5 5 5 5 5 5 5 5 5 5 5 5 5 5 5 5 5 5 5 5 5 5 5 5 5 5 5 5 5 5 5 5 5 5 5 5 5 5 5 5 5 5 5 5 5 5 5 5 5 5 5 5 5 5 5 5 5 5 5 5 5 5 5 5 5 5 5 5 5 5 5 5 5 5 5 5 5 5 5 5 5 5 5 5 5 5 5 5 5 5 5 5 5 5 5 5 5 5 5 5 5 5 5 5 5 5 5 5 5 5 5 5 5 5 5 5 5 5 5 5 5 5 5 5 5 5 5 5 5 5 5 5 5 5 5 5 5 5 5 5 5 5 5 5 5 5 5 5 5 5 5 5 5 5 5 5 5 5 5 5 5 5 5 5 5 5 5 5 5 e 5 5 5 5 5 5 5 5 4 $ 4 5 5 5 5 5 # 4 $ $ 5 4 c 8.6.C 6.=X7.C C C C 6.n 5 5 5 5 5 5 5 5 5 5 5 5 5 5 5 5 5 5 5 5 5 ",
"v v n v n v v v n n n n n n v n v v n v n v v v v v v v v v v v v v v v v v v v v v v v v v v v v v v v v v v v v v v v v v v v v v v v v v v v v v v v v v v v v v v v v v v v v v v v v v v v v v v v v v v v v v v v v v v v v v v v v v v v v v v v v v v v v v v v v v v v v v v v v v v v v v v c v v v v v v v v v v v v v v v v v v v v v v v v v v v v v v v v v v v v v v v v v v v v g 5 5 5 5 5 5 n n f 5 5 5 5 5 5 5 5 5 5 5 5 5 5 5 5 5 5 5 $ c f $ 5 5 $ 5 5 5 5 5 5 4 5 5 5 5 5 5 5 5 5 5 5 5 5 5 5 5 5 5 5 5 5 ",
"k 0 * 5 5 5 5 5 5 5 5 5 5 5 5 5 5 5 5 5 5 5 5 5 5 4 5 5 5 5 5 5 4 5 5 5 5 5 5 5 5 5 4 5 5 5 5 5 5 4 5 5 5 8 0 0 1 > - $ 5 5 5 5 5 5 5 5 5 5 5 5 5 5 5 5 5 5 5 5 5 5 4 5 5 5 5 5 5 4 5 5 5 5 5 5 5 4 5 - > u p t r 5 4 5 5 $ 5 5 5 e 5 5 5 5 5 5 5 5 5 5 5 5 5 5 5 5 5 5 5 5 5 5 5 5 5 5 5 5 5 5 5 r t 1.m f 5 5 5 5 4 5 4 5 5 5 5 5 5 4 5 5 4 5 5 5 e 4 5 5 5 5 5 5 5 5 5 5 5 5 5 5 5 5 5 5 f m r.f 5 5 5 4 f c 5 v 4 5 5 5 5 & = & & = & 5 5 & = & & = & $ c f 4 5 5 5 5 5 5 5 5 5 5 5 5 5 5 5 5 5 5 5 5 5 5 5 5 5 5 5 5 5 5 5 ",
"J M M 8 5 5 5 5 5 5 5 5 5 5 5 5 f 5 5 5 5 5 5 5 5 5 f 5 5 5 5 5 5 f 5 5 5 5 5 f 5 5 5 d e 5 5 f 5 5 f e 5 h k j ..< , > 5 5 5 5 5 5 5 5 5 5 5 5 5 f 5 5 5 5 5 5 5 5 5 f 5 5 5 5 5 5 f 5 5 5 5 5 f 5 e > , ] c.i a r 5 f 5 5 f 5 5 g 5 5 5 5 5 5 5 5 5 5 5 5 5 5 5 5 f 5 5 5 5 5 5 5 5 5 f 5 5 5 r i s !.t.m x 5 5 f 5 5 5 f 5 5 5 f 5 5 f 5 5 f 5 5 g 5 5 5 5 5 5 5 5 5 5 5 5 5 5 5 5 f 5 x m t.y.g 5 5 5 4 f c 5 v 4 5 5 5 5 & = & & = & 5 5 & = & & = 0 $ c f 4 5 5 5 5 5 @ $ 5 5 @ 5 5 5 5 5 5 5 5 5 5 5 5 5 5 5 5 5 5 5 5 5 ",
"h.g.g.d 5 5 5 5 5 5 5 5 5 5 5 5 f 5 5 5 5 5 5 5 5 5 d 5 5 5 5 5 5 f 5 5 5 5 5 f 5 5 5 d e 5 5 f 5 5 d 5 5 h k j ! < > > 5 5 5 5 5 5 5 5 5 5 5 5 5 f 5 5 5 5 5 5 5 5 5 f 5 5 5 5 5 5 f 5 5 5 5 5 f 5 e - , ] c.i a r 5 f e 5 d 5 @ d @ @ @ @ @ @ @ @ @ @ @ @ @ @ @ @ 8 @ @ @ @ @ @ @ @ 5 f 5 5 5 r u s a.r.m x 5 5 f 5 5 5 d 5 5 5 f 5 5 f 5 5 f 5 5 f 5 5 5 5 5 5 5 5 5 5 5 5 5 5 5 5 f 5 x m t.t.g 5 5 5 5 f C n v $ 5 5 5 5 & = & & = & 5 5 & = & & = 0 $ c f 4 5 5 5 $ r R.BXBXLXR.r $ 5 5 5 5 5 5 5 5 5 5 5 5 5 5 5 5 5 5 5 ",
"h.P q.d 5 5 5 5 5 5 5 5 5 5 5 5 f 5 5 5 5 5 5 5 5 5 d 5 5 5 5 5 5 f 5 5 5 5 5 f 5 5 5 d e 5 5 f 5 5 d 5 5 h k j ..< > > 5 5 5 5 5 5 5 5 5 5 5 5 5 f 5 5 5 5 5 5 5 5 5 f 5 5 5 5 5 5 f 5 5 5 5 5 f 5 e - , ] c.i a r 5 8 @ $ u i p ,.,.,.x.v.v.v.v.v.v.v.v.v.v.v.v.v.v.v.v.,.,.,.,.p i r f @ @ 5 r u s a.r.m x 5 5 f 5 5 5 d 5 5 5 f 5 5 f 5 5 f 5 5 f 5 5 5 5 5 5 5 5 5 5 5 5 5 5 5 5 f 5 x m t.t.g 5 5 5 4 f c e v 4 5 5 5 5 & = & & = & 5 5 & = & & = 0 $ c f 4 5 5 $ i LXBX].,.R.BXLXa $ 5 5 5 5 5 f # $ $ $ 5 5 5 5 5 5 5 5 ",
"J k h 5 5 5 5 5 5 5 5 5 5 5 5 5 f 5 5 5 5 5 5 5 5 5 d 5 5 5 5 5 5 f 5 5 5 $ @ 8 @ 5 5 d e 5 5 f 5 5 d 5 5 h k j ..< > > 5 5 5 5 5 5 5 5 5 5 5 5 5 f 5 5 5 5 5 5 5 5 5 f 5 5 5 5 5 5 f 5 5 5 5 5 f 5 e - , ] c.i a 5 r v.T.T.E.E.T.W.T.c.c.c.c.c.c.c.c.c.c.c.c.c.c.v.b.c.c.c.c.c.T.T.T.E.E.T.,.r 5 u s a.r.m x 5 5 f 5 5 5 d 5 5 5 f 5 5 f 5 5 f 5 5 f 5 5 5 5 5 5 5 5 5 5 5 5 5 5 5 5 f 5 x m t.t.g 5 5 5 4 f c 5 v 4 5 5 5 5 & = & & = & 5 5 & = & & = 0 $ c f 4 5 5 5 BXBX% . % . X BXLXr 5 5 5 $ f 7.C n C n f 0.c $ 5 5 5 5 ",
"J k 0 8 5 5 5 5 5 5 5 5 5 5 5 5 f 5 5 5 5 5 5 5 5 5 d 5 5 5 5 5 5 f 5 5 5 u v.v.<.$ @ 8 5 @ 5 d 5 5 d 5 5 h k j ..< > > 5 5 5 5 5 5 5 5 5 5 5 5 5 f 5 5 5 5 5 5 5 5 5 f 5 5 5 5 5 5 f 5 5 5 5 5 f 5 e - , ] c.u a c.E.W.,.i i r r x r r r r r r r r r r r r r r r r x r r r r r r r r r a ,.T.E.c.u s Q.r.m x 5 5 f 5 5 5 d 5 5 5 f 5 5 f 5 5 f 5 5 f 5 5 5 5 5 5 5 5 5 5 5 5 5 5 5 5 f 5 x m t.t.g 5 5 5 4 f c 5 v 4 5 5 5 5 & = & & = & 5 5 & = & & = 0 $ c f 4 5 @ b.LX+ % B 6.7.5 o LXR.@ 5 5 4 f 0.6.M.0.M.8.=Xf 4 5 5 5 5 ",
"h.k 0 8 5 5 5 5 5 5 5 5 5 5 5 5 f 5 5 5 5 5 5 5 5 5 d 5 5 5 5 5 5 f $ @ o c.R.A.E.T.T.v.5 c.].].t @ f 5 5 h k j ..< > > 5 5 5 5 5 5 5 5 5 5 5 5 5 f 5 5 5 5 5 5 5 5 5 f 5 5 5 5 5 5 f 5 5 5 5 5 f 5 e - , ] x.<.NXT.u r r t a u u b u u u u u u u u u u u u u u u u a u u u u u u u u u i r r u T.NX<.e.r.m x 5 5 f 5 5 5 d 5 5 5 f 5 5 f 5 5 f 5 5 f 5 5 5 5 5 5 5 5 5 5 5 5 5 5 5 5 f 5 x m t.t.g 5 5 5 4 f c 5 v 4 5 5 5 5 & = & & = & 5 5 & = & & = 0 $ c f 4 5 @ BXBX  v C C C B . ].BX@ 5 5 5 e v 5 n 6.e n g f 5 5 5 5 5 ",
"h.M 0 8 5 5 5 5 5 5 5 5 5 5 5 5 f 5 5 5 5 5 5 5 5 5 d e 5 5 5 5 5 d ,.b.c.'.V N v 5.5.}.E.R.v R.b.$ d e 5 h k j ..< > d 5 5 5 5 5 5 5 5 5 5 5 5 5 f 5 5 5 5 5 5 5 5 5 f 5 5 5 5 5 5 f 5 5 5 5 5 f 5 e > , l T.NXv.t u a i u a u u b u u u u u u u u u u u u u u u u a u u u u u u u u u a u u u t x.mX_.4.b x 5 5 f 5 5 5 d e 5 5 f 5 5 f e 5 f 5 5 f 5 5 5 5 5 5 5 5 5 5 5 5 5 5 5 5 f e x m t.t.g 5 5 5 4 f c 5 v 4 5 5 5 5 & = & & = & 5 5 & = & & = 0 $ c f 4 5 @ BXb.. v n C f f   ,.].5 5 5 5 5 # 5 5 5 $ + 5 5 5 5 5 5 5 ",
"Y q 0 8 3 3 3 3 3 3 3 3 3 3 3 3 9 3 3 3 3 3 3 3 3 3 9 3 3 3 3 3 3 9 ].A.e.5.m 6.m m m n 1.b x 5.'.`.f 5 $ h k q ..< > - $ 5 5 5 5 5 5 5 5 5 5 5 4 d 5 5 5 5 5 5 5 5 $ d 5 4 5 5 5 $ d 5 4 5 5 5 d 4 5 - , x.mX<.p i u i u t i u y b y y y y y y y y y y y y y y y y b y y y y y y y y y b y y y i i <.NXa.m w 3 9 9 3 3 3 9 8 3 3 9 3 3 9 3 3 9 3 3 w 3 3 3 3 3 3 3 3 3 3 3 3 3 3 3 3 9 9 w m w.t.g 5 5 5 4 f c 5 v 4 5 5 5 5 & = & & = & 5 5 & = & & = 0 $ c f 4 5 @ XXBX  f B B C v   R.R.$ 5 4 f 0.f C 7.8.f g 0.0.C 4 5 5 5 ",
") / / / / / / / / / / / / / / / / / / / / / / / / / / / / / / ~ ~ / } ) / / ) ) / / / W { ' P g.L R.p r e M M H ..< h h f f f f f f f f f f f f f c f f f f f f f f d c f f f f f f c f f f f f c f f h l mXT.,.,.a i V b y 1.b a ` E W W / / / / / / / / / / / / / / / / / / / / / / / / / / / / / / gXgX/ / / ~ ~ / / / / / / / / / / / / / / / / / ~ / / / / / / / / / / / / / / / / / / / } u.g 5 5 5 4 f c 5 v 4 5 5 5 5 & = & & = & 5 5 & = & & = 0 $ c f 4 5 @ x.LXu   f c g o 4 ].,.@ 5 $ v 7.C C =X8.n 7.0.=X8.5 5 5 5 ",
"..! Q Q Q Q Q Q Q Q Q Q Q Q Q Q Q Q Q Q Q Q Q Q Q Q Q Q Q Q Q { { Y.J.{ { { { { {  . .} } gXgXhXX.<Xk.T h f k H ..< h h d e e e e d d d d d d d d g d d d d d d d d e g f d d d d e g d e d e d g e d > ].b.c.,.,.a i b i ` ) ( ) ) / W W W E E E E E E E E E E E E ` E E E E E E E E E ` E E E ` ` ` V.J.J.; ` F.AX9XOXKXkX}.J.J.J.n.] ] ] ] ] ] ] ] ] ] ] ] ] ] ] ] ] ] ] ] ] ] ] ] ] ] m.m.H.y.g 5 5 5 4 f c 5 v 4 5 5 5 5 & = & & = & 5 5 & = & & = 0 $ c f 4 5 5 @ BXPXu   O X 4 {.R.5 5 5 5 e 6.v B n C e n C C n 5 5 5 5 ",
"T G G F F F F F F F F F F F F F H F F F F F F F F F F F F F u.XXQ._.D.L P P P g.L f.L g.g.q.N.J.jXgX_ T rXT k q ..< > - 5 5 5 5 4 6 6 6 6 6 6 6 6 5 6 6 6 6 6 6 6 6 6 5 6 6 6 6 6 6 5 6 6 6 4 5 d 5 @ c.b.] c.<.,.i y ` ^ ^ W s u b y y y y y y y y y y y y y y y y b y y y y y y y y y b y y y i ,.<._.t.E.nXZXz.s.NXNXW.e.i.3.3.i.3.3.i.i.3.i.3.3.w.3.3.3.3.3.3.3.3.3.3.3.3.3.3.3.3.w.i.w.t.z.y.f 5 5 5 4 f c 5 v 4 5 5 5 5 & = & & = & 5 5 & = & & = 0 $ c f 4 5 5 5 5 XXa $ 5 $ u R.5 5 5 5 5 5 $ 4 $ $ $ 5 4 $ 4 $ 5 5 5 5 ",
"T K J H j j j j j j j j j j j j H j j j j j j j j j H H k F A.S.J U P P P P P f.P P P I I P P U g.].kXdXQ eXtXJ Q < > > 5 6 6 5 e > , < < < < Q Q Q Q Q Q Q Q Q Q Q Q Q Q Q Q Q < < 1 < , > e 5 7 @ i '.l x.c.<.,.i / aX` y b u u b u u u u u u u u u u u u u u u u a u u u u u u u u u a u u u i p <.Q.u.ZXGX3.v.KXW.3.3.4.2.1.1.9.2.1.9.2.1.9.2.2.r.1.1.1.1.1.1.1.1.1.1.1.1.1.1.1.1.9.2.r.t.z.y.g 5 5 5 4 f c 5 v 4 5 5 5 5 & = & & = & 5 5 & = & & = 0 $ c f 4 5 5 5 5 @ % 5 r 5 % @ 5 5 5 5 5 5 5 5 5 5 5 5 5 5 5 5 5 5 5 5 ",
"T K J H j j j j j j j j j j j q H H j j j j j j j q J F F R A.S.P f.I P P P P f.P P P I I P P f.P P !.JXgX) T tX..l , $ 5 < ! ! ! ! ! ! ! Q Q Q Q Q Q Q < < < < < < < Q Q Q Q Q Q Q ! ! ! ! ! ! ! , E.,.l x.c.<.,.^ / i y u a u u b u u u u u u u u u u u u u u u u a u u u u u u u u u a u u u i ,.p Q.SX2X).NXmXe.m 2.1.9.2.1.1.9.2.1.9.2.1.9.2.2.r.1.2.1.1.1.1.1.1.1.1.1.1.1.1.1.2.9.2.w.t.z.y.g 5 5 5 4 f c 5 v 4 5 5 5 5 0 & 0 0 & 0 5 5 & = & & = & $ c f 4 5 5 5 $ r R.LXLXLX].r $ 5 5 5 5 5 $ 5 5 5 5 5 5 5 5 5 5 5 5 5 ",
"T J J H j j j j j j j j j j j q H H j j j j j j j q 7.A.A.N.].M.P f.P P P P P f.P P P I I P P f.P P Y XXmXgX) j.iXo.V Q ! ! < , d e e N v $ e e e f e e e e e e e e e f e e e e e 5 f e e e > < Q  .}.< l x.c.p aXW y i u u i u u b u u u u u u u u u u u u u u u u a u u u u u u u u u a u u u i p <.SXZXr.).IXe.4.2.2.1.9.2.1.1.9.2.1.9.2.1.9.2.2.r.1.2.1.1.1.1.1.1.1.1.1.1.1.1.1.2.9.2.w.t.z.y.g 5 5 5 4 f c 5 v 4 5 5 5 5 ............5 5 h 1 h h < h $ c f 4 5 5 $ a LXBXR.p R.BXPX,.@ 5 5 5 5 c d $ 5 5 4 $ 5 5 5 5 5 5 5 ",
"T Y Y H q j j j j j j j j j j q H H j j j j j j j j ].H.F.F.S.P P f.P P P P P f.P P P I I P P f.P P U |.].JXgX_ -.iX{  .z e g g > > V V V h > > > h d > > > > > > > > h h > > > > > h h > > > d f '.' ! ! x.c.^ | i u i u u i u u b u u u u u u u u u u u u u u u u a u u u u u u u u u a u u u i s nXSXs._.mX).).2.2.2.1.9.2.1.1.9.2.1.9.2.1.9.2.2.r.1.2.1.1.1.1.1.1.1.1.1.1.1.1.1.2.9.2.w.t.z.y.g 5 5 5 4 f c 5 v 4 5 5 5 6 zXxXzXzXxXzXd 4 1 ....1 ....$ c f 4 5 5 r BXBXo . @ . . BXLXr 5 5 $ c C 6.v n 0.C C g 6.6.$ 5 5 5 ",
"T Y Y L q j j j j j j j j j j q H H j j j j j j F k |.U L L P P P f.P P P P P f.P P P I I P P f.P P I 0.S.MXMX( _ :.-.V V V V V l l V V V l - > d V h - > > > > > > - h d > > > > - h d > > e > b.b.d l !  .gX/ ,.i u i u u i u u b u u u u u u u u u u u u u u u u a u u u u u u u u u a u u u s Q.ZX_.!.JX).2.NXe.1.2.1.9.2.1.1.9.2.1.9.2.1.9.2.2.r.1.2.1.1.1.1.1.1.1.1.1.1.1.1.1.2.9.2.w.t.z.y.g 5 5 5 4 f c 5 v 4 5 5 5 5 h 1 , , 1 , 5 6 zXxXzXzXxXzX> c f 4 5 @ b.LXO % B 7.8.5 X LXR.@ 5 $ v C 6.0.0.8.0.0.0.M.C $ 5 5 5 ",
"T Y h.H q j j j j j j j j j j q H j q j j j j j F k XXP P P P P P f.P P P P P f.P P P I I P P f.P P f.P P .XG.MXhX( yX$.V V V V V V V V V l - - l [ l - > > > > > > - h d - > > > - h d - > > t '.u l l V hX( <.,.i u i i u i u t b r r r r r r r r r r r r r r r r x r r r r r r t t u a u u u p SXQ._.NX].t.9.Q.).m 2.1.2.2.1.1.9.1.1.9.2.1.9.2.2.r.1.1.1.1.1.1.1.1.1.1.1.1.1.1.1.1.9.2.w.t.z.y.g 5 5 5 4 f c 5 v 4 5 5 5 5 , 1 , , 1 , 5 5 , 1 1 1 1 1 $ c f 4 5 @ BX{.  v C C C B . ].BX$ 5 5 5 v f f g g 0.d c f f 5 5 5 5 ",
"T K J H H H H H H H H H H H H H H H H H H H H H H M XXU P P P P P f.I P P P I g.P P P f.I P P g.I P f.f.U XX(.{.OX( _ yXZ V V V V V V V V V g h V [ V d d d d d d h d h h d d d d d h h d h > b.b.h l l ) } Y.{ ,.a u b r r i i p ,.,.,.,.,.,.,.,.,.,.,.,.,.,.,.,.<.v.,.,.,.,.,.,.p i u x r y t ZXnXe.NXNXs.a.e.r.VX9.2.2.9.2.2.2.r.2.2.9.2.2.r.2.2.r.2.2.2.2.2.2.2.2.2.2.2.2.2.2.2.2.r.2.t.t.z.y.f 5 5 5 4 f c 5 v 4 5 5 5 5 , 1 , , 1 , 5 5 h 1 , h 1 h $ c f 4 5 @ BXb.. v n C f f   ,.].5 5 5 5 5 $ 5 $ 5 5 # 5 5 5 5 5 5 5 ",
"T K K J H H H H H H H H H H H H L H H H H H H H H M XXI f.f.f.f.I g.f.f.f.f.f.g.f.f.I g.g.f.f.g.f.I g.g.I h.OX%XMXP.aX;.l.V Z Z Z Z Z Z V [ V V Z [ Z h h h h h h h h l h h h h h h l h h h l {.V V V ) ) m.b. .m.i u x.R.].].'.'.].E.E.E.E.E.E.E.E.E.E.E.E.E.E.E.E.E.E.E.E.E.E.E.'.'.'.].W.,.e.ZXe.).JX_.s.s.e.r.).).3.9.r.r.9.9.r.9.2.r.r.2.r.9.9.r.2.9.9.9.9.9.9.9.9.9.9.9.9.9.9.9.r.r.t.y.z.y.f 5 5 5 4 f c 5 v 4 5 5 5 5 , 1 , , 1 , 5 5 , 1 1 , 1 1 $ c f 4 5 @ XXBX  f B B C v   R.R.@ 5 4 f 0.f C 8.8.f c 0.0.6.4 5 5 5 ",
"T K J H q q q q q q q q q q q q H j q q q q q q F M |.P P P P P P I P P P P P f.P P P I I P P f.P P I I P Y Y.-X*.JX@X^ X.U V V V V V V V V V V V V V l - > > > > > - h h - - - - - h e e @ T.c.g u ^ ) l ] c.] _ c.'.'.T.<.,.,.p ,.i i i i i i i i i i i i i i i i a i i i i i i p p ,.v.c.T.GXnXe.mXCXs.a.e.e.e.e.NX2.1.2.2.1.1.9.1.1.2.2.1.9.2.1.r.1.1.1.1.1.1.1.1.1.1.1.1.1.1.1.1.9.2.w.t.z.y.g 5 5 5 4 f c 5 v 4 5 5 5 5 h h h f g f 5 5 h h h f x x 4 c f 4 5 @ ,.LXi   e c f . t ].,.@ 5 $ v 8.C C =X8.n 7.0.=X8.5 5 5 5 ",
"T K J H j j j j j j j j j j j j H H j j j j j j F M |.U P P P P P f.P P P P P f.P P P I I P P f.P P I I P =.&XMX%XZ.MXU ( ( ' [ { { { { { {  . . .;.;.! ! ! ! ! ! ! ! ! ! ! ! ! ! ! ! ! ! ! {.l ` ^ / l l ] n.,.{.{.<.a a i ,.,.p ,.p p p p p ,.,.,.,.,.,.,.,.,.,.p ,.,.p p p p p p p p ,.s a.ZX).JX'._._.s.e.e.e.9.).).m 9.2.1.1.9.2.1.9.2.1.9.2.2.r.1.2.2.2.2.2.2.2.2.2.2.2.2.2.2.2.9.2.w.t.z.y.g 5 5 5 4 f c 5 v 4 5 5 5 5 h h h f c f 5 5 0 0 0 x b x 4 c f 4 5 5 @ XXPXi   O X t MXR.$ 5 5 5 e C c B n C 5 v B C n 5 5 5 5 ",
"T K J H j j j j j j j j j j j q H H j j j j j j F M |.U P P P P P f.P P P P P f.P P P I I P P f.P P I f.#.:.Y $.{.P.XXMX$._ hXhX .[ [ [ [ ' ' ' ' [ ' z , , , , , , , l < , , , , , z < 2 J.J.hXaX_ l l l ] T.mXR. .a ,.,.p ,.,.p ,.p p p p p p p p p p p p p p p p ,.p p p p p p p p p ,.p SXs.E.JXNXnX!.s.e.e.e.e.e.NX1.9.2.1.1.9.2.1.9.2.1.9.2.2.r.1.2.1.1.1.1.1.1.1.1.1.1.1.1.1.2.9.2.w.t.z.y.g 5 5 5 4 f c 5 v 4 5 5 5 5 h h h f c g 5 5 0 h 0 x b x 4 c f 4 5 5 5 5 XXa $ 5 5 r b.5 5 5 5 5 5 $ 4 $ $ $ 5 $ $ $ $ 5 5 5 5 ",
"T K J H j j j j j j j j j j j q H H j j j j j j F M |.U P P P P P f.P P P P P f.P P P I I P P f.P P f.I :.+.$.Y *.XXZ.OXkX$.-.) ^ ) ) _ { { ' ' ' [ ' ' l , , , , , , l , , < < < ; E W W dX^ W V ' _ ! ' m.JXb.x.]  .,.,.p ,.,.p ,.p p p p p p p p p p p p p p p p ,.p p p p p p p p ,.p Q.ZXW.JXQ.).CX!.s.e.e.e.e.2.).Q.2.2.1.1.9.2.1.9.2.1.9.2.2.r.1.2.1.1.1.1.1.1.1.1.1.1.1.1.1.2.9.2.w.t.z.y.g 5 5 5 4 f c 5 v 4 5 5 5 5 8 d 8 5 e e 5 5 0 h 0 x b x 4 c f 4 5 5 5 5 @ 6 5 > 5 6 @ 5 5 5 5 5 5 5 5 5 5 5 5 5 5 5 5 5 5 5 5 ",
"T K J H j j j j j j j j j j j q H H j j j j j j F M |.U P P P P P f.P P P P P f.P P P I I P P f.P P f.=.=.U $.$.$.&.kX%.{.{.-.Y ' { _ ) ) ^ ^ ^ ^ dXdXdX^ ^ ^ ^ ^ ^ ^ ^ ^ ^ ^ ^ ^ ^ ) ~ J.n.l l V l l ! _ mXT.x.n.,. .] ,.p ,.,.p ,.p p p p p p p p p p p p p p p p ,.p p p p p p p p ,.,.ZXNXmXQ.Q.Q.nXCXs.e.e.e.e.9.e.nX4.2.1.1.9.2.1.9.2.1.9.2.2.r.1.2.1.1.1.1.1.1.1.1.1.1.1.1.1.2.9.2.w.t.z.y.g 5 5 5 4 f c 5 v 4 5 5 5 5 Y -.Y =X2XD.5 5 0 h 0 x b x 4 c f 4 5 5 5 6 d ..>...>...> 6 5 5 5 5 5 5 5 $ $ 5 5 5 5 5 5 5 5 5 5 ",
"T Y h.L q j j j j j j j j j j q H H j j j j j j F C |.U P P P P P f.P P P P P f.P P P I I P P f.P P +.:.U +.$.Y *.X.I.|.Y {.MX>Xz z Z Z Z z ' ' ' { { { Q < < < < < < < < ' ' < < , h h ].V l l V l l l }.kXn.x.x.x.]  .,.p ,.,.p ,.p p p p p p p p p p p p p p p p ,.p p p p p ,.p p u !.CXmXQ.a.Q.W.nXCXnXt.e.e.e.e.2.NXQ.1.1.1.9.2.1.9.2.1.9.2.2.r.1.2.1.1.1.1.1.1.1.1.1.1.1.1.1.2.9.2.w.t.z.y.g 5 5 5 4 f c 5 v 4 5 5 5 4 >XpXiX5XDXAX5 5 0 k 0 x b x 4 c f 4 5 5 6 , >...1 > 1 ..>.2 6 5 5 5 5 5 5 c c $ 5 $ 5 5 5 5 5 5 5 ",
"T h.h.U q j j j j j j j j j j q H H j j j j j j F C |.U P P P P P f.P P P P P f.P P P I I P P f.P P =.#.U +.Y $.X.=.Z.|.Y U |.LX}.] z z z z ' ' z [ ' ' z h , , , , , l l ' z , , , , n.b.l l l V l l b.].{  .x.x.x.p { ] p ,.p p ,.p p p p p p p p p p p p p p p p ,.p i i i i i i ,.T.JX].e.e.Q.Q.Q.nX_.CXQ.9.e.e.e.9.Q.nX3.2.1.9.2.1.9.2.1.9.2.2.r.1.2.2.2.2.2.2.2.2.2.2.2.2.2.2.2.9.2.w.t.z.y.g 5 5 5 4 f c 5 v 4 5 5 5 4 -.iXiX5XDX5X5 5 8 8 8 e r r $ c f 4 5 5 e ....X O 4 O X ..>.> 5 5 5 5 5 5 6.6.8.C n d 5 5 5 5 5 5 ",
"T K J H q j j j j j j j j j j q H j q j F R R R R M |.U P P P P P f.P P P P P f.P P P I I P P f.P I :.I U +.$.:.*.=.#.{.|.o.U [ oXmX{.b.B.] ' ' z [ z z z l , , , , , , < z z , , , l ].l l l l l l ] {.{ V.J. .x.x.a m. .,.,.,.,.x.,.,.,.,.,.,.,.,.,.,.,.,.,.,.,.,.v.x.v.v.c.T.'.mX[.NXnX5.e.e.Q.Q.Q.nX_._.NX9.e.e.9.e.9.NX9.1.1.9.1.1.9.2.1.9.2.2.r.1.1.1.1.1.1.1.1.1.1.1.1.1.1.1.1.9.2.w.t.z.y.g 5 5 5 4 f c 5 v 4 5 5 5 4 -.pXiX5XDX5X5 4 J K K w.a.e.5 c f 4 5 6 1 >.O # C 6.8.e X ....6 5 5 5 5 5 6.6.0.c =X5 5 5 5 5 5 5 ",
"T K K L L L L L L L L L L L L H L L L J q.G.S.A.S.|.|.U g.g.g.g.g.g.g.g.g.g.g.g.g.g.f.g.g.g.g.#Xg.=.%.+X+.$X:.*.*.&.@.@.XX@.+.+.-.$Xb.{.{.mXmXmX{.{.{.{.{.{.{.'.'.'.'.'.{.{.{.{.'.}.MXJX'.[.'.[.[.'.KXKX{.KXmXKXKXmXmXmXKXmXmXmXmXmXmXmXmXmXmXmXmXmXmXmXmXmXmXmXmXmXmXmXmXmX[.].E.v.,.ZX_.Q.Q.Q.Q._.).nXnX!.VX).u.s.e.e.r.).).4.r.u.r.r.u.r.r.u.r.r.u.r.r.r.r.r.r.r.r.r.r.r.r.r.r.r.r.u.r.y.y.2Xy.f 5 5 5 4 f c 5 v 4 5 5 5 4 -.pXiX5XDX5X5 4 rXtXtXSXGXSX5 g f 4 5 6 ....X v C C 6.6.X ....6 5 5 5 5 5 c g 4 v B + 5 5 5 5 5 5 ",
"T K J H j H H H H H H H H H H j H H j F R.|.S.G.G.G.#XP P P P P P f.I P P P P f.P P P I I P P f.o.=.I o.U =.:.$.*.=.#.o.|.H.+Xo.+.-.z z z ' ] ] m.B.B.B.B.F.F.F.F.n.] F.F.F.F.B.x.F.MXn.n.n.n.n.x.T.{.m.V.J.}.n. .n.,.x.x. .x.,.,.,.,.,.,.,.,.,.,.,.,.,.,.,.,.,.p p ,.p i i i i i s a.ZXA.a.e.e.Q.Q.Q.nX_.!.Q.NXe.e.e.e.9.e.VX2.2.9.2.1.9.2.1.9.2.2.r.1.2.2.2.2.2.2.2.2.2.2.2.2.2.2.2.9.2.t.t.z.y.g 5 5 5 4 f c 5 v 4 5 5 5 4 -.pXiX5XDX5X5 4 eXtXrXZXGXSX5 g f 4 5 6 ..1 X v v n C C O 1 ..5 5 5 5 5 5 + $ f 5 5 d e 5 5 5 5 5 ",
"T K J H j j j j j j j j j j j q H H j F R.q.L L L L I I P P P P P f.P P P P P f.P P P I I P P f.=.#.I I o.:.$.$.*.=.#.o.C.XX{.o.o.-.@.V z ' ' z z [ z z z z z z z z l ' z z z z z B.|.l V l l l l '.x.' { V.b.x.V. .a V a { { <.p ,.p p p p p p p p p p p p p p p p ,.p p p p p ,.i ZX!.A.e.e.e.Q.Q.Q.nX_.!.a.nX).9.e.e.e.9.nXQ.3.r.2.1.9.2.1.9.2.2.r.1.1.1.1.1.1.1.1.1.1.1.1.1.1.1.1.9.2.w.t.z.y.g 5 5 5 4 f c 5 v 4 5 5 5 4 -.pXiX5XDX5X5 4 eXtXrXZXGXSX5 g f 4 5 6 ....X f f c 6.c X ....6 5 5 5 5 v n C 8.5 7.0.M.f 5 5 5 5 ",
"T K J H j j j j j j j j j j j j H H j F R.8.P P P P f.I P P P P P f.P P P P P f.P P P I I P P +.:.P +.I =.*.$.$.*.=.#.o.o.K H.{.O.$.-.] B.' ' ' ' [ ' ' ' ' ' ' ' ' ' [ ' ' ' ' z ].F.] m.] l l b.}.' ] ] V.b.n.x. .{ ,.a a  .p p ,.p p p p p p p p p p p p p p p p ,.p p p p p i e.ZXe.Q.e.e.e.Q.Q.Q.nX_.Q.Q.a.NXe.9.e.e.r.Q.nX3.r.2.1.9.2.1.9.2.2.r.1.2.1.1.1.1.1.1.1.1.1.1.1.1.1.2.9.2.w.t.z.y.g 5 5 5 4 f c 5 v 4 5 5 5 4 -.pXiX5XDX5X5 4 eXtXrXZXGXSX5 g f 4 5 6 , >.,   + g d X > >.1 6 5 5 5 v M.8.M.v v M.0.=Xc $ 5 5 5 ",
"T K J H j j j j j j j j j j F F H F F F R.q.P P P P f.I P P P P P f.P P P P P f.P P P I I P P =.#.P I #.:.+.$.$.*.=.#.o.o.o.o.|.Z.o.oXXX[.' z ' ' [ ' ' ' ' ' ' ' ' ' [ ' ' ' z B.].[ m.] ] l l {.] ] ] ] V.b.x.m.]  .] a p { ] <.,.p p p p p p p p p p p p p p p p ,.p p p p ,.s ZX_.e.Q.e.e.e.Q.Q.Q.nX_.Q.Q.e.).).2.e.9.e.9.NXe.4.2.1.9.2.2.R.1.2.r.1.2.1.1.1.1.1.1.1.1.1.1.1.1.1.2.9.2.w.t.z.y.g 5 5 5 4 f c 5 v 4 5 5 5 4 -.pXiX5XDX5X5 4 eXtXrXZXGXSX5 g f 4 5 5 6 ..>., X O X > >...6 5 5 5 5 5 v f v d d C v C e 5 5 5 5 ",
"T K J H j j j j j j j j j j M M M M M M ].P P P P P f.I P P P P P f.P P P P P f.P P P I I P I :.I I I :.#.+.$.$.*.=.#.o.o.o.o.Z.{.].U.-.b.b.z ' ' [ z ' ' ' ' ' ' ' ' [ ' ' ' z XXB.] m.] m.l b.}.l ] ] ] V.b.x.m.] {  .p a ]  .p ,.p p p p p p p p p p p p p p p p ,.p p p p p e.SXe.a.Q.e.e.e.Q.Q.Q.nX_.Q.Q.a.a.NXe.9.9.e.9.Q.).2.2.1.9.2.5.].1.2.r.1.2.1.1.1.1.1.1.1.1.1.1.1.1.1.2.9.2.w.t.z.y.g 5 5 5 4 f c 5 v 4 5 5 5 4 -.pXiX5XDX5X5 4 eXtXrXZXGXSX5 g f 4 5 5 5 5 ..> $ @ @ > ..5 5 5 5 5 5 5 $ 5 $ 5 5 $ $ $ 5 5 5 5 5 ",
"T Y Y H q j j j j j j j F A.].R.|.|.|.|.F.P P P P P f.I P P P P P f.P P P P P f.P P P I I P =.&.I I &.:.I @.$.$.*.=.#.o.o.o.o.o.Z.Z.o.-.O.'.' ' z B.m.z ' ' ' ' ' ' ' [ ' ' z m.].] m.] ] ] ] '.m.] ] ] ] V.b.x.m.] ]  .] a ,.{ ] ,.p p p p p p p p p p p p p p p p ,.p p p ,.s ZXnXe.a.Q.e.e.e.Q.Q.Q.nX_.Q.Q.a.e.nX).2.e.e.e.e.NXr.1.1.9.2.5.NX1.2.r.1.2.1.1.1.1.1.1.1.1.1.1.1.1.1.2.9.2.w.t.z.y.g 5 5 5 4 f c 5 v 4 5 5 5 4 -.pXiX5XDX5X5 4 eXtXrXZXGXSX5 g f 4 5 5 5 5 + 5 5.A.5.r + 5 5 5 5 5 5 5 5 5 5 5 5 5 5 5 5 5 5 5 5 ",
"T h.:XL q F F F F F F j F R.M.L I P P P P P P P P P f.I P P P P P f.P P P P P f.P P P I I I :.O.I I :.#.o.@.$.$.*.=.#.o.o.o.o.o.o.o.o.$.-.}.] ' }.{.}.z ' ' ' ' ' ' ' [ ' ' z |.F.] m.] ] ' |.}.] ] ] ] ] V.b.x.m.] a {  .p x.]  .,.p p p p p p p p p p p p p p p p ,.p p p p ,.SXe.e.e.Q.e.e.e.Q.Q.Q.nX_.!.Q.a.e.Q.NXe.9.e.e.2.)._.3.2.9.2.5.NX3.2.r.1.2.2.2.2.2.2.2.2.2.2.2.2.2.2.2.9.2.w.t.z.y.g 5 5 5 4 f c 5 v 4 5 5 5 4 -.pXiX5XDX5X5 4 eXtXrXZXGXSX5 g f 4 5 5 5 @ A.CXUXCXUXCXA.$ 5 5 5 5 5 5 5 $ $ 5 5 $ 5 5 5 5 5 5 5 ",
"T Y Y H k k k k k k k k j R.8.P f.P P P P P P P P P I P P P P P P I P P P P P f.P P P I P =.=.I I =.:.o.o.@.$.$.*.=.#.o.o.o.o.o.o.o.o.[ -.|.b.m.}.z }.' ' ' ' ' ' ' ' [ ' z ] ].] ] m.] ] m.{.B.] ] ] ] ] P.b.x.m.] ] ]  .] ,.p { ] p p p p p p p p p p p p p p p p ,.p p p s nXnXe.e.e.Q.e.e.e.Q.Q.Q.nX_.Q.Q.a.a.e.nX).2.e.e.2.e.NX3.1.2.1.e.NXe.e.9.1.1.1.1.1.1.1.1.1.1.1.1.1.1.1.1.9.2.w.t.z.y.g 5 5 5 4 f c 5 v 4 5 5 5 4 -.pXiX5XDX5X5 4 eXtXrXZXGXSX5 g f 4 5 5 @ Q.UXQ.r O 7 A.UX).@ 5 5 5 5 5 f v v g 5 c d 5 5 5 5 5 5 ",
"T K A N.].|.|.|.|.|.|.|.XX|.I I g.f.I I I I I I I I g.f.I I I I I g.f.I I I I g.I I I g.I :.+.+.I :.@.+.+.@.$.$.*.&.#.#.+.+.+.+.+.+.+.o.$.-.}.{.B.[ }.B.[ [ [ [ [ [ [ [ [ z |.F.[ m.B.m.[ |.XXB.B.] ] ] C.P.|.n.B.m.] m.{  .,.,.m. .,.,.,.,.,.,.,.,.,.,.,.,.,.,.,.,.,.,.,.,.,.SXQ.Q.Q.Q.Q.Q.Q.Q.Q.Q.Q.nXnX!.Q.Q.Q.Q.Q.VXe.Q.e.e.9.VXe.2.r.4.e.NX].Q.NXe.4.9.2.2.2.2.2.2.2.2.2.2.2.2.2.r.r.t.y.z.y.f 5 5 5 4 f c 5 v 4 5 5 5 4 -.pXiX5XDX5X5 4 eXtXrXZXGXSX5 g f 4 5 @ a CXQ.  $ g 5   e.CX5.@ 5 5 5 4 f =X=X8.=X-Xf 4 5 5 5 5 5 ",
"Y U L ].M.U I I I I I I I U I I g.I I I I I I I I I g.f.I I I I I g.I I I I I g.I I I g.&.=.I +X&.=.+.@.o.@.$.$.*.&.#.#.+.+.+.+.+.+.+.+.o.-.|.{.' [ F.}.z [ [ [ [ [ ' [ [ ] {.m.m.m.B.m.m.MXB.B.B.m.] V.C.P.|.B.m.m.] ] m. .] ,.m.L.] ,.,.,.,.,.,.,.,.,.,.,.,.,.,.,.,.,.,.p _.ZXe.Q.Q.Q.Q.a.Q.Q.Q.Q.Q.nX_.!.Q.Q.Q.Q.e.nXNXQ.r.e.9._.).3.r.4.e.mXNXNXJXA.e.2.2.2.2.2.2.2.2.2.2.2.2.2.2.r.9.t.t.z.y.f 5 5 5 4 f c 5 v 4 5 5 5 4 -.pXiX5XDX5X5 4 eXtXrXZXGXSX5 g f 4 5 @ ).CX  d 6.6.0.n   CXnX% 5 5 5 5 5 7.6.C 8.6.f 5 5 5 5 5 5 ",
".X|.|.(.P P P P P P P P P P P P f.P P P P P P P P P I P P P P P P I P P P P P f.P P P I :.I I O.:.o.+.o.o.@.$.$.*.=.#.o.o.o.o.o.o.o.o.o.o.$.-.] ' [ ' }.' z ' ' ' ' ' [ z F.|.' ] ] m.' |.].m.B.B.m.] V.C.P.|.F.B.] ] ] m.V. .,.m.C.{ p p p p p p p p p p p p p p p ,.p p p ZXQ.x.e.e.e.Q.e.e.e.Q.Q.Q.nX_.Q.Q.a.e.Q.e.Q.IXR.2.9.e.e.NX2.9.3.W.JXmXNXXXW.'.e.1.2.1.W.W.2.1.1.1.1.1.1.1.9.2.w.t.z.y.g 5 5 5 4 f c 5 v 4 5 5 5 4 -.pXiX5XDX5X5 4 eXtXrXZXGXSX5 g f 4 5 @ CX).  n B C v v   Q.CX$ 5 5 5 $ 5 $ $ # 5 5 5 $ 5 5 5 5 5 ",
"T Y Y U P P P P P P P P P P P P f.P P P P P P P P P f.I P P P P P f.P P P P P f.P P P #.=.I I &.:.I #.+.o.@.$.$.*.=.#.o.o.o.o.o.o.o.o.o.o.o.-.[ ' [ z }.m.z ' ' ' ' ' [ ' ].m.] ] ] m.] {.B.B.B.B.m.] V.C.P.|.F.F.m.m.m.B.m. .B.m.A. .a p p p p p p p p p p p p p p ,.,.s !.ZXx.( a.e.e.Q.e.e.e.Q.Q.Q.nX_.!.Q.a.e.Q.Q.Q.mXR.Q.Q.2.r.).Q.4.2.R.KXmXMX).].JXE.3.5.E.NXIXe.3.2.2.2.2.2.2.9.2.w.t.z.y.g 5 5 5 4 f c 5 v 4 5 5 5 4 >XpXiX5XDX5X5 4 rXtXrXZXGXSX5 g f 4 5 @ CX).  v n B v c   e.).5 5 5 5 v 5 c f v 5 5 c v f 5 5 5 5 ",
"j.Y U I P P P P P P P P P P P P f.P P P P P P P P P f.I P P P P P f.P P P P P f.P P P :.o.I I :.#.o.+.+.o.@.$.$.*.=.#.o.o.o.o.o.o.o.o.o.o.[ -.$.V [ z }.F.z ' ' ' ' ' ' F.|.' m.] ] [ F.].m.B.B.B.B.B.V.C.P.|.F.F.B.B.B.B.m.K.L.m.A.V.{ p p p p p p ,.p p p p p p p ,.p p ZXs.` dXa.e.e.Q.e.e.e.Q.Q.Q.nX_.Q.Q.a.e.a.Q.NXmX).R.mXQ.r.Q.nX4.2.].jXmXMX_.NXJXNX3.2.NX].NXE.2.1.2.1.1.1.2.9.2.w.t.z.y.g 5 5 5 4 f c 5 v 4 5 5 5 4 T iXyX5XAX5X5 4 D tXrXnXGXHX5 g f 4 5 % ).CX  $ n B C d   ).Q.@ 5 $ c 8.v C =X8.c B M.=X8.4 5 5 5 ",
"j.Y U U P P P P P P P P P P P P f.P P P P P P P P P f.I P P P P P f.P P P P P f.P P #.:.I I #.:.o.o.+.+.o.@.$.$.*.=.#.o.o.o.o.o.o.o.o.o.o.o.o.-.' [ z m.}.z ' ' ' ' ' [ ].m.m.] ] ] N.{.F.m.B.B.B.B.B.V.C.P.|.F.F.B.B.B.B.B.B.L.B.B.m. .a ,.m.,.p p x.p p p p p p p ,.i a.ZXe.n.dXa.e.e.Q.e.e.e.Q.Q.Q.nX_.Q.Q.a.e.a.Q.mXmXJX].JXmXt.2.NXt.Q.}.gXNXNX!.JXJXMXR.W.NX}.b.IXe.3.2.1.1.1.2.9.2.w.t.z.y.g 5 5 5 4 f c 5 v 4 5 5 5 4 T yXT 2X5X!.5 4 S rXD vXFXbX6 g f 4 5 $ u CX).  + 5 +   e.nXu $ 5 $ c 0.C 6.M.8.c 7.0.M.8.5 5 5 5 ",
"Y h.g.I P P P P P P P P P P P P f.P P P P P P P P P f.I P P P P P f.P P P P P f.P P =.#.I I :.#.o.o.+.+.o.@.$.$.*.=.#.o.o.o.o.o.o.o.o.o.o.o.[ -.$.] ' ] }.z ' ' ' ' z F.XX}.mX] m.] F.].m.B.B.B.B.B.B.V.C.P.|.F.F.B.B.B.B.B.B.K.L.A.m.C.{ ,.A.m.,.,.A.,.,.,.p p p p ,.s ZX_.e.| dXe.e.e.Q.e.e.e.Q.Q.Q.nX_.Q.Q.a.a.a.Q.JXMXJXmXNXJX].A.).).W.F.dX}.{.!.mXmX].mXmXNXjX| IX].3.2.1.1.1.2.9.2.w.t.z.y.g 5 5 5 4 f c 5 v 4 5 5 5 4 T yXT 2X5X2X5 4 S rXeXvXFXbX6 g f 4 5 5 @ A.UX5.o O % i CX,.$ 5 5 5 5 g e f d f 5 f f f f 5 5 5 5 ",
">X:X:Xg.P P P P P P P P P P P P f.P P P P P P P P P f.I P P P P P f.P P P P P f.P o.=.I I #.:.+.o.o.+.+.o.@.$.$.*.=.#.o.o.o.o.o.o.o.o.o.o.o.o.+.-.[ ' ' {.] z ' ' ' z XX}.}.}.m.] ] {.F.m.B.B.B.B.B.B.V.C.P.|.F.F.B.B.B.B.B.B.B.L.B.m.m. .m.A.m.,.,.A.m.A.,.p p p p p e.ZXe.a.| fXA.e.e.Q.e.e.e.Q.Q.Q.nX_.!.Q.Q.e.Q.Q.JXNXXXJX_._.NXJXe.nX].F.( dX}.F.kXjX).mXmXNXgXgXNX].3.2.1.1.1.2.9.2.w.t.z.y.g 5 5 5 4 f c 5 v 4 5 5 5 4 T yXT 2X5X2X5 4 S rXeXvXFXbX6 g f 4 5 5 5 @ 5.7 6 6 6 6 a $ 5 5 5 5 5 $ 5 4 5 4 5 5 4 $ 5 5 5 5 5 ",
">X$X:Xg.P P P P P P P P P P P P f.P P P P P P P P P I P P P P P P f.P P P P P f.P =.o.I I ;.#.+.o.o.+.o.o.@.$.$.*.=.#.o.o.o.o.o.o.o.o.o.o.o.o.[ -.$.' z B.}.' z ' z B.XXb.F.}.B.' F.XXm.B.B.B.B.B.B.B.V.V.P.|.F.F.B.B.B.B.B.} ]  .L.m.m.C.C.,.m.x.,.m.m.A.,.p p p ,.a ZX_.e.e.| | x.a.e.Q.e.e.e.Q.Q.Q.nX_.!.Q.Q.Q.Q.W.].!._.IX!.u.mXJXA.).NXV.aXdXgXdX} gXdXJX[.jXgXgX{.}.e.1.1.1.1.1.9.2.w.t.z.y.g 5 5 5 4 f c 5 v 4 5 5 5 4 T yXT 2X5X2X5 4 S rXeXvXFXbX6 g f 4 5 5 5 5 + 1 ..X...1 + 5 5 5 5 5 5 5 5 5 5 5 5 5 5 5 5 5 5 5 5 ",
"j.Y U U P P P P P P P P P P P P g.I P P P P P P I P f.I P P P I P f.I P P P I g.o.:.I I #.:.o.@.+.o.@.+.o.@.$.$.*.&.#.#.o.o.o.o.o.o.o.o.o.o.o.o.$.-.' ' z mXJXb.] z XXF.{.B.F.{.' {.{.m.B.B.B.B.B.B.B.V.C.P.|.F.F.B.B.B.S.| sX| dX .m.m.m.L.A.A.m.m.A.A.A.m.,.,.,.p e.SXQ.Q.A.| Y.n.a.A.Q.a.a.a.Q.Q.).nX_._.!.!.Q.!.].XX!._.BXVXu.MXMXmXNXVX] dXaXdX .aXdXdXkXjXgXgX} sXjXNX3.2.2.2.2.r.2.t.t.z.y.f 5 5 5 4 f c 5 v 4 5 5 5 4 T yXT 2X5X2X5 4 S rXeXvXFXbX6 g f 4 5 5 5 5 X.X.X...X.X.X.d 5 5 5 5 e 5 $ 5 5 5 5 5 5 $ $ 5 5 5 5 ",
">Xh.h.g.f.g.g.g.g.g.g.g.g.g.g.f.g.g.f.g.g.g.g.g.g.f.g.g.f.g.g.g.f.g.g.f.g.f.g.g.=.#.I +X:.&.+.@.@.+.@.@.+.$.$.$.*.&.@.@.@.@.@.@.@.@.@.@.@.@.@.@.O.>X@.] [ F.b.}.}.B.XX}.}.N.[ }.P.{.{.F.B.B.B.B.F.B.B.C.C.P.|.F.F.F.B.F.V.} sX} dXY.K.A.A.L.C.A.A.A.A.A.A.A.m.m.A.x.ZXZX!._.F.| P.| _.!.!.Q.Q.Q.!._.).nXnX_._.!.!.MXMX).H.(.!.VX!.].NXJX].CXV.dXsX} K.sXdX} jXgXdXgXK.aXjXNX4.r.r.r.r.u.r.y.y.2Xy.f 5 5 5 4 f c 5 v 4 5 5 5 4 T yXT 2X5X2X5 4 S rXeXvXFXbX6 g f 4 5 5 6 X.X.> X X X - X.X.5 5 $ c 0.n v f d 7.6.6.v c 6.f 5 5 5 ",
"j.Y U P P P P P P P P P P P P P f.P P P P P P P P P I P P P P P P I P P P P P +.;.I P #.:.o.o.+.o.o.+.o.o.@.$.$.*.=.#.o.o.o.o.o.o.o.o.o.o.o.o.o.o.$.-.V ' z z z b.KX}.}.] ] ] }.KXF.}.F.b.}.m.B.B.m.B.V.V.I.|.F.F.B.B.B.} dXsX( fX .L.m.m.B.L.m.m.m.m.m.m.m.m.m.m.A.SX!.Q.!.| Y.I.| !.Q.Q.e.e.Q._._.).nX_._._.NX_.JXJX_.| P.!.).XXD.).JXmXVXJ.( dX} C.aXdX| jXgXdXfXV.aXjXJX5.1.1.1.1.9.2.w.t.z.y.g 5 5 5 4 f c 5 v 4 5 5 5 4 T yXT 2X5X2X5 4 S rXeXvXFXbX6 g f 4 5 6 1 X.> X c C B O $ X.Q 6 $ v n =X6.7.0.C =X=X8.=X=Xd 5 5 5 ",
"j.Y U U P P P P P P P P P P P P f.P P P P P P P P P f.I P P P P P f.P P P P P &.=.I I =.=.o.o.+.o.o.+.+.o.@.$.$.*.=.#.o.o.o.o.o.o.o.o.o.o.o.o.o.o.o.-.o.' ' ' ' ' {.}.B.] m.' b.MX] |.MX{.{.B.B.B.B.B.V.C.I.|.F.F.B.B.B.( dXdXdX} | L.C.m.m.L.B.A.A.A.m.m.m.m.A.x._.ZXA.!.!.| I.I.| !.Q.Q.Q.Q.Q._._.).nX_._.XXJXJXmX{.J.} Y.!.!.VX!.D.).JX_.}.( dX} C.dXfX .gXdXdXfXC.dXgXKXW.3.2.2.2.9.2.w.t.z.y.g 5 5 5 4 f c 5 v 4 5 5 5 4 T yXT 2X5X2X5 4 S rXeXvXFXbX6 g f 4 5 6 X.X.X g C C 8.C X X.X.6 5 f 7.v e 7.B d v v c n v f 5 5 5 ",
"j.Y U U P P P P P P P P P P P P f.P P P P P P P P P f.I P P P P P f.P P P P P ;.I I o.:.+.o.o.+.o.o.+.+.o.@.$.$.*.=.#.o.o.o.o.o.o.o.o.o.o.o.o.o.o.#.$.-.' ' ' z |.|.z m.m.] ' |.|.m.F.}.B.}.F.m.B.B.B.V.C.U.|.F.P.V.m.B.fXsXY.aX .dX| L.m.m.|  .e.n.| e.m.m.m.m.m.ZX_.!.!.!.| I.~.} Q.Q.!.Q.!.Q._._.).nX_.).mXJXMX!.A.} dXP.F.} J.F.y.R.NXB.gX| ( | C.dX(  .gXdXfX( C.( fXjX).3.2.1.2.9.2.w.t.z.y.g 5 5 5 4 f c 5 v 4 5 5 5 4 T yXT 2X5X2X5 4 S rXeXvXFXbX6 g f 4 5 6 X.! X v B C C 6.O Q X.5 5 5 $ $ 4 g + # # # # $ 4 5 5 5 5 ",
"j.Y U U P P P P P P P P P P P P f.P P P P P P P P P I I P P P P P I P P P P =.&.P I =.&.o.o.o.+.o.o.+.+.o.@.$.$.*.=.#.o.o.o.o.o.o.o.o.o.o.o.o.o.o.@.o.-.[ ' ' ' {.m.] m.m.] m.MXB.B.B.m.m.}.}.m.B.B.B.V.K.U.|.P.I.C.B.C.} } K.sXV.fXaXL.V.e.| hXA.` sXn.n.( A.x._.ZX!.!.!.!.| I.(.| F.!.!.!.!.!._._.).nX_.).JXMXNX!.F.dXaXP.Y.dX( | s.A.!.} sXJ.(  .C.fX} V.( dX( ( S.} fXgXNX3.2.1.2.9.2.w.t.z.y.g 5 5 5 4 f c 5 v 4 5 5 5 4 T yXT 2X5X2X5 4 S rXeXvXFXbX6 g f 4 5 6 X.X.X g B c c C X X.X.6 5 5 5 5 B c C C g v B d 5 5 5 5 5 ",
"j.Y U U P P P P P P P P P P P P f.P P P P P P P P P f.f.P P P P P g.P Z Z Z ;.#.[ o.:._ _ _ o.#.#.#.+.+.o.@.$.$.*.=.#.o.o.o.o.o.o.o.o.o.o.o.o.o.o.@.o.$.$.' z F.|.' ] m.m.' |.|.m.B.B.B.B.F.{.B.B.B.B.C.L.I.P.I.I.C.V.C.} C.C.} C.H.}  .L.] dXsXK.` sX| ` aXA.m.ZX_.!.!.!.| } H.(.| F.!.(.!.!.!._._.).nXnXNXJX_._.!.F.sXdX} } } sXjX!.y.V.sXgXkX| C.C.( } V.dXdX} ( S.C. .dX}.3.2.1.2.9.2.w.t.z.y.g 5 5 5 4 f c 5 v 4 5 5 5 4 T yXT 2X5X2X5 4 S rXeXvXFXbX6 g f 4 5 6 ! X.% X c n e % O X.! 6 5 5 5 5 7.6.M.0.n C 3X6.4 5 5 5 5 ",
">X$X$Xg.P P P P P P P P P P P P f.P P P P P P P P P [ { [ [ { { { { _ _ _ _ _ _ ( =.=._ %. ._ _ _ ( #.+.o.@.$.$.*.=.#.o.o.o.#.o.o.#.#.#.o.o.o.o.o.+.o.o.-.[ ' ].m.] ] m.] ] {.B.B.B.C.B.V.B.{.P.C.B.B.C.L.OX|.I.I.C.C.| } C.K.C.C.H. .|  .sXsXsX .| dX} dX} ] !.P.Q._.!.!.dXdX~.(. .dX( Y.!.!.!._._.).nXnXKXVX!.!._.F.sXdXsXsXY.aXjXnXy.| sXV.OXP.D.C.}  .C.dXfX} } D.S.D.sXJ.3.1.1.2.9.2.w.t.z.y.g 5 5 5 4 f c 5 v 4 5 5 5 4 T yXT 2X5X2X5 4 S rXeXvXFXbX6 g f 4 5 5 5 X.X.+ X % X % X.X.e 5 5 5 5 5 v B 7.7.v e 6.6.5 5 5 5 5 ",
">X:X:Xg.P P P P P P P P P P P P f.P P P P P P P P P (  . . . .{ {  .{ +XO.;.%.$X .hX_ _ %.%.%.%.@._ &.+.o.@.*.$.*.=.#.o.o.#.%.%.#.%.%.%.#.#.#.o.o.+.o.[ -.$.b.XX' m.] m.] |.].m.B.V.C.B.C.V.F.MXI.B.B.Z.P.JXP.I.I.K.C.fXC.C.C.C.C.Z.C.aXdX} } } } fXB.dX| | sXP.gXV.| !.F.sX| (.(.Y.dXdXsX} F.!._._.).CXoXjX).!.!.Y.J.dXdXdXdXI.| } {.s.| Y.D..XoXS.C.} D.S.dX( } } S.S.S.aXjXa.3.2.2.9.2.w.t.z.y.g 5 5 5 4 f c 5 v 4 5 5 5 4 T yXT 2X5X2X5 4 S rXeXvXFXbX6 g f 4 5 5 6 h X.l 6 # 6 h X.h 6 5 5 5 5 5 5 5 5 5 5 5 4 5 5 5 5 5 5 ",
"j.h.h.{ ( _ _ _ _ _ _ _ _ _ P P g.P P P P Z Z Z Z { _ g.+X+X+X+X+X#X+XO.&.;.O.@X&.;.{ %.%.%.%.%.@X_ _ &.#.%.*.*.*.&.#.#.%.%.%.%.%.%.%.%.%.%.#.o.o.@.o.o.o.-.XXm.] ] ] m.] XXF.B.B.V.K.B.C.C.B.}.{.Z.V.K.MXjXgXH.| fX .| Z.C.K.C.|.|.C.dX .1XC.B.sXdXB.} V. .gXgXdXsXsXF.dXsXY.(.~.H.Y.I.sXsXdXV._._.NXIXXXgX_.F.F.sX|  .Y.fXY.H./.dXgX|.| C.G.G.oXS.G. .S.S.( ( | } S.S.D.fXjXW.m 2.1.9.2.w.t.z.y.g 5 5 5 4 f c 5 v 4 5 5 5 4 T yXT 2X5X2X5 4 S rXeXvXFXbX6 g f 4 5 5 5 6 5 5 5 5 5 5 e 5 5 5 5 5 5 5 5 5 5 5 5 5 5 5 5 5 5 5 5 ",
"_ _ _ ( %.@X@X@X@X@X@X@X@X_ _ _ _ _ _ _ _ _ _ _ _ _ { @X@X@X@X@X@X@X@X@X;.%.@X&X;.%.&X&X&X%.%.&X&X&. .( %.*X*.*X:.*.&.%.%.%.%.%.%.%.%.%.%.%.%.%.%.&X@.%.#.:XOX] V.Z.Z.N.P.OXC.B.B.C.I.C.C.K.C.C.JX{.Z.{.OX( jXBX} sXsXL.P.K.Z.P.{.MXP.Y.C.L.L.H.| hXL.F.H.B.AX.XH.Y.| } Y.gX/.^.^.^././.fXsXfX| _.(.gXNXKXsXY.dXaXgXsXY.^.Y./.^./.| dXgX( H.~.G.oX/.-XG.G.G.K.}  .} G.G.G.( gX].4.r.9.r.r.t.y.z.y.f 5 5 5 4 f c 5 v 4 5 5 5 4 T yXT 2X5X2X5 4 S rXeXvXFXbX6 g f 4 5 5 5 5 5 5 5 5 5 5 5 5 5 5 5 5 5 5 5 5 5 5 5 5 5 5 5 5 5 5 5 ",
"*.%.%.O.+X+X+X+X+X+X+X+X+XO.{ { { { { { #.+X+X+X+X+X@X+XO.+X+X+XO.@X+X%.;.O.@.&.;.@.%.%.%.%.%.%.%.%.$X_ { *X$X*.:.&.&.%.%.%.%.%.%.%.%.%.%.%.%.%.%.%.%.%.#.OX,X] V.Z.Z.N.OXP.C.C.C.C.K.C.C.C.C.C.MXMXI.{.K.fXgXgXdX} ( C.MX{.C.{.P.P.{.Z.C.C.L.C.V. .L.B.B.H.AX~.~./.| gX(.Y.~.(..X~.~.(.I.| I.| (.J.sXJ.KXsXdXaXfXY.sXY.(./.~.~.~./.fXgXdXG.G.G.(.oXS.S.S.S.-X|  .| S.S.S. .gXW.3.2.2.9.2.t.t.z.y.g 5 5 5 4 f c 5 v 4 5 5 5 4 T yXT 2X5X2X5 4 S rXeXvXFXbX6 g f 5 5 5 5 5 5 5 5 5 5 5 5 5 5 5 5 5 5 5 5 5 5 5 5 5 5 5 5 5 5 5 5 ",
">X$X$X+XO.O.O.O.O.O.O.O.O.O.+X+X@X+X+X+X+XO.O.O.O.O.@X+XO.O.O.O.O.@X+X;.&.@.O.;.&.%.%.%.%.%.%.%.%.%.%. ._ _ _ *.:.&.&.%.%.%.%.%.%.%.%.%.%.%.%.%.%.%.%.#.%XOX>X&XV.Z.{ I.OXC.C.C.C.C.C.C.C.C.C.C.C.}.{.}. .gXsXsXkX{.{.P.{.|.JX{.C.I.{.C.C.C.L.L.B.B.L.K.m.9X0XH.~.(.| | (.(.G.XXMXG.~.~./.(.~.| ( dX| dXkXY.Y.| /.P.sXI.(.^.~.~.~./.fXJ.gXG.G.G.G.VXG.S.S.S.D. .C.S.S.S.S.D.gXJ.3.1.1.9.2.w.t.z.y.g 5 5 5 4 f c 5 v 4 5 5 5 4 T yXT 2X5X2X5 4 S rXeXvXFXbX6 f c # 5 5 5 5 5 5 5 5 5 5 5 5 5 5 5 5 5 5 5 5 5 5 5 5 5 5 5 5 5 5 4 ",
">X$X@XO.O.O.O.O.O.O.O.O.O.O.O.O.@XO.O.O.O.O.O.O.O.O.@X+XO.O.O.O.O.@X@.;.@.@.&.;.@.%.%.%.%.%.%.%.%.%.%.%.%.%._ ;.*.&.&.%.%.%.%.%.%.%.%.%.%.%.%.%.%.%.%.#.OXU.*X>XV.Z.{ OXP.C.C.C.C.C.C.C.C.C.C.C.Z.|.JXP.L.gXdX} |.KXMXMX|.C.}.C.C.Z.{.P.C.C.Z.;.C.F.P.L.B.AX~.~.~.~. XH.~.~.G.XXJXG.~.~.^.H.(.} sXJ.oX| jXP./.~.^.U.| ~.~.^.~.~.~.^.H.H.OXG.G.~.S.oX.XS.S.S.S.D.S.S.S.S.S.D.fX| 3.1.2.9.2.w.t.z.y.g 5 5 5 4 f c 5 v 4 5 5 5 4 T yXT 2X5X2X5 4 S rXeXvXFXbX5 5 n c d f f f f f f f f f f f f f d d d d d d d d d d d d d d f d f ",
">X$X@X+XO.O.O.O.O.O.O.O.O.O.O.O.@X+XO.O.O.O.O.O.O.O.@X+XO.O.O.O.O.#X;.&.O.O.;.;.@.%.%.%.%.%.%.%.%.%.%.%.%.$X ._ :.&.&.%.%.%.%.%.%.%.%.%.%.%.%.%.%.%.%.&XOX&XZ.>X&X{ C.OXC.C.C.C.C.C.C.C.C.C.C.C.C.C.}.K.} gXJ.Y.I.C.C.I.C.C.Z.C.C.Z.|.{.Z.P.mXkX .P.JX .8XAXH.~.~.~.^.~.~.~.G.XXKX~.~.~.^.~.(. .gXVX/.Y.gXP./.~.~.^.(.~.~.^.~.~.~.^.(.G.VX(.S.~.G.(.oXS.S.S.S.S.S.S.S.S.S.D.fX| 3.1.2.9.2.w.t.z.y.g 5 5 5 4 f c 5 v 4 5 5 5 4 T yXT 2X5X2X5 4 S rXeXvXFXbX5 $ 4 f c c c c c c c c c c c c c c c c c c c c c c c c c c c c c c c ",
">X$X@XO.O.O.O.O.O.O.O.O.O.O.O.O.@X+XO.O.O.O.O.O.O.O.@X+XO.O.O.O.O.@X;.@.@.%.;.%.%.%.%.%.%.%.%.%.%.%.%.%.%.*.&._ _ *.&.%.%.%.%.%.%.%.%.%.%.%.%.%.%.&X#. XU.&X%X*X,X{ OX|.C.C.C.C.C.C.C.C.C.C.C.C.C.C.Z.C.aX| |.I.I.K.C.C.C.C.K.C.C.I.C.{.{.{.{.{.OX|.{.}.LXBXG.~.~.~.^.~.~.~.G.{.KX~.~.~.^.~.~.|.{.(..XP.dXU./.~.~.^.~.~.~.^.~.~.~.^.~.H.oXoXS.~.G.G.VXG.S.S.S.S.S.S.S.S.S.D.fX| i.1.2.9.2.w.t.z.y.g 5 5 5 4 f c 5 v 4 5 5 5 4 T yXT 2X5X2X5 4 S rXeXvXFXbX5 d v c c c c c c c c c c c c c c c c c c c c c c c c c c c c c c c c ",
">X:X:X@XO.O.O.O.O.O.O.O.O.O.O.O.@X+XO.O.O.O.O.O.O.O.@X+XO.O.O.O.+X;.&.O.O.;.&.&X%.%.%.%.%.%.%.%.%.%.%.%.%.*.*.*._ &.&.&.%.%.%.%.%.%.%.%.%.%.%.%.%.%.&XOX&X&X&X&X>XZ.OXC.C.C.C.C.C.C.C.C.C.C.C.C.C.C.C. .fXU.P.I.I.K.C.C.C.C.C.C.C.I.C.Z.{.MX{ }.JX{.F.XXLX{.~.~.~.~.^.~.~.~.~.{.JXXXG.~.^.~.G.MXoX^./.OXgX/./.~.~.^.~.~.~.^.~.~.~.^.~.~.^.VXG.G.G.S.oX(.S.S.S.S.S.S.S.S.S.D.( } i.1.2.9.2.w.t.z.y.g 5 5 5 4 f c 5 v 4 5 5 5 4 T yXT 2X5X2X5 4 S rXeXvXFXbX6 g =X0.0.0.0.0.M.M.0.0.M.0.0.M.=X6.d f f f f f f f f f f f f f f f f ",
">X:X:X@XO.+XO.O.O.O.O.O.O.O.O.O.@X+XO.O.O.O.O.O.O.O.@X+XO.O.O.O.O.;.@.@.%.;.%.%.%.%.%.%.%.%.%.%.%.%.%.%.%.*.*.*._ fX&.%.%.%.%.%.%.%.%.%.%.%.%.%.%.%.U. X%.&X&XZ.*XqX|.Z.C.C.C.C.C.C.C.C.C.C.C.C.C.C.C.sXfXU.P.I.I.K.C.C.C.C.C.C.C.I.C.C.|.}.Z.P.KXKXB.AX.X{.~.~.~.~.^.G.G.G.(.{.MXMXXX|.^.~.|.MX(.(..XAX0X/./.~.~.^.~.~.~.^.^.~.~.^.~.~.~.oX.XG.G.G./.oXS.S.S.S.S.S.S.S.S.D.} } i.1.2.9.2.w.t.z.y.g 5 5 5 4 f c 5 v 4 5 5 5 4 T yXT 2X5X2X5 4 S rXeXvXFXbX6 g 0.=X3X=X=XM.3X-XM.-X=X-XM.8.0.C # 5 5 5 5 5 5 5 5 5 5 5 5 5 5 5 $ ",
">X$X:X@XO.O.O.O.O.O.O.O.O.O.O.O.@XO.O.O.O.O.O.O.O.O.@X+XO.O.O.+X&.;.O.O.;.;.@.%.%.%.%.%.%.%.%.%.%.%.%.%.%.*.*.*.*._  .@.&.%.%.%.%.%.%.%.%.%.%.%.%.%.OX%X&X&X&X&X%XOXC.C.C.C.C.C.C.C.C.C.C.C.C.C.C.C.K.fX .U.P.I.I.C.C.C.C.C.C.C.C.K.C.C.C.C.C.Z.}.kX<XAXH.MX|.G.~.~.^.XXXX|.(.{.|.JXKXMX^.G.JXKX~.(.(.oX9X/./.~.~.^.~.~.~.^.~.~.~.^.~.~.^..XoXG.G.G.G.oXG.S.S.S.S.S.S.S.S.S.C.| 2.1.1.9.2.w.t.z.y.g 5 5 5 4 f c 5 v 4 5 5 5 4 T yXT 2X5X2X5 4 S rXeXvXFXbX6 g 0.4XwX4X4X4XwX4X4X4X4X4X-X7.M.C 4 5 5 5 5 5 5 5 5 5 5 5 5 5 5 5 5 ",
">X$X$X@X@X@X@X@X@X@X@X@X@X@X@X@X@X@X@X@X@X@X@X@X@X@X@X@X@X@X@X@X;.&X@X%.;.%.%.&X%.%.%.&X&X%.%.&X%.%.&X&X%.*X*.*.*. .fX&.$X%.%.%.%.%.%.%.%.%.%.%.%.<XOX&X%X&X%X&X XqX*XI.K.C.C.C.C.C.I.C.C.C.C.C.I.C.Y.} U.U.|.I.I.I.C.I.K.C.I.K.C.I.C.C.C.C.C.C.|.P.qX9XH.KXMXXXJXMXMXJXMXMXJXXX/.JX.X{.BXKXJXMX^..X.XAX0X/./.^.^./.^.^.^./.^.^.^./.^.^./.^.VX/.G.~.G.oX.XS.G.G.G.G.G.G.G.G.S.| 9.4.9.r.r.t.y.z.y.f 5 5 5 4 f c 5 v 4 5 5 5 4 T yXT 2X5X2X5 4 S rXeXvXFXbX6 g M.-X-X-X-X4X-X3X4X-X3X-X-X0.M.g 4 5 5 5 5 5 5 5 5 5 5 5 5 5 5 5 5 ",
">X$X$X@X@X@X@X@X@X@X@X@X@X@X@X@X@X@X@X@X@X@X@X@X@X@X@X@X@X@X#X&.;.@X@X;.;.%.%.&X%.%.%.&X%.%.%.&X%.%.&X%.%.*X*.*.:.*. .fX .%.$X%.%.%.%.%.%.%.%.%.%.OX%X&X&X&X&X&XOX<X,XI.C.C.C.C.C.C.I.C.C.C.C.K.H.C. .} K.U.|.I.I.I.C.I.K.C.I.C.C.I.C.C.C.C.C.C.C.H.AXU.^.XXKXMXMXXXMX^.G.^.XX(..XJX^.MXIXKX~.(./..X.XAX9X/./.^.^./.^.^.^./.^.^.^./.^.^./.^.oXoXG.~.^./.oXS.G.G.G.G.G.G.G.G.S.| 9.2.2.r.r.t.y.z.y.f 5 5 5 4 f c 5 v 4 5 5 5 4 T yXT 2X5X2X5 4 S rXeXvXFXbX6 g 8.6.6.6.6.6.C M.8.6.6.6.6.6.c 5 5 5 5 $ @ $ $ $ 5 5 3 3 3 3 5 5 5 ",
">X$X@XO.O.O.O.O.O.O.O.O.O.O.O.O.@XO.O.O.O.O.O.O.O.O.@X+XO.O.O.;.%.@X@.;.&.%.%.%.%.%.%.%.%.%.%.%.%.%.%.%.%.*.*.*.:.&.%.&._ (  .@.%.%.%.%.%.%.%.#.Z.OX%.&X&X&X%.U.OXZ.,X<XV.C.C.C.C.C.C.C.C.C.C.C. .C. .} Z.I.P.I.I.C.C.C.C.C.C.C.C.K.C.C.C.C.C.C.V.0XqX1X~.~.<X<XG.G.^.~.~.~.G.G.(.MXG.MXKXXXG.~.(.(.(.oX9X/./.~.~.^.~.~.~.^.~.~.~.^.~.~.^.~.(.VXG.G.~.G.oXS.S.S.S.S.S.S.S.S.S.| 2.1.1.9.2.w.t.z.y.g 5 5 5 4 f c 5 v 4 5 5 5 4 T yXT 2X5X2X5 4 S rXeXvXFXbX6 g f 5 5 5 5 5 5 5 5 5 5 5 5 5 4 5 5 5 5 u i i i u 5 - - - - - e 5 5 ",
">X$X@X+XO.O.O.O.O.O.O.O.O.O.O.O.@X+XO.O.O.O.O.O.O.O.@X+XO.+X%.;.O.@X&.;.@.%.%.%.%.%.%.%.%.%.%.%.%.%.%.%.%.*.*.*.:.&.&.%.%.&.( _ %.@.%.%.%.%.%.#.OX<X&X&X&X&X&XOXU.%X%X,XC.C.C.C.C.C.K.C.Y.C. .} dX} } | K.U.P.I.I.K.C.C.C.C.C.C.C.I.C.C.C.C.C.C.H.AXH.1X X^.^.1X~.~.^.~.~.~.~.~.~.~.~..X/.~.~.~.(.(..XoX9X/./.~.~.^.~.~.~.^.^.~.~.^.~.~.^.^.G.VX(.G.^.S.oX(.S.S.S.S.S.S.S.S.S.| 2.1.2.9.2.w.t.z.y.g 5 5 5 4 f c 5 v 4 5 5 5 5 K T T u.!.u.5 4 A D S cXbXcX6 g f 5 4 $ $ $ # 5 $ 5 5 5 5 5 5 5 5 5 5 mXKXmXmXJX,.~ aXaX^ sXW 3 5 ",
">X$X@X+XO.O.O.O.O.O.O.O.O.O.O.O.@X+XO.O.O.O.O.O.O.O.@X+XO.+X;.&.@.@X;.&.%.%.%.%.%.%.%.%.%.%.%.%.%.%.%.%.%.*.*.*.:.&.&.&.%.@.%.(  .{ %.@.%.%.#.%XOX&X&X&X&X&XU.OX%X%XZ.,X%XV.C.C.C.C.C.C.dX|  .sX} fXsXY.L.U.P.I.I.K.C.C.C.C.C.C.C.I.C.C.C.C.C.V.0X0XH.<X<X~.~.<XU.~.^.~.~.~.~.~.~.~.~.~.^.~.~.~.(.(..XoX9X/./.~.~.^.~.~.~.^.~.~.~.^.~.~.^.^.G.oXoXS.^.S.(.oXS.S.S.S.S.S.S.S.S.| 2.1.2.9.2.w.t.z.y.g 5 5 5 4 f c 5 v 4 5 5 5 5 K T K 9.u.u.5 4 A S S p.cXcX6 c f # c n n n 6.d n 5 5 5 5 5 5 5 5 5 5 mX`.[.`.mX,.~ ~ ~ ~ ^ W 3 5 ",
">X$.@.O.O.O.O.O.O.O.O.O.O.O.O.O.@X+XO.O.O.O.O.O.O.O.@X+X+X%.;.O.O.&.;.@.%.%.%.%.%.%.%.%.%.%.%.%.%.%.%.%.%.*.*.*.:.&.&.%.%.%.@.{ ( ( _ { %.%.#.OXU.&X&X&X&X&XOXU.%X%XZ.<X,XV.C.C.C.C. .C.fX} | } Y.C. .K.L.U.P.I.I.K.C.C.C.C.C.C.C.I.C.C.C.C.C.C.AX X X X1X^.^. X1X~.^.~.~.~.~.~.~.~.~.~.^.~.~.~.(.(..XoX9X/./.~.~.^.~.~.~.^.~.~.~.^.~.~.^.~.~./.VXG.~.G.G.VXS.S.S.S.S.S.S.S.S.| 5.1.2.9.2.w.t.z.y.g 5 5 5 4 f c 5 v 4 5 5 5 5 K T K u.D.u.5 4 A S S p.cXcX6 c f + 7.7.M.v 7.5 7.0.6.5 5 5 5 5 5 5 5 mX'.JX[.mX,.~ ~ ^ ~ ^ W 3 5 ",
">X$X$X@XO.O.O.O.O.O.O.O.O.O.O.O.@X+XO.O.O.O.O.O.O.O.@X+X+X;.&.O.O.;.&.%.%.%.%.%.%.%.%.%.%.%.%.%.%.%.%.%.%.*.*.*.:.&.&.%.%.%.%.%.&.%.{ (  .$.%XOX&X%X&X&X&XU.OX%XZ.Z.%XK.,X;XV.C.C. .aXY.| } dXC.C.C.C.K.L.U.P.I.I.K.C.C.C.C.C.C.C.I.C.C.C.C.V.9XAXH. X^.<X<X~.~.1XU.(.~.~.~.~.~.~.~.~.~.^.~.~.~.(.(..XoX9X/./.~.~.^.~.~.~.^.~.~.~.^.~.~.^.~.~.^.oX(.G.G.S.oX~.S.S.S.S.S.S.S.S.| 5.1.2.9.2.w.t.z.y.g 5 5 5 4 f c 5 v 4 5 5 5 5 K T K u.y.u.5 4 A S S p.cXcX6 c f + B c C e B 5 8.C B 5 5 5 5 5 5 5 5 mX`.`.T.mX,.~ ~ ~ ~ ^ W 3 5 ",
">X:X:X$XO.+XO.O.O.O.O.O.O.O.O.O.@X+XO.O.O.O.O.O.O.O.@X+X@.;.@.@.&.;.%.%.%.%.%.%.%.%.%.%.%.%.%.%.%.%.%.%.%.*.*.*.:.&.&.%.%.%.%.%.%.%.@X&.( _ gX<X&X&X&X&X%.OXU.%X%X;X%X%X%X_ C.C.C.} } }  .Y.} C.K.C.C.K.L.U.P.I.I.K.C.C.C.C.C.C.C.I.C.C.C.C.C.AX XU. X XU.1X^.^. X1X^.~.~.~.~.~.~.~.~.~.^.~.~.~.(.(..XoX9X/./.~.~.^.~.~.~.^.~.~.~.^.~.~.^.~.~.^.oXoXG.G.S..XoXS.S.S.S.S.S.S.S.| 5.1.2.9.2.w.t.z.y.g 5 5 5 4 f c 5 v 4 5 5 5 5 K T K u.y.u.5 4 A S S p.cXcX6 c f 4 5 5 5 5 5 5 e 5 5 5 5 5 5 5 5 5 5 mXKXmXmXJX,.~ aX^ ^ sXW 3 5 ",
">X:X:X@XO.O.O.O.O.O.O.O.O.O.O.O.@XO.O.O.O.O.O.O.O.O.@X+X;.&.O.O.;.;.%.%.%.%.%.%.%.%.%.%.%.%.%.%.%.%.%.%.%.*.*.*.:.&.&.%.%.%.%.%.%.%.%.@.&. .gX_  .} &X .;XOX%X%X . . .;X .fX| C.Y.} K.aX .C.C.C.C.C.C.K.L.U.P.I.I.K.C.C.C.C.C.C.C.K.C.C.C.V..XAXH. X X X^.1XU.~.~.1X X~.~.~.~.~.~.~.~.~.^.~.~.~.(.(..XoX9X/./.~.~.^.~.~.~.^.~.~.~.^.~.~.^.~.~.^.~.VX^.G.G.~.oXS.S.S.S.S.S.S.S.| 5.3.1.9.2.w.t.z.y.g 5 5 5 4 f c 5 v 4 5 5 5 5 K T K u.y.u.5 4 A S S p.cXcX6 c f $ 5 5 5 5 5 5 $ 5 5 5 5 5 5 5 5 5 5 t i u u u 5 - - - - - e 5 5 ",
">X$X@.+X+X+X+X+X+X+X+X+X+X+X+X+X@X+X+X+X+X+X+X+X+XO.@X@X;.@.@.%.;.%.%.%.%.%.%.%.%.%.%.%.%.%.%.%.%.%.%.%.%.*.*.*.:.&.&.%.%.%.%.%.%.%.%.%.@. X X_ ( fX} fXgXU. .;X} fXdXL.}  .sX| | | H.dX .C.C.C.K.C.C.K.L.U.|.I.I.K.C.C.C.C.K.C.C.I.C.C.C.C.AX8XU. X X X^.U.1X^.^. X1X~.~.~.~.~.~.~.~.~.^.~.~.~.(./..X0X9X/./.^.^.^.~.~.~.^.^.~.~.^.~.~.^.^.~.^.G.oX.XG.G.G.oXG.S.S.S.S.S.S.S.| 5.2.2.9.2.t.t.z.y.g 5 5 5 4 f c 5 v 4 5 5 5 5 K T K u.y.u.5 4 A S S p.cXcX6 g f e f f f f f f f f f f f f f f f f f d d d d d f f f f f f f f f ",
">X$X$X@X@X@X@X@X@X@X@X@X@X@X@X@X@X@X@X@X@X@X@X@X@X@X#X;.;.@X@X;.;.&X%.%.%.%.%.&X%.%.%.&X&X%.%.&X%.%.&X%.%.*X*.*.:.&.&.%.%.%.%.%.%.%.%.%.&XOX%X&X&XL. .;XjXfXfX .} ;XL.fX .L._ fXfXC.I.K.K.C.C.K.I.C.K.K.L.U.|.I.I.I.C.I.K.C.I.K.C.I.C.C.C. XAXU. X X X X X X1X X^.^.1X X^.^.^.^.^.^.^.^./.^.^.^./..X.XAX0X/././.^./.^.^.^./.^.^.^./.^.^./.^.^./.^..XoXG.~.G.oX.XS.G.G.G.G.G.-X| e.4.9.r.r.t.y.z.y.f 5 5 5 4 f c 5 v 4 5 5 5 5 K T K u.y.u.5 4 A S S p.cXcX6 g f 5 5 5 5 5 5 5 5 5 5 5 5 5 5 5 5 5 5 @ @ @ @ @ 5 3 3 3 3 3 5 5 5 ",
">X$X@XO.O.O.O.O.O.O.O.O.O.O.O.O.@XO.O.O.O.O.O.O.O.O.@X;.%.@.%.;.%.%.%.%.%.%.%.%.%.%.%.%.%.%.%.%.%.%.%.%.%.*.*.*.:.&.&.%.%.%.%.%.%.%.%.#.U..X%.&X&X%X&X.XP.( L.sX .;XL.aXL.Z.:X;.| C.K.C.C.C.C.C.C.C.C.K.L.U.P.I.I.K.C.C.C.C.C.C.C.K.C.C.V.AX9XH. X X X X X^.U.1X~.~.8X<X~.~.~.~.~.~.~.~.^.~.~.~.(.(.(.oX9X/./.~.~.^.~.~.~.^.~.~.~.^.~.~.^.~.~.^.~.~.VXG.G.G.(.oXS.S.S.S.S.S.D.| 5.3.1.9.2.w.t.z.y.g 5 5 5 4 f c 5 v 4 5 5 5 5 K T K u.y.u.5 4 A S S p.cXcX6 c f $ 5 5 5 4 4 5 5 5 5 5 5 5 5 5 5 5 5 b.T.T.T.`.u E / W W / ; 3 5 ",
">X$X@XO.O.O.O.O.O.O.O.O.O.O.O.O.@X+XO.O.O.O.O.O.O.+X&.;.O.O.;.;.@.%.%.%.%.%.%.%.%.%.%.%.%.%.%.%.%.%.%.%.%.*.*.*.:.&.&.%.%.%.%.%.%.%.%.%.OX%X&X&X&X&X&XOX%X%X%X .L.%XL. .%XZ.Z.,XC.C.C.C.C.C.C.C.C.C.C.K.L.U.P.I.I.K.C.C.C.C.C.C.C.K.C.V.H.AXH. X X X X X X X^.1X X^. X1X~.~.~.~.~.~.~.~.^.~.~.~.(.(..XoX9X/./.~.~.^.~.~.~.^.^.~.~.^.~.~.^.~.~.^.~.G.VX/.S.G.G.oXG.S.S.S.S.S.D.| 5.3.2.9.2.w.t.z.y.g 5 5 5 4 f c 5 v 4 5 5 5 5 K T K u.y.u.5 4 A S S p.cXcX6 c f 4 5 e 5 d d 5 5 5 $ 5 $ 5 5 5 5 5 5 KXmXmX[.JX,.^ aX^ ^ aXW 3 5 ",
">X$X@XO.O.O.O.O.O.O.@X@X@XO.O.O.@X+XO.O.O.O.O.O.O.+X;.%.@X&X;.%.%.%.%.%.%.%.%.%.%.%.%.%.%.&X&X&X%.%.%.%.%.*.*.*.:.&.&.%.%.%.&X&X%.%.#.U.OX%.&X&X&X&XU.OX%XZ.%X<X%X%XZ.%X%X%XZ.,X,XV.C.C.C.C.C.C.U.I.K.K.L.U.P.I.I.K.C.C.C.C.C.C.C.I.I.C.0X9XH. X X X X X X X^.U.1X~..X8X8X(.~.~.~.~.~.~.^.~.~.~.(.(..X0X0X.X/.~.~.^.~.~.~.^.~.~.~.^.~.~././././.~.~.oXoXS.G.S.oX(.S.S.S.S.S.D.| 5.3.2.9.2.w.t.z.y.g 5 5 5 4 f c 5 v 4 5 5 5 5 K T K u.D.u.5 4 A S S p.cXcX6 c f + C 6.8.B 0.e C 6.c d 7.f 5 5 5 5 5 [.`.mX'.mX,.~ ~ ^ ~ ^ W 3 5 ",
">X$X@XO.O.O.O.O.O.+X$X@X:X@XO.O.@X+XO.O.O.O.O.O.+X&.;.*X@X,X;.@.%.%.%.%.%.%.%.%.%.%.%.%.*X%.*X*X%.%.%.%.%.*.*.*.:.&.&.%.%.*X%.*X*X%.%.OXI.&X&X&X&X&XOXU.%XZ.<X<X<X<XZ.%X%X%XZ.%X,XC.C.C.C.C.C.I.U.I.U.K.L.U.P.I.I.K.C.C.C.C.C.C.C.U.I.8XAXU. X X X X X X X X X^.1X X8X X1X^.~.~.~.~.~.~.^.~.~.~.(.(..XAX0X0X/.~.~.^.~.~.~.^.^.~.~.^.~.~..X/.9X8X~.~./.VXG.G.S..XoXS.S.S.S.S.D.| m.3.2.9.2.w.t.z.y.g 5 5 5 4 f c 5 v 4 5 5 5 5 K T K u.D.u.5 4 A S S p.cXcX6 c f + 7.C 0.f C e 6.n M.7.=Xe 5 5 5 5 5 mX`.[.`.mX,.~ ~ ~ ~ ^ W 3 5 ",
">X$X@X+XO.O.O.O.O.O.$X@X$X+XO.O.@X+XO.O.O.O.O.O.+X;.%.*X@X;.&.%.%.%.%.%.%.%.%.%.%.%.%.%.*X&X*X&X%.%.%.%.%.*.*.*.:.&.&.%.%.&X&X*X&X#.%XOX&X&X&X&X&XU.OX%X%XZ.<X<X<X<XZ.<X%X%X%XZ.,X%XC.C.C.C.C.C.U.I.I.K.L.U.P.I.I.K.C.C.C.C.C.C.C.U.K.AX0XH. X X X X X X X X X^.<X<X.X/.1XU.~.~.~.~.~.~.^.~.~.~.(.(..XAX0X9X/.~.~.^.~.~.~.^.~.~.~.^.~.~..X/././.~.~.^.oX/.S.G.~.oXS.S.S.S.S.D.| x.3.2.9.2.w.t.z.y.g 5 5 5 4 f c 5 v 4 5 5 5 5 K T K u.D.u.5 4 A S S p.cXcX6 c f $ g e g 5 c $ n B g C v f 5 5 5 5 5 KX[.'.'.JX,.^ ^ ^ ~ aXW 3 5 ",
">X:X:X@XO.O.O.O.O.O.O.+XO.O.O.O.@X+XO.O.O.O.O.+X%.;.@X@.&.;.@.%.%.%.%.%.%.%.%.%.%.%.%.%.%.%.%.%.%.%.%.%.%.*.*.*.:.&.&.%.%.%.%.%.%.#.OXU.&X&X&X&X&XOXU.%X%X%X%X%XZ.%X%X<X%X%X%XZ.%X,XC.C.C.C.C.C.K.C.C.K.L.U.P.I.I.K.C.C.C.C.C.C.C.K.C.AX X X X X X X X X X X X X X1X X^. X1X~.~.~.~.~.~.^.~.~.~.(.(..XoX9X/./.~.~.^.~.~.~.^.^.~.~.^.~.~.^.^.~.^.~.~.^..XoXS.G.G.oXG.S.S.S.S.D.| x.3.2.9.2.w.t.z.y.g 5 5 5 4 f c 5 v 4 5 5 5 5 K T K u.D.u.5 4 A S S p.cXcX6 c f 4 5 5 5 5 $ 5 $ $ $ # $ 5 5 5 5 5 5 T.'.`.`.'.i W / / / / ; 3 5 ",
">X:X:X$XO.+XO.O.O.O.+X:X@X@X:X+X@X:X:X@X+X:X@X#X:.&.@X*X;.&.%.*X%.%.*X*X*X%.*X&X%.*X%.%.*X*X*X%.*X&X%.*X*X*X*.*X:.&.,X*X%.*X*X*X#.<XOX&X<X<X1X&X<XOX%X<X<X%X<X<X<X%X<X<X%X<X<X1XZ.,X1XC.U.U.C.U.I.U.C.I.U.I.OXU.U.I.K.U.C.I.U.C.U.K.0X0XU.8X X X8X8X X X8X X X8X^.1X8X8X.X1X8X(.^.9X9X/.~.9X/.^.9X.X.XAX0X9X/.9X/.^.9X9X8X~.9X.X~.9X/.^..X.X8X~.9X.X~.9XVX3XG.3XVX/.S.S.S.S.D.| x.3.2.9.2.w.t.z.y.g 5 5 5 4 f c 5 v 4 5 5 5 5 K T K u.D.u.5 4 A S S p.cXcX6 g f 5 5 5 5 5 5 5 5 5 5 5 5 5 5 5 5 5 5 @ @ @ @ @ 5 3 3 3 3 3 5 5 5 ",
">X$X$X@XO.O.O.O.O.O.+X:X@X@X:X+X@X:X:X$X+X:X@X@.:.@X@X*X:.*X%.,X&X%.*X,X*X%.,X*X%.,X&X%.*X*X*X%.,X*X%.*X*X*X*.,X:.&.,X*X%.*X*X*X#.OX<X&X1X1X1X&XOX8X%X<X<X%X<X<X1XZ.<X1XZ.<X<X1XZ.<XwXC.U.U.C.U.U.<XK.I.1XI.OXU.U.I.I.<XC.I.<XC.U.U.AX X X8X X8X8X8X X X8X X X8X X8X1X8X.XU.qX(.^.9X9X.X~.9X/.^.0X.X.XAXAX9X/.0X/.^.9X9X9X~.9X.X~.9X/.^.9X9X9X~.9X.X~.9XVX0XG.3X0XoXS.S.S.S.D.| x.3.1.9.2.w.t.z.y.g 5 5 5 4 f c 5 v 4 5 5 5 5 K T K u.y.u.5 4 A S S p.cXcX6 g f d f f f d 8 f x d 8 f f f f f f f f f f f f f f f f f f f f f f ",
">X$X$X@X@X@X@X@X@X@X@X:X@X@X:X+X@X:X:X$X+X:X#X;.,X@X@X:.,X*X%.,X&X%.*X*X*X%.,X*X%.,X&X%.*X*X*X%.,X*X%.*X*X*X*.*X:.&.,X*X%.*X*X*X&XOX,X&X1X1X,XZ.OX1XZ.<X<X%X<X<X1X%X<X1X%X<X<X1X%X<XwXZ.U.U.C.U.U.U.K.I.1XI.OXU.U.I.I.<XC.I.U.C.K.8XAXU. X8X X8X8X8X X X8X X X8X X.XqXqX.X^.qX X/.9X9X.X~.9X/.^.0X.X.XAXAX9X/.9X/.^.9X9X9X~.9X.X~.9X/.^.9X9X9X~.9X.X~.9XoXVXS.3X9XVXG.G.G.G.-X| n.w.r.u.r.y.y.2Xy.f 5 5 5 4 f c 5 v 4 5 5 5 5 K T K u.y.u.5 4 A S S p.cXcX6 c f $ 5 5 $ e R.LXBXLXR.5 $ 5 5 5 5 4 4 $ $ $ 4 # $ 5 4 5 # $ 4 5 5 ",
">X$X$X+X+X+X+X+X+XO.@X:X@X@X:X+X@X:X:X$XO.:X@X;.,X@X%.;.*X&X%.,X%.%.*X*X*X%.,X*X%.,X%.%.*X*X*X%.,X*X%.*X*X*X*.*X:.&.,X*X%.*X*X*XU.8X*X&X1X1X,XOXOX1XZ.<X<XZ.<X<X1XZ.<X1XZ.<X<X1X%X<XwX,XI.U.C.U.U.U.C.I.1XI.OXU.U.I.K.<XC.I.U.C.I.AX0X X X8X X8X8X8X X X8X X X8X X X8X1X.X^.qX<X(.9X9X.X~.9X/.~.0X.X.XAXAX9X(.9X/.~.9X9X9X~.9X.X~.9X/.~.9X9X9X~.9X.X~.9X9XVXG.3X3XVXG.S.S.S.D.| n.3.2.9.2.t.t.z.y.g 5 5 5 4 f c 5 v 4 5 5 5 5 K T K u.y.u.5 4 A S S p.cXcX6 c f 5 5 $ r LXBXR.p R.LXBXr 5 5 5 $ n 7.f d f e v n f 5 c B d e 5 5 ",
">X$X@XO.O.O.O.O.O.O.+X:X$X:X:X$X:X:X:X:X$X:X;.;.:X*X;.;.*X*X*X,X*X*X*X*X*X*X,X*X*X,X*X*X*X*X*X*X,X*X*X*X*X*X*X,X:.*.,X*X*X*X*X,XOX1X1X%X1X,X1XOX1X1X<X1X<X<X<X<X1X<X1X1X<X1X<X1X<X<X1XwX<XU.I.U.I.U.I.U.1XU.OXU.U.U.U.U.I.U.U.K.8XAX8X8X8X8X8X8X8X8X8X8X8X8X8X8X8X8X8X1X8X8X9X1X8X9X9X9X.X9X.X.X0X.XoXAXAX0X9X0X.X.X9X9X9X/.9X9X.X9X.X.X9X9X9X/.9X9X.X9X8XVX.X8X3XoX/.S.S.S.D.| n.3.2.9.2.w.t.z.y.g 5 5 5 4 f c 5 v 4 5 5 5 5 K T K u.y.u.5 4 A S S p.cXcX6 c f 4 5 $ ].BX4 . @ . t LXR.$ 5 5 # 7.=X=X0.0.=XC 0.0.0.0.0.8.C $ 5 ",
">X$X@XO.O.O.O.O.O.O.@X:X:X:X:X:X:X:X:X:X:X:X:.*X:X*X:.*X*X*X,X,X*X,X*X*X,X*X,X*X,X,X*X,X*X*X,X*X,X*X,X,X*X,X*X,X:.,X,X,X,X*X*X8XOX,X1X1X1X,XOXOX1X1X1X1X1X1X1X<X1X1X1X1X1X1X<X1X<X1X1X,XwXU.U.<XI.<XU.<X1XU.OXU.U.U.U.<XU.<X<XU.AX9X8X8X8X8X8X8X8X8X8X8X8X8X8X8X8X8X8X8XqX9X0X8XqX9X9X9X9X0X9X9X0XoXoXAXAX0X0X0X9X9X9X9X9X9X0X9X9X0X9X9X9X9X9X9X0X9X9X9X8XVXoX8X8X.XoXS.S.S.D.| n.3.2.9.2.w.t.z.y.g 5 5 5 4 f c 5 v 4 5 5 5 5 K T K u.y.u.5 4 A S S p.cXcX6 c f 5 $ u PXa . B 7.7.. ,.PXr $ 5 5 v B 6.C 0.7.n C n 6.n n 0.c $ 5 ",
">X$X@XO.O.O.O.O.O.O.+X$X@X$X$X@X$X@X$X@X#X,X;.$X*X;.;.&X&X&X&X*X&X*X&X&X&X&X*X*X&X*X&X*X&X&X*X*X*X&X*X*X&X*X*X*X:.*.*X*X*X&X&XOX%X%X%X%X%X%XOX<X<X<X<X<X<X<X<X<X<X<X<X<X<X<X<X<X<X<X<X<XwXU.I.I.I.I.I.U.L.U.OXU.U.I.I.U.I.I.I. XAX X8X X8X8X X8X X8X X8X8X X8X8X X8X X X1X8X8X X1X.X/./..X.X/./..X.X.XAX0X9X.X.X/..X/./././..X/./.8X/././././..X.X/..X/./..XVX3X^.~.oXS.S.S.D.| n.d.2.9.2.t.t.z.y.g 5 5 5 4 f c 5 v 4 5 5 5 5 K T K u.y.u.5 4 A S S p.cXcX6 c f 5 @ ,.LX# 5 C B v $ t LX,.@ 5 5 5 # # 5 + + 4 # 4 $ $ 5 v 5 5 5 ",
">X$.@.O.O.O.O.O.O.O.O.O.O.O.O.O.@XO.O.O.O.;.%.O.#.;.%.%.%.%.%.%.%.%.%.%.%.%.%.%.%.%.%.%.%.%.%.%.%.%.%.%.%.%.*.*.:.&.&.&.%.#.U.OX%.&X&X&X%.U.OX%XZ.%XZ.Z.Z.Z.Z.%XZ.Z.Z.%X%XZ.Z.Z.Z.Z.%XZ.,X*XV.C.C.C.C.K.L.U.P.I.I.C.C.C.C.C.C.AX9XU.H.H.H.H.H.H.H.H.H.H.H.H.H.H.H.H. X^.U.<X~.~.<XU.~.~.^.~.~.~.(.(.(.oX9X/.(.~.~.^.~.~.~.^.~.~.~.^.~.~.^.~.~.^.~.~.^.~.~.H.VXG.G.S.oXG.S.S.D. .kXe.1.9.2.w.t.z.y.g 5 5 5 4 f c 5 v 4 5 5 5 5 K T K u.y.u.5 4 A S S p.cXcX6 c f 5 @ ,.PXt + B B v o t MXi $ 5 5 5 v c d n v v n e 5 e 5 5 5 5 5 ",
">X$X$X+XO.O.O.O.O.O.O.O.O.O.O.O.@X@X:X#X%.;.O.O.&.;.%.&X*X*X%.%.%.%.%.%.%.%.%.&X*X*X&X%.%.%.%.%.%.%.%.%.%.*.*.*.:.*X*X*X*X%.OX%X&X&X&X&X&XOXU.%X%X%X%X<X<X<X%X%X%X%X%X%X<X<X<X<X%X%X<X%X%X,XC.C.I.H.U.U.<XU.|.I.I.K.C.C.C.C.U.AXU. X8X8X X X X X X X X X X X X X X X X8X8X1X X^. X1X~.~.^./.3X^.(.(..XoX9X/./.^.~./.3X^.~.^.^.~.~.^.~.~.^.^.~.^.~.~./.3X3X3XoX.XG.S.oX/.S.S.D. .}.E.3.r.u.y.y.z.y.g 5 5 5 4 f c 5 v 4 5 5 5 5 K T K u.y.u.5 4 A S S p.cXcX6 c f 5 5 r LXv.  5 g e   x.R.5 5 5 5 5 7.6.5 8.8.M.0.v 6.=X6.8.g 4 5 ",
":X:X:X@XO.O.O.O.O.O.O.O.O.O.O.O.@X@X:X-X;.%.@.@.;.&.%.&X:X*X%.%.%.%.%.%.%.%.%.&X:X:X&X%.%.%.%.%.%.%.%.%.%.*.*.*.:.*X*X:X*X<XOX&X&X&X&X&XU.OX%XZ.%X%X;X<X<X8X;XZ.%X%X%X%X<XqX<X<X%XZ.<X%XZ.,X%XV.I.;X<X<X<XU.P.I.I.K.C.C.C.V.0X0XH. X8XqX8XU. X X X X X X X X X X X X X8XqXqXU.^.~.<XU.~.^.^.qX3X(.(..XoX9X/./.~.~./.3X9X^.^.~.~.~.^.~.~.^.~.~.^.~.~.^.3X3X4X9XoXS.G.(.oXS.S.D. .V.).3.9.u.2X2X5Xy.g 5 5 5 4 f c 5 v 4 5 5 5 5 K T K u.y.u.5 4 A S S p.cXcX6 c f 4 5 @ v.PXx.  O X ,.MXa $ 5 5 5 5 6.6.B 8.C 0.8.c B C C 7.n $ 5 ",
">X$X:X@XO.+X+X+X+X+X+X+X+X+X+XO.@X@X#X*X;.O.@.&.;.@.%.&X*X*X%.%.%.%.%.%.%.%.%.&X&X*X&X%.%.%.%.%.%.%.%.%.%.*.*.*.:.*.*X*X*XOXU.&X&X&X&X&XOXU.%X%X%X<X<X<X<X<X%X%X%X%X%X<X<X<X<X<X%X%X<X%XZ.%X,XC.I.H.U.U.<XU.|.I.I.K.C.K.C.C.AX X X X X8X8X X X X X X X X X X X X X X X8X8X8X1X^.^. X1X~.^./.3X/.(./..XAX9X/./.^.~./.3X3X^.^.^.~.~.^.~.~.^.^.~.^.~.~./.^./.3X/.VXG.G.~.oXS.S.D. .V.NX1.r.y.y.y.5Xy.f 5 5 5 4 f c 5 v 4 5 5 5 5 K T K u.y.u.5 4 A S S p.cXcX6 c f 4 5 5 @ R.,.% @ @ ,.x.@ 5 5 5 5 5 5 e d f d 5 e 5 5 5 5 d 5 5 5 ",
"$.+.+.O.O.O.O.O.O.O.O.O.O.O.O.O.+XO.O.;.&.O.#.;.&.#.%.%.#.#.#.#.#.%.%.#.#.#.%.%.#.#.#.%.%.#.#.%.%.#.%.%.#.%.%.*.*.&.&.#.Z.OX%.&X&X&X%.U.OX%XZ.Z.Z.%XZ.Z.Z.Z.Z.Z.Z.Z.Z.%XZ.Z.Z.Z.Z.Z.%XZ.Z.Z.*X%XV.V.C.C.K.K.P.C.K.C.V.C.V.9X0XH.H. XH.H.H.H.H.H.H.H.H.H.H.H.H.H.H.H. XH.H.H.<XU.~.~.<XH.~.H.H.H.~.(.(.oX/.(.(.~.~.~.H.H.H.~.~.H.H.~.H.H.~.~.H.~.~.~.~.H.H.H.G.oX(.S.S.oXG.S.D. .{ NXe.2.1.i.i.s.y.f 5 5 5 4 f g 5 v 4 5 5 5 5 K T K u.y.u.5 4 A S S p.cXcX6 c f 4 5 5 5 % 5 ,.v.,.5 % 5 5 5 5 5 5 5 5 5 $ $ 5 5 5 4 5 5 5 5 5 5 ",
"N n n n n n n n n n n n n n n n n n n N n n N N N N N N N N N N N N N N N N N N N N N N N N N N N N N N N N N N N N N N B B N N N N N B B N N N N N N N N N N N N N N N N N N N N N N N N N N B N N N N N N N N N N N N N 6.B B B B B B B B B B B B B B B B B B B B B B B B B B B B B B B B B B B B B B B B B B B B B B B B B B B B B B B B B B B B B B B B B B B B B B B n n N N B v v v v v n n 5 5 5 5 5 d n c c 5 5 5 5 5 K T K u.y.u.5 4 A S S p.cXcX6 c f 4 5 5 @ x.BXPXBXPXBX,.@ 5 5 5 5 5 5 5 5 d g 5 5 f f 5 5 5 5 5 5 ",
"f f f f f f f f f f f f f f f f f f f f f f f f f f f f f f f f f f f f f f f f f f f f f f f f f f f f f f f f f f f f f f f f f f f f f f f f f f f f f f f f f f f f f f f f f f f f f f f f f f f f f f f f f f f f f f f f f f f f f f f f f f f f f f f f f f f f f f f f f f f f f f f f f f f f f f f f f f f f f f f f f f f f f f f f f f f f f f f f f f f f f f f f f f f f f f f f 5 5 5 5 5 5 $ f g 5 $ 5 5 5 5 K T K u.D.u.5 4 A S S p.cXcX6 g f 4 5 @ ,.PXR.t O t XXPXi $ 5 5 5 5 5 5 5 8.C 0.c 0.=Xg $ 5 5 5 5 ",
"5 5 5 5 5 5 5 5 5 5 4 $ $ $ $ $ $ $ $ $ $ $ $ $ $ $ $ $ $ 4 4 5 5 5 5 5 5 5 5 5 5 5 5 5 5 5 5 5 5 5 4 $ $ $ $ $ $ $ $ $ 4 4 $ $ 4 4 4 4 5 5 5 4 # # # # # # # # # # # # # $ 5 5 5 5 5 5 5 5 5 5 4 5 $ % % % % % @ 5 3 3 3 3 3 3 5 5 5 5 5 5 5 5 5 5 5 5 5 5 5 5 5 5 5 4 # # # # # # # # # # # # # # $ 5 5 4 $ $ $ $ $ $ $ $ $ $ $ $ $ $ $ $ $ $ $ $ $ $ $ $ $ $ $ $ $ $ $ $ $ $ $ $ $ $ $ $ $ $ 5 5 5 5 5 f g 5 g f g 5 5 5 5 K T K u.D.u.5 4 A S S p.cXcX6 c f 4 5 5 BXR.  @ v @   b.R.5 5 5 5 5 5 5 5 n =X6.M.7.8.c $ 5 5 5 5 ",
"5 5 5 5 5 5 5 5 5 5 5 5 5 5 5 5 5 5 5 5 5 5 5 5 5 5 5 5 5 5 5 5 5 5 5 5 5 5 5 5 5 5 5 5 5 5 5 5 5 5 5 5 5 5 5 5 5 5 5 5 5 5 5 5 5 5 5 5 5 5 5 5 v v v v v v v v v v v v v 5 5 5 5 5 5 5 5 5 5 5 5 5 r b.b.b.b.T.x.- W W W W W E 5 5 5 5 5 5 5 5 5 5 5 5 5 5 5 5 5 5 5 5 c v v v v v v v v v v v v v 5 d d 5 n B n n n n n n n n n n n n n n n n n n n n n n n n n n n n n n n n n n n n n n n B e 5 5 5 5 6.6.c 8.M.6.5 5 5 5 8 5 5 6 5 5 5 5 8 3 5 7 7 7 4 c f 5 @ a PXt % 6.C g % u MXu $ 5 5 5 5 5 5 c c d g f f f 4 5 5 5 5 ",
"5 5 $ 4 4 5 $ $ 5 5 f f f g g f g g g f f g g g g g g f f g g d 5 5 5 5 5 5 5 5 5 4 $ 5 $ 4 $ $ 5 5 f f g f g g g f f f g g g g f f c f 5 5 5 f C v v v v v v v v v v v C f 4 5 5 5 5 $ 4 $ $ $ 5 @ p JX[.[.[.mXmX; sX^ ^ ^ aX^ 3 5 5 5 5 5 5 5 5 5 5 5 5 5 5 5 5 5 5 5 C v v v v v v v v c v v v C f e e 5 C c c c c c c c c c c c c c c c g c c g g g g c c c c c c c c c c c c c c c c c g C f 4 5 5 5 C 7.C 8.M.6.5 5 5 5 6 ..1 ....1 6 5 6 1 1 1 1 ..6 c f 5 @ x.BX+ 5 C n C f # ].i $ 5 5 5 5 5 5 $ $ $ 4 $ $ 5 5 5 5 5 5 ",
"n 6.v f c 7.f c 5 f 7.B C c f 7.n g v v v g g g g g g g e -X3Xe 5 5 $ 6.n C g v C e c f c f B n 5 5 0.7.v c C n g 8.7.M.n f g g f c 4X7.5 5 5 f v n 7.6.6.6.c C C 7.C v v f # g 8.c 7.B g c c c 5 @ p mX`.'.`.`.'.; ^ ~ ^ ~ ~ ^ 3 5 5 5 5 5 5 5 5 5 5 5 5 5 5 5 5 5 5 e n v C C n 7.v v C 8.n C v n f e e 5 B g g g g g g g g g g g g g g f 6.n 0.M.C 8.8.c f g g g g g g g g g g g g g g g f n f 5 5 5 5 d c d f f f 5 5 5 5 h >...>.>...6 5 h ......1 >.6 c f 5 $ a PXi . n C B o i MXr $ 5 5 5 4 C B f 8.7.C 5 C 8.0.f 5 5 5 ",
"=X=X0.0.0.M.-X6.5 f -X=X-X0.M.=X=X-XM.0.=Xc g g g g g f f =X=Xf 5 5 4 v M.6.+ B M.M.8.0.8.8.=XB 5 e -X0.M.=X=X=Xg -XM.0.v f g g d n -X7.5 5 5 f v 7.=X=X=X0.C -X-X0.-XC v g + v 8.6.M.0.=X-XB 0.f @ ,.mX[.JXmX`.'.; aX~ ^ ~ ~ ^ 3 5 5 5 5 5 5 5 5 5 5 5 5 5 5 5 5 5 5 e n C -X=X7.0.6.6.7.-X-X3Xn n f e e 5 B g g g g g g g g g g g g g g f 0.n 0.=X-X-X-Xg v c g g g g g g g g g g g g g g f B f 5 5 5 5 5 + 5 5 5 $ 5 5 5 5 5 h h h 1 , 4 5 5 5 1 1 , h # c f 4 5 5 BXBXO O 5 O + R.b.5 5 5 5 5 5 6.6.B 8.=XC n 0.0.=Xv $ 5 5 ",
"C n B n B C B v 5 f M.M.0.0.0.M.M.M.C C 7.v f g g g g g e -X3Xe 5 5 5 c B C c f 6.v B n B v C n 5 d 7.c M.C M.M.c =X8.6.c g g g f c wX7.5 5 5 f n n c B 6.6.v 7.C 7.6.v v f # f f c n n C n e C f @ p mXT.[.`.`.'.; ^ ~ ^ ~ ~ ^ 3 5 5 5 5 5 5 5 5 5 5 5 5 5 5 5 5 5 5 e n c 7.6.v C B 6.7.C 7.6.v n f e e 5 B g g g g g g g g g g g g g g f 6.8.8.n 8.C C 6.C n f g g g g g g g g g g g g g f n f 5 5 5 5 5 f 0.0.0.5 5 5 5 5 6 1 h 1 1 1 6 5 6 1 , 1 h 1 4 c f 5 5 @ i PXR.o + % v.].r $ 5 5 5 5 4 n C v C C n d 6.B 7.f 5 5 5 ",
"$ $ $ $ $ $ $ 5 5 5 g g g c f c f c g g g g g g g g g g f c c d 5 5 5 5 $ $ 5 5 $ $ 4 $ 4 5 $ 5 5 5 g g g g g g g c g g g g g g f f v g 5 5 5 f C c v c c v v c c v c c C f 4 5 5 5 $ 4 4 5 5 5 5 @ ,.JX[.[.[.mXmX; sX^ ^ ^ aX^ 3 5 5 5 5 5 5 5 5 5 5 5 5 5 5 5 5 5 5 5 C v c c v v c v v v c c c C f e e 5 C c g g g g g g g g g g g g g c g g g g f g g g g g c g g g g g g g g g g g g c g B f 4 5 5 5 $ 6.0.M.=Xd 5 5 5 5 h >...>.zX>.6 5 h ........>.4 g c # 5 5 @ i r $ 5 5 r t @ 5 5 5 5 5 5 $ $ $ # # $ $ $ $ $ $ 5 5 5 ",
"5 5 5 5 5 5 5 5 5 5 5 5 5 5 5 5 5 5 5 5 5 5 5 5 5 5 5 5 5 5 5 5 5 5 5 5 5 5 5 5 5 5 5 5 5 5 5 5 5 5 5 5 5 5 5 5 5 5 5 5 5 5 5 5 5 5 5 5 5 5 5 5 v v v v v v v v v v v v v e 5 5 5 5 5 5 5 5 5 5 5 5 t T.T.T.T.T.v.- / W W W / E 5 5 5 5 5 5 5 5 5 5 5 5 5 5 5 5 5 5 5 5 v v v v v v v v v v v v v v 5 d d 5 n B B B B B B B B B B B B B B B B B B B B B B B B B B B B B B B B B B B B B B B n C d 5 5 5 5 5 g C n C 5 5 5 5 5 5 1 1 ....1 6 5 d h Q ..1 1 6 5 n g e d f 8 8 d d d 8 8 d d d d d d d d d d d d d d d d d d d d d ",
"4 $ $ $ $ $ $ $ $ $ $ $ $ $ $ $ $ $ $ $ $ $ $ $ $ $ $ $ $ $ $ $ $ $ $ $ $ $ $ $ $ $ $ $ $ $ $ $ $ $ $ $ $ $ $ $ $ $ $ $ $ $ $ $ $ $ $ $ $ $ $ $ + # # # # # # # # # # # + $ $ $ $ $ $ $ $ $ $ $ $ 4 $ % % % % % % 4 3 3 3 3 3 3 $ $ $ $ $ $ $ $ $ $ $ $ $ $ $ $ $ $ $ $ # # # # # # # # # # # # # # $ 5 5 $ $ $ $ $ $ $ $ $ $ $ $ $ $ $ $ $ $ $ $ $ $ $ $ $ $ $ $ $ $ $ $ $ $ $ $ $ $ $ $ $ $ $ $ $ $ $ $ 4 # + + + $ $ $ $ $ $ 6 4 6 6 6 $ $ $ 4 6 6 4 6 $ $ 5 g c c c v c c c c c c c c c c c c c c c c c c c c c c c c c c c ",
"c c c c c c c v c c c c c c c c c c c c c c c c c c c c c c c c c c c c c c c c c c c c c c c c c c c c c c c c c c c c c c c c c c c c c c c c v v v v v v v v v v v v v c c c c c c c c c c c c c c v v v v v v c c c c c c c c c c c c c c c c c c c c c c c c c c c v v v v v v v v v v v v v v c c c c c c c c c c c c c c c c c c c c c c c c c c c c c c c c c c c c c c c c c c c c c c c c c c c c v v v v c c c c c c v v v v v c c c c v v v v c c c g c c g g g g g g g g g g g g g g g g g g g g g g g g g g g c g ",
"=X0.0.M.M.0.0.0.0.0.M.0.M.0.M.0.f f f f f f f f f f f f f f f f f f f f f f f f f f f f f f f f f f f f f f f f f f f f f f f f f f f f f f f f f f f f f f f f f f f f f f f f f f f f f f f f f f f f f f f f f f f f f f f f f f f f f f f f f f f f f f f f f f f f f f f f f f f f f f f f f f f f f f f f f f f f f f f f f f f f f f f f f f f f f f f f f f f f f f f f f f f f f f f f f f f f f f f f f f f f f f f f f f f f f f f f f f f f f f f f f f f f f f f f f f f f f f f f f f f f f f f f f f f f f f f f ",
"DX=X7.4X4X=X=X-X0.4X=X4X-X8.0.8.5 $ 5 4 4 4 4 4 4 4 4 4 4 4 4 4 4 4 4 4 4 4 4 4 4 4 4 4 4 4 4 4 4 4 4 4 4 4 4 4 4 4 4 4 4 4 4 4 4 4 4 4 4 4 4 4 4 4 4 4 4 4 4 4 4 4 4 4 4 4 4 4 4 4 4 4 4 4 4 4 4 4 4 4 4 4 4 4 4 4 4 4 4 4 4 4 4 4 4 4 4 4 4 4 4 4 4 4 4 4 4 4 4 4 4 4 4 4 4 4 4 4 4 4 4 4 4 4 4 4 4 4 4 4 4 4 4 4 4 4 4 4 4 4 4 4 4 4 4 4 4 4 4 4 4 4 4 4 4 4 4 4 4 4 4 4 4 4 4 4 4 4 4 4 4 4 4 4 4 4 4 4 4 4 4 4 4 4 4 4 4 4 4 4 4 4 4 4 4 4 4 4 4 4 4 4 4 4 4 4 4 4 4 4 4 4 4 4 4 4 4 4 4 4 4 4 4 4 4 4 4 4 4 4 4 4 4 4 5 $ ",
"wX-X7.4X4X4XwX4X4X4X=X=X4X8.0.8.5 5 5 5 5 5 5 5 5 5 5 5 5 5 5 5 5 5 5 5 5 5 5 5 5 5 5 5 5 5 5 5 5 5 5 5 5 5 5 5 5 5 5 5 5 5 5 5 5 5 5 5 5 5 5 5 5 5 5 5 5 5 5 5 5 5 5 5 5 5 5 5 5 5 5 5 5 5 5 5 5 5 5 5 5 5 5 5 5 5 5 5 5 5 5 5 5 5 5 5 5 5 5 5 5 5 5 5 5 5 5 5 5 5 5 5 5 5 5 5 5 5 5 5 5 5 5 5 5 5 5 5 5 5 5 5 5 5 5 5 5 5 5 5 5 5 5 5 5 5 5 5 5 5 5 5 5 5 5 5 5 5 5 5 5 5 5 5 5 5 5 5 5 5 5 5 5 5 5 5 5 5 5 5 5 5 5 5 5 5 5 5 5 5 5 5 5 5 5 5 5 5 5 5 5 5 5 5 5 5 5 5 5 5 5 5 5 5 5 5 5 5 5 5 5 5 5 5 5 5 5 5 5 5 5 5 5 5 5 5 ",
"4X=X8.-X4X4X4X=X-X4X=X-X-X0.M.B 5 5 5 5 5 5 5 5 5 5 5 5 5 5 5 5 5 5 5 5 5 5 5 5 5 5 5 5 5 5 5 5 5 5 5 5 5 5 5 5 5 5 5 5 5 5 5 5 5 5 5 5 5 5 5 5 5 5 5 5 5 5 5 5 5 5 5 5 5 5 5 5 5 5 5 5 5 5 5 5 5 5 5 5 5 5 5 5 5 5 5 5 5 5 5 5 5 5 5 5 5 5 5 5 5 5 5 5 5 5 5 5 5 5 5 5 5 5 5 5 5 5 5 5 5 5 5 5 5 5 5 5 5 5 5 5 5 5 5 5 5 5 5 5 5 5 5 5 5 5 5 5 5 5 5 5 5 5 5 5 5 5 5 5 5 5 5 5 5 5 5 5 5 5 5 5 5 5 5 5 5 5 5 5 5 5 5 5 5 5 5 5 5 5 5 5 5 5 5 5 5 5 5 5 5 5 5 5 5 5 5 5 5 5 5 5 5 5 5 5 5 5 5 5 5 5 5 5 5 5 5 5 5 5 5 5 5 5 5 5 ",
"C 7.8.7.7.6.6.7.7.7.7.8.7.7.B 5 5 5 5 5 5 5 5 5 5 5 5 5 5 5 5 5 5 5 5 5 5 5 5 5 5 5 5 5 5 5 5 5 5 5 5 5 5 5 5 5 5 5 5 5 5 5 5 5 5 5 5 5 5 5 5 5 5 5 5 5 5 5 5 5 5 5 5 5 5 5 5 5 5 5 5 5 5 5 5 5 5 5 5 5 5 5 5 5 5 5 5 5 5 5 5 5 5 5 5 5 5 5 5 5 5 5 5 5 5 5 5 5 5 5 5 5 5 5 5 5 5 5 5 5 5 5 5 5 5 5 5 5 5 5 5 5 5 5 5 5 5 5 5 5 5 5 5 5 5 5 5 5 5 5 5 5 5 5 5 5 5 5 5 5 5 5 5 5 5 5 5 5 5 5 5 5 5 5 5 5 5 5 5 5 5 5 5 5 5 5 5 5 5 5 5 5 5 5 5 5 5 5 5 5 5 5 5 5 5 5 5 5 5 5 5 5 5 5 5 5 5 5 5 5 5 5 5 5 5 5 5 5 5 5 5 5 5 5 5 5 ",
"5 5 5 5 5 5 5 5 5 5 5 5 5 5 5 5 5 5 5 5 5 5 5 5 5 5 5 5 5 5 5 5 5 5 5 5 5 5 5 5 5 5 5 5 5 5 5 5 5 5 5 5 5 5 5 5 5 5 5 5 5 5 5 5 5 5 5 5 5 5 5 5 5 5 5 5 5 5 5 5 5 5 5 5 5 5 5 5 5 5 5 5 5 5 5 5 5 5 5 5 5 5 5 5 5 5 5 5 5 5 5 5 5 5 5 5 5 5 5 5 5 5 5 5 5 5 5 5 5 5 5 5 5 5 5 5 5 5 5 5 5 5 5 5 5 5 5 5 5 5 5 5 5 5 5 5 5 5 5 5 5 5 5 5 5 5 5 5 5 5 5 5 5 5 5 5 5 5 5 5 5 5 5 5 5 5 5 5 5 5 5 5 5 5 5 5 5 5 5 5 5 5 5 5 5 5 5 5 5 5 5 5 5 5 5 5 5 5 5 5 5 5 5 5 5 5 5 5 5 5 5 5 5 5 5 5 5 5 5 5 5 5 5 5 5 5 5 5 5 5 5 5 5 5 5 5 ",
"5 $ 5 5 5 5 5 4 5 4 5 5 5 $ 5 5 5 5 5 5 5 5 5 5 5 5 5 5 5 5 5 5 5 5 5 5 5 5 5 5 5 5 5 5 5 5 5 5 5 5 5 5 5 5 5 5 5 5 5 5 5 5 5 5 5 5 5 5 5 5 5 5 5 5 5 5 5 5 5 5 5 5 5 5 5 5 5 5 5 5 5 5 5 5 5 5 5 5 5 5 5 5 5 5 5 5 5 5 5 5 5 5 5 5 5 5 5 5 5 5 5 5 5 5 5 5 5 5 5 5 5 5 5 5 5 5 5 5 5 5 5 5 5 5 5 5 5 5 5 5 5 5 5 5 5 5 5 5 5 5 5 5 5 5 5 5 5 5 5 5 5 5 5 5 5 5 e d 5 5 $ 5 5 5 5 5 5 5 5 5 5 5 5 d 5 5 5 5 5 5 5 5 5 5 5 5 5 5 5 5 5 5 5 5 5 5 5 5 5 5 5 d e 5 5 5 5 5 5 5 5 5 5 $ 5 5 5 5 5 5 5 5 5 5 5 5 5 5 5 5 5 $ 5 5 5 5 ",
"5 6.v 5 C c e d 7.f 5 f f g 5 5 5 5 5 5 5 5 5 5 5 5 5 5 5 5 5 5 5 5 5 5 5 5 5 5 5 5 5 5 5 5 5 5 5 5 5 5 5 5 5 5 5 5 5 5 5 5 5 5 5 5 5 5 5 5 5 5 5 5 5 5 5 5 5 5 5 5 5 5 5 5 5 5 5 5 5 5 5 5 5 5 5 5 5 5 5 5 5 5 5 5 5 5 5 5 5 5 5 5 5 5 5 5 5 5 5 5 5 5 5 5 5 5 5 5 5 5 5 5 5 5 5 5 5 5 5 5 5 5 5 5 5 5 5 5 5 5 5 5 5 5 5 5 5 5 5 5 5 5 5 5 5 5 5 5 5 5 5 5 5 5 e d $ e v f $ 5 $ $ $ $ # 5 f $ e d 5 5 5 5 5 5 5 5 5 5 5 e 5 f $ f 5 5 5 5 5 5 5 5 5 5 5 d e 5 5 5 5 5 5 5 5 5 5 f 5 5 f # 5 5 5 5 5 5 5 5 5 5 5 5 d g 4 5 5 $ ",
"5 C 8.0.0.=X=X6.8.0.6.=X0.M.c $ 5 5 5 5 5 5 5 5 5 5 5 5 5 5 5 5 5 5 5 5 5 5 5 5 5 5 5 5 5 5 5 5 5 5 5 5 5 5 5 5 5 5 5 5 5 5 5 5 5 5 5 5 5 5 5 5 5 5 5 5 5 5 5 5 5 5 5 5 5 5 5 5 5 5 5 5 5 5 5 5 5 5 5 5 5 5 5 5 5 5 5 5 5 5 5 5 5 5 5 5 5 5 5 5 5 5 5 5 5 5 5 5 5 5 5 5 5 5 5 5 5 5 5 5 5 5 5 5 5 5 5 5 5 5 5 5 5 5 5 5 5 5 5 5 5 5 5 5 5 5 5 5 5 5 5 5 5 5 5 5 e d 5 6.v =Xv v C C B C n 8.n # e d 5 5 5 5 5 5 5 5 5 $ g 0.7.0.v M.5 5 5 5 5 5 5 5 5 5 5 d e 5 5 5 5 5 5 5 5 $ v 7.v C 0.C c 4 5 5 5 5 5 5 5 5 5 5 7.v v C B 7.",
"5 n 8.C 6.6.6.C n v 0.8.C v g 4 5 5 5 5 5 5 5 5 5 5 5 5 5 5 5 5 5 5 5 5 5 5 5 5 5 5 5 5 5 5 5 5 5 5 5 5 5 5 5 5 5 5 5 5 5 5 5 5 5 5 5 5 5 5 5 5 5 5 5 5 5 5 5 5 5 5 5 5 5 5 5 5 5 5 5 5 5 5 5 5 5 5 5 5 5 5 5 5 5 5 5 5 5 5 5 5 5 5 5 5 5 5 5 5 5 5 5 5 5 5 5 5 5 5 5 5 5 5 5 5 5 5 5 5 5 5 5 5 5 5 5 5 5 5 5 5 5 5 5 5 5 5 5 5 5 5 5 5 5 5 5 5 5 5 5 5 5 5 5 5 e d 5 7.f 6.8.=X-X6.0.6.-X=Xn # e d 5 5 5 5 5 5 5 5 5 5 f =XM.M.0.0.5 5 5 5 5 5 5 5 5 5 5 d e 5 5 5 5 5 5 5 5 5 e 8.=X8.M.-Xv $ 5 5 5 5 5 5 5 5 5 d 6.8.=X-X0.7.",
"5 5 $ $ 5 $ 5 5 5 $ $ $ $ 4 5 5 5 5 5 5 5 5 5 5 5 5 5 5 5 5 5 5 5 5 5 5 5 5 5 5 5 5 5 5 5 5 5 5 5 5 5 5 5 5 5 5 5 5 5 5 5 5 5 5 5 5 5 5 5 5 5 5 5 5 5 5 5 5 5 5 5 5 5 5 5 5 5 5 5 5 5 5 5 5 5 5 5 5 5 5 5 5 5 5 5 5 5 5 5 5 5 5 5 5 5 5 5 5 5 5 5 5 5 5 5 5 5 5 5 5 5 5 5 5 5 5 5 5 5 5 5 5 5 5 5 5 5 5 5 5 5 5 5 5 5 5 5 5 5 5 5 5 5 5 5 5 5 5 5 5 5 5 5 5 5 4 e d $ f v d f v f d f d f g e 5 e d 5 5 5 5 5 5 5 5 5 5 5 f f f f v 5 5 5 5 5 5 5 5 5 5 5 d e 5 5 5 5 5 5 5 5 5 d v f c g g e 5 5 5 5 5 5 5 5 5 5 5 g v v c f f ",
"f f f f f f f f f f f f f f f f f f f f f f f f f f f f f f f f f f f f f f f f f f f f f f f f f f f f f f f f f f f f f f f f f f f f f f f f f f f f f f f f f f f f f f f f f f f f f f f f f f f f f f f f f f f f f f f f f f f f f f f f f f f f f f f f f f f f f f f f f f f f f f f f f f f f f f f f f f f f f f f f f f f f f f f f f f f f f f f d e d 4 $ # 4 $ # $ 4 $ 4 $ $ 5 5 5 d $ 5 5 5 5 5 5 5 5 5 5 $ $ $ $ # 5 5 5 5 5 5 5 5 5 5 4 e e 4 5 5 5 5 5 5 5 5 4 # $ # $ $ 5 5 5 5 5 5 5 5 5 5 5 5 4 # # 4 4 4 ",
"5 5 5 5 5 5 5 5 5 5 5 5 5 5 5 5 5 5 5 5 5 5 5 5 5 5 5 5 5 5 5 5 5 5 5 5 5 5 5 5 5 5 5 5 5 5 5 5 5 5 5 5 5 5 5 5 5 5 5 5 5 5 5 5 5 5 5 5 5 5 5 5 5 5 5 5 5 5 5 5 5 5 5 5 5 5 5 5 5 5 5 5 5 5 5 5 5 5 5 5 5 5 5 5 5 5 5 5 5 5 5 5 5 5 5 5 5 5 5 5 5 5 5 5 5 5 5 5 5 5 5 5 5 5 5 5 5 5 5 5 5 5 5 5 5 5 5 5 5 5 5 5 5 5 5 5 5 5 5 5 5 5 5 5 5 5 5 5 5 5 5 5 5 5 5 5 5 d 5 e e e e e e e e e e e e e d d 5 e e e e e e e e e e e e e e e e e e e e e e e e e 5 d d 5 e e e e e e e e e e e e e e e e e e e e e e e e 5 5 d d d d d d ",
"5 5 5 5 5 5 5 5 5 5 5 5 5 5 5 5 # # 5 5 # 5 5 5 5 5 5 5 5 5 5 5 5 5 5 5 5 5 5 5 5 5 5 $ $ $ 4 d $ $ e $ $ $ $ # e 5 5 5 5 5 5 5 5 5 5 5 5 5 d 5 $ $ $ $ # # $ $ $ 5 5 5 5 5 5 5 5 5 5 5 5 d $ $ $ $ $ 5 5 $ 5 5 $ $ 5 5 5 5 5 5 5 5 5 5 5 5 5 5 5 5 5 5 5 5 5 f e e 5 5 5 5 5 5 5 5 5 5 5 5 5 5 5 5 5 5 5 5 5 5 5 5 5 5 5 5 5 f e e 5 5 5 5 5 5 5 5 5 5 5 5 5 5 5 f d d d d d d d d d d d d d d f f d 8 8 8 8 8 8 8 8 8 8 8 8 8 8 8 8 8 8 8 8 8 8 8 8 8 d f f d 9 9 9 9 9 9 9 9 9 9 9 9 9 9 9 9 9 9 9 9 9 9 9 d e 6 ..>.>.>.>.>.",
"5 5 5 5 5 5 5 5 5 5 5 5 f 0.C 7.v g 0.B v 5 5 5 5 5 5 5 5 5 5 5 5 5 5 5 5 5 5 5 $ c v f n c n 7.f v 0.n v v v c 0.d 5 5 5 5 5 5 5 5 5 5 5 f =X6.v n c v n 6.v n v 5 5 5 5 5 5 5 5 5 5 $ n =Xn v c v B 7.n f n 8.v g 5 5 5 5 5 5 5 5 5 5 5 5 5 5 5 5 5 $ v g B n 0.c 4 5 5 5 5 5 5 5 5 5 5 5 5 5 5 5 5 5 5 5 5 5 5 5 5 5 C B 8.v 0.v 4 5 5 5 5 5 5 5 5 5 5 5 5 5 e e $ 5 5 5 5 5 5 5 5 5 5 5 5 4 5 d $ i ,.,.,.,.,.,.,.,.,.,.,.,.,.,.,.,.,.,.,.,.,.,.,.i $ e e 4 ; ; ; ; ; ; ; ; ; ; ; ; ; ; ; ; ; ; ; ; ; ; ; 5 5 5 g v c c v c ",
"5 5 5 5 5 5 5 5 5 5 5 5 d =X=X=X8.M.8.-X0.5 5 5 5 5 5 5 5 5 5 5 5 5 5 5 5 5 5 5 $ v C C 0.0.7.-X6.-X=X7.-X0.=X=X0.d 5 5 5 5 5 5 5 5 5 5 $ g 8.B C =X0.-X=X8.8.0.0.5 5 5 5 5 5 5 5 5 5 # B =X=X=XM.-XB 8.0.=X0.0.8.7.$ 5 5 5 5 5 5 5 5 5 5 5 5 5 5 5 5 # n B 7.e 0.f 5 5 5 5 5 5 5 5 5 5 5 5 5 5 5 5 5 5 5 5 5 5 5 5 5 5 8.0.=X5 0.g 5 5 5 5 5 5 5 5 5 5 5 5 5 5 e d 5 5 5 4 5 5 5 5 5 5 5 5 5 5 e f @ '.JXmXmXmXmXmXmXmXmXmXmXmXmXmXmXmXmXmXmXmXmXmXJXmX@ d e 3 aXaXaXaXaXaXaX^ ^ ^ aXaX^ aXaX^ aXaXaXaXaXaXsXt 5 5 y b y y b y ",
"5 5 5 5 5 5 5 5 5 5 5 5 5 c v c v g n c c 5 5 5 5 5 5 5 5 5 5 5 5 5 5 5 5 5 5 5 5 d C v v c v g n C c f v v B v B 5 5 5 5 5 5 5 5 5 5 5 5 d d 5 d c v B c f f 0.v 5 5 5 5 5 5 5 5 5 5 5 f f v v B v v v g v f c 7.v $ 5 5 5 5 5 5 5 5 5 5 5 5 5 5 5 5 5 f C c B f 5 5 5 5 5 5 5 5 5 5 5 5 5 5 5 5 5 5 5 5 5 5 5 5 5 5 5 f e c B g 5 5 5 5 5 5 5 5 5 5 5 5 5 5 5 e d 5 5 5 6.n 5 e f 5 C e 5 5 5 e f @ '.`.T.T.T.`.`.`.'.'.`.`.'.`.`.`.`.`.`.`.T.T.T.`.'.@ e e 5 ^ ~ ~ ~ ~ ~ ~ ~ ~ ~ ~ ~ ~ ~ ~ ~ ~ ~ ~ ~ ~ ~ ^ t 5 5 y b x x b x ",
"5 5 5 5 5 5 5 5 5 5 5 5 5 $ $ $ $ $ # $ $ 5 5 5 5 5 5 5 5 5 5 5 5 5 5 5 5 5 5 5 5 5 # $ $ $ $ $ # # $ 4 $ $ # $ # 5 5 5 5 5 5 5 5 5 5 5 5 5 5 5 5 $ $ # $ $ 4 e $ 5 5 5 5 5 5 5 5 5 5 5 5 $ $ $ # $ $ $ $ $ 4 $ f 5 5 5 5 5 5 5 5 5 5 5 5 5 5 5 5 5 5 5 4 # $ $ 4 5 5 5 5 5 5 5 5 5 5 5 5 5 5 5 5 5 5 5 5 5 5 5 5 5 5 5 4 5 $ $ $ 5 5 5 5 5 5 5 5 5 5 5 5 5 5 5 e d 5 5 5 =X0.8.=X8.8.M.d 5 5 5 e f @ '.'.`.`.`.mXKX[.'.mXmXmXmX'.mXmX[.[.KXmX`.`.`.'.[.@ e e 3 ^ ~ ~ ~ ~ aX^ ~ ^ ^ ^ ^ ^ ~ aX^ ^ ^ ~ ~ ~ ~ aXt 5 5 y b x x b x ",
"5 5 5 5 5 5 5 5 5 5 5 5 5 5 5 5 5 5 5 5 5 5 5 5 5 5 5 5 5 5 5 5 5 5 5 5 5 5 5 5 5 5 5 5 5 5 5 5 5 5 5 5 5 5 5 5 5 5 5 5 5 5 5 5 5 5 5 5 5 5 5 5 5 5 5 5 5 5 5 5 5 5 5 5 5 5 5 5 5 5 5 5 5 5 5 5 5 5 5 5 5 5 5 5 5 5 5 5 5 5 5 5 5 5 5 5 5 5 5 5 5 5 5 5 5 5 5 5 5 5 5 5 5 5 5 5 5 5 5 5 5 5 5 5 5 5 5 5 5 5 5 5 5 5 5 5 5 5 5 5 5 5 5 5 5 5 5 5 5 5 5 5 5 5 5 5 e d 5 5 5 8.8.M.8.v 7.7.5 5 5 5 e f @ '.'.T.`.`.[.mX[.`.'.[.[.[.`.mX'.[.'.mX[.T.`.T.`.'.@ e e 5 ^ ~ ~ ~ ~ ^ ^ ~ ~ ^ ^ ^ ^ ~ ^ ~ ^ ^ ~ ~ ~ ~ ^ t 5 5 y b x x b x ",
"f f f f f f f f f f f f f f f f f f f f f f f f f f f f f f f f f f f f f f f f f f f f f f f f f f f f f f f f f f f f f f f f f f f f f f f f f f f f f f f f f f f f f f f f f f f f f f f f f f f f f f f f f f f f f f f f f f f f f f f f f f f f f f f f f f f f f f f f f f f f f f f f f f f f f f f f f f f f f f f f f f f f f f f f f f f f f f f e e d 5 5 5 5 5 5 5 5 5 5 5 5 5 5 e f @ '.[.`.'.'.'.`.'.'.'.'.'.'.'.`.'.'.'.'.'.'.'.`.[.mX@ e e 3 ^ ^ ~ ~ ~ ~ ~ ~ ~ ~ ~ ~ ~ ~ ~ ~ ~ ~ ~ ~ ~ ~ aXt 5 5 y b x x b x ",
"5 5 5 5 5 5 5 5 5 5 5 5 5 5 5 5 5 5 5 5 5 5 5 5 5 5 5 5 5 5 5 5 5 5 5 5 5 5 5 5 5 5 5 5 5 5 5 5 5 $ 5 5 5 5 5 5 5 5 5 5 5 5 5 5 5 5 5 5 5 5 5 5 5 5 5 $ 5 5 5 5 5 5 5 5 5 5 5 5 5 5 5 5 5 5 5 5 5 5 5 $ 5 5 5 5 5 5 5 5 5 5 5 5 5 5 5 5 5 5 5 5 5 5 5 5 5 5 5 5 5 5 5 5 5 5 5 5 5 5 5 5 5 5 5 5 5 5 5 5 5 5 5 5 5 5 5 5 5 5 5 5 5 5 5 5 5 5 5 5 5 5 5 5 5 5 5 4 e d 5 5 5 5 5 5 5 5 5 5 5 5 5 5 e f @ b.[.'.'.'.[.'.'.'.'.'.'.'.'.'.'.'.'.'.'.'.'.'.[.T.@ d e 3 / ^ ^ ^ ^ ^ ^ ^ ^ ^ ^ ^ ^ ^ ^ ^ ^ ^ ^ ^ ^ ^ / e 5 5 y b x x b x ",
"5 5 5 e 5 e 5 5 5 5 5 5 5 5 5 5 5 5 5 5 5 5 5 5 5 5 5 5 5 5 5 5 5 5 5 5 5 5 5 5 5 5 5 5 5 5 5 $ $ r 5 @ 5 5 5 5 5 5 5 5 5 5 5 5 5 5 5 5 5 5 5 5 5 @ 5 r $ $ 5 5 5 5 5 5 5 5 5 5 5 5 5 5 5 5 5 5 5 @ 5 r @ $ 5 5 5 5 5 5 5 5 5 5 5 5 5 5 5 5 5 5 5 5 5 5 5 5 5 5 5 5 5 5 5 5 5 5 5 5 5 5 5 5 5 5 5 5 5 5 5 5 5 5 5 5 5 5 5 5 5 5 5 5 5 5 5 5 5 5 5 5 5 5 5 5 5 5 e d 5 5 5 5 5 5 5 5 5 5 5 5 5 5 e d 5 @ @ @ @ @ @ @ @ @ @ @ @ @ @ @ @ @ @ @ @ @ @ @ @ @ 5 d e 5 3 3 3 3 @ 3 3 3 3 3 3 3 3 3 3 3 3 3 3 3 3 3 3 5 5 5 y b x x b x ",
"5 d g f g f f g g g g g g g g g g g g g g g g g g g g g g g f f v g 5 5 5 5 5 5 5 5 5 5 5 5 $ i c.c.T.<.5 5 5 5 5 5 5 5 5 5 5 5 5 5 5 5 5 5 5 5 5 v.'.'.E.u $ 5 5 5 5 5 5 5 5 5 5 5 5 5 5 5 5 5 5 T.'.'.E.u $ 5 5 5 5 5 5 5 5 5 5 d B n n n n n n n n n n n n n n n n n n n n n n n n B n 5 5 5 n n n n n n n n n n n n n n n n n n n n n n n n n n n n n C f $ e d 5 5 5 5 $ $ $ 4 $ $ $ 5 5 5 e d 5 5 5 $ 5 p i 5 5 5 5 5 5 5 5 5 5 5 e e e e 5 5 5 5 5 d e 5 5 $ $ i p r @ 5 5 5 5 5 5 5 5 5 e e e 5 5 5 5 5 5 5 y b x x b x ",
"4 v M.0.B 8.M.B f g g g g g g g g g g g g g g g g g g g g g f g 4X0.5 5 5 5 5 5 5 5 5 5 5 $ i T.4 O O c.c.@ 5 5 5 5 5 5 5 5 5 5 5 5 5 5 5 5 5 @ T.T.+ O 7 T.p $ 5 5 5 5 5 5 5 5 5 5 5 5 5 5 5 5 '.c.O O p NXu $ 5 5 5 5 5 5 5 5 4 f B g c c c c c c c c c c g v c c g c c c c c c c c c C 5 5 5 C g c c c c c c c c c c g g g v c c g c c c c c c c c c g B g $ e d 5 $ 7.8.f v n f n g v 5 5 5 e d 5 5 @ ,.'.E.E.c.u $ 5 5 5 5 5 5 $ 6.B 6.B 6.5 5 5 5 5 d e 5 $ r E.'.T.T.<.$ 5 5 5 5 5 5 5 8.v 7.B 6.5 5 5 5 5 5 y b x x b x ",
"$ C -X=X-X-XM.6.f g g g g g g g g g g g g g g g g g g g g g f v -X8.5 5 5 5 5 5 5 5 5 5 5 5 c.4 o v 8 . c.u $ 5 5 5 5 5 5 5 5 5 5 5 5 5 5 5 @ p '.. 5 5 o 4 c.5 5 5 5 5 5 5 5 5 5 5 5 5 5 5 @ v.T.. d v . <.E.@ 5 5 5 5 5 5 5 5 5 f n f g g g g g g g g g C C 6.0.v f g g g g g g g g g B 5 5 5 B f g g g g g g g g g f n 8.8.C 0.v f g g g g g g g g g f n g $ e d 5 $ 0.0.8.-X8.M.7.-X=X5 5 5 e d 5 $ i NXt .   s T.r 5 5 5 5 5 5 5 0.7.6.7.C 5 5 5 5 5 d e 5 5 '.<..   O T.p @ 5 5 5 5 5 e =XC 7.6.n 4 5 5 5 5 5 y b x x b x ",
"4 v 8.7.0.8.7.8.f g g g g g g g g g g g g g g g g g g g g g f g 4X8.5 5 5 5 5 5 5 5 5 5 $ t c.X c C 7.% <.<.@ 5 5 5 5 5 5 5 5 5 5 5 5 5 5 5 @ v.c.. B n n X c.t $ 5 5 5 5 5 5 5 5 5 5 5 5 5 @ T.p % 6.B # O T.5 5 5 5 5 5 5 5 5 5 f B f g g g g g g g g c 0.0.C M.c g g g g g g g g g g B 5 5 5 B g g g g g g g g g g f C =X=XB M.v g g g g g g g g g g f n g $ e d 5 5 g v 6.B f v =XB v 5 5 5 e d 5 @ E.p . c e . <.<.@ 5 5 5 5 5 5 v B n 6.C 5 5 5 5 5 d e @ x.T.. f r @ 4 c.5 5 5 5 5 5 5 n n n 7.v 5 5 5 5 5 5 y b x x b x ",
"5 e f g f f c f g g g g g g g g g g g g g g g g g g g g g g f f g f 5 5 5 5 5 5 5 5 5 5 5 r c.X $ g n . <.,.@ 5 5 5 5 5 5 5 5 5 5 5 5 5 5 5 @ x.T.. c C d X c.r 5 5 5 5 5 5 5 5 5 5 5 5 5 5 @ T.<.. n B @ 4 c.$ 5 5 5 5 5 5 5 5 4 f n f f f f f f f f f f B n B c f f f f f f f f f f f B 5 5 5 B f f f f f f f f f f f g c v C v f f f f f f f f f f f f n g $ e d 5 5 5 $ + # # 5 c 5 4 5 5 5 e d 5 5 E.4 5 B 6.8 7 c.@ 5 5 5 5 5 5 # # # + # 4 5 5 5 5 d e @ c.<.o B C n O c.r 5 5 5 5 5 5 + # # + $ 5 5 5 5 5 5 y b x x b x ",
"5 5 5 5 5 5 5 5 5 5 5 5 5 5 5 5 5 5 5 5 5 5 5 5 5 5 5 5 5 5 5 5 5 5 5 5 5 5 5 5 5 5 5 5 5 @ v.<.  O X 7 T.5 5 5 5 5 5 5 5 5 5 5 5 5 5 5 5 5 5 r '.s . +   <.v.@ 5 5 5 5 5 5 5 5 5 5 5 5 5 5 @ i '.# o + X c.<.@ 5 5 5 5 5 5 5 5 5 f 6.n B B B B B B B B B n n n n B B B B B B B B B B B C 5 5 5 C n B B B B B B B B B B n n n n n B B B B B B B B B B B n C f $ e d 5 5 5 5 B c c g v 5 5 5 5 5 e d 5 @ E.s . v v . p v.@ 5 5 5 5 5 g 6.C B 6.f n $ 5 5 5 d e @ v.T.. f B @ O T.5 5 5 5 5 5 v 6.C C C c v $ 5 5 5 5 y b x x b x ",
"5 5 5 5 5 5 5 5 5 5 5 5 5 5 5 5 5 5 5 5 5 5 5 5 5 5 5 5 5 5 5 5 5 5 5 5 5 5 5 5 5 5 5 5 5 5 r c.e + @ v.i @ 5 5 5 5 5 5 5 5 5 5 5 5 5 5 5 5 5 @ ,.T.% + 5 c.5 5 5 5 5 5 5 5 5 5 5 5 5 5 5 5 5 @ c.v.% + u c.$ 5 5 5 5 5 5 5 5 5 5 5 f f f f f f f f f f f f f f f f f f f f f f f f f f d 5 5 5 d f f f f f f f f f f f f f f f f f f f f f f f f f f f f f 5 5 e d 5 5 5 e 8.M.0.8.8.g $ 5 5 5 e d 5 @ p NX# X X 7 T.r 5 5 5 5 5 5 e =X0.-X=X=X0.$ 5 5 5 d e 5 5 '.<.  O X c.<.@ 5 5 5 5 4 g =X0.-XM.=X6.# 5 5 5 5 y b x x b x ",
"5 d g f g g g f c c f g g g g g g g g g g g g g g g g g g g f f B c 5 5 5 5 5 5 5 5 5 5 5 5 5 $ 5 5 5 5 $ 5 5 5 5 5 5 5 5 5 5 5 5 5 5 5 5 5 5 5 $ $ 5 5 5 $ 5 5 5 5 5 5 5 5 5 5 5 5 5 5 5 5 5 5 @ 5 5 5 5 $ 5 5 5 5 5 5 5 5 5 5 5 5 5 5 5 5 5 5 5 5 5 5 5 5 5 5 5 5 5 5 5 5 5 5 5 5 5 4 5 5 5 5 5 4 5 5 5 5 5 5 5 5 5 5 5 5 5 5 5 5 5 5 5 5 5 5 5 5 5 5 5 5 5 5 e d 5 5 5 5 8.v n 8.6.f 4 5 5 5 e d 5 5 @ c.p @ @ p p @ 5 5 5 5 5 5 c 6.C 6.7.C C 5 5 5 5 d e 5 @ ,.v.@ $ r <.5 5 5 5 5 5 5 n C C 6.7.6.B $ 5 5 5 5 y b x x b x ",
"$ B 6.8.C n 0.n =XC v g g g g g g g g g g g g g g g g g g g f g 4X0.5 5 5 5 5 5 5 5 5 5 5 5 5 5 5 5 5 5 5 5 5 5 5 5 5 5 5 5 5 5 5 5 5 5 5 5 5 5 5 5 5 5 5 5 5 5 5 5 5 5 5 5 5 5 5 5 5 5 5 5 5 5 5 5 5 5 5 5 5 5 5 5 5 5 5 5 5 5 5 5 5 5 5 5 5 5 5 5 5 5 5 5 5 5 5 5 5 5 5 5 5 5 5 5 5 5 5 5 5 5 5 5 5 5 5 5 5 5 5 5 5 5 5 5 5 5 5 5 5 5 5 5 5 5 5 5 5 5 5 5 5 5 e d 5 5 5 5 f 5 5 5 f 5 5 5 5 5 e f 5 5 5 @ $ 5 5 $ $ 5 5 5 5 5 5 5 5 5 5 5 5 # 4 5 5 5 5 d d 5 5 $ @ 5 5 5 @ 5 5 5 5 5 5 5 5 5 5 5 5 # 5 5 5 5 5 5 y b x x b x ",
"$ C -X-X-XM.=X=X=X=X-Xn f g g g g g g g g g g g g g g g g g f v -X8.5 5 5 5 5 5 5 5 5 5 5 5 5 5 5 5 5 5 5 5 5 5 5 5 5 5 5 5 5 5 5 5 5 5 5 5 5 5 5 5 5 5 5 5 5 5 5 5 5 5 5 5 5 5 5 5 5 5 5 5 5 5 5 5 5 5 5 5 5 5 5 5 5 5 5 5 5 5 5 5 5 5 5 5 5 5 5 5 5 5 5 5 5 5 5 5 5 5 5 5 5 5 5 5 5 5 5 5 5 5 5 5 5 5 5 5 5 5 5 5 5 5 5 5 5 5 5 5 5 5 5 5 5 5 5 5 5 5 5 5 5 5 5 5 5 4 $ 4 # $ 4 $ # $ $ $ $ $ 5 5 $ 4 $ 4 4 $ $ 4 4 $ $ $ $ $ $ $ $ $ $ 4 $ 5 5 $ $ $ $ 5 5 $ $ 4 4 $ $ 4 4 $ $ $ $ $ $ $ $ 4 $ 4 $ 5 4 $ 4 5 5 5 y b x x b x ",
"5 v 0.8.8.8.0.8.0.7.0.c g g g g g g g g g g g g g g g g g g f g 4X8.5 5 5 5 5 5 5 5 5 5 5 5 5 5 5 5 5 5 5 5 5 5 5 5 5 5 5 5 5 5 5 5 5 5 5 5 5 5 5 5 5 5 5 5 5 5 5 5 5 5 5 5 5 5 5 5 5 5 5 5 5 5 5 5 5 5 5 5 5 5 5 5 5 5 5 5 5 5 5 5 5 5 5 $ 5 f 5 $ 5 5 5 5 5 5 5 5 5 5 5 5 5 5 5 5 5 5 5 5 5 5 5 5 5 $ 5 f 5 # 5 5 5 5 5 5 5 5 5 5 5 5 5 5 5 5 5 5 5 5 5 5 5 5 5 5 5 g g g g g g g g g g g g g g g g g g g g g g g g g g g g g g g g g g g g g g g g g g g g g g g g g g g g g g g g g g g g g g g g g g g f 5 5 5 y b x x b x ",
"5 e f f f f f f f f f g g g g g g g g g g g g g g g g g g g f f f f 5 5 5 5 5 5 5 5 5 5 5 5 7.c v 7.6.6.7.e 5 5 5 5 5 5 5 5 5 5 5 5 5 5 5 5 5 # g C n n c 7.7.n $ 5 5 5 5 5 5 5 5 5 5 5 5 5 5 4 f C C n g 8.5 5 5 5 5 5 5 5 5 5 5 5 5 5 5 6.;XS.S.c 5 5 5 5 5 5 5 5 5 4 c v v v n 5 5 5 5 5 5 5 5 5 $ N ;XS.;XN.5 5 5 5 5 5 5 5 5 5 d v n c B c B 5 5 5 5 5 5 5 5 f B c c c c c c c c c c c c c c c c c c c c c c c c c c c c c c c c c c c c c c c c c c c c c c c c c c c c c c c c c c c c c c c c c c c N N 5 5 y b x x b x ",
"5 5 5 5 5 5 5 5 5 5 5 5 5 5 5 5 5 5 5 5 5 5 5 5 5 5 5 5 5 5 5 5 5 5 5 5 5 5 5 5 5 5 5 5 4 f 7.C B M.0.=X7.c $ 5 5 5 5 5 5 5 5 5 5 5 5 5 5 5 5 g c C v n n 0.M.C 5 5 5 5 5 5 5 5 5 5 5 5 5 5 5 5 5 8.6.C B 8.g $ 5 5 5 5 5 5 5 5 5 5 5 # N.S.+ X % N.N $ 5 5 5 5 5 5 5 4 B B v n v 5 5 5 5 5 5 5 5 $ N ;X$ X + N.N.$ 5 5 5 5 5 5 5 5 5 n g 6.7.c v 5 5 5 5 5 5 5 5 n d e e e e e d g 5 e e e 5 f f 5 e e e 5 f f 5 e e e 5 f e e e e e 5 g e e e e e e f e 9 ; t 5 f j.5 d e e e d f 5 ,.r 4 k 6XB 5 e e 5 t ^ V f $ y b x x b x ",
"5 5 e e e e e e e e e e 5 e e e e e e e e e e e e e e e e e 5 e 5 5 5 5 5 5 5 5 5 5 5 5 5 5 C B n C C B 6.5 5 5 5 5 5 5 5 5 5 5 5 5 5 5 5 5 5 5 5 v 7.n n C C v $ 5 5 5 5 5 5 5 5 5 5 5 5 5 5 5 5 c B C v 6.5 5 5 5 5 5 5 5 5 5 5 5 $ f ;XX $ 5 + % N.5 5 5 5 5 5 5 5 5 f n v n n 5 5 5 5 5 5 5 5 5 ;X# O v +   N.f 4 5 5 5 5 5 5 5 5 f f v v c d 5 5 5 5 5 5 5 5 n 5 5 5 5 5 5 5 f 5 5 5 5 5 e e 4 5 5 5 4 d d 4 5 5 5 5 f 5 5 5 5 5 5 f 5 5 5 5 5 5 f 5 3 ; - 4 9 k.# 5 5 5 5 5 f $ ,.r c f.6XB + 5 5 5 ^ E m g $ y b x x b x ",
"5 f g f f f f f f f g f c g g g g g g g g g g g g g g g g g f f C v 5 5 5 5 5 5 5 5 5 5 5 5 4 $ $ $ $ $ 4 5 5 5 5 5 5 5 5 5 5 5 5 5 5 5 5 5 5 5 5 5 $ $ # $ $ 5 5 5 5 5 5 5 5 5 5 5 5 5 5 5 5 5 5 $ $ $ $ $ 5 5 5 5 5 5 5 5 5 5 5 5 # B N.  B n C X C g 4 5 5 5 5 5 5 5 5 $ 5 $ 5 5 5 5 5 5 5 5 $ f S.X v C v % v N $ 5 5 5 5 5 5 5 5 5 5 $ $ 4 5 5 5 5 5 5 5 5 5 n 5 5 5 5 5 5 5 f 5 5 5 5 5 e d 5 5 5 5 5 f d 5 5 5 5 5 f 5 5 5 5 5 5 f 5 5 5 5 5 5 f 5 3 ; t 5 f k.# 5 5 5 5 5 f $ ,.B 8.g.7XB $ 5 3 / W 9 c g $ y b x x b x ",
"5 c 0.B C 6.n B B C v v 8.c g g g g g g g g g g g g g g g g f g 4X0.5 5 5 5 5 5 5 5 5 5 5 5 5 5 d 5 5 5 5 5 5 5 5 5 5 5 5 5 5 5 5 5 5 5 5 5 5 5 5 4 v C C 5 5 5 5 5 5 5 5 5 5 5 5 5 5 5 5 5 5 5 5 e d 5 e 5 5 5 5 5 5 5 5 5 5 5 5 5 $ v S.  f C f X N.f 5 5 5 5 5 5 5 5 5 d f d 5 5 5 5 5 5 5 5 5 e ;XX 5 B v   V v $ 5 5 5 5 5 5 5 5 5 d f d 5 5 5 5 5 5 5 5 5 5 n 5 5 5 5 4 $ 5 f 5 5 5 4 $ 5 d 5 5 5 $ # d d 5 5 5 5 $ f 5 5 5 5 $ $ f 5 5 5 5 4 5 f 5 3 ; - $ 8 k.# 5 5 4 $ 5 f $ ,.c c M 7XB + 3 W / 3 e c g $ y b x x b x ",
"5 g M.=X=X=X-X-X8.=X0.-X-Xg g g g g g g g g g g g g g g g g f v -X8.5 5 5 5 5 5 5 5 5 5 5 5 $ 6.=X7.8.v $ 5 5 5 5 5 5 5 5 5 5 5 5 5 5 5 5 5 5 5 $ v M.M.=Xf $ 5 5 5 5 5 5 5 5 5 5 5 5 5 5 5 5 5 5 0.M.6.8.f 5 5 5 5 5 5 5 5 5 5 5 5 5 5 G.N   %   c 6.4 5 5 5 5 5 5 5 5 e 6.B B f 5 5 5 5 5 5 5 5 $ N.N.  % X e N.5 5 5 5 5 5 5 5 5 5 e 6.B B f 5 5 5 5 5 5 5 5 5 v 5 5 5 5 c g f f 5 5 5 c d c e 5 5 5 n c g e 5 5 5 g c g 5 5 5 5 c c f 5 5 4 f c f f 5 3 ; l f v k.# 5 5 g g g e $ ,.5 + q 6XC 9 E ^ 5 5 e c g $ y b x x b x ",
"5 g 0.B 6.7.8.6.n B 8.M.8.g g g g g g g g g g g g g g g g g f f 4X7.5 5 5 5 5 5 5 5 5 5 5 5 5 n B B 6.C $ 5 5 5 5 5 5 5 5 5 5 5 5 5 5 5 5 5 5 5 $ v 8.7.0.f 4 5 5 5 5 5 5 5 5 5 5 5 5 5 5 5 5 5 5 C B n 7.c $ 5 5 5 5 5 5 5 5 5 5 5 5 $ c S.$ + 5 6.e 5 5 5 5 5 5 5 5 5 e v v 6.5 5 5 5 5 5 5 5 5 5 e S.e + # C g $ 5 5 5 5 5 5 5 5 5 e v v 6.5 5 5 5 5 5 5 5 5 5 v d 8.B d 6.=Xn f 5 5 f 0.0.7.5 5 5 d B n v e 5 5 n 0.6.n 5 5 5 C M.8.g 5 5 5 c =XC f 5 3 ; g 6.g.k.4 5 d B v n e $ ,.e # k 6X8.' aX- 5 5 e c g $ y b x x b x ",
"5 e f f f f f f f f f f f f f f f f f f f f f f f f f f f g f f f f 5 5 5 5 5 5 5 5 5 5 5 5 5 5 5 5 5 5 5 5 5 5 5 5 5 5 5 5 5 5 5 5 5 5 5 5 5 5 5 5 e 5 e 5 5 5 5 5 5 5 5 5 5 5 5 5 5 5 5 5 5 5 5 5 5 5 5 5 5 5 5 5 5 5 5 5 5 5 5 5 5 5 5 $ 5 5 5 4 5 5 5 5 5 5 5 5 5 5 5 5 5 5 5 5 5 5 5 5 5 5 5 5 5 $ 5 5 5 5 5 5 5 5 5 5 5 5 5 5 5 5 5 5 5 5 5 5 5 5 5 5 5 5 5 v 5 n g 5 c n v d $ $ d n v v 5 $ 5 f f n f 5 $ 5 g B n g 4 $ 5 g B n f 5 $ 5 c n n f 4 3 ; V c C k.# 5 5 f n g 5 @ ,.5 + k 6X] ( ; 3 $ $ 5 c g $ y b x x b x ",
"5 5 5 5 5 5 5 5 5 5 5 5 5 5 5 5 5 5 5 5 5 5 5 5 5 5 5 5 5 5 5 5 5 5 5 5 5 5 5 5 5 5 5 5 5 5 5 5 5 5 5 5 5 5 5 5 5 5 5 5 5 5 5 5 5 5 5 5 5 5 5 5 5 5 5 5 5 5 5 5 5 5 5 5 5 5 5 5 5 5 5 5 5 5 5 5 5 5 5 5 5 5 5 5 5 5 5 5 5 5 5 5 5 5 5 5 5 5 5 5 5 5 5 5 5 5 5 5 5 5 5 5 5 5 5 5 5 5 5 5 5 5 5 5 5 5 5 5 5 5 5 5 5 5 5 5 5 5 5 5 5 5 5 5 5 5 5 5 5 5 5 5 5 5 5 5 5 v 5 f f f f d f v f f f f d g c f f f f f v c f f f f f v f f f d f f v f f f f f f v f f ; f d c l.r f f f f g v d x.c t ' >XaXE 9 f f f g c g $ y b x x b x ",
"5 5 5 5 5 5 5 5 5 5 5 5 5 5 5 5 5 5 5 5 5 5 5 5 5 5 5 5 5 5 5 5 5 5 5 5 5 5 5 5 5 5 5 5 5 5 5 5 5 5 5 5 5 5 5 5 5 5 5 5 5 5 5 5 5 5 5 5 5 5 5 5 5 5 5 5 5 5 5 5 5 5 5 5 5 5 5 5 5 5 5 5 5 5 5 5 5 5 5 5 5 5 5 5 5 5 5 5 5 5 5 5 5 5 5 5 5 5 5 5 5 5 5 5 5 5 5 5 5 5 5 5 5 5 5 5 5 5 5 5 5 5 5 5 5 5 5 5 5 5 5 5 5 5 5 5 5 5 5 5 5 5 5 5 5 5 5 5 5 5 5 5 5 5 5 5 5 v n =XM.M.M.M.M.=X0.M.M.M.M.=X=X0.M.M.M.0.=X=X0.M.M.M.M.=XM.M.M.M.M.M.=XM.M.M.M.M.M.=XM.g.{ N.0.=XuXM.M.M.M.M.M.=X0.~.M.] { :.~ N.0.0.0.0.0.c g $ y b x x b x ",
"f f f f f f f f f f f f f f f f f f f f f f f f f f f f f f f f f f f f f f f f f f f f f f f f f f f f f f f f f f f f f f f f f f f f f f f f f f f f f f f f f f f f f f f f f f f f f f f f f f f f f f f f f f f f f f f f f f f f f f f f f f f f f f f f f f f f f f f f f f f f f f f f f f f f f f f f f f f f f f f f f f f f f f f f f f f f f f f f 5 n 4 # # # # # $ d + # # # + 5 5 + # # $ + 5 5 + # # # # e $ # # # # # d $ # # # # # e $ + ; - + 8 k.+ $ # # # 5 e + <.4 : ! *.W - + e v n 5 c g $ y b x x b x ",
"5 5 5 5 5 5 5 5 5 5 5 5 5 5 5 5 5 5 5 5 5 5 5 5 5 5 5 5 5 5 5 5 5 5 5 5 5 5 5 5 5 5 5 5 5 5 5 5 5 5 5 5 5 5 5 5 5 5 5 5 5 5 5 5 5 5 5 5 5 5 5 5 5 5 5 5 5 5 5 5 5 5 5 5 5 5 5 5 5 5 5 5 5 5 5 5 5 5 5 5 5 5 5 5 5 5 5 5 5 5 5 5 5 5 5 5 5 5 5 5 5 5 5 5 5 5 5 5 5 5 5 5 5 5 5 5 5 5 5 5 5 5 5 5 5 5 5 5 5 5 5 5 5 5 5 5 5 5 5 5 5 5 5 5 5 5 5 5 5 5 5 5 5 5 5 5 5 n 5 5 5 5 5 5 5 f 5 5 5 5 5 d d 5 5 5 5 5 f f 5 5 5 5 5 f 5 5 5 5 5 5 g 5 5 5 5 5 5 f 5 3 ; t 5 f k.4 5 5 5 5 5 f $ ,.3 E gX7X` $ e 7.8.0.g g g $ y b x x b x ",
"5 5 5 5 5 5 5 5 5 5 5 5 5 5 5 5 5 5 5 5 5 5 5 5 5 5 5 5 5 5 5 5 5 5 5 5 5 5 5 5 5 5 5 5 5 5 5 5 @ @ @ $ 5 5 5 5 5 5 5 5 5 5 5 5 5 5 5 5 5 5 5 5 5 @ @ @ @ 5 5 5 5 5 5 5 5 5 5 5 5 5 5 5 5 5 5 5 5 @ @ @ @ 5 5 5 5 5 5 5 5 5 5 5 5 5 $ $ $ $ $ $ $ $ $ $ $ $ $ $ $ $ $ $ $ $ $ $ $ $ $ $ 4 5 5 5 $ $ $ $ $ $ $ $ $ $ $ $ $ $ $ $ $ $ $ $ $ $ $ $ $ $ $ $ $ $ 5 5 5 n 5 5 5 5 5 5 5 f 5 5 5 5 5 e d 5 5 5 5 5 d d 5 5 5 5 5 f 5 5 5 5 5 5 f 5 5 5 5 5 5 f 5 3 ; - 4 9 k.# 5 5 5 5 5 f $ ,.; aXMX6Xn $ 5 v v v d c g $ y b x x b x ",
"5 d g f f f f g g g g g g g g g g g g g g g g g g g g g g g f f v g 5 5 5 5 5 5 5 5 5 5 5 5 $ 5 <.c.c.u @ 5 5 5 5 5 5 5 5 5 5 5 5 5 5 5 5 5 5 5 @ i T.E.T.5 $ 5 5 5 5 5 5 5 5 5 5 5 5 5 5 5 5 5 @ ,.E.E.v.$ 5 5 5 5 5 5 5 5 5 5 5 5 v c v v v v v v v v v v v v v v v v v v v v v v c v g 5 5 5 c v c v v v v v v v v c v v v v v v v v v v v v v v v v c v e 5 5 n 5 5 5 5 5 5 5 f 5 5 5 5 5 e d 5 5 5 5 5 d d 5 5 5 5 5 f 5 5 5 5 5 5 f 5 5 5 5 5 5 f 5 3 ; - 4 9 k.# 5 5 5 5 5 f 3 x.aX; BX6XN $ 5 4 5 $ 5 c g $ y b x x b x ",
"4 v 0.8.B 7.0.B f g g g g g g g g g g g g g g g g g g g g g f g 4X0.5 5 5 5 5 5 5 5 5 5 5 5 r T.<.7 s T.<.@ 5 5 5 5 5 5 5 5 5 5 5 5 5 5 5 5 5 @ x.'.<.s c.NXu $ 5 5 5 5 5 5 5 5 5 5 5 5 5 5 5 @ T.E.p s T.'.5 5 5 5 5 5 5 5 5 5 4 f C v v v v v v v v v v v v v v v v v v v v v v v v v C 5 5 5 C v v v v v v v v v v v v v v v v v v v v v v v v v v v v C g $ 5 n 5 5 5 5 5 5 5 f 5 5 5 5 5 e d 5 5 5 5 5 d d 5 5 5 5 5 f 5 5 5 5 5 5 f 5 5 5 5 5 5 f 5 3 ; - 4 9 k.# 5 5 5 5 5 f $ | ; i BX6XB $ 5 5 5 5 e c g $ y b x x b x ",
"$ C -X=X=X-XM.6.f g g g g g g g g g g g g g g g g g g g g g f v -X8.5 5 5 5 5 5 5 5 5 5 5 $ c.i . 5 % O T.r 5 5 5 5 5 5 5 5 5 5 5 5 5 5 5 5 $ u '.+ . 8 . <.E.@ 5 5 5 5 5 5 5 5 5 5 5 5 5 5 @ ,.E.. % 8 . c.c.@ 5 5 5 5 5 5 5 5 5 f n f f f f f f f f f g n v 6.6.c f f f f f f f f f f B 5 5 5 B f f f f f f f f f f f v B B C 7.v f f f f f f f f f f f n f $ 5 n 5 5 5 5 5 5 5 f 5 5 5 5 5 e e 5 5 5 5 5 d d 5 5 5 5 5 f 5 5 5 5 5 5 f 5 5 5 5 5 5 f 5 3 ; - 4 9 k.# 5 5 5 5 e 9 ~ | 3 x.XXl.B $ 5 5 5 5 e c g $ y b x x b x ",
"$ v 8.7.M.8.7.8.f g g g g g g g g g g g g g g g g g g g g g f g 4X8.5 5 5 5 5 5 5 5 5 5 5 r c.X f 7.7.o <.<.@ 5 5 5 5 5 5 5 5 5 5 5 5 5 5 5 @ v.c.. B C 5   c.r 5 5 5 5 5 5 5 5 5 5 5 5 5 5 @ T.<.o 6.C + # E.$ 5 5 5 5 5 5 5 5 5 f B f g g g g g g g g c 8.8.B =Xv g g g g g g g g g g B 5 5 5 B g g g g g g g g g g f C =X-Xn =Xv g g g g g g g g g g f n f $ 5 n 5 5 5 5 5 5 5 f 5 5 5 5 5 e d 5 5 5 5 5 f d 5 5 5 5 5 f 5 5 5 5 5 5 f 5 5 5 5 5 5 f 5 3 ; t 4 f k.4 5 5 5 5 9 / ~ ,.@ c.R.l.B $ 5 5 5 5 e c g $ y b x x b x ",
"5 d f g f f c f g g g g g g g g g g g g g g g g g g g g g g f f g f 5 5 5 5 5 5 5 5 5 5 5 r c.X d c C o <.<.@ 5 5 5 5 5 5 5 5 5 5 5 5 5 5 5 @ v.c.. n C g X c.r 5 5 5 5 5 5 5 5 5 5 5 5 5 5 @ T.p o B n $ O c.5 5 5 5 5 5 5 5 5 5 f n f f f f f f f f f f 7.C C B f f f f f f f f f f f B 5 5 5 B f f f f f f f f f f f v n C 6.B f f f f f f f f f f f f n f $ 5 v 5 f f f f f f v f f f f f g g f f f f d c g f f f f f c f f f f f f v f f f f f f c f 9 ; f d c l.e f f f 9 E ^ 9 x.8 T.A.pX6.5 f d f f f c g $ y b x x b x ",
"5 5 5 5 5 5 5 5 5 5 5 5 5 5 5 5 5 5 5 5 5 5 5 5 5 5 5 5 5 5 5 5 5 5 5 5 5 5 5 5 5 5 5 5 5 $ c.s   $ + O c.t $ 5 5 5 5 5 5 5 5 5 5 5 5 5 5 5 $ i '.O % e o s c.$ 5 5 5 5 5 5 5 5 5 5 5 5 5 5 @ ,.E.  # 5 . <.v.@ 5 5 5 5 5 5 5 5 4 f C v v v v v v v v v v v v v v v v v v v v v v v v v C 5 5 5 C v v v v v v v v v v v v v c v v v v v v v v v v v v v v C g $ 5 n 5 5 5 5 5 5 5 f 5 5 5 5 5 e e 5 5 5 5 5 d d 5 5 5 5 5 f 5 5 5 5 5 5 f 5 5 5 5 5 5 f 5 3 ; - 4 9 k.# 5 5 3 ; aXr @ ,.@ `.5.6XN 5 f g 5 5 e c g $ y b x x b x ",
"5 5 5 5 5 5 5 5 5 5 5 5 5 5 5 5 5 5 5 5 5 5 5 5 5 5 5 5 5 5 5 5 5 5 5 5 5 5 5 5 5 5 5 5 5 $ u T.# O o c.<.@ 5 5 5 5 5 5 5 5 5 5 5 5 5 5 5 5 5 @ c.E.o O # T.u $ 5 5 5 5 5 5 5 5 5 5 5 5 5 5 5 @ '.v.. o t T.5 5 5 5 5 5 5 5 5 5 5 5 v v v v v v v v v v v v v v v v v v v v v v v v v v c 5 5 5 c v v v v v v v v v v v v v v v v v v v v v v v v v v v v v e 5 5 n 5 5 5 5 5 5 5 f 5 5 5 5 5 e d 5 5 5 5 5 d d 5 5 5 5 5 f 5 5 5 5 5 5 f 5 5 5 5 5 5 f 5 3 ; - 4 9 k.# 5 3 - aX; 9 $ ,.5 '.6.6XB g n n e 5 e c g $ y b x x b x ",
"5 d g f g g g f g g f g g g g g g g g g g g g g g g g g g g f f n c 5 5 5 5 5 5 5 5 5 5 5 5 $ r 5 5 5 r 5 5 5 5 5 5 5 5 5 5 5 5 5 5 5 5 5 5 5 5 5 r 5 5 5 r $ 5 5 5 5 5 5 5 5 5 5 5 5 5 5 5 5 5 5 r 5 5 r 5 5 5 5 5 5 5 5 5 5 5 5 5 $ $ $ $ $ $ $ $ $ $ $ $ $ $ $ $ $ $ $ $ $ $ $ $ $ $ 4 5 5 5 $ $ $ $ $ $ $ $ $ $ $ $ $ $ $ $ $ $ $ $ $ $ $ $ $ $ $ $ $ $ 5 5 5 n 5 5 5 5 5 5 5 f 5 5 5 5 5 e d 5 5 5 5 5 d d 5 5 5 5 5 f 5 5 5 5 5 5 f 5 5 5 5 5 5 f 5 3 ; - 4 9 k.# 5 5 ^ E 3 f $ ,.r [.M 6XB 5 v C 5 5 e c g $ y b x x b x ",
"$ B 6.7.C v 0.n =XC v g g g g g g g g g g g g g g g g g g g f g 4X0.5 5 5 5 5 5 5 5 5 5 5 5 5 5 5 5 5 5 5 5 5 5 5 5 5 5 5 5 5 5 5 5 5 5 5 5 5 5 5 $ 5 5 5 5 5 5 5 5 5 5 5 5 5 5 5 5 5 5 5 5 5 5 5 5 5 5 5 5 5 5 5 5 5 5 5 5 5 5 5 5 5 5 5 5 5 5 5 5 5 5 5 5 5 5 5 5 5 5 5 5 5 5 5 5 5 5 5 5 5 5 5 5 5 5 5 5 5 5 5 5 5 5 5 5 5 5 5 5 5 5 5 5 5 5 5 5 5 5 5 5 5 5 5 n 5 5 5 5 5 5 5 f 5 5 5 5 5 e d 5 5 5 5 5 d d 5 5 5 5 5 f 5 5 5 5 5 5 f 5 5 5 5 5 5 f 5 3 ; - 4 9 k.# 3 ^ W 3 e f $ ,.i '.q 6XN + 5 5 5 5 e c g $ y b x x b x ",
"$ C -X-X=XM.=X=X=X=X-Xn f g g g g g g g g g g g g g g g g g f v -X8.5 5 5 5 5 5 5 5 5 5 5 5 5 5 5 5 5 5 5 5 5 5 5 5 5 5 5 5 5 5 5 5 5 5 5 5 5 5 5 5 5 5 5 5 5 5 5 5 5 5 5 5 5 5 5 5 5 5 5 5 5 5 5 5 5 5 5 5 5 5 5 5 5 5 5 5 5 5 5 5 5 5 5 5 5 5 5 5 5 5 5 5 5 5 5 5 5 5 5 5 5 5 5 5 5 5 5 5 5 5 5 5 5 5 5 5 5 5 5 5 5 5 5 5 5 5 5 5 5 5 5 5 5 5 5 5 5 5 5 5 5 5 5 n 5 5 5 5 5 5 5 f 5 5 5 5 5 e d 5 5 5 5 5 d d 5 5 5 5 5 f 5 5 5 5 5 5 f 5 5 5 5 5 5 f 5 3 ; - 4 9 k.3 / / 3 5 5 f $ p ,.'.q 6XB $ 5 5 5 5 e c g $ y b x x b x ",
"5 v M.8.8.8.0.8.0.8.0.c g g g g g g g g g g g g g g g g g g f g 4X8.5 5 5 5 5 5 5 5 5 5 5 5 5 5 5 5 5 5 5 5 5 5 5 5 5 5 5 5 5 5 5 5 5 5 5 5 5 5 5 5 5 5 5 5 5 5 5 5 5 5 5 5 5 5 5 5 5 5 5 5 5 5 5 4 5 5 5 5 5 5 5 5 5 5 5 5 5 5 5 5 5 5 5 $ 5 f 5 $ 5 5 5 5 5 5 5 5 5 5 5 5 5 5 5 5 5 5 5 5 5 5 5 5 5 $ 5 d 5 # 5 5 5 5 5 5 5 5 5 5 5 5 5 5 5 5 5 5 5 5 5 5 5 5 5 n 5 5 5 5 5 5 5 f 5 5 5 5 5 e d 5 5 5 5 5 f d 5 5 5 5 5 f 5 5 5 5 5 5 f 5 5 5 5 5 5 f 5 3 ; t 4 f k.E ^ 3 5 5 5 f 5 p v.`.q 6XB $ 5 5 5 5 e c g $ y b x x b x ",
"5 e f f f f f f f f g g g g g g g g g g g g g g g g g g g g f f f f 5 5 5 5 5 5 5 5 5 5 5 5 7.c c 7.6.C 7.e 5 5 5 5 5 5 5 5 5 5 5 5 5 5 5 5 5 5 5 8.g 6.n 7.f 5 5 5 5 5 5 5 5 5 5 5 5 5 5 5 5 4 f C C n f 8.5 5 5 5 5 5 5 5 5 5 5 5 5 5 5 C ;XS.S.c 5 5 5 5 5 5 5 5 5 4 g c v c n 5 5 5 5 5 5 5 5 5 $ N ;XS.;X7.5 5 5 5 5 5 5 5 5 5 d v n c n c B 5 5 5 5 5 5 5 5 n 5 5 5 5 5 5 5 f $ 5 5 5 $ 5 e $ 5 5 5 $ d e $ 5 5 5 4 d 5 5 5 5 5 4 f 5 5 5 5 5 5 f 5 3 ; - $ 9 >XaXe 3 5 4 5 d $ p b.c.0 6XN + 5 5 5 4 5 c g $ y b x x b x ",
"5 5 5 5 5 5 5 5 5 5 5 5 5 5 5 5 5 5 5 5 5 5 5 5 5 5 5 5 5 5 5 5 5 5 5 5 5 5 5 5 5 5 5 5 4 f 7.C B M.0.=X7.c $ 5 5 5 5 5 5 5 5 5 5 5 5 5 5 5 5 5 $ C f v =X7.v $ 5 5 5 5 5 5 5 5 5 5 5 5 5 5 5 5 5 8.6.C B 8.g $ 5 5 5 5 5 5 5 5 5 5 5 # N.S.+ X + N.N $ 5 5 5 5 5 5 5 4 B B v n v 5 5 5 5 5 5 5 5 $ N ;X5 O + N.N.$ 5 5 5 5 5 5 5 5 5 n g C 7.c v 5 5 5 5 5 5 5 5 v e f f f f f f v f f f f f c c f f f f f c c f f f f f c f f f f f f v f f f f f f v f f ; g f c ,X; 9 f f f g c f ,.`.c.q 6X6.d f f f f g c g $ y b x x b x ",
"5 5 5 e e e e e e e e e 5 5 5 5 5 5 5 5 5 5 5 5 5 5 5 5 5 e 5 5 5 5 5 5 5 5 5 5 5 5 5 5 5 5 C B n C C C 6.e 5 5 5 5 5 5 5 5 5 5 5 5 5 5 5 5 5 5 5 v f n C 6.f 5 5 5 5 5 5 5 5 5 5 5 5 5 5 5 5 5 5 v B C v 6.5 5 5 5 5 5 5 5 5 5 5 5 4 f ;XX $ 5 % % N.5 5 5 5 5 5 5 5 5 g n v n n 5 5 5 5 5 5 5 5 5 ;X$ o v +   N.f 4 5 5 5 5 5 5 5 5 f f n v v d 5 5 5 5 5 5 5 5 n 5 5 5 5 5 5 e g 5 5 5 5 5 d f 5 5 5 5 5 f f 5 5 5 5 5 f 5 5 5 5 5 5 g 5 5 5 5 5 5 f e 5 ; t 3 { >X3 e 5 5 5 e f 5 p '.<.q 6XB 5 f e 5 5 d c g $ y b x x b x ",
"5 f g f f f f f f f g f c g g g g g g g g g g g g g g g g g f f B c 5 5 5 5 5 5 5 5 5 5 5 5 5 4 $ $ $ $ 4 5 5 5 5 5 5 5 5 5 5 5 5 5 5 5 5 5 5 5 5 5 4 5 + $ 5 5 5 5 5 5 5 5 5 5 5 5 5 5 5 5 5 5 5 $ $ 4 $ $ 5 5 5 5 5 5 5 5 5 5 5 5 # B N.  B n C X C g 4 5 5 5 5 5 5 5 5 4 5 $ 5 5 5 5 5 5 5 5 $ f S.X c C v % v N $ 5 5 5 5 5 5 5 5 5 5 $ $ 5 5 5 5 5 5 5 5 5 5 n 5 5 5 5 5 5 5 f 5 5 5 5 5 e e 5 5 5 5 4 d d 4 5 5 5 5 f 5 5 5 5 5 5 f 5 5 5 5 5 5 f 5 3 ; - w _ >X6 5 5 5 5 5 d $ ,.mXs q 6XN 5 C 6.5 4 e c g $ y b x x b x ",
"5 c 0.n C 6.v n n C v v 8.c g g g g g g g g g g g g g g g g f g 4X0.5 5 5 5 5 5 5 5 5 5 5 5 5 5 d 5 5 5 5 5 5 5 5 5 5 5 5 5 5 5 5 5 5 5 5 5 5 5 5 4 v C C 5 5 5 5 5 5 5 5 5 5 5 5 5 5 5 5 5 5 5 5 5 d 5 5 5 5 5 5 5 5 5 5 5 5 5 5 5 $ N S.  f C f X N.f 5 5 5 5 5 5 5 5 5 d d d 5 5 5 5 5 5 5 5 5 e ;XX 5 B n   V v $ 5 5 5 5 5 5 5 5 5 d d d 5 5 5 5 5 5 5 5 5 5 n 5 5 5 5 5 5 5 f 5 5 5 5 5 e d 5 5 5 5 5 d d 5 5 5 5 5 f 5 5 5 5 5 5 f 5 5 5 5 5 5 f 5 3 ; l x ) >X6 5 5 5 5 5 f @ v.mX4 q 6XB v C 7.e 5 e c g $ y b x x b x ",
"5 g M.=X=X=X-X-X8.=X0.-X-Xg g g g g g g g g g g g g g g g g f v -X8.5 5 5 5 5 5 5 5 5 5 5 5 $ C =X7.7.v $ 5 5 5 5 5 5 5 5 5 5 5 5 5 5 5 5 5 5 5 $ v M.M.=Xf $ 5 5 5 5 5 5 5 5 5 5 5 5 5 5 5 5 5 5 0.M.6.8.f 5 5 5 5 5 5 5 5 5 5 5 5 5 5 G.N   +   c 7.4 5 5 5 5 5 5 5 5 e 6.B B f 5 5 5 5 5 5 5 5 $ N.N.  + X e N.5 5 5 5 5 5 5 5 5 5 e 6.B B f 5 5 5 5 5 5 5 5 5 n 5 5 5 5 5 5 5 f 5 5 5 5 5 e d 5 5 5 5 5 d d 5 5 5 5 5 f 5 5 5 5 5 5 f 5 5 5 5 5 5 f 5 3 ; l # ) j.4 5 5 5 5 5 f @ T.[.% k 6XN 5 d 5 5 5 e c g $ y b x x b x ",
"5 c 0.C 6.8.0.7.n C 8.=X8.g g g g g g g g g g g g g g g g g f f 4X7.5 5 5 5 5 5 5 5 5 5 5 5 5 B C B 6.C $ 5 5 5 5 5 5 5 5 5 5 5 5 5 5 5 5 5 5 5 $ v 8.8.0.f 4 5 5 5 5 5 5 5 5 5 5 5 5 5 5 5 5 5 5 C B B 7.c $ 5 5 5 5 5 5 5 5 5 5 5 5 $ c S.# + 5 6.e 5 5 5 5 5 5 5 5 5 e v v 6.5 5 5 5 5 5 5 5 5 5 e S.e + + C g $ 5 5 5 5 5 5 5 5 5 e v v 6.5 5 5 5 5 5 5 5 5 5 n 5 5 5 5 5 5 5 f 5 5 5 5 5 e d 5 5 5 5 5 d d 5 5 5 5 5 f 5 5 5 5 5 5 f 5 5 5 5 5 5 f 5 9 ` - - ) k.# 5 5 5 5 5 f % '.c.% k 6XB + 5 5 5 5 e c g $ y b x x b x ",
"5 e f f f f f f f f f f f g g g g g g g g g g g g g g g g g f f f f 5 5 5 5 5 5 5 5 5 5 5 5 5 5 5 5 5 5 5 5 5 5 5 5 5 5 5 5 5 5 5 5 5 5 5 5 5 5 5 5 e 5 e 5 5 5 5 5 5 5 5 5 5 5 5 5 5 5 5 5 5 5 5 5 5 5 e 5 5 5 5 5 5 5 5 5 5 5 5 5 5 5 5 $ 5 5 5 5 5 5 5 5 5 5 5 5 5 5 5 5 5 e 5 5 5 5 5 5 5 5 5 5 5 $ 5 5 5 5 5 5 5 5 5 5 5 5 5 5 5 5 5 5 e 5 5 5 5 5 5 5 5 5 5 n 5 5 5 5 5 5 5 f 5 5 5 5 5 e d 5 5 5 5 5 d d 5 5 5 5 5 f 5 5 5 5 5 5 f 5 5 5 5 5 5 f 5 v ; 5 ; ) k.# 5 5 5 5 e * v.mX5 # q 6XB $ 5 5 5 5 e c g $ y b x x b x ",
"5 5 5 5 5 5 5 5 5 5 5 5 5 5 5 5 5 5 5 5 5 5 5 5 5 5 5 5 5 5 5 5 5 5 5 5 5 5 5 5 5 5 5 5 5 5 5 5 5 5 5 5 5 5 5 5 5 5 5 5 5 5 5 5 5 5 5 5 5 5 5 5 5 5 5 5 5 5 5 5 5 5 5 5 5 5 5 5 5 5 5 5 5 5 5 5 5 5 5 5 5 5 5 5 5 5 5 5 5 5 5 5 5 5 5 5 5 5 5 5 5 5 5 5 5 5 5 5 5 5 5 5 5 5 5 5 5 5 5 5 5 5 5 5 5 5 5 5 5 5 5 5 5 5 5 5 5 5 5 5 5 5 5 5 5 5 5 5 5 5 5 5 5 5 5 5 5 n 5 5 5 5 5 5 5 f 4 5 5 5 4 5 e 4 5 5 5 $ d d $ 5 5 5 4 d 5 5 5 5 5 4 f 5 5 5 5 5 5 f v 9 ; 5 E ) k.# 5 5 5 5 @ ,.mXx.5 # q 6XN + 5 5 5 5 5 c g $ y b x x b x ",
"5 5 5 5 5 5 5 5 5 5 5 5 5 5 5 5 5 5 5 5 5 5 5 5 5 5 5 5 5 5 5 5 5 5 5 5 5 5 5 5 5 5 5 5 5 5 5 5 5 5 5 5 5 5 5 5 5 5 5 5 5 5 5 5 5 5 5 5 5 5 5 5 5 5 5 5 5 5 5 5 5 5 5 5 5 5 5 5 5 5 5 5 5 5 5 5 5 5 5 5 5 5 5 5 5 5 5 5 5 5 5 5 5 5 5 5 5 5 5 5 5 5 5 5 5 5 5 5 5 5 5 5 5 5 5 5 5 5 5 5 5 5 5 5 5 5 5 5 5 5 5 5 5 5 5 5 5 5 5 5 5 5 5 5 5 5 5 5 5 5 5 5 5 5 5 5 5 v 5 d e e e e d c e e e e e f f e e e e 5 f f 5 e e e e g d e e e e e c d e e e d 5 n c 5 ; d W W l.e d e e 8 u JXa ,.r 5 k 6XB 5 e e e e f c g $ y b x x b x ",
"5 5 4 5 5 5 5 5 5 5 5 5 5 5 5 5 5 5 5 5 5 5 5 5 5 5 5 5 5 5 5 5 5 5 5 5 5 5 5 5 5 5 5 5 5 5 5 5 5 5 5 5 5 5 5 5 5 5 5 5 5 5 5 5 5 5 5 5 5 5 5 5 5 5 5 5 5 5 5 5 5 5 5 5 5 5 5 5 5 5 5 5 5 5 5 5 5 5 5 5 5 5 5 5 5 5 5 5 5 5 5 5 5 5 5 5 5 5 5 5 5 5 5 5 5 5 5 5 5 5 5 5 5 5 5 5 5 5 5 5 5 5 5 5 5 5 5 5 5 5 5 5 5 5 5 5 5 5 5 5 5 5 5 5 5 5 5 5 5 5 5 5 5 5 5 5 5 v 5 d e e e e d c e e e e e f f e e e e 5 f f e e e e e g d e e e e e c d e e d 5 v n e 9 ; d / E l.e d e 8 e mXx.* x.r 5 k 6XB d f f d e f c g $ y b x x b x ",
"5 5 f 5 $ 5 $ 5 5 5 5 5 5 5 5 5 5 5 5 5 5 5 5 5 5 5 5 5 5 5 5 5 5 5 5 5 5 5 5 5 5 5 5 5 5 5 5 5 5 5 5 5 5 5 5 5 5 5 5 5 5 5 5 5 5 5 5 5 5 5 5 5 5 5 5 5 5 5 5 5 5 5 5 5 5 5 5 5 5 5 5 5 5 5 5 5 5 5 5 5 5 5 5 5 5 5 5 5 5 5 5 5 5 5 5 5 5 5 5 5 5 5 5 5 5 5 5 5 5 5 5 5 5 5 5 5 5 5 5 5 5 5 5 5 5 5 5 5 5 5 5 5 5 5 5 5 5 5 5 5 5 5 5 5 5 5 5 5 5 5 5 5 5 5 5 5 5 n 5 5 5 5 5 5 5 f 4 5 5 5 4 5 e 4 5 5 5 $ d d $ 5 5 5 4 d 5 5 5 5 5 4 f 5 5 5 $ f c d 5 3 ; 5 ~ ; k.# 5 5 @ '.T.* 4 ,.5 # q 6XN 8 8.C 5 4 5 c g $ y b x x b x ",
"5 6.n f C C n f 5 5 5 5 5 5 5 5 5 5 5 5 5 5 5 5 5 5 5 5 5 5 5 5 5 5 5 5 5 5 5 5 5 5 5 5 5 5 5 5 5 5 5 5 5 5 5 5 5 5 5 5 5 5 5 5 5 5 5 5 5 5 5 5 5 5 5 5 5 5 5 5 5 5 5 5 5 5 5 5 5 5 5 5 5 5 5 5 5 5 5 5 5 5 5 5 5 5 5 5 5 5 5 5 5 5 5 5 5 5 5 5 5 5 5 5 5 5 5 5 5 5 5 5 5 5 5 5 5 5 5 5 5 5 5 5 5 5 5 5 5 5 5 5 5 5 5 5 5 5 5 5 5 5 5 5 5 5 5 5 5 5 5 5 5 5 5 5 5 n 5 5 5 5 5 5 5 f 5 5 5 5 5 e d 5 5 5 5 5 d d 5 5 5 5 5 f 5 5 5 5 5 5 f 5 5 5 e v 5 f 5 3 ; e ~ l k.# 5 @ T.`.* f $ ,.e # q 6X6.f 8.7.e 5 e c g $ y b x x b x ",
"e 7.6.M.-X8.-Xn $ 5 5 5 5 5 5 5 5 5 5 5 5 5 5 5 5 5 5 5 5 5 5 5 5 5 5 5 5 5 5 5 5 5 5 5 5 5 5 5 5 5 5 5 5 5 5 5 5 5 5 5 5 5 5 5 5 5 5 5 5 5 5 5 5 5 5 5 5 5 5 5 5 5 5 5 5 5 5 5 5 5 5 5 5 5 5 5 5 5 5 5 5 5 5 5 5 5 5 5 5 5 5 5 5 5 5 5 5 5 5 5 5 5 5 5 5 5 5 5 5 5 5 5 5 5 5 5 5 5 5 5 5 5 5 5 5 5 5 5 5 5 5 5 5 5 5 5 5 5 5 5 5 5 5 5 5 5 5 5 5 5 5 5 5 5 5 5 5 n 5 5 5 5 5 5 5 f 5 5 5 5 5 e d 5 5 5 5 5 d d 5 5 5 5 5 f 5 5 5 5 5 5 f 5 5 5 v 5 5 f 5 3 ; - ^ h k.s u c.mX@ 5 f $ ,.5 # q 6XN 5 e e 5 5 e c g $ y b x x b x ",
"$ g B n v c v e 5 5 5 5 5 5 5 5 5 5 5 5 5 5 5 5 5 5 5 5 5 5 5 5 5 5 5 5 5 5 5 5 5 5 5 5 5 5 5 5 5 5 5 5 5 5 5 5 5 5 5 5 5 5 5 5 5 5 5 5 5 5 5 5 5 5 5 5 5 5 5 5 5 5 5 5 5 5 5 5 5 5 5 5 5 5 5 5 5 5 5 5 5 5 5 5 5 5 5 5 5 5 5 5 5 5 5 5 5 5 5 5 5 5 5 5 5 5 5 5 5 5 5 5 5 5 5 5 5 5 5 5 5 5 5 5 5 5 5 5 5 5 5 5 5 5 5 5 5 5 5 5 5 5 5 5 5 5 5 5 5 5 5 5 5 5 5 5 5 n 5 5 5 5 5 5 5 f 5 5 5 5 5 e d 5 5 5 5 5 d d 5 5 5 5 5 f 5 5 5 5 5 5 f 5 5 v d 5 5 f 5 3 ; ; ^ 0 l.c.T.mXt @ e f $ ,.5 # q 6XB + 5 5 5 5 e c g $ y b x x b x ",
"e 5 5 5 5 5 5 5 5 5 5 5 5 5 5 5 5 5 5 5 5 5 5 5 5 5 5 5 5 5 5 5 5 5 5 5 5 5 5 5 5 5 5 5 5 5 5 5 5 5 5 5 5 5 5 5 5 5 5 5 5 5 5 5 5 5 5 5 5 5 5 5 5 5 5 5 5 5 5 5 5 5 5 5 5 5 5 5 5 5 5 5 5 5 5 5 5 5 5 5 5 5 5 5 5 5 5 5 5 5 5 5 5 5 5 5 5 5 5 5 5 5 5 5 5 5 5 5 5 5 5 5 5 5 5 5 e e 5 5 5 5 5 5 5 5 5 5 5 5 5 5 5 5 5 5 5 5 5 5 5 5 5 5 5 5 5 5 5 5 5 5 5 5 5 5 5 n 5 5 5 5 5 5 5 f 5 5 5 5 5 e d 5 5 5 5 5 d d 5 5 5 5 5 f 5 5 5 5 5 5 f 5 c f 4 5 5 f 5 5 ; E ~ 0 l.T.JXx.r 5 5 f $ ,.5 # q 6XB $ 5 5 5 5 e c g $ y b x x b x ",
"f f f f f f f f d d d d d d d d d d d d d d d d d d d d d d d d d d d d d d d d d d d d d d d d d d d d d d d d d d d d d d d d d d d d d d d d d d d d d d d d d d d d d d d d d d d d d d d d d d d d d d d d d f d d f f f f f f d d d d d d d d d d d d d d d d d d d d f d d d d d d e d d d d d d f d d d d d d d d d d d d d d d d d d d d d d d d d f d 5 n 5 5 5 5 5 5 5 f 5 5 5 5 5 e e 5 5 5 5 4 d d 4 5 5 5 5 f 5 5 5 5 5 5 f g g $ 5 5 5 f 5 5 - W / 0 7X[.c.<.e 5 5 d $ ,.5 # q 6XB + 5 5 5 5 e c g $ y b x x b x ",
"5 5 5 5 5 5 5 5 5 5 5 5 5 5 5 5 5 5 5 5 5 5 5 5 5 5 5 5 5 5 5 5 5 5 5 5 5 5 5 5 5 5 5 5 5 5 5 5 5 5 5 5 5 5 5 5 5 5 5 5 5 5 5 5 5 5 5 5 5 5 5 5 5 5 5 5 5 5 5 5 5 5 5 5 5 5 5 5 5 5 5 5 5 5 5 5 5 5 5 5 5 5 5 5 5 $ 5 5 $ $ # $ $ # 5 5 5 5 5 5 5 5 5 5 5 5 5 5 5 5 5 5 5 5 4 5 e d 5 5 5 d 4 4 5 5 4 5 5 5 5 5 5 5 5 5 5 5 5 5 5 5 5 5 5 5 5 5 5 5 5 5 5 5 5 5 5 n 5 5 5 5 5 5 e g 5 5 5 5 5 d f 5 5 5 5 5 f f 5 5 5 5 5 f 5 5 5 5 5 5 v n 5 5 5 5 5 f e 5 - / W & DXT.u r 5 5 e f 5 ,.e 4 k 6XB 5 5 5 5 5 d c g $ y b x x b x ",
"5 5 5 5 5 5 5 5 5 5 5 5 5 5 5 5 5 5 5 5 5 5 5 5 5 5 5 5 5 5 5 5 5 5 5 5 5 5 5 5 5 5 5 5 5 5 5 5 5 5 5 5 5 5 5 5 5 5 5 5 5 5 5 5 5 5 5 5 5 5 5 5 5 5 5 5 5 5 5 5 5 5 5 5 5 5 5 5 5 5 5 5 5 5 5 5 5 5 5 5 5 5 5 5 5 5 6.v d g n f g v 5 5 5 5 5 5 5 5 5 5 5 5 5 5 5 5 5 5 5 5 4 f 0.=X6.7.8.0.8.M.C 0.0.6.7.6.5 5 5 5 5 5 5 5 5 5 5 5 5 5 5 5 5 5 5 5 5 5 5 5 5 5 5 v e f f f f f f v f f f f f c c f f f f f c c f f f f f v f f f f f c C f f f f f f v f f l ) E ).7X8 f f f f g c f x.c r M 6X6.d f f f f g c g $ y b x x b x ",
"5 5 5 5 5 5 5 4 5 4 5 $ $ $ 4 4 4 5 $ 5 5 5 5 5 5 5 5 5 5 5 4 5 5 5 5 5 $ $ 5 $ 5 $ 5 5 5 5 4 5 4 4 5 5 4 4 5 5 $ 5 5 5 5 5 5 5 5 4 $ # 4 5 $ 5 5 5 5 5 5 5 5 5 5 5 $ 5 5 5 5 4 5 4 5 5 5 5 5 5 5 5 5 5 5 5 5 5 $ g C f 8.=XC 0.=X-Xd 5 5 5 5 5 5 5 5 5 5 5 5 5 5 5 5 5 5 5 4 f 6.C =XB 0.7.0.0.c M.C M.6.8.5 5 5 5 5 5 5 5 5 5 5 5 5 5 5 5 4 4 5 4 5 5 5 5 5 5 5 n 5 5 5 5 5 5 5 f $ 5 5 5 4 5 e $ 5 5 5 $ d e $ 5 5 5 4 d 5 5 5 4 5 v g 5 5 5 5 5 5 f 5 3 ; ^ J.NXk.# 5 5 5 4 5 d $ ,.5 # q 6Xv 5 C C 5 $ 5 c g $ y b x x b x ",
"5 5 5 5 5 5 $ n C f f f c n f f f C g 5 5 5 5 5 5 5 5 $ B 7.f d v C 5 e v B f g d c 5 5 5 $ 6.c 6.e B c d f 5 f c 5 5 5 5 5 5 5 d C v C f d d 6.f 5 5 5 5 5 5 5 8.n d C g d f f f f 5 5 5 5 5 5 5 5 5 5 5 5 5 5 5 5 C v C B 5 n c B 5 5 5 5 5 5 5 5 5 5 5 5 5 5 5 5 5 5 5 5 5 5 5 e C 5 d 5 e 5 5 5 d e 5 d 5 5 5 5 5 5 5 5 5 5 5 5 5 5 v c c f B c 6.$ 5 5 5 5 5 n 5 5 5 5 5 5 5 f 5 5 5 5 5 e d 5 5 5 5 5 d d 5 5 5 5 5 f 5 5 5 5 v e f 5 5 5 5 5 5 f 5 3 ; dXmXf k.4 5 5 5 5 5 f $ ,.e # q 6XB C =X0.e 5 e c g $ y b x x b x ",
"5 5 5 5 5 5 5 8.5 7.0.0.0.0.7.6.0.0.0.f 5 5 5 5 5 5 5 # 7.=XM.=X0.M.C M.C 0.0.7.0.M.v $ 5 # 0.=XM.8.-XM.M.=XC 0.0.v $ 5 5 5 5 $ B -X0.0.C -X7.0.0.# 5 5 5 5 5 5 =X0.=XM.=X0.M.=X0.-Xc $ 5 5 5 5 5 $ $ 5 5 5 5 5 5 5 4 5 $ $ 5 $ 4 4 5 $ 5 5 5 5 5 5 5 5 5 5 5 5 5 5 4 $ 5 5 5 5 5 5 5 5 5 5 5 5 5 5 5 5 $ $ 5 5 5 5 5 5 5 5 5 5 5 5 5 5 0.=XM.7.M.0.7.$ 5 5 5 5 5 n 5 5 5 5 5 5 5 f 5 5 5 5 5 e d 5 5 5 5 5 d d 5 5 5 5 5 f 5 5 5 v f $ f 5 5 5 5 5 5 f 5 3 E gXi 0 k.# 5 5 5 5 5 f $ ,.5 # q 6XB 5 g c 5 5 e c g $ y b x x b x ",
"5 5 5 5 5 5 $ n C B C c v 6.g v C v C f 4 5 5 5 5 5 5 5 v n 6.B 6.C 7.C n C B C n v g 4 5 5 v 6.B 8.7.C 6.B 6.8.0.f 5 5 5 5 5 5 v v 6.n 7.8.C C C 5 5 5 5 5 5 5 n B 6.n C C 8.C 6.6.d 5 5 5 5 5 5 f c 5 # 4 $ # 5 e $ 5 5 5 5 5 5 5 5 g e $ $ $ $ $ 5 5 5 5 5 5 5 5 f c e # 4 $ # 5 d $ 5 5 5 5 5 5 5 5 6.n 5 e d 5 e 5 5 5 5 5 5 5 5 5 v g 6.C n 6.B $ 5 5 5 5 5 n 5 5 5 5 5 5 5 f 5 5 5 5 5 e d 5 5 5 5 5 d d 5 5 5 5 5 f 5 $ g g 4 5 f 5 5 5 5 5 5 f 5 5 aX; 3 f k.# 5 5 5 5 5 f $ ,.5 # q 6XB + 5 4 5 5 e c g $ y b x x b x ",
"5 5 5 5 5 5 5 4 5 5 5 5 5 5 5 5 5 5 5 5 5 5 5 5 5 5 5 5 5 4 4 5 5 4 5 $ 5 5 4 5 4 5 5 5 5 5 5 $ $ $ $ $ 5 5 $ f d $ 5 5 5 5 5 5 5 $ 4 5 5 $ 5 5 $ 5 5 5 5 5 5 5 4 $ 5 5 $ 5 $ 5 $ 5 5 5 5 5 5 5 5 7.0.8.v n B B C M.f 5 5 5 5 5 5 5 $ C 7.v n C v B 5 5 5 5 5 5 5 $ C 0.0.v n n C B M.c 5 5 5 5 5 5 5 5 C 7.7.0.8.=X8.$ 5 5 5 5 5 5 5 5 5 5 4 5 $ 5 5 5 5 5 5 5 5 n 5 5 5 5 5 5 5 f 5 5 5 5 5 e d 5 5 5 5 5 d d 5 5 5 5 5 f 5 f v 5 5 5 f 5 5 5 5 5 5 f 3 ^ ~ 5 4 9 k.# 5 5 5 5 5 f $ ,.5 # q 6XB $ 5 5 5 5 e c g $ y b x x b x ",
"5 5 5 5 5 5 5 5 5 5 5 5 5 5 5 5 5 5 5 5 5 5 5 5 5 5 5 5 5 5 5 5 5 5 5 5 5 5 5 5 5 5 5 5 5 5 5 5 5 5 5 5 5 5 5 5 5 5 5 5 5 5 5 5 5 5 5 5 5 5 5 5 5 5 5 5 5 5 5 5 5 5 5 5 5 5 5 5 5 5 5 5 5 5 5 5 $ v C 6.=XB -X8.M.8.C $ 5 5 5 5 5 5 5 7.C 8.0.6.-X0.5 5 5 5 5 5 5 $ c C 6.=XB =X0.M.8.C 5 5 5 5 5 5 4 f 0.C 7.B v 0.n 4 5 5 5 5 5 5 5 5 5 5 5 5 5 5 5 5 5 5 5 5 5 n 5 5 5 5 5 5 5 f 5 5 5 5 5 e e 5 5 5 5 5 d d 5 5 5 5 5 d d v 5 5 5 5 f 5 5 5 5 5 5 9 / / - - 4 9 k.# 5 5 5 5 5 f $ ,.5 # q 6XB # 5 5 5 5 e c g $ y b x x b x ",
"5 5 5 5 5 5 5 5 5 5 5 5 5 5 5 5 5 5 5 5 5 5 5 5 5 5 5 5 5 5 5 5 5 5 5 5 5 5 5 5 5 5 5 5 5 5 5 5 5 5 5 5 5 5 5 5 5 5 5 5 5 5 5 5 5 5 5 5 5 5 5 5 5 5 5 5 5 5 5 5 5 5 5 5 5 5 5 5 5 5 5 5 5 5 5 5 5 f f f c 5 c g n f f 5 5 5 5 5 5 5 5 C c v f f c g 5 5 5 5 5 5 5 5 d f f c 5 c g n f f 5 5 5 5 5 5 5 5 5 5 5 5 5 5 5 5 5 5 5 5 5 5 5 5 5 5 5 5 5 5 5 5 5 5 5 5 5 n 5 5 5 5 5 5 5 g 5 5 5 5 5 d d 5 5 5 5 5 f f 5 5 5 5 5 f n 5 5 5 5 5 g 5 5 5 5 e 3 W ^ 3 ; t 5 f k.4 5 5 5 5 e f 5 ,.e 4 k 6XB $ 5 5 5 5 d c g $ y b x x b x ",
"5 5 5 5 5 5 5 5 5 5 5 5 5 5 5 5 5 5 5 5 5 5 5 5 5 5 5 5 5 5 5 5 5 5 5 5 5 5 5 5 5 5 5 5 5 5 5 5 5 5 5 5 5 5 5 5 5 5 5 5 5 5 5 5 5 5 5 5 5 5 5 5 5 5 5 5 5 5 5 5 5 5 5 5 5 5 5 5 5 5 5 5 5 5 5 5 5 4 $ 4 $ 5 $ $ # $ 4 5 5 5 5 5 5 5 5 # $ # $ 4 $ $ 5 5 5 5 5 5 5 5 5 $ 4 $ 5 $ $ # $ 4 5 5 5 5 5 5 5 5 5 5 5 5 5 5 5 5 5 5 5 5 5 5 5 5 5 5 5 5 5 5 5 5 5 5 5 5 5 v 5 f f f f f f v d f f f d g g d f f f d g g d f f f f B f d f f f d v f f f f 9 E aXd 9 ; t e c l.e f f f d f c d x.f e M 6X6.5 d e f f f c g $ y b x x b x ",
"f f f f f f f f f f f f f f f f f f f f f f f f f f f f f f f f f f f f f f f f f f f f f f f f f f f f f f f f f f f f f f f f f f f f f f f f f f f f f f f f f f f f f f f f f f f f f f f f f f f f f f f f f f f f f f f f f f f f f f f f f f f f f f f f f f f f f f f f f f f f f f f f f f f f f f f f f f f f f f f f f f f f f f f f f f f f f f f d 5 n 5 5 5 5 5 5 5 f 4 5 5 5 4 5 e 4 5 5 5 $ d d 4 5 5 $ c c 5 5 5 5 5 5 f 5 5 5 3 - aXl 3 5 ; - 4 9 k.# 5 5 5 5 5 d $ ,.5 # q 6Xv 5 c v 5 4 5 c g $ y b x x b x ",
"5 5 5 5 5 5 5 5 5 5 5 5 5 5 5 5 5 5 5 5 5 5 5 5 5 5 5 5 5 5 5 5 5 5 @ @ @ 5 5 5 5 5 5 5 5 5 5 5 5 5 @ @ @ @ 5 5 5 5 5 5 5 5 5 5 5 5 5 # # # 4 5 5 5 5 5 5 5 5 5 5 5 5 5 @ 3 3 5 5 5 5 5 5 5 5 5 5 5 5 5 # # # 4 5 5 5 5 5 5 5 5 5 5 5 5 $ @ @ @ 5 5 5 5 5 5 5 5 5 5 5 5 5 5 4 4 5 5 5 5 5 5 5 5 5 5 5 5 5 5 $ $ $ 5 5 5 5 5 5 5 5 5 5 5 5 5 @ @ @ 5 5 5 5 5 5 5 5 n 5 5 5 5 5 5 5 f 5 5 5 5 5 e d 5 5 5 5 5 d d 5 5 4 g g d 5 5 5 5 5 5 f 5 5 5 5 aX; 9 e 3 ; t 4 f k.# 5 5 5 5 5 f $ ,.e # q 6XB C 0.6.f 4 e c g $ y b x x b x ",
"5 @ @ @ @ @ @ @ @ @ @ @ @ $ 5 $ 4 4 $ 5 5 $ 4 4 $ 5 5 5 5 5 5 5 @ r v.c.v.r $ 5 5 5 5 5 5 5 5 5 5 @ ,.T.c.<.$ 5 5 5 5 5 5 5 5 5 5 # 5 h.k.j.k # 5 5 5 5 5 5 5 5 5 5 @ s ` ` ` 5 5 5 5 5 5 5 5 5 5 5 4 5 h.k.k.M # 5 5 5 5 5 5 5 5 5 5 @ u T.T.c.5 $ 5 5 5 5 5 5 5 5 5 5 4 h M M h 4 5 5 5 5 5 5 5 5 5 5 $ f V 6.V 5 5 5 5 5 5 5 5 5 5 5 $ r <.c.v.r @ 5 5 5 5 5 5 n 5 5 5 5 5 5 5 f 5 5 5 5 5 e d 5 5 5 5 5 d d 5 4 f v $ f 5 5 5 5 5 5 f 5 5 3 ^ W 3 f 5 3 ; - 4 9 k.# 5 5 5 5 5 f $ ,.5 # q 6XB f B n 5 5 e c g $ y b x x b x ",
"r `.`.`.`.`.`.`.`.`.`.`.'.p f B v v n f f n v v n g 5 5 5 5 5 @ i T.<.7 <.T.i $ 5 5 5 5 5 5 5 5 @ T.E.p s c.c.5 5 5 5 5 5 5 5 5 4 f uXh.q L uXL # 5 5 5 5 5 5 5 5 @ ` J.s : ` J.e 5 5 5 5 5 5 5 5 5 5 l.j.q L l.h.# 5 5 5 5 5 5 5 5 @ ,.'.<.s c.NXu $ 5 5 5 5 5 5 5 5 5 M M $ 8 M M 4 5 5 5 5 5 5 5 5 $ N N.r e V N.5 5 5 5 5 5 5 5 5 $ u T.<.7 p T.p @ 5 5 5 5 5 n 5 5 5 5 5 5 5 f 5 5 5 5 5 e d 5 5 5 5 5 d d $ d v 5 5 f 5 5 5 5 5 5 f 5 3 / / 3 5 f 5 3 ; - 4 9 k.# 5 5 5 5 5 f $ ,.5 # q 6XN + 5 4 5 5 e c g $ y b x x b x ",
"u JX'.[.[.mXmX[.mX[.[.'.JXv.v n B v n c c B n n n n 4 5 5 5 5 5 '.t . 5 . t c.5 5 5 5 5 5 5 5 @ ,.E.. . o . c.<.@ 5 5 5 5 5 5 5 # l.L   4 O * uX9 4 5 5 5 5 5 5 5 t J.O o 5 . ` ` @ 5 5 5 5 5 5 5 # j.h.  # O O uXk # 5 5 5 5 5 5 5 r '.7 . 5 . <.E.@ 5 5 5 5 5 5 5 4 g M   O O X M h 4 5 5 5 5 5 5 5 r N.O   +   v 6.$ 5 5 5 5 5 5 5 5 c.s . 5 o 7 T.5 5 5 5 5 5 n 5 5 5 5 5 5 5 f 5 5 5 5 5 e d 5 5 5 5 5 f d 5 v 5 5 5 f 5 5 5 5 5 5 f 3 W ^ 3 5 5 f 5 3 ; - 4 9 k.# 5 5 5 5 5 f $ ,.5 # q 6XB $ 5 5 5 5 e c g $ y b x x b x ",
"u mXT.mXmX[.[.'.[.mXKXT.mXv.c c 7.n c c c v M.=Xc n 5 5 5 5 @ p E.. 5 C C . c.i $ 5 5 5 5 5 5 @ E.p % n B 8 7 c.$ 5 5 5 5 5 5 4 h l.X f 6.g   L L # 5 5 5 5 5 5 @ ` ` o B 6.5 O J.5 5 5 5 5 5 5 5 5 uX% 5 7.8.O L j.+ 5 5 5 5 5 5 @ ,.T.. B 7.n . E.u $ 5 5 5 5 5 5 4 M @ O c v O $ M 4 5 5 5 5 5 5 $ V v   f v 5 X N.5 5 5 5 5 5 5 $ u c.. c 7.C . c.p @ 5 5 5 5 n 5 5 5 5 5 5 5 f 5 5 5 5 5 e d 5 5 5 5 5 d d v e 5 5 5 f 5 5 5 5 5 5 w ; ^ 5 5 5 5 f 5 3 ; t 4 9 k.# 5 5 5 5 5 f $ ,.e # q 6XB $ 5 5 5 5 e c g $ y b x x b x ",
"u mXT.'.[.'.[.`.'.'.[.T.mXv.c c C n c c c v C 6.c n 5 5 5 5 @ ,.T.. c C B . c.i @ 5 5 5 5 5 5 @ E.s % B 6.8 # c.5 5 5 5 5 5 5 4 h l.  f C n O L L # 5 5 5 5 5 5 @ ` s o B B 5 X ` e 5 5 5 5 5 5 5 8 l.% e n v O L j.# 5 5 5 5 5 5 @ v.c.. n n 5 X E.i $ 5 5 5 5 5 5 5 M + O g e X $ M 4 5 5 5 5 5 5 $ V c   f f + X N.5 5 5 5 5 5 5 $ u c.. f v C o <.p @ 5 5 5 5 n 5 5 5 5 5 5 5 f 5 5 5 5 5 e e 5 5 5 5 5 e n d 4 5 5 5 f 5 5 5 5 5 3 l aX- 3 5 5 5 f 5 3 ; - 4 9 k.# 5 5 5 5 5 d $ ,.5 # q 6XB $ 5 5 5 5 e c g $ y b x x b x ",
"u JX[.[.[.[.[.[.[.[.[.[.JXv.M B v c B v v B c c n B 4 5 5 5 5 r '.4 o e % # T.5 5 5 5 5 5 5 5 @ v.T.  4 5 . <.v.@ 5 5 5 5 5 5 5 4 l.q X d + O j.0 4 5 5 5 5 5 5 3 s | X + e o s ` 3 5 5 5 5 5 5 5 # k.L   5 O   l.L # 5 5 5 5 5 5 $ u '.O % e   7 E.5 5 5 5 5 5 5 5 4 M h   + +   h h 4 5 5 5 5 5 5 5 f N.X X #   e 5.5 5 5 5 5 5 5 5 5 c.7   5 % O T.r 5 5 5 5 5 v e g f f f f g v f f f f f c c f f f f f n n f f f f f v g f f f f f aXE w g f f f v g f E g f v l.r g f f f g v f x.c r M 6X6.d f f f f g c g $ y b x x b x ",
"e T.T.T.T.T.T.T.T.T.T.T.`.i d v c c v e e v c c v f 5 5 5 5 5 @ x.'.% O % c.p @ 5 5 5 5 5 5 5 5 $ '.<.. o u T.5 5 5 5 5 5 5 5 5 # M uX@ X O Y L # 5 5 5 5 5 5 5 5 @ ` ` o X # ` t 5 5 5 5 5 5 5 5 4 h uX0 X X h.k.# 5 5 5 5 5 5 5 5 @ c.E.o O + T.i $ 5 5 5 5 5 5 5 5 5 M 8 X O 8 h 5 5 5 5 5 5 5 5 5 $ 5.V X X $ V e 5 5 5 5 5 5 5 5 @ p T.+ O o c.<.@ 5 5 5 5 5 n 5 5 5 5 5 5 5 f 5 5 5 5 5 e d 5 5 5 5 f n e 5 5 5 5 5 f 5 5 5 5 3 ^ W 3 5 5 5 5 5 f 5 3 ; t 4 f k.4 5 5 5 5 5 f $ ,.e # q 6XN d B v 5 5 e c g $ y b x x b x ",
"5 h h h h h h h h h 0 0 0 g c g g g g c c c c c c f 5 5 5 5 5 5 5 u 5 5 5 r $ 5 5 5 5 5 5 5 5 5 5 r r 5 5 r r 5 5 5 5 5 5 5 5 5 5 4 h 8 5 5 9 5 5 5 5 5 5 5 5 5 5 5 5 t 5 5 e e 5 5 5 5 5 5 5 5 5 5 4 9 9 5 5 9 5 5 5 5 5 5 5 5 5 5 5 5 u 5 5 5 r 5 5 5 5 5 5 5 5 5 5 5 5 5 5 5 5 5 5 5 5 5 5 5 5 5 5 5 5 e 5 5 5 5 5 5 5 5 5 5 5 5 5 5 5 r 5 5 5 r 5 5 5 5 5 5 5 n 5 5 5 5 5 5 5 f 5 5 5 5 5 e e 5 5 5 d v d d 5 5 5 5 5 f 5 5 5 3 / / w 5 5 5 5 5 5 f 5 3 ; - 4 9 k.# 5 5 5 5 5 f $ ,.5 # q 6XB f B n 5 5 e c g $ y b x x b x ",
"e 6.v n n n n n N B B C 6.C B C C C B v v v v v B B 4 5 5 5 5 5 5 $ 5 5 5 $ 5 5 4 5 5 5 5 5 5 5 5 5 $ 5 5 5 5 5 5 5 5 5 5 5 5 5 5 5 4 5 5 5 5 5 5 5 5 5 5 5 5 5 5 5 5 5 5 5 5 5 5 5 5 5 5 5 5 5 5 5 5 4 $ 5 5 4 5 5 4 5 5 5 5 5 5 5 5 5 $ 5 5 5 5 5 4 5 5 5 5 5 5 5 5 5 5 5 5 5 5 5 5 5 5 5 5 5 5 5 5 5 5 5 5 5 5 5 5 5 5 5 5 5 5 5 5 5 5 $ 4 5 5 5 5 5 5 5 5 5 5 n 5 5 5 5 5 5 5 f 5 5 5 5 5 e e 5 5 5 v 5 d d 5 5 5 5 5 f 5 5 3 W ^ 3 f 5 5 5 5 5 5 f 5 3 ; - 4 9 k.# 5 5 5 5 5 f $ ,.5 # q 6XB d c B 5 5 e c g $ y b x x b x ",
"e B f f f f f n M.M.M.7.M.M.=X0.8.0.7.f f f f f c n 5 5 5 5 f 5 5 5 e 5 d 5 $ d f e 5 5 5 5 5 d 5 5 d e 5 $ e f d 5 5 5 5 5 5 d e d 5 5 d 4 $ $ $ $ 5 5 5 5 5 5 5 5 d 5 d 5 $ $ $ $ 5 5 5 5 5 5 5 5 5 5 f 5 5 5 5 f f 5 5 5 5 5 5 5 5 5 e e d 5 $ d f d 5 5 5 5 5 5 5 e 5 5 e 5 5 4 5 d e 5 5 5 5 5 5 5 5 5 5 e 5 4 e e 5 5 5 5 5 5 5 d 5 5 f 5 $ $ $ $ 5 5 5 5 5 n 5 5 5 5 5 5 5 f 5 5 5 5 5 e d 5 5 v e $ f d 5 5 5 5 5 f e 3 ; aX5 5 f 5 5 5 5 5 5 f 5 3 ; - 4 9 k.# 5 5 5 5 5 f $ ,.5 # q 6XB + 5 5 5 5 e c g $ y b x x b x ",
"e B f g g g f v 7.C 6.C 6.8.8.7.7.8.6.c f g g f c n 5 5 5 5 c C 7.c B 0.0.c g 0.0.8.5 5 5 5 5 8.n v 0.0.n d 0.0.M.d 5 5 5 5 5 f 0.0.v n 8.d 6.C v n 5 5 5 5 5 $ B 6.6.0.7.f C C v n 5 5 5 5 5 5 $ n B d M.c 8.5 7.0.=Xc $ 5 5 5 5 e M.d B 0.0.v f 0.0.0.5 5 5 5 5 5 B f n f B C v 5 n C 6.f 5 5 5 5 d 6.5 v C B f f C 6.B 5 5 5 5 5 5 8.n v 8.d C 6.v n 5 5 5 5 5 n 5 5 5 5 5 5 5 f 5 5 5 5 5 e d $ v f 5 5 d d 5 5 5 5 5 f 3 - aX- 3 5 f 5 5 5 5 5 5 f 5 3 ; - 4 9 k.# 5 5 5 5 5 f $ ,.5 # q 6XB $ 5 5 5 5 e c g $ y b x x b x ",
"e C c c c c c c g c c c c c g c c c c c c c c c v n 4 5 5 c n 7.-X6.C =X0.n 6.0.M.0.5 5 5 5 e 7.6.C 0.M.B C 0.M.=Xf 4 5 5 5 4 c 8.7.6.C 7.v 0.8.6.0.5 5 5 5 5 $ f 7.6.=X6.v 0.8.6.0.e 5 5 5 5 5 c g C 5 6.-XM.c 0.0.=Xn $ 5 5 5 5 B M.C C M.0.n C 0.M.M.5 5 5 5 f d v c v c B 6.v c C C 7.g $ 5 5 5 v 6.v v 6.B c n C 6.C 5 5 5 5 5 5 7.6.C 7.v 0.8.6.0.f 5 5 5 5 n 5 5 5 5 5 5 5 f 5 5 5 5 5 e 5 g g 4 5 5 d d 5 5 5 5 5 f e aX; 3 5 5 f 5 5 5 5 5 5 f 5 3 ; t 4 f k.# 5 5 5 5 5 f $ ,.e # q 6XB $ 5 5 5 5 e c g $ y b x x b x ",
"5 n n n n n n n n n n n n n n n n n n n n n n n B c 5 5 5 $ B v f c v c n 5 g v v v 5 5 5 5 5 v v g v v f e n v n 5 5 5 5 5 $ v n v c c v 5 f f f v 5 5 5 5 5 5 e f v c v 5 f f f v 5 5 5 5 5 5 5 5 f g v d g 5 n c n d 5 5 5 5 5 5 v c c c v d f n v v 5 5 5 5 5 5 d c c f g f f 5 c f c 5 5 5 5 5 5 c f g f c 5 f c c g 5 5 5 5 5 5 v v g v 5 f f f v e 5 5 5 5 n 5 5 5 5 5 5 5 f 4 5 5 5 5 5 c g $ 5 5 $ d e $ 5 5 5 4 9 ^ E 3 5 5 4 f 5 5 5 5 5 5 f 5 3 ; - 4 9 k.# 5 5 5 5 5 d $ ,.5 # q 6XN + 5 5 5 4 5 c g $ y b x x b x ",
"5 4 5 5 5 5 5 5 5 5 5 5 5 5 5 5 5 5 5 5 5 5 5 5 4 5 5 5 5 5 # $ 4 $ $ $ $ 5 4 $ $ $ 5 5 5 5 5 $ $ $ $ $ 5 5 # $ $ 5 5 5 5 5 5 $ $ $ $ $ $ 5 4 5 5 $ 5 5 5 5 5 5 5 5 $ $ $ 5 4 5 5 $ 5 5 5 5 5 5 5 5 4 4 $ 5 $ 5 $ $ $ 5 5 5 5 5 5 5 $ $ $ $ $ 5 5 $ $ $ 5 5 5 5 5 5 5 $ $ 5 $ 5 5 5 $ 5 $ 5 5 5 5 5 5 $ 5 4 5 $ 5 5 $ 4 4 5 5 5 5 5 5 $ $ 4 $ 5 4 5 5 $ 5 5 5 5 5 v 5 f d d d d f c d d d f e g B d d d d d g g d d d d 9 / / 9 d d d d c f d d d d d g d 9 ; t 5 c l.e f d d d f g 8 ,.f e M 6XB 5 d d d d f c g $ y b x x b x ",
"5 5 5 5 5 5 5 5 5 5 5 5 5 5 5 5 5 5 5 5 5 5 5 5 5 5 5 5 5 5 5 5 5 5 5 5 5 5 5 5 5 5 5 5 5 5 5 5 5 5 5 5 5 5 5 5 5 5 5 5 5 5 5 5 5 5 5 5 5 5 5 5 5 5 5 5 5 5 5 5 5 5 5 5 5 5 5 5 5 5 5 5 5 5 5 5 5 5 5 5 5 5 5 5 5 5 5 5 5 5 5 5 5 5 5 5 5 5 5 5 5 5 5 5 5 5 5 5 5 5 5 5 5 5 5 5 5 5 5 5 5 5 5 5 5 5 5 5 5 5 5 5 5 5 5 5 5 5 5 5 5 5 5 5 5 5 5 5 5 5 5 5 5 5 5 5 5 v 5 5 5 5 5 5 e g 5 5 5 5 e B d 5 5 5 5 5 f f 5 5 e 9 W ^ 3 e 5 5 5 5 g e 5 5 5 5 5 f e 5 ; t 5 f k.5 5 5 5 5 d f 5 ,.r 4 k 6XB 8 f f e 5 d c g $ y b x x b x ",
"f f f f f f f f f f f f f f f f f f f f f f f f f f f f f f f f f f f f f f f f f f f f f f f f f f f f f f f f f f f f f f f f f f f f f f f f f f f f f f f f f f f f f f f f f f f f f f f f f f f f f f f f f f f f f f f f f f f f f f f f f f f f f f f f f f f f f f f f f f f f f f f f f f f f f f f f f f f f f f f f f f f f f f f f f f f f f f f d 5 n 5 5 5 5 5 5 5 f 5 5 5 5 v f 5 5 5 5 5 4 d d 4 5 3 ; ^ f 5 5 5 5 5 5 f 5 5 5 5 5 5 f 5 3 ; - 4 9 k.# 5 5 5 5 5 d $ ,.5 # q 6XN n 8.7.5 4 e c g $ y b x x b x ",
"5 5 5 5 5 5 5 5 5 5 5 5 5 5 5 5 5 5 5 5 5 5 5 5 5 5 5 5 5 5 5 5 5 $ @ 5 @ $ 5 5 5 5 5 5 5 5 5 5 5 5 @ $ 5 @ 5 5 5 5 5 5 5 5 5 5 5 5 # # 5 # # 5 5 5 5 5 5 5 5 5 5 5 5 @ $ 5 @ 5 5 5 5 5 5 5 5 5 5 5 5 4 + 4 # # 5 5 5 5 5 5 5 5 5 5 5 5 @ @ 5 @ $ 5 5 5 5 5 5 5 5 5 5 5 5 4 5 4 4 5 5 5 5 5 5 5 5 5 5 5 5 $ $ 5 $ 5 5 5 5 5 5 5 5 5 5 5 5 $ @ 5 @ $ 5 5 5 5 5 5 5 n 5 5 5 5 5 5 5 f 5 5 5 v d 5 d 5 5 5 5 5 d d 5 3 - aX- 9 5 5 5 5 5 5 f 5 5 5 5 5 5 f 5 3 ; t 4 9 k.# 5 5 5 5 5 f $ ,.5 # q 6XB n 7.6.e 5 e c g $ y b x x b x ",
"5 3 5 5 5 5 5 5 5 5 5 5 3 5 5 5 5 5 5 5 5 5 5 5 5 5 5 5 5 5 5 5 @ u c.c.c.u $ 5 5 5 5 5 5 5 5 5 5 5 v.'.c.v.5 5 5 5 5 5 5 5 5 5 5 # h l.l.l.L # 5 5 5 5 5 5 5 5 5 5 5 ` J.J.` e 5 5 5 5 5 5 5 5 5 5 4 9 j.l.l.L # 5 5 5 5 5 5 5 5 5 5 @ ,.E.E.E.u @ 5 5 5 5 5 5 5 5 5 5 5 M M M v 5 5 5 5 5 5 5 5 5 5 5 5 v N.N.6.e 5 5 5 5 5 5 5 5 5 5 $ u c.c.c.i $ 5 5 5 5 5 5 n 5 5 5 5 5 5 5 f 5 4 g g $ e e 5 5 5 5 5 d d 5 e aX; 3 f 5 5 5 5 5 5 f 5 5 5 5 5 5 f 5 3 ; - 4 9 k.# 5 5 5 5 5 f $ ,.5 # q 6XN $ 5 $ 5 5 e c g $ y b x x b x ",
"e ^ ^ ^ ^ ^ ^ ^ ^ ^ ^ ^ aX; m B n n C f g C n n C v 5 5 5 5 5 @ ,.T.t O t T.p @ 5 5 5 5 5 5 5 5 $ E.c.7 # <.T.5 5 5 5 5 5 5 5 5 # k uXk @ 0 l.h.# 5 5 5 5 5 5 5 5 @ ` ` : O s J.t 5 5 5 5 5 5 5 5 4 9 uXL * 0 k.k.# 5 5 5 5 5 5 5 5 @ v.'.s 4 p NXp @ 5 5 5 5 5 5 5 5 5 M h % + k M 5 5 5 5 5 5 5 5 5 $ V 5.# + g N.r 5 5 5 5 5 5 5 5 $ i T.s O 7 T.<.@ 5 5 5 5 5 n 5 5 5 5 5 5 5 f $ f c 5 5 e d 5 5 5 5 5 d d 3 ^ E 3 5 f 5 5 5 5 5 5 f 5 5 5 5 5 5 f 5 3 ; - 4 9 k.# 5 5 5 5 5 f $ ,.5 # q 6XB $ 5 5 5 5 e c g $ y b x x b x ",
"t aX~ ^ ^ ^ ^ ~ ^ ^ ^ ~ aXE m c C c v c c n B B v n 4 5 5 5 5 r '.# . f % # T.5 5 5 5 5 5 5 5 @ v.T.. % $ . <.v.@ 5 5 5 5 5 5 5 4 l.q   f + X l.0 4 5 5 5 5 5 5 3 s | . @ f o s ` @ 5 5 5 5 5 5 5 # k.L   d 5   l.L # 5 5 5 5 5 5 $ u '.O % g . s '.$ 5 5 5 5 5 5 5 4 M h   + #   M g 4 5 5 5 5 5 5 5 f N.  o 5   r 7.$ 5 5 5 5 5 5 5 5 c.7 o f @ O T.r 5 5 5 5 5 n 5 5 5 5 5 5 5 f e v 5 5 5 e d 5 5 5 5 5 d 9 ~ / 3 5 5 f 5 5 5 5 5 5 f 5 5 5 5 5 5 f 5 3 ; t 4 f k.4 5 5 5 5 5 f $ ,.e # q 6XB $ 5 5 5 5 e c g $ y b x x b x ",
"t aX~ ^ ^ ^ ^ ^ ^ ^ aX~ ^ E m g 8.B v c c v =X=Xc n 5 5 5 5 @ ,.T.. e C 6.. c.i $ 5 5 5 5 5 5 @ E.s % B C f # c.5 5 5 5 5 5 5 4 h l.X c 6.g   L L # 5 5 5 5 5 5 @ ` s o C C 5 X ` e 5 5 5 5 5 5 5 8 l.% e 6.v   q L # 5 5 5 5 5 5 @ v.c.. B 6.n o E.i $ 5 5 5 5 5 5 5 M + % c c + @ M 4 5 5 5 5 5 5 $ V c   g c 5 X N.5 5 5 5 5 5 5 $ u c.. v 7.6.o <.p @ 5 5 5 5 n 5 5 5 5 5 5 5 c v 5 4 5 $ 5 e $ 5 5 5 $ 9 W ~ 3 5 5 $ d 5 5 5 5 5 $ f 5 5 5 5 5 4 d 5 3 ; - $ 9 k.# 5 5 5 4 5 d $ ,.5 # q 6XN + 5 5 5 4 5 c g $ y b x x b x ",
"t ^ ~ ~ ~ ~ ~ ~ ~ ~ ~ ~ ^ E m g n v c c c c n B g n 5 5 5 5 @ p E.. c C v . c.i $ 5 5 5 5 5 5 @ T.p o B 6.$ 7 c.$ 5 5 5 5 5 5 4 h l.  d C n X L L # 5 5 5 5 5 5 @ ` ` . n B 5 O ` 5 5 5 5 5 5 5 5 5 l.% 4 C n O q L # 5 5 5 5 5 5 @ ,.T.. v n $ X '.u $ 5 5 5 5 5 5 4 M @ X f 5   $ M 4 5 5 5 5 5 5 $ V v   f d O O N.5 5 5 5 5 5 5 $ u c.. e c n . c.p @ 5 5 5 5 v 5 f f f f f f C g f f f f g g f f f f 9 E aXf f f f f c f f f f f f v f f f f f f c f 9 ; f d c l.r f f f f f c d x.f e M 6X6.8 f f f f f c g $ y b x x b x ",
"t sX^ ^ ^ ^ ^ ^ ^ ^ ^ ^ sXE m B v v C c v C v v B B 4 5 5 5 5 5 '.s . 4 X t c.5 5 5 5 5 5 5 5 @ ,.E.X % #   c.<.@ 5 5 5 5 5 5 5 # l.L   $ O @ j.8 5 5 5 5 5 5 5 5 t J.O % $ X s ` 3 5 5 5 5 5 5 5 # j.h.  $ + % j.k 4 5 5 5 5 5 5 5 r '.7 X 5   s T.$ 5 5 5 5 5 5 5 4 g M   O O X h f 4 5 5 5 5 5 5 5 r N.O X %   r V $ 5 5 5 5 5 5 5 5 c.s   # o 7 c.5 5 5 5 5 5 v 5 e e e e 5 n v 5 e e e 5 f f 5 e e 9 ; aXt 5 e e e 5 g d 5 e e e 5 c d 5 e e e 5 g e 9 ; t 5 f l.5 d e e 5 d f 5 ,.r 5 k 6XB 5 e e e 5 f c g $ y b x x b x ",
"5 E E E E E E E E E E E E - 9 g g g g 5 5 g g g g d 5 5 5 5 5 @ ,.'.+ O + c.i $ 5 5 5 5 5 5 5 5 @ E.v.o % i c.5 5 5 5 5 5 5 5 5 # k uX5 O + Y H # 5 5 5 5 5 5 5 5 @ ` ` % % t ` 5 5 5 5 5 5 5 5 5 5 8 uXh O O L L # 5 5 5 5 5 5 5 5 @ v.E.% O 4 c.r $ 5 5 5 5 5 5 5 5 5 M f O % d h 5 5 5 5 5 5 5 5 5 $ V V % % 5 V 5 5 5 5 5 5 5 5 5 $ u T.$ % % c.p @ 5 5 5 5 5 n 5 5 5 5 $ g g f 5 5 5 5 4 5 e 4 5 5 e ^ ; 9 $ 5 5 5 5 d 5 5 5 5 5 5 f 5 5 5 5 5 5 f 5 3 ; - 4 9 k.# 5 5 5 5 5 d $ ,.5 # q 6XB + 5 5 5 5 5 c g $ x b x x b x ",
"5 m m m m m m m m m m m m v v c c c v n v v v v v g 5 5 5 5 5 5 $ 5 5 5 5 5 $ 5 5 5 5 5 5 5 5 5 5 5 5 5 5 5 5 5 5 5 5 5 5 5 5 5 5 4 5 5 5 5 5 4 5 5 5 5 5 5 5 5 5 5 5 5 5 5 5 5 5 5 5 5 5 5 5 5 5 5 4 5 5 5 5 5 4 5 5 5 5 5 5 5 5 5 5 $ 5 5 5 5 5 5 5 5 5 5 5 5 5 5 5 5 5 5 5 5 5 5 5 5 5 5 5 5 5 5 5 5 5 5 5 5 5 5 5 5 5 5 5 5 5 5 5 5 5 5 5 5 5 5 $ 5 5 5 5 5 5 n 5 5 5 4 f c 5 f 5 5 5 5 5 e d 5 5 3 ^ E 9 d 5 5 5 5 5 f 5 5 5 5 5 5 f 5 5 5 5 5 5 f 5 3 ; t 4 9 k.# 5 5 5 5 5 f $ ,.e # q 6XB $ 5 5 5 5 e c g 4 5 5 5 $ $ 5 ",
"e C g c c c c v N B C C C C C C C C C c c c c c v n 4 5 5 5 $ 5 5 5 4 $ $ 5 5 5 $ 4 5 5 5 5 5 $ 5 5 $ $ 5 5 5 $ $ 5 5 5 5 5 5 5 $ 5 5 5 $ 5 5 5 5 5 5 5 5 5 5 5 5 5 4 5 $ 5 5 5 5 5 5 5 5 5 5 5 5 $ 5 5 5 $ $ 4 5 5 $ $ 5 5 5 5 5 5 4 5 $ 4 $ 5 5 5 $ $ 5 5 5 5 5 5 5 5 5 5 4 5 5 5 5 5 4 5 5 5 5 5 5 5 5 5 5 4 5 5 5 4 5 5 5 5 5 5 5 $ 5 5 $ 5 5 5 5 5 5 5 5 5 5 n 5 5 5 d v 5 5 f 5 5 5 5 5 e e 5 3 / / 3 d d 5 5 5 5 5 f 5 5 5 5 5 5 f 5 5 5 5 5 5 f 5 3 ; - 4 9 k.# 5 5 5 5 5 f $ ,.5 # q 6XB + 5 5 5 5 e c g $ y 5.x 5.5.r ",
"e B f g g g f B =X=X=X8.M.=X=XM.0.M.8.g g g g f c n 5 5 5 $ g f e 5 f f c 5 $ g c f 5 5 5 5 5 g d e g f f # f c c 5 5 5 5 5 5 f f g e d g $ 5 5 4 5 5 5 5 5 5 5 f d g f g 4 5 5 4 5 5 5 5 5 5 4 d c 5 f 5 g f f # f c c 5 5 5 5 5 $ f 5 f f g e # g c g 5 5 5 5 5 5 d f f 5 f d f $ 5 f f 5 5 5 5 5 5 f 5 d d f 5 5 f f d 5 5 5 5 5 5 g d 5 c 5 5 5 4 5 5 5 5 5 5 n 5 5 5 v 5 5 5 f 5 5 5 5 5 e e 3 W ^ 3 5 d d 5 5 5 5 5 f 5 5 5 5 5 5 f 5 5 5 5 5 5 f 5 3 ; - 4 9 k.# 5 5 5 5 5 f $ ,.5 # q 6XB 5 5 5 f 5 e c c + 1.!.5._._.b ",
"e B f f f f f c C v B C C 6.C 6.6.6.C g f f f f c n 5 5 5 5 g 6.0.c B M.0.v v M.M.0.5 5 5 5 5 8.B v 0.0.B g 0.M.=Xd 5 5 5 5 5 e 0.0.n n 7.f 8.7.n C 5 5 5 5 5 $ n 8.6.=X6.f 8.8.n C 5 5 5 5 5 5 e 6.8.C c 0.M.C f 0.0.=Xf 4 5 5 5 f =Xf B M.0.v c M.M.M.5 5 5 5 5 e B d n f B 6.v d B 6.6.f 4 5 5 5 f 6.e v 6.B f c 6.6.B 5 5 5 5 5 5 8.B v 8.f 7.8.n C 5 5 5 5 5 n 5 5 v 5 5 5 5 f 5 5 5 5 5 e 9 E ^ 5 5 5 d d 5 5 5 5 5 f 5 5 5 5 5 5 f 5 5 5 5 5 5 f 5 3 ; - 4 9 k.# 5 5 5 5 5 f $ ,.5 # q 6X7.C B 6.n # e c g $ 5 b y b b 5 ",
"e C v v v v v v v v v v v v c v v v v v v v v v n n 4 5 5 g C 7.=X6.C M.0.v 6.0.M.0.5 5 5 5 5 7.6.C 0.M.n B 0.0.=Xf 4 5 5 5 $ v 8.7.6.C 7.c 8.6.C 0.e 5 5 5 5 $ f 6.6.M.6.v 7.6.C 0.d 5 5 5 5 f n 7.0.0.B 0.M.B n 0.0.=Xg $ 5 5 5 n 0.6.C 0.0.v C 0.0.M.5 5 5 5 d d c v v c B 6.v g C B 6.g 4 5 5 5 v 6.v v 6.B g n C 6.C 5 5 5 5 5 5 7.6.C 8.c 7.6.C 0.f 5 5 5 5 v 5 v f 5 5 5 5 f 5 5 5 5 5 9 ; aX- 3 5 5 f d 5 5 5 5 5 f 5 5 5 5 5 5 f 5 5 5 5 5 5 f 5 3 ; t 4 f k.4 5 5 5 5 5 f $ ,.e # k 6X7.v n B g 5 e c g $ e b r b b 5 ",
"5 v v v v v v v v v v v v v v v v v v v v v v v v f 5 5 5 $ c f 5 f f f g 5 d g g f 5 5 5 5 5 f f f f f d 5 c f c 5 5 5 5 5 5 c c g f f f 5 d e d g 5 5 5 5 5 5 5 5 g f g 5 d e d g 5 5 5 5 5 $ f v 5 f f f f f 5 c f c 5 5 5 5 5 $ f f f f g 5 d c f g 5 5 5 5 5 5 5 f f e f d d 5 f d f 5 5 5 5 5 5 f e f e f 5 e f f f 5 5 5 5 5 5 f f f g 5 d e d g 5 5 5 5 5 n g f # 5 4 $ 5 f $ 4 4 4 4 - aX; 3 $ 4 $ 5 5 $ 4 4 4 $ e 5 $ 4 4 4 $ f 5 $ 4 4 4 $ e 5 3 ; - # 8 j.# 5 4 4 $ 5 e @ p 5 # 0 6Xv + $ # $ $ 5 v f + 1.!.5._._.b ",
"5 4 4 4 4 4 4 4 4 4 4 4 4 4 4 4 4 4 4 4 4 4 4 4 $ 5 5 5 5 5 $ 5 5 5 5 5 4 5 5 4 4 4 5 5 5 5 5 5 5 5 5 5 5 5 $ 5 $ 5 5 5 5 5 5 $ $ 4 5 5 5 5 5 5 5 4 5 5 5 5 5 5 5 5 4 5 4 5 5 5 5 4 5 5 5 5 5 5 5 $ 5 5 5 5 5 5 5 $ 5 $ 5 5 5 5 5 5 4 5 5 5 4 5 5 $ 5 4 5 5 5 5 5 5 5 5 5 5 5 5 5 5 5 5 5 5 5 5 5 5 5 5 5 5 5 5 5 5 5 5 5 5 5 5 5 5 5 5 5 5 4 5 5 5 5 4 5 5 5 5 5 f B f g f f f g g f f f g f l l f g f f f g g f f f f f g g f f f f f g g f f f f f g f f g g f g c f f f f f g g f g g f g c g g g g g f v n 5 5 r 5.b 5.5.r ",
"4 5 5 5 5 5 5 5 5 5 5 5 5 5 5 5 5 5 5 5 5 5 5 5 5 5 5 5 5 5 5 5 5 5 5 5 5 5 5 5 5 5 5 5 5 5 5 5 5 5 5 5 5 5 5 5 5 5 5 5 5 5 5 5 5 5 5 5 5 5 5 5 5 5 5 5 5 5 5 5 5 5 5 5 5 5 5 5 5 5 5 5 5 5 5 5 5 5 5 5 5 5 5 5 5 5 5 5 5 5 5 5 5 5 5 5 5 5 5 5 5 5 5 5 5 5 5 5 5 5 5 5 5 5 5 5 5 5 5 5 5 5 5 5 5 5 5 5 5 5 5 5 5 5 5 5 5 5 5 5 5 5 5 5 5 5 5 5 5 5 5 5 5 5 5 5 5 $ 5 g g g g g g g g g g g g g c g g g g g g g g g g g g g g g g g g g g g g g g g g g g g g g g g g g g g g g g g g g g g g f g g g g g g f 5 4 5 $ + $ + + $ ",
"v v v v v v v v v v v v v v v v v v v v v v v v v v v v v v v v v v v v v v v v v v v v v v v v v v v v v v v v v v v v v v v v v v v v v v v v v v v v v v v v v v v v v v v v v v v v v v v v v v v v v v v v v v v v v v v v v v v v v v v v v v v v v v v v v v v v v v v v v v v v v v v v v v v v v v v v v v v v v v v v v v v v v v v v v v v v v v v v v v v c c c c c c c c c c c c c c c c c c c c c c c c c c c c c c c c c c c c c c c c c c c c c c c c c c c c c c c c c c c c c c c c c c c c v v v v v v v v v ",
"f f f f f f f f f f f f f f f f f f f f f f f f f f f f f f f f f f f f f f f f f f f f f f f f f f f f f f f f f f f f f f f f f f f f f f f f f f f f f f f f f f f f f f f f f f f f f f f f f f f f f f f f f f f f f f f f f f f f f f f f f f f f f f f f f f f f f f f f f f f f f f f f f f f f f f f f f f f f f f f f f f f f f f f f f f f f f f f f f f f f f f f f f f f f f f f f f f f f f f f f f f f f f f f f f f f f f f f f f f f f f f f f f f f f f f f f f f f f f f f f f f f f f f f f f f f f f f f f ",
"v v v v v v v v v v v v v v v v v v v v v v v v v v v v v v v v v v v v v v v v v v v v v v v v v v v v v v v v v v v v v v v v v v v v v v v v v v v v v v v v v v v v v v v v v v v v v v v v v v v v v v v v v v v v v v v v v v v v v v v v v v v v v v v v v v v v v v v v v v v v v v v v v v v v v v v v v v v v v v v v v v v v v v v v v v v v v v v v v v v v v v v v v v v v v v v v v v v v v v v v v v v v v v v v v v v v v v v v v v v v v v v v v v v v v v v v v v v v v v v v v v v v v v v v v v v v v v v v ",
"$ # # 4 4 4 5 4 4 4 4 4 4 4 4 5 + # # $ 5 4 4 5 4 4 4 4 4 4 4 4 $ $ # $ 5 4 5 5 4 4 4 4 4 4 4 4 4 4 4 4 4 4 4 4 4 4 4 4 4 4 4 4 4 4 4 4 4 4 4 4 4 4 4 4 4 4 4 4 4 4 4 4 4 4 4 4 4 4 4 4 4 4 4 4 4 4 4 4 4 4 4 4 4 4 4 4 4 4 4 4 4 4 4 4 4 4 4 4 4 4 4 4 4 4 4 4 4 4 4 4 4 4 4 4 4 4 4 4 4 4 4 4 4 4 4 4 4 4 4 4 4 4 4 4 4 4 4 4 4 4 4 4 4 4 4 4 4 4 4 4 4 4 4 4 4 4 4 4 4 4 4 4 4 4 4 4 4 4 4 4 4 4 4 4 4 4 4 4 4 4 4 4 4 4 4 4 4 4 4 4 4 4 4 4 4 4 4 4 4 4 4 4 4 4 4 4 4 4 4 $ $ $ 4 # $ $ 4 4 4 3 4 4 4 4 4 4 $ @ $ $ 4 @ $ @ ",
"v n v 5 5 5 $ 5 5 5 $ 5 5 5 5 5 B C C c 5 5 5 $ 5 5 $ 5 5 5 5 5 v v n f 5 5 $ $ 5 5 $ 5 5 5 5 5 5 5 5 5 5 5 5 5 5 5 5 5 5 5 5 5 5 5 5 5 5 5 5 5 5 5 5 5 5 5 5 5 5 5 5 5 5 5 5 5 5 5 5 5 5 5 5 5 5 5 5 5 5 5 5 5 5 5 5 5 5 5 5 5 5 5 5 5 5 5 5 5 5 5 5 5 5 5 5 5 5 5 5 5 5 5 5 5 5 5 5 5 5 5 5 5 5 5 5 5 5 5 5 5 5 5 5 5 5 5 5 5 5 5 5 5 5 5 5 5 5 5 5 5 5 5 5 5 5 5 5 5 5 5 5 5 5 5 5 5 5 5 5 5 5 5 5 5 5 5 5 5 5 5 5 5 5 5 5 5 5 5 5 5 5 5 5 5 5 5 5 5 5 5 5 5 5 5 5 5 5 5 5 5 5 5 5 f 5 5 5 5 5 - 5 e 5 5 5 5 i ,.,.u 5 ,.a ,.",
"M.6.7.5 5 5 x.r 5 r u e 5 5 5 5 0.7.=XB $ 5 i ,.5 5 r r 5 5 5 5 6.=X=Xg 4 5 ,.a $ e u r 5 5 5 5 5 5 5 5 5 5 5 5 5 5 5 5 5 5 5 5 5 5 5 5 5 5 5 5 5 5 5 5 5 5 5 5 5 5 5 5 5 5 5 5 5 5 5 5 5 5 5 5 5 5 5 5 5 5 5 5 5 5 5 5 5 5 5 5 5 5 5 5 5 5 5 5 5 5 5 5 5 5 5 5 5 5 5 5 5 5 5 5 5 5 5 5 5 5 5 5 5 5 5 5 5 5 5 5 5 5 5 5 5 5 5 5 5 5 5 5 5 5 5 5 5 5 5 5 5 5 5 5 5 5 5 5 5 5 5 5 5 5 5 5 5 5 5 5 5 5 5 5 5 5 5 5 5 5 5 5 5 5 5 5 5 5 5 5 5 5 5 5 5 5 5 5 5 5 5 5 5 5 5 5 5 5 4 g v B v g C v e 3 ; ; E E ; 5 5 5 a ,.v.i 5 v.,.v.",
"7.0.-X5 $ u ].,.@ a x.u $ 5 5 5 7.0.v c 5 $ x.R.e e x.,.5 5 5 d e C 8.5 5 5 R.b.$ r x.,.5 5 5 5 5 5 5 5 5 5 5 5 5 5 5 5 5 5 5 5 5 5 5 5 5 5 5 5 5 5 5 5 5 5 5 5 5 5 5 5 5 5 5 5 5 5 5 5 5 5 5 5 5 5 5 5 5 5 5 5 5 5 5 5 5 5 5 5 5 5 5 5 5 5 5 5 5 5 5 5 5 5 5 5 5 5 5 5 5 5 5 5 5 5 5 5 5 5 5 5 5 5 5 5 5 5 5 5 5 5 5 5 5 5 5 5 5 5 5 5 5 5 5 5 5 5 5 5 5 5 5 5 5 5 5 5 5 5 5 5 5 5 5 5 5 5 5 5 5 5 5 5 5 5 5 5 5 5 5 5 5 5 5 5 5 5 5 5 5 5 5 5 5 5 5 5 5 5 5 5 5 5 5 5 5 5 4 g 6.C C 5 6.n e 3 ; ; E E W 5 5 5 u a ,.u 5 ,.x.x.",
"6.0.M.5 5 $ r 5 5 $ @ 5 5 5 5 5 C 6.g f 5 5 5 r $ 5 @ $ 5 5 5 5 g B 6.e 5 5 e e 5 5 @ $ 5 5 5 5 5 5 5 5 5 5 5 5 5 5 5 5 5 5 5 5 5 5 5 5 5 5 5 5 5 5 5 5 5 5 5 5 5 5 5 5 5 5 5 5 5 5 5 5 5 5 5 5 5 5 5 5 5 5 5 5 5 5 5 5 5 5 5 5 5 5 5 5 5 5 5 5 5 5 5 5 5 5 5 5 5 5 5 5 5 5 5 5 5 5 5 5 5 5 5 5 5 5 5 5 5 5 5 5 5 5 5 5 5 5 5 5 5 5 5 5 5 5 5 5 5 5 5 5 5 5 5 5 5 5 5 5 5 5 5 5 5 5 5 5 5 5 5 5 5 5 5 5 5 5 5 5 5 5 5 5 5 5 5 5 5 5 5 5 5 5 5 5 5 5 5 5 5 5 5 5 5 5 5 5 5 5 4 v g 5 f g e f d 5 e ; e e - 5 5 5 a ,.a i 5 v.a v.",
"5 4 $ 5 5 5 5 5 5 5 5 5 5 5 5 5 5 5 5 5 5 5 5 5 5 5 5 5 5 5 5 5 5 5 5 5 5 5 5 5 5 5 5 5 5 5 5 5 5 5 5 5 5 5 5 5 5 5 5 5 5 5 5 5 5 5 5 5 5 5 5 5 5 5 5 5 5 5 5 5 5 5 5 5 5 5 5 5 5 5 5 5 5 5 5 5 5 5 5 5 5 5 5 5 5 5 5 5 5 5 5 5 5 5 5 5 5 5 5 5 5 5 5 5 5 5 5 5 5 5 5 5 5 5 5 5 5 5 5 5 5 5 5 5 5 5 5 5 5 5 5 5 5 5 5 5 5 5 5 5 5 5 5 5 5 5 5 5 5 5 5 5 5 5 5 5 5 5 5 5 5 5 5 5 5 5 5 5 5 5 5 5 5 5 5 5 5 5 5 5 5 5 5 5 5 5 5 5 5 5 5 5 5 5 5 5 5 5 5 5 5 5 5 5 5 5 5 5 5 5 5 e 5 5 5 4 5 5 5 5 5 3 5 5 5 5 5 5 5 5 5 5 5 $ 5 5 ",
"5 5 5 5 5 5 5 5 5 5 5 5 5 5 5 5 5 5 5 5 5 5 5 5 5 5 5 5 5 5 5 5 5 5 5 5 5 5 5 5 5 5 5 5 5 5 5 5 5 5 5 5 5 5 5 5 5 5 5 5 5 5 5 5 5 5 5 5 5 5 5 5 5 5 5 5 5 5 5 5 5 5 5 5 5 5 5 5 5 5 5 5 5 5 5 5 5 5 5 5 5 5 5 5 5 5 5 5 5 5 5 5 5 5 5 5 5 5 5 5 5 5 5 5 5 5 5 5 5 5 5 5 5 5 5 5 5 5 5 5 5 5 5 5 5 5 5 5 5 5 5 5 5 5 5 5 5 5 5 5 5 5 5 5 5 5 5 5 5 5 5 5 5 5 5 5 5 5 5 5 5 5 5 5 5 5 5 5 5 5 5 5 5 5 5 5 5 5 5 5 5 5 5 5 5 5 5 5 5 5 5 5 5 5 5 5 5 5 5 5 5 5 5 5 5 5 5 5 5 5 5 5 5 5 5 5 5 5 5 5 5 5 5 5 5 5 5 5 5 5 5 5 5 5 5 5 "
};
