/* XPM */
static char *mb_gate_mono[] = {
/* columns rows colors chars-per-pixel */
"256 256 256 2 ",
"   c #08090A",
".  c #0C0C12",
"X  c #0D1718",
"o  c #16171C",
"O  c #1B151B",
"+  c #151A1D",
"@  c #191A1F",
"#  c #171216",
"$  c #130D11",
"%  c #321A1E",
"&  c #32171E",
"*  c #27191E",
"=  c #18271D",
"-  c #24281D",
";  c #34351C",
":  c #2E2E1C",
">  c #0C1A22",
",  c #151B22",
"<  c #1B1C22",
"1  c #181824",
"2  c #12172D",
"3  c #221D25",
"4  c #2D1D24",
"5  c #251D2A",
"6  c #2D1D2D",
"7  c #271524",
"8  c #321D2C",
"9  c #2C1E31",
"0  c #351F33",
"q  c #3B1C35",
"w  c #1E2026",
"e  c #1B232A",
"r  c #172629",
"t  c #0A2732",
"y  c #172730",
"u  c #192932",
"i  c #1E2E39",
"p  c #172833",
"a  c #1D323B",
"s  c #153739",
"d  c #11312B",
"f  c #222225",
"g  c #23242B",
"h  c #25282F",
"j  c #2B2627",
"k  c #37272A",
"l  c #3C322B",
"z  c #3D3B2E",
"x  c #36342B",
"c  c #232335",
"v  c #272A32",
"b  c #2A2C35",
"n  c #2C2E39",
"m  c #272539",
"M  c #342234",
"N  c #392333",
"B  c #392A39",
"V  c #2E303A",
"C  c #25353A",
"Z  c #393434",
"A  c #31333D",
"S  c #3A3439",
"D  c #363B3B",
"F  c #393C3C",
"G  c #383833",
"H  c #2B3528",
"J  c #4A201E",
"K  c #5B231C",
"L  c #6A241A",
"P  c #67241A",
"I  c #76281C",
"U  c #451D3B",
"Y  c #4B2C2E",
"T  c #452829",
"R  c #572927",
"E  c #41332A",
"W  c #4D342B",
"Q  c #493C2F",
"!  c #443B2A",
"~  c #52362D",
"^  c #513A2C",
"/  c #5A362C",
"(  c #4D2E31",
")  c #462836",
"_  c #4F3133",
"`  c #4B3D31",
"'  c #443935",
"]  c #513235",
"[  c #533B32",
"{  c #573936",
"}  c #542C3A",
"|  c #752C24",
" . c #62322B",
".. c #6A352B",
"X. c #78342B",
"o. c #673734",
"O. c #7E3E35",
"+. c #763737",
"@. c #682C2D",
"#. c #394E18",
"$. c #104C35",
"%. c #3B4133",
"&. c #3B433A",
"*. c #39463B",
"=. c #375136",
"-. c #196218",
";. c #5A5A1D",
":. c #50500F",
">. c #586E18",
",. c #49432D",
"<. c #554728",
"1. c #4D4134",
"2. c #44453C",
"3. c #44493D",
"4. c #4A4A3D",
"5. c #464538",
"6. c #57443A",
"7. c #4F562E",
"8. c #664C27",
"9. c #6B433A",
"0. c #76443B",
"q. c #66542E",
"w. c #4E662F",
"e. c #696915",
"r. c #193946",
"t. c #16334A",
"y. c #262C43",
"u. c #3A2847",
"i. c #243449",
"p. c #343641",
"a. c #363944",
"s. c #3B3A46",
"d. c #3C3E4A",
"f. c #3B3645",
"g. c #2F3455",
"h. c #323C6A",
"j. c #571E47",
"k. c #6D1F54",
"l. c #4B2644",
"z. c #522745",
"x. c #572847",
"c. c #4D3144",
"v. c #403947",
"b. c #4E374C",
"n. c #433C4B",
"m. c #4F384D",
"M. c #443545",
"N. c #513145",
"B. c #55354B",
"V. c #51394E",
"C. c #593749",
"Z. c #4B3C53",
"A. c #533C53",
"S. c #593B56",
"D. c #512D56",
"F. c #76235B",
"G. c #643855",
"H. c #743453",
"J. c #6C2E4B",
"K. c #4B366E",
"L. c #743665",
"P. c #1B434C",
"I. c #1B4955",
"U. c #104D54",
"Y. c #274549",
"T. c #3C4242",
"R. c #3F404C",
"E. c #384945",
"W. c #355449",
"Q. c #365954",
"!. c #2B4E55",
"~. c #0D6A48",
"^. c #366644",
"/. c #336753",
"(. c #0A5A66",
"). c #1C5867",
"_. c #185371",
"`. c #2E4E6D",
"'. c #0C6874",
"]. c #266978",
"[. c #366970",
"{. c #42424D",
"}. c #474A44",
"|. c #594944",
" X c #485549",
".X c #56544B",
"XX c #434553",
"oX c #494958",
"OX c #56455A",
"+X c #4B5556",
"@X c #565653",
"#X c #634A45",
"$X c #724C4C",
"%X c #4A674A",
"&X c #4B4966",
"*X c #5A4866",
"=X c #4D5264",
"-X c #545667",
";X c #515777",
":X c #634B66",
">X c #6D4C6E",
",X c #516376",
"<X c #656676",
"1X c #8A2D21",
"2X c #842E23",
"3X c #912E20",
"4X c #88352A",
"5X c #96372B",
"6X c #873937",
"7X c #973A35",
"8X c #872F38",
"9X c #A9392A",
"0X c #B53B2A",
"qX c #AB3C36",
"wX c #882C1E",
"eX c #C83E2B",
"rX c #E13F1E",
"tX c #864237",
"yX c #944430",
"uX c #B04430",
"iX c #935C1B",
"pX c #CF412C",
"aX c #E54227",
"sX c #893953",
"dX c #9A3974",
"fX c #8E2F6C",
"gX c #A23678",
"hX c #AA3D41",
"jX c #985349",
"kX c #894C49",
"lX c #A44861",
"zX c #C74546",
"xX c #D53A4D",
"cX c #529243",
"vX c #ACB00F",
"bX c #8DD140",
"nX c #503E86",
"mX c #037A86",
"MX c #136C88",
"NX c #24748B",
"BX c #32669D",
"VX c #55488F",
"CX c #645592",
"ZX c #57618E",
"AX c #486EC9",
"SX c #B13B8A",
"DX c #BB418B",
"FX c #8D4A8D",
"GX c #CB4496",
"HX c #058692",
"JX c #228599",
"KX c #0496A4",
"LX c #2591AB",
"PX c #24A3BB",
"IX c #28A4C6",
"UX c #7D819B",
/* pixels */
"< < < < < < < < < < < < < < < < < < < < < < < < < < < < < < < < < < < < < < < < < < < < < < < < < < < < < < < < < < < < < < < < < < < < < < < < < < < < < < < < < < < < < < < < < < < < < < < < < < < < < < < < < < < < < < < < < < < < < < < < < < < < < < < < < < < < < < < < < < < < < < < < < < < < < < < < < < < < < < < < < < < < < < < < < < < < < < < < < < < < < < < < < < < < < < < < < < < < < < < < < < < < < < < < < < < < < < < < < < < < < < < < < < < < < < < < < < < < < < < < < < < < < < < < < < < < < < < < ",
"< < < < < < < < < @ O @ @ < < < < < < < < < < < < < < < < < < < < < < < < < < < < < < < < < < < < < < < < < < < < < < < < < < < < < < < < < < < < < < < < < < < < < < < < < < < < < < < < < < < < < < < < < < < < < < < < < < < < < < < < < < < < < < < < < < < < < < < < < < < < < < < < < < < < < < < < < < < < < < < < < < < < < < < < < < < < < < < < < < < < < < < < < < < < < @ < < < < < < o o o @ < o < < < < < < < < o @ < < < o @ < < < o o @ o @ < @ < < @ < o < < < < < < o < < @ < @ < @ < < < < < < < < @ < O < < ",
"O O O @ < < < @ 1 p t.p 2 @ < < < < < < < < < < < < < < < < < < < < < < < < < < < < < < < < < < < < < < < < < < < < < < < < < < < < < < < < < < < < < < < < < < < < < < < < < < < < < < < < < < < < < < < < < < < < < < < < < < < < < < < < < < < < < < < < < < < < < < < < < < < < < < < < < < < < < < < < < < < < < < < < < < < < < < < < < < < < < < < < < < < < < < < < < g g < h g w g g g < A A V b g A g @ g < g < g f p.h @ < < A v @ g < A A v A b @ h < < h @ A f w w w < f A < < v < h g b < < h f @ e e < e e a w O ",
"I.I.I.u O < @ y !.cXbXcX%XY.e @ < < < < < < < < < < < < < < < < < < < < < < < < < < < < < < < < < < < < < < < < < < < < < < < < < < < < < < < < < < < < < < < < < < < < < < < < < < < < < < < < < < < < < < < < < < < < < < < < < < < < < < < < < < < < < < < < < < < < < < < < < < < < < < < < < < < < < < < < < < < < < < < < < < < < < < < < < < < < < < < < < < < < < < o XX<Xh ZXoXA XXXXoXo oX<XXX-Xd.ZX-Xo ZXn -XoXR.oX-X-Xb o oX-Xs.@ ZXn oX<XR.<Xp.$ <XR.XX-XXX-X=XoX<Xa.XX=X-XoX# XX-Xd.=XZXv o V h # ).).a ].I.NXI.r.",
"IXIXIXLXa O p Q.bXcX7.w.bXcXr.w < < < < < < < < < < < < < < < < < < < < < < < < < < < < < < < < < < < < < < < < < < < < < < < < < < < < < < < < < < < < < < < < < < < < < < < < < < < < < < < < < < < < < < < < < < < < < < < < < < < < < < < < < < < < < < < < < < < < < < < < < < < < < < < < < < < < < < < < < < < < < < < < < < < < < < < < < < < < < < < < < < < < < < o d.<X=X,X=XV XXXXoX. v oXg XXd.<X-XA UX=XoX<X-XoXn d.XXo ,Xb =Xp.UXoXh oXn <Xv o -X-X-X-X-X$ oX-X-X,X=XoX. <Xo h UXf -XZXb o n h # I.].).).I.].).).",
"I.).NXIX].# !.bX7.. 1 o 1 /.NXr.@ < < < < < < < < < < < < < < < < < < < < < < < < < < < < < < < < < < < < < < < < < < < < < < < < < < < < < < < < < < < < < < < < < < < < < < < < < < < < < < < < < < < < < < < < < < < < < < < < < < < < < < < < < < < < < < < < < < < < < < < < < < < < < < < < < < < < < < < < < < < < < < < < < < < < < < < < < < < < < < < < < < < < < o a.-X-XoXd.-X-Xn <Xd.n oXA -Xd.<X=X=XXX-X-XA ZXXX<X-Xv o oX-X-X=XXX-Xa.oXA <XA o oX-X-XXXXX-X=XXXp.<XR.=X-XoX# oXoXoX=X<XV o V h # P.).).I.).].I.r.",
"$ $ a IX).1 [.%X1 w @ a I.o NXI.e < < < < < < < < < < < < < < < < < < < < < < < < < < < < < < < < < < < < < < < < < < < < < < < < < < < < < < < < < < < < < < < < < < < < < < < < < < < < < < < < < < < < < < < < < < < < < < < < < < < < < < < < < < < < < < < < < < < < < < < < < < < < < < < < < < < < < < < < < < < < < < < < < < < < < < < < < < < < < < < < < < < < < < < w < f @ v g @ b b < w g v < V w f o < g < w w n g @ < < n g g o < f w < n v < f w < w @ n < < < < < < n @ < g @ g g v @ < g < < w w < w e a < O ",
"u i ).IX].# r.JXNX@ < e w # ].].e @ < < < < < < < < < < < < < < < < < < < < < < < < < < < < < < < < < < < < < < < < < < < < < < < < < < < < < < < < < < < < < < < < < < < < < < < < < < < < < < < < < < < < < < < < < < < < < < < < < < < < < < < < < < < < < < < < < < < < < < < < < < < < < < < < < < < < < < < < < < < < < < < < < < < < < < < < < < < < < < < < < < < < < < < < < < @ < < @ @ < < < @ < o < < < < @ < < < o < < < < o < < < < < < < o @ < < < < < < o < < < < < < o < < < < < < @ < < < < < < < < < < O < < ",
"PXPXIXPXP.< ].PXLX< O @ < O ).).e @ < < < < < < < < < < < < < < < < < < < < < < < < < < < < < < < < < < < < < < < < < < < < < < < < < < < < < < < < < < < < < < < < < < < < < < < < < < < < < < < < < < < < < < < < < < < < < < < < < < < < < < < < < < < < < < < < < < < < < < < < < < < < < < < < < < < < < < @ < < < < < < < < < < < < < < < < < < < < < < < < < < < < < < < < < < < < < < < < < < < < < < < < < < < < < < < < < < 1 < < < < < < < < < < < < < < < < < < < < < < < < < @ @ @ < < < < @ @ @ @ < < < < < < < < ",
"NXNXNXI.O u NX].PX].u e O u JXI.< < < < < < < < < < < < < < < < < < < < < < < < < < < < < < < < < < < < < < < < < < < < < < < < < < < < < < < < < < < < < < < < < < < < < < < < < < < < < < < < < < < < < < < < < < < < < < < < < < < < < < < < < < < < < < < < w < < < < < < < < < < < < < < < < < < < < < < < V g o < n o @ @ < g < < < @ < < @ @ < < @ g < < < < < < < < < < < < < < < < < < < < < < < e @ < < < < < < < < < < < 1 -.= 1 < < @ O O O < < < e (.U.r < < < < < < < < < < i i i < v g w v b b b < g h < h < < < ",
"$ O O O < < # ].PXLXIX].w ].].a @ < < < < < < < < < < < < < < < < < < < < < < < < < < < < < < < < < < < < < < < < < < < < < < < < < < < < < < < < < < < < < < < < < < < < < < < < < < < < < < < < < < < < < < < < < < < < < < < < < < < < < < < < < < < < < e r.e < < < < < < < < < < < < < < < < < < < < < @ n XXf d.d.s.s.a.A d.XX@ a.d.A a.p.d.d.n A d.oXb @ < < < < < < < < < < < < < < < < < < < < @ a a @ < < < < < < < < < < w -.-.1 < < p r.r.U.w < @ r '.'.i O < < < < < < < < w ).).)., d.d.p.XXXXn oXs.p.d.g d.< < e ",
"O w < < < < w NXP.JXLXNX].NXr.< < < < < < < < < < < < < < < < < < < < < < < < < < < < < < < < < < < < < < < < < < < < < < < < < < < < < < < < < < < < < < < < < < < < < < < < < < < < < < < < < < < < < < < < < < < < < < < < < < < < < < < < < < < < < < @ u P.< < < < < < < < < < < < < < < < < < < < < < < < A XXoXs.oXoXXXs.g a.o d.A oXV oXd.a.d.oXd.{.< < < < < < < < < < < < < < < < < < < < < < @ i P.@ < < < < < < < < < 1 -.-.-.w < @ s U.U.(.e < @ y (.(.r.O < < < < < < < < w ).).)., A XXXXa.R.v p.{.XXs.h d.< < e ",
"< < < < < < < O O NXr.I.).a < < < < < < < < < < < < < < < < < < < < < < < < < < < < < < < < < < < < < < < < < < < < < < < < < < < < < < < < < < < < < < < < < < < < < < < < < < < < < < < < < < < < < < < < < < < < < < < < < < < < < < < < < < < < < < < < @ u e < < < < < < < < < < < < < < < < < < < < < < g a.A a.n A a.b a.A a.< XXd.V h A A n s.p.n A b @ < < < < < < < < < < < < < < < < < < < < < i < < < < < < < < < < < < = < = w < < @ O O O < < < < P.r.< < < < < < < < < < < P.I.P.< v p.p.b s.A n h d.v R.b @ < < ",
"< < < < < < < < < < < < w @ < < < < < < < < < < < < < < < < < < < < < < < < < < < < < < < < < < < < < < < < < < < < < < < < < < < < < < < < < < < < < < < < < < < < < < < < < < < < < < < < < < < < < < < < < < < < < < < < < < < < < < < < < < < < < < < < < < < < < < < < < < < < < < < < < < < < < < < < < < < @ < < @ < < < < < < a.< @ < < < < < < < < < < < < < < < < < < < < < < < < < < < < < < < @ < < < < < < < < < < < < 1 < < < < < < < < < < < < < O O < < < < < < < < < < < @ @ @ < < @ @ < < < < < @ < < < < < < ",
"@ @ @ @ @ @ @ @ @ @ < @ @ < @ @ @ @ @ @ @ @ @ @ @ @ @ @ @ @ @ @ @ @ @ @ @ @ @ @ @ @ @ @ @ @ @ @ @ @ @ @ @ @ @ @ @ @ @ @ @ @ @ @ @ @ @ @ @ @ @ @ @ @ @ @ @ @ @ @ @ @ @ @ @ @ @ @ @ @ @ @ @ @ @ @ @ @ @ @ @ @ @ @ @ @ @ @ @ @ @ @ @ @ @ @ @ @ @ @ @ @ @ @ @ @ @ < < @ @ @ @ @ @ @ @ @ @ @ @ @ @ @ @ @ @ @ @ @ @ @ @ < < @ < < @ < @ < @ < < < @ < @ @ < < @ < @ @ @ @ @ @ @ @ @ @ @ @ @ @ @ @ @ @ @ @ @ @ @ < @ @ @ @ @ @ @ @ @ @ @ @ @ @ @ @ @ @ @ @ @ @ @ @ @ @ < < @ @ @ @ @ @ @ @ @ @ @ < < < @ < < < < < @ < < < < @ < @ @ @ ",
"h h h h h h h h h h h h h h h h h h h h h h h h h h h h h h h h h h h h h h h h h h h h h h h h h h h h h h h h h h h h h h h h h h h h h h h h h h h h h h h h h h h h h h h h h h h h h h h h h h h h h h h h h h h h h h h h h h h h h h h h h h h h h h h h h h h h h h h h h h h h h h h h h h h h h h h h h h h h h h h h h h h h h h h h h h h h h h h h h h h h h h h h h h h h h h h h h h h h h h h h h h h h h h h h h h h h h h h h h h h h h h h h h h h h h h h h h h h h v v v v v v v v v v v v v v v v v v v v ",
"v v v v v v v v v v v v v v v v v v v v v v v v v v v v v v v v v v v v v v v v v v v v v v v v v v v v v v v v v v v v v v v v v v v v v v v v v v v v v v v v v v v v v v v v v v v v v v v v v v v v v v v v v v v v v v v v v v v v v v v v v v v v v v v v v v v v v v v v v v v v v v v v v v v v v v v v v v v v v v v v v v v v v v v v v v v v v v v v v v v v v v v v v v v v v v v v v v v v v v v v v v v v v v v v v v v v v v v v v v v v v v v v v v v v v v v v v v v v h h h h h h h h h h h h h h h h h h h h ",
"< @ @ < @ < @ < < @ @ @ @ @ @ @ @ @ @ @ @ @ @ @ @ @ @ @ @ @ @ @ @ @ @ @ @ @ @ @ @ @ @ @ @ @ @ @ @ @ @ @ @ @ @ @ @ @ @ @ @ @ @ @ @ @ @ @ @ @ @ @ @ @ @ @ @ @ @ @ @ @ @ @ @ @ @ @ @ @ @ @ @ @ @ @ @ @ @ @ @ @ @ @ @ @ @ @ @ @ @ @ @ @ @ @ @ @ @ @ @ @ @ @ @ @ @ @ @ @ @ @ @ @ @ @ @ @ @ @ @ @ @ @ @ @ @ @ @ @ @ @ @ @ @ @ @ @ @ @ @ @ @ @ @ @ @ @ @ @ @ @ @ @ @ @ @ @ @ @ @ @ @ @ @ @ @ @ @ @ @ @ @ @ @ @ @ @ @ @ @ @ @ @ @ @ @ @ o o o o @ @ @ @ @ @ @ @ < @ @ @ @ @ @ @ < < @ @ < < @ < v v v v v v v v v v v v v v v v v v v v ",
"< < < < < < < < @ < < < < < < < < < < < < < < < < < < < < < < < < < < < < < < < < < < < < < < < < < < < < < < < < < < < < < < < < < < < < < < < < < < < < < < < < < < < < < < < < < < < < < < < < < < < < < < < < < < < < < < < < < < < < < < < < < < < < < < < < < < < < < < < < < < < < < < < < < < < < < < < < < < < < < < < < < < < < < < < < < < < < < < < < < < < < < < < < < < < < < < < < < < < < < < < < < < < < < < < g b b b w < < < < < < < < < < < < < < < < < < < < < < g R.d.d.R.R.d.R.d.R.d.R.R.R.R.d.g g g g g ",
"b A b d.g V h s.A h h g < < < < < < < < < < < < < < < < < < < < < < < < < < < < < < < < < < < < < < < < < < < < < < < < < < < < < < < < < < < < < < < < < < < < < < < < < < < < < < < < < < < < < < < < < < < < < < < < < < < < < < < < < < < < < < < < < < < < < < < < < < < < < < < < < < < < < < < < < < < < < < < < < < < < < < < < < < < < < < < < < < < < < < < < < < < < < < < < < < < < < < < < < < < < < < < < < < < @ p.-X-XXXv @ < < < < < g p.w f < < < < < a.A < < v v @ g d.XX=XXXd.XXd.XXd.d.oXXXs.d.a.< @ < < < ",
"s.h s.oXn oXa.XXa.R.XXh @ < < < < < < < < < < < < < < < < < < < < < < < < < < < < < < < < < < < < < < < < < < < < < < < < < < < < < < < < < < < < < < < < < < < < < < < < < < < < < < < < < < < < < < < < < < < < < < < < < < < < < < < < < < < < < < < < < < < < < < < < < < < < < < < < < < < < < < < < < < < < < < < < < < < < < < < < < < < < < < < < < < < < < < < < < < < < < < < < < < < < < < < < < < < < < < < < < < o oXoX< -Xg < < < < < < g a.d.s.< < < o V b n R.v XXV o g d.XX-X=X-X-X-X-XoX-X,XXXs.d.a.< < < < < ",
"p.s.{.a.d.p.{.A < p.A h @ < < < < < < < < < < < < < < < < < < < < < < < < < < < < < < < < < < < < < < < < < < < < < < < < < < < < < < < < < < < < < < < < < < < < < < < < < < < < < < < < < < < < < < < < < < < < < < < < < < < < < < < < < < < < < < < < < < < < < < < < < < < < < < < < < < < < < < < < < < < < < < < < < < < < < < < < < < < < < < < < < < < < < < < < < < < < < < < < < < < < < < < < < < < < < < < < < < @ a.=X-XUXb @ < < < < < g R.V A w < < @ h a.p.a.d.d.b o g d.d.-X,X-X-X-XoX-X<X<X{.s.d.A < < < < < ",
"< h < < g o < < < < < < < < < < < < < < < < < < < < < < < < < < < < < < < < < < < < < < < < < < < < < < < < < < < < < < < < < < < < < < < < < < < < < < < < < < < < < < < < < < < < < < < < < < < < < < < < < < < < < < < < < < < < < < < < < < < < < < < < < < < < < < < < < < < < < < < < < < < < < < < < < < < < < < < < < < < < < < < < < < < < < < < < < < < < < < < < < < < < < < < < < < < < < < < < < < < < < < < < < @ n p.s.-Xv @ < < < < < < g < < < < < < < g g < h < g @ g d.{.oXR.XX<XoXR.XXXXXXR.d.d.g < < < < < ",
"g w g g f g f g g g g g g g g g g g g g g g g g g g g g g g g g g g g g g g g g g g g g g g g g g g g g g g g g g g g g g g g g g g g g g g g g g g g g g g g g g g g g g g g g g g g g g g g g g g g g g g g g g g g g g g g g g g g g g g g g g g g g g g g g g g g g g g g g g g g g g g g g g g g g g g g g g g g g g g g g g g g g g g g g g g g g g g g g g g g g g g g g g g g g g g g g g g g g g g g g f < < < < < < < < < w o @ < < < < < < < , < < < < < < < , < < @ < < < g p.n n n A A n V n n n V n f < < < < < < ",
"b b b b b b b b b b b b b b b b b b b b b b b b b b b b b v u u v b b b b b b b b b b b b b b b b b b b b b b b b b b b b b b b b b b b b b b b b b b b b b b b b b b b b b b b b b b b b b b b b b b b b b b b b b b b b b b b b b b b b b b b b b b b b b b b b b b b b b b b b b b b b b b b b b b b b b v b b b b b b b b b b b b b b b b b b b b b b b b b v b b b b b b b b b b b b b b b b b b b b b b b b b < < < < < < f V n V < < < < < < < < < < < < < < < < < < < < < < @ h v o < < @ @ < @ @ < @ @ @ < < < < < < < ",
"@ < < @ @ @ @ @ @ @ @ @ @ < < @ @ @ @ @ @ < < @ @ @ X , , % R R T , X + X , @ @ < < @ < 3 3 3 : = @ @ @ @ @ @ @ @ @ @ @ @ @ @ @ @ @ < < @ @ @ @ = d , , , < < @ @ @ @ @ @ < < @ @ @ @ @ < < @ , , w y s , e < , @ < < @ < < @ < < @ @ @ @ @ @ @ @ @ @ @ @ @ @ @ @ @ < < @ @ @ @ @ @ @ @ @ @ < < @ @ , , , , m m < < < @ < < @ @ @ < < @ @ @ < @ @ < < @ < w < < B 6 < < < @ @ @ @ @ @ @ @ @ @ @ @ @ @ < < < < < 6 M.v < < < < @ h b o V < < < < < < 4 % % % % % * < < 4 % % % % % % @ h b < < < < < < < < < < < < < < < < < < < ",
"< < g < < < < < < < < < < g < < < < < < < g < < < < 2X5X4X5XX.X.5X4XX.X.X...< < f g < 3 j 4 4 ,.- f w < < < < < < < < < < < < < < < g w < < w - f $.r r e w g < < < < < < < g < < < < < g < < w r g s U.e u e < < g < < g f @ g g < < < < < < < < < < < < < < < < < < g < < < < < < < < < < g < < < < e r r g.g.g g < < w g < < < < g < < < g < < w g < < v c u S.N 5 5 3 < < < < < < < < < < < < < < g f 3 5 5 ) z.b < < < < < g v o n < < < < < < 4 % % % % % * < < 7 % % % % % 4 @ h v @ < < < < < < < < @ @ < < < < < < < < ",
"< < g < < < < < < < < < < g < < < < < < < g < < , j 5X_ ] k j j k / R / / 9Xj > f f < 3 j 4 4 #.- w w < < < < < < < < < < < < < < < g < < < w - f $.r r w w g < < < < < < < g < < < < < g < < w r e s P.e u e < < g < < f w @ g g < < < < < < < < < < < < < < < < < < g < < < < < < < < < < g < < < < e e r g.g.g g < < < g < < < < g < < < g < < < g < < v g e D.N 5 5 3 < < < < < < < < < < < < < < f f 3 5 5 N l.b < < < < < g A b A < < < < < < 4 % % % % % * < < 7 % % % % % 4 @ h v @ < < < < < < O < u u < O < < < < < < ",
"< < g < < < < < < < < < < g < < < < < < < g < < , k 4Xk Z k l k l Z k k h 6X2XT f f < 3 j 4 4 #.- w w < < < < < < < < < < < < < < < g < < < w - f $.r r w w g < < < < < < < g < < < < < g < < w r e s U.e u e < < g < < f f @ g g < < < < < < < < < < < < < < < < < < g < < < < < < < < < < g < < < < e e r g.g.g g < < w g < < < < g < < < g < < < g < < v g e D.N 5 5 3 < < < < < < < < < < < < < < f f 3 5 5 N l.b < < < < < g n g A < < < < < < 4 % % % % % * < < 7 % % % % % 4 @ h v @ < < < < < e ).JXJXLXJX).w < < < < < ",
"< < g < < < < < < < < < < g < < < < < < < g , , > T 4Xk E k k k l E k k k ] X.9Xk e < 3 j 4 4 #.- w w < < < < < < < < < < < < < < < g < < < w - f $.r r w w g < < < < < < < g < < < < < g < < w r e s U.e u e < < g < < f f @ g g < < < < < < < < < < < < < < < < < < g < < < < < < < < < < g < < < < e e r g.g.g g < < w g < < < < g < < < g < < < g < < v g e D.N 5 5 3 < < < < < < < < < < < < < < f f 3 5 5 N l.b < < < < < g v o n < < < < < < 4 % % % % % * < < 7 % % % % % 4 @ h v @ < < < < u JXJXNXP.P.NXJXJXi @ < < < ",
"< < g < < < < < < < < < < g < < < < < < < e @.4X2X5X..Z E k k k l E k k k ' h X.Y e < 3 j 4 4 #.- w w < < < < < < < < < < < < < < < g < < < w - f $.r r w w g < < < < < < < g < < < < < g < < w r e s U.e u e < < g < < f f @ g g < < < < < < < < < < < < < < < < < < g < < < < < < < < < < g < < < < e e r g.g.g g < < w g < < < < g < < < g < < < g < < v g e D.N 5 5 3 < < < < < < < < < < < < < < f f 3 5 5 N l.b < < < < < g b @ V < < < < < < 4 % % % % % * < < 7 % % % % % 4 @ h v @ < < < w JXLXp   $ $   u LXJX< < < < ",
"< < g < < < < < < < < < < g < < < < < < < g 5X/ Y Y k E E k k k l E k k k ' k X.Y > < 3 j 4 4 #.- w w < < < < < < < < < < < < < < < g < < < w - f $.r r w w g < < < < < < < g < < < < < g < < w r e s U.e u e < < g < < f f @ g g < < < < < < < < < < < < < < < < < < g < < < < < < < < < < g < < < < e e r g.g.g g < < w g < < < < g < < < g < < < g < < v g e D.N 5 5 3 < < < < < < < < < < < < < < f f 3 5 5 N l.b < < < < < g b @ V < < < < < < 4 % % % % % * < < 7 % % % % % 4 @ h v @ < < O ).JXu   h A p.b   u JX).O < < ",
"< < g < < < < < < < < < < g < < < < < < < g 4Xk k k k l E k k k l E k k k ' k ..5X .< < j 4 4 ,.- w w < < < < < < < < < < < < < < < g < < < w - f $.r r w w g < < < < < < < g < < < < < g < < w r e s U.e u e < < g < < f f @ g g < < < < < < < < < < < < < < < < < < g < < < < < < < < < < g < < < < e e r g.g.g g < < w g < < < < g < < < g < < < g < < v g e D.N 5 5 3 < < < < < < < < < < < < < < f f 3 5 5 N l.b < < < < < g b @ V < < < < < < 4 % % % % % * < < 7 % % % % % 4 @ h v @ < < < NXNX  w A A p.d.b   NXJX< < < ",
"< 3 g < < < < < < < < < < g 3 < < < < < < j 5Xl k l k E E k l k E E k k l ' k T / 9XR , j 4 4 ,.- f w < < < < < < < < < < < < < < < g < < < w - f $.r r w w g < < < < < < < g < < < < < g < < w r e s U.e u e < < g < < f f , g g < < < < < < < < < < < < < < < < < < g < < < < < < < < < < g < < < < w e r g.g.g g 3 < f g < < < < g < < < g < < f g < < v g e D.N 5 5 3 < < < < < < < < < < < < < < g f 3 5 5 N l.b < < < < < g b @ V < < < < < < 4 % % % % % * < < 7 % % % % % 4 @ h v @ < @ e JXI.  v V A n h g   I.JXe @ < ",
"> > r > > > > > > > > > > r > > > > > > > g 4Xj k k j k Z j k j k Z j k k Z k k v ] 4X4Xk < 3 #.= = w < < < < < < < < < 1 < < < < @ g < < < < f w $.r r w < g < < < < < < < g @ < < < < g < < < r e s U.e u e < < g < , f 3 O 3 3 O O O O O O O O O o + , > > > > > > r > > > > > > > > > > r > > > > > t > t.i.2 2 > > , r > > > > r > > > r > > , e , < v g e D.N 5 3 < < < , + + + + X X X X X X X r r + < < M l.b < < < < < g b @ V < < < < < < 4 % % % % % * < < 7 % % % % % 4 @ h v @ < @ e JX).  v n V n v g   P.].e < < ",
"| | X.| | | | | | | | | | X.| | | | | | | 4X0X4X4X4X4X4X4X4X4X4X4X4X4X4X4X4X4XX.X.X.4X9XeX9X0XyXX.k f w , , 1 1 < < f w j f w < < 1 c g w f f f H $.r r e w h < w w w w w g h < w w w w h f w e e h s U.e i v e w g * O g u y a r.r.r.r.r.r.t.t.U.r.i.S Y R R @.@.@.| X.| | | | | | | | | | | I I | X.X.X...H.6XX.X.X.| | I L I | | X.| | @.@.R R T k * < i p u S.B j h f + , 5 0 ) l.z.z.x.x.x.x.x.x.x.x.x.x.x.F.x.v < < < < < g b @ V < < < < < < 4 % % % % % * < < 7 % % % % % 4 @ h v @ < < O NXJX  , n n V p.w   ].).@ < < ",
"4X5X5X4X4X4X4X4X4X4X4X4X4X5X5X4X4X3XeX5X5X7X5X5X5X5X5X5X5X5X5X5X5X5X5X9X0X0XeXpXeX0X5X4X9X9X0XuXpXeX0XqX7X@.z #.#.:.#.:.;.;.:.#.:.#.#.H 5 g h j H $.u u h h b g g g g g g h v g g g g g b g g h u v r.U.v C v 3 g i.).'.MX'.'.'.'.(.(.(.(.(.`.:XjXjXuXuXuX9X5X5X5X4X4X7X4X4X4X4X4X4X6XtXkX$X<X<X$X4XwX2X4X4X6X6X4X4X2X2XsXlXDXlXlXkXhX7X7X7X7XqXqXhXzXzX0X5Xo.B D.B b g M F.fXfXfXF.F.F.F.F.F.F.F.F.k.F.F.F.F.F.fXk.v < < < < < g b @ V < < < < < < 4 % % % % % * < < 7 % % % % % 4 @ h v @ < < O I.JXr.  @ g h <   a ].r.O < < ",
"< 3 g < 3 3 3 3 3 3 3 3 < g 3 < < 3 5X) k ) ) k l l k ) ) k l k ) ) k l ) _ ( } +.6X8X .Z k ) <.l / 5X! iX9XpXiX; = j l E E l - - ; #.#.#.: < @ - $.r r w < g @ < < < < @ < f @ < < < < g < < < r e s P.r e e U.'.'.U.r.a i r v u w e > T 9X0X3XR k h r y t t t t t t s t t t t t t t t t t t.U.(.'.(.t > t t.i.2 > t.nXVXh.g.y.p p i y p y y.p p y.g.K.FXdX3X0XqX@.4 l.fXk.q 6 5 3 3 3 3 3 3 3 3 3 3 g g 5 6 6 ) l.b < < < < < g b @ V < < < < < < 4 % % % % % * < < 7 % % % % % 4 @ h v @ < < < @ NXPXr.  . . . a NX).< < < < ",
"4 k k 4 4 4 4 4 4 4 4 4 4 k k 4 4 k 5XY Y ] ( Y Y Y Y ] ] Y Y Y ( ] Y Y Y ] Y Y Y _  .7XqX/ T <.E l yXiX; > j 2XeXX.x E E l E j w w g f : #.#.- w $.r r w w g < < < < < < < g < < < < < g < < w r e s U.< r.MX(.a v e r i i y i C t u 5X0X .u t t t y p u u u u u u u C u u u u u u u u u e v e w u (.MXI.@ g.g.3 VXVXg.c v 5 c c m n c c c n c c m m 1 y.VXnXj sX9XeXxX8XT k 8 6 6 9 9 9 5 5 5 5 5 5 m 9 9 0 0 l.z.b < < < < < g b @ V < < < < < < 4 % % % % % * < < 4 % % % % % 4 @ h v @ < < < < < NXP.O < < @ a ).< < < < < ",
"4 j k 4 4 4 4 4 4 4 4 4 4 k j 4 4 k 5X( Y ] ( Y Y Y Y _ _ Y Y Y ( ] Y Y Y ] Y Y _ ] T T +.qXo.<.,.>.<.X.9X..~ l / pX9Xl l E E l j - x j < w #.:.; $.r r w w g < < < < < < < g < < < < < g < < w r e s r.U.MXr.e r a u y i i y C p b 0X4Xy t y u u u u u u u u u u y u a y u u u u u u u u y a u p y e i MX(.i.g.VXVXc e m n c c c m n c c c n c c m n c c b VXVXl.F.fX@.5X0X0X0X9X9X9X9X9X9X9X9X9X9X9X9X9X9X9X9X0X} v < < < < < g b @ V < < < < < < 7 & & & & & * < < 7 & & & & & 4 @ h v @ < < < < < @ < < < < < < < < < < < < ",
"4 j k 4 4 4 4 4 4 4 4 4 4 k j 4 4 k 5X( Y ] ( Y Y Y Y _ _ Y Y Y ( ] Y Y Y ] Y Y ( _ Y ( _ / qXq.>.! l l  .4X5X5X5X5XeX0X/ E E E l l ` E - - f : >.=.r r w w g < < < < < < < g < < < < < g < < w r e d mX'.a i p y a u y i i r p S eX .t u u u u u u u u u u u u u y u a y u u u u u u u u y a u y u p p u '.MXCXh.c m c m m c c c m n c c c n c c m m c m y.c nXFXfX0 9 5 6 8 T T R R R R R R R R R R @.@.@.@.@.+.x.v < < < < < g b @ V < < < < < < j : 4 : : : - < < f : 4 : : : j @ h v @ < < < < < < < O O O O < < < < < < < ",
"4 j k 4 4 4 4 4 4 4 4 4 4 k j 4 4 T 5XY Y ] ( Y Y Y Y _ _ Y Y Y ( ] Y Y Y ] Y Y ( _ Y ( { ( / iX8.l ! E l x x l E l x 9XaX4Xx E E E ! E k - - - ! >.- r w w g < < < < < < < g < < < < < g < < w r f (.mXp a a p y a u y i i y b pX/ t u u u u u u u u u u u u u u y u a y u u u u u u u u y a u y u p p a p AXBX9 y.m c m m c c c m n c c c n c c m m c m y.y.y.SXD.8 N 0 6 6 6 5 5 5 5 5 5 5 5 5 5 5 c 9 9 9 9 l.z.b < < < < < g b @ V < < < < < < j ; ; ; ; ; : < < j ; ; ; ; ; : @ h v @ < < < < < O e r.).).r.e O < < < < < ",
"4 j k 4 4 4 4 4 4 4 4 4 4 k k 4 4 T 5XY Y ] ( Y Y Y Y _ _ Y Y Y ( ] Y Y Y ] Y Y ( _ Y ( ] / ;.q.uX^ l E E E E E l E E x 9XpX/ l E l ! E E j - : ! =.>.r w w g < < < < < < < g < < < < < g < < w @ r.mXU.p a a p y a u y i i y 0XX.t u u u u u u u u u u u u u u u y u a y u u u u u u u u y a u y u p i d nXVXMXI.m m c m m c c c m n c c c n c c m m c m u.i F.SXVX0 0 0 6 6 6 6 6 6 6 6 6 6 6 6 6 6 M M 8 N N z.z.b < < < < < g b @ V < < < < < < j ; : ; ; ; : < < j ; : ; ; ; j @ h v @ < < < < O P.NXPXJXJXPXNXP.@ < < < < ",
"4 j k 4 4 4 4 4 4 4 4 4 4 j 5 3 < T 5XY Y ] ( Y Y Y Y _ _ Y Y Y ( ] Y Y Y ] Y Y ( _ Y Y } ;.8.<.8.yXl E E E E E E E E l E pX9Xx E l ! E E j - l ,.=.#.#., w g < < < < < < w g < < < < < g < < < y MXU.U.p a a p y a u y v t 4X7Xt u u u u u u u u u u u u u u u u y u a y u u u u u u u u y a u y u p r h.VX!.`.MXy.m c m m c c c m n c c c n c c m m c m y.l.gXG.CXK.8 0 6 6 6 6 6 6 6 6 6 6 6 6 6 6 M M 8 0 N l.z.b < < < < < g b @ V < < < < < < j ; ; ; ; ; : < < j ; ; ; ; ; H @ h v @ < < < @ I.PX].s + + s ].PXI.@ < < < ",
"4 j k 4 4 4 4 4 4 4 4 4 4 Y R R R | 5X) Y ] ( Y Y Y Y _ _ Y Y Y ( ] Y Y ( ] Y Y ( _ Y ( <.;./ 8.! 6XO.x E E E E E E E E x  .pX~ l E ' E E x - ! ! =.h #.#.1 g < < < < < O < 5 O < < < < g < < O '.I.r.U.p a a p y a u u p ] 0XC i y u u u u u u u u u u u u u u u u u a y u u u u u u u u y a u u u y i CXt.`.h._.MX9 c m m c c c m n c c c n c c m m c m C fXD.S.D.VX0 0 6 6 6 6 6 6 6 6 6 6 6 6 6 6 M M 0 N N l.z.b < < < < < g b @ V < < < < < < : ; ; ; ; ; : < < j ; ; ; ; ; : @ h v @ < < @ a JX].$   < < $ $ ].JXa @ < < ",
"4 4 k 4 4 4 4 4 4 4 4 4 4 9X4X4X4X4X .Y Y ] Y Y Y Y Y ( ( Y Y Y ( _ Y Y Y ] Y Y ( _ Y ~ e./ / 8.^ W yX/ l E l l l l l l E x 5X0Xx E ! E l l l ! ! =.x r #.w 5 O O < r d d d s d d r r < 5 1 O U.'.e P.U.p a a y y i u y i pXY p v y y y y y y y y y y y y y y y y y u i y y y y y y y y y y i y y p r VX`.s `.h.y.MXg.5 m m c c c c m c c c n c c m m c u D.fXy.L.l.VXK.4 6 6 6 6 6 6 6 6 6 6 6 6 6 6 M M 8 0 0 l.z.b < < < < < g b @ V < < < < < < f j f f f f f < < f j f f f f f @ h v @ < < O ].JX$ $ V p.a.a.o $ JX].O < < ",
"k k B k k k k k k k k k T 7X' ( ( ) _ ] ] { ] ] ] ] ] ] ] ] ] ] ] { ] ] ] { ] ] ] { ( ;.q.{ / 8.<.Q o.yXz Q ' ' ' ' ' ' ' ' ' pX..G ` ' ! Q Q Q ,.=.z h #.#.v $.$.~.~.~.~.~.~.~.~.~.~.~.$.s u MXa C P.U.a r.r.a i C C t 4X7Xt C C i i i i i i i i i i i i i i i i i a C i i i i i i i i i i C a i u g.VXi.i.`.`.g.!.MXm y.y.m n m n p.m n n p.n m y.y.n m fXG.u.L.D.K.VXM M M M M M M M M M M M M M M B B N B B z.z.b < < < < < g b @ V < < < < < 1 ;.e.e.e.e.e.;.< 1 :.e.e.e.e.e.e.@ h v @ < < e JX].  h A A A a.n   ].JXw < < ",
"j k k 4 j j j j j j j j k 7X( ( ( ( ( ( ( ] ( ( ( ( ( ] ] ( ( ( _ ] ( ( ( ] ( ( ] ( ^ ;.{ / / 8.^ ^ ! 7X+.x E E E E E E E E x 4X0Xl ' E E E ! ! ! =.z j d ~.~.$.*.x r e w g ' g e e r d $.$.mX'.r a P.U.i r.a u u C p Z pXb y C i u u u u u u u u u u u u u u u u u u C u u u u u u u u u u C u u y VXh.r.r.`.h.i.y._._.c y.c m m m y.c m m y.m m m n u l.gXu.u.L.D.B VXu.6 M 9 9 9 9 9 9 9 9 9 9 9 6 M M 0 N N z.z.b < < < < < g b @ V < < < < < 1 vXvXvXvXvXvXvX1 1 e.vXvXvXvXvXvX@ g v @ < @ e JXP.  v n A b w w   r.NXe < < ",
"4 4 k 4 4 4 4 4 4 4 4 4 T 7XY Y Y Y Y Y Y ] ( Y Y Y Y ( _ Y Y Y ( ] Y Y Y ] Y Y ( ( ;.^ { / / 8.^ ^ W ~ 7XE l E E E E E E E E x eXX.x E l E E ! ! =.E $.~.$.#.< l x r r r h ' H r r r e k s MX~.~.s r.U.p a a y y C t 9X+.t r i i y y y y y y y y y y y y y y y y y u i y y y y y y y y y y i u r h.VXi i.t.`.h.i.i.i.MXm m c c c c n c c c n c c m n y F.L.u.u.L.D.N K.K.7 9 6 6 6 6 6 6 6 6 6 6 6 6 M M 8 0 0 l.z.b < < < < < g b @ V < < < < < < f j j j j j f < < f j j j j j f @ h v @ < < w JX].  g n n V A v   ).'.< < < ",
"4 j k 4 4 4 4 4 4 4 4 4 T 7XY Y Y Y Y Y Y ] ( Y Y Y Y _ _ Y Y Y ( ] Y Y Y ] Y Y ( <.;.W [ / / 8.^ ^ ^ E O.O.x E E E E E E E E x X.eXQ E E E E ! ! =.=.~.d w #.#.Z Z x x h x ' x r r r h l '.U.r $.~.U.U.p a a p u s _ 0Xi i y i i y u u u u u u u u u u u u u u u y u a y u u u u u u u u y a u u VXi.r.i.t.`.h.i.i.m _._.c c c c m n c c c n c c m m M fXu.u.u.L.D.u.l.VX9 6 6 6 6 6 6 6 6 6 6 6 6 6 M M 8 0 N l.z.b < < < < < g b @ V < < < < < < f j j j j j j < < 3 j j j j j j @ h v @ < < O ].JX$ $ v n V n # $ ].).O < < ",
"4 j k 4 4 4 4 4 4 4 4 4 T 7XY Y Y Y Y Y Y ] ( Y Y Y Y _ _ Y Y Y ( ] Y Y Y ] Y Y ( ;.W ~ { / / 8.^ ^ ^ W W 7XW l E E E E E E E l E eX7Xx E E E ! ! ^.^.z H d H >.G Z Z Z Z Z G x e r r j Q.'.y s s $.~.U.p a a p u i 0X/ t i y i i y u u u u u u u u u u u u u u u y u a y u u u u u u u u y C r `.VXi i.i.t.`.h.i.i.i.i.MXy.c c c m n c c c n c c m u F.F.u.u.u.L.D.u.N VXD.7 9 6 6 6 6 6 6 6 6 6 6 6 M M 8 0 N l.z.b < < < < < g b @ V < < < < < < f j j j j j f < < 3 j 4 4 4 j 4 @ h v @ < < @ a LX].. . @ @ . $ ).].u @ < < ",
"4 j k 4 4 4 4 4 4 4 4 4 T 7XY Y Y Y Y Y Y ] ( Y Y Y Y _ _ Y Y Y ( ] Y Y Y ] Y ) <.;.Y ~ { / / 8.^ ^ ^ ~ E +.6Xx E E E E E E E E l  .pXW l E ! E =.^.z %.z z ' 7.7.Z Z Z x Z G x x H r k ].P.u s s s P.'.s i a u t o.9Xt i i y i i y u u u u u u u u u u u u u u u y u a y u u u u u u u u y i u VXi.y.i.i.t.`.h.i.i.i.m _._.5 c c m n c c c n c c m n fXu.u.u.u.L.D.u.B K.nX7 9 6 6 6 6 6 6 6 6 6 6 6 M M 8 0 N l.z.b < < < < < g b @ V < < < < < < f j j j j j f < < 3 j j j j j 4 @ h v @ < < < @ ).PX).$ X X # P.NXr.@ < < < ",
"4 j k 4 4 4 4 4 4 4 4 3 T 7X) Y Y Y Y Y Y ] ( Y Y Y Y _ _ Y Y Y ( ] Y Y Y ] Y Y e.^ W ~ { / / 8.^ ^ ^ W W W 7X~ l E E E E E E E E l 0X5Xx E E %.^.=.%.%.z z 5.z ;.z Z Z x Z G x Z Z w !.[.u s s s C P.(.~.r.i p y 0XY t i i y i i y u u u u u u u u u u u u u u u y u a y u u u u u u u u p u `.nXu i.i.i.t.`.h.i.i.i.y.i.MXm c c m n c c c n c c u G.fXm M.u.u.L.D.u.u.u.VX0 6 6 6 6 6 6 6 6 6 6 6 6 M M 8 0 N l.z.b < < < < < g b @ V < < < < < < f j j j j j f < < 3 j 4 j 4 j 4 @ h v @ < < < < O I.u < < < < e r.O < < < < ",
"4 j k 4 4 4 4 4 4 4 4 3 R 7X) Y Y Y Y Y Y ] ( Y Y Y Y _ _ Y Y Y ( ] Y Y Y ] ) <.;._ W ~ { / / 8.^ ^ ^ W W E ..6Xx E E E E E E E E x X.aXW l ! ^.%.=.%.%.z z 5.l 7.7.Z Z x Z G x Z Z x ].E.C s s s &.I.U.U.~.i t  .9Xt y i i y i i y u u u u u u u u u u u u u u u y u a y u u u u u u u u y C VXi.y.y.i.i.t.`.h.i.i.i.y.m _._.5 c m n c c c n c c u fXl.m u.u.u.L.D.u.u.M nXD.7 9 6 6 6 6 6 6 6 6 6 6 M M 8 0 N l.z.b < < < < < g b @ V < < < < < < f j j j j j f < < 3 j 4 4 4 j 4 @ h v @ < < < < < O @ < < < < < O < < < < < ",
"4 j k 4 4 4 4 4 4 4 4 3 R 7X) Y Y Y Y Y Y ] ( Y Y Y Y _ _ Y Y Y ( ] Y Y Y ] W ;.^ [ W ~ { / / 8.^ ^ ^ W W W W 7X~ l E E E E E E E l E 0X5Xk ^.=.,.=.%.%.z z 5.z z >.z Z l Z G x Z l !.[.' C s s s T.Y.U.a ~.U.e 0X] t r i i y i i y u u u u u u u u u u u u u u u y u a y u u u u u u u u r `.VXu y.y.i.i.t.`.h.i.i.i.y.y.i.MXc c m n c c c n c u l.fXm u.u.u.u.L.D.u.u.M K.nX7 9 6 6 6 6 6 6 6 6 6 6 M M 8 0 N l.z.b < < < < < g b @ V < < < < < < f j j j j j f < < 3 j j j j j j @ h v @ < < < < < < 1 1 < < 1 1 < < < < < < ",
"4 j k 4 4 4 4 4 4 4 4 3 R 6X) Y Y Y Y Y Y ] ( Y Y Y Y ( _ Y Y Y ( ] Y Y Y } <.<._ ^ W ~ [ / / 8.^ ^ ^ W W W E ..6Xx E E E E E E E E z ..eX4.^.! ,.=.%.%.z z 5.z l 7.7.Z l Z G x Z l ].E.&.C s s C T.!.U.s r.~.o.9Xs u y i i y i i y y y y y y y y y y y y y y y y y u i y y y y y u u y y p VXi.y.y.y.i.i.t.`.h.i.i.i.y.i.n _.I.5 m n c c c n c y L.k.m u.u.u.u.L.D.u.u.B u.VX9 6 6 6 6 6 6 6 6 6 6 6 M M 8 0 0 l.z.b < < < < < g b @ V < < < < < , o.jXkXkXkXjX9., < 3 3 3 3 3 3 3 @ h v @ < < < < < 1 ; :.:.:.:.; 1 < < < < < ",
"4 j k 4 j j 4 3 3 3 5 1 R 6X) ( ( ( ( ( ( ] ( ( ( ( ( _ ] Y ( ( ( ] Y ( ( { ;.W [ [ W ~ { / / 8.^ ^ ^ ~ W W W W 7X~ l E E E E E E E ' l eXyX%.! ,.=.%.%.%.z 5.z z z ;.z Z Z S Z l !.[.G }.A s s *.T.W.U.s r.P.uXT a u u i i u C i u u u u u u u u u u u u u u u u u u C u u u u u p p u r h.VXi i.y.i.i.i.r.`.h.i.i.i.y.i.i.i.MXc m n c m c y.c m dXu.u.u.u.u.u.L.D.u.u.u.M VXu.4 9 9 9 9 9 9 9 9 9 6 M M 0 N N l.z.b < < < < < g b @ V < < < < < , 0.jXjXjXjXjX0.< , R 3X2X4X2X4X| @ h v @ < < < < < :.:.e.:.:.e.:.:.< < < < < ",
"k N B k k M ( X.X.X.X.+.5X6X] ] ] ] ] ] ] { ] ] ] ] ] { { ] ] ] { { ] ] } q.;.] [ { [ { { { o.8.<.[ [ [ [ [ [ ` +.tXz ` ' ' ' ' ' ' ` ' tXaX1.5.5.=.2.5.5.5.5.5.5.' 7.7.S ' ' F ' ].W.T.}.T.a i.E.E.Q.Q.Y.P.+.yXP.C C C C C C s.i.C C C C C C C C C C C C C C C C C C i.C C C C a S S a C VXg.i.i.i.i.i.g.i.`.`.g.g.g.i.g.g.y.MXI.n p.y.y.y.p.m L.L.p.u.u.Z.M.g.L.D.M.M.M.u.K.VXM B B B B B B B B B B B B B B B x.z.v < < < < < g b @ V < < < < < , 9.jXjXjXjXjX0.< , | 0X9X0X9X0X5X@ h v @ < < < < :.e.; . . . . : e.:.< < < < ",
"4 4 k 4 4 3 | 5XX.X.X.X.X.] ( Y Y Y Y Y Y ] Y Y Y Y Y ( _ Y Y Y ( _ Y Y Y ;.W W W ~ W ~ [ / / 8.^ ^ W W W W W W W 7XW l E l l l l l E z ^.pXyXz ,.=.%.%.z z ' z z z z ;.l Z G k E.[.G D T.F C C &.&.W.Q.F E.uX&.~.c V v b v v ' A y y y y y y y y y y y y y y y y y u i y y y u t X...> h.VXC y.y.y.y.t.t.t.`.h.i.i.i.y.i.i.m I.MX5 n c c c n u fXl.u.M u.u.M.u.L.D.u.u.u.M u.VX4 6 6 6 6 6 6 6 6 6 6 M M 8 0 0 l.z.b < < < < < g b @ V < < < < < , 9.jXjXjXjXjX0.< , | 0X9X9X9X9X5X@ h v @ < < 1 ; :.: . < b b w . : :.; 1 < < ",
"4 j k 4 4 3 2X .k T T ) T _ ( Y Y Y Y Y Y ] ( Y Y Y Y _ _ Y Y Y ( ] Y Y <.;.Y W ~ [ W ~ { / / 8.^ ^ ^ W W W W W E +.6Xx E E E E E l W ^.3.9XpX^ %.=.%.%.z z 5.z z z G 7.7.Z F l [.E.D F T.F F F &.T.W.Q.Y.0.uXC ~.U.B S F S Z F F u y u u u u u u u u u u u u u u u u a y u u u t 5XX.t VXg.i.y.y.y.y.i.i.r.`.h.i.i.i.y.i.i.y.m MXi.m c c c m l.fXm u.B u.M.b.u.L.D.u.u.u.u.y.sXT 5 6 6 6 6 6 6 6 6 6 M M 0 N N l.z.b < < < < < g b @ V < < < < < , 9.jXjXjXjXjX0.< , | 0X9X9X9X9X5X@ h v @ < < 1 :.:.. < A A a.s.f . :.:.1 < < ",
"3 5 j 3 3 < 4X .Y Y Y Y Y ] ( Y Y Y Y Y Y ] ( Y Y Y Y _ _ Y Y Y ( ] Y Y ;.[ W W ~ ^ W ~ { / / 8.^ ^ ^ W W W W W W W 7XW l E E E E E %.^.x 4XuXyX%.=.%.%.z z 5.z z z z z ;.G Z E.[.G F D T.F D F &.T.W.!.T.uX6.D *.~.S S F F Z F ' v y u u u u u u u u u u u u u u y u a y u u u y 0XX.h.VXp i.y.y.y.y.i.t.t.`.h.i.i.t.t.i.i.y.m oX_.M p c c i fXD.n u.B u.b.B.u.L.D.u.u.u.u.m 7Xx.5 6 6 6 6 6 6 6 6 6 M M 8 0 N l.z.b < < < < < g b @ V < < < < < , 9.jXjXjXjXjX0.< , | 0X9X9X9X9X5X@ h v @ < < w :.; . v V A A p.A . ; :.w < < ",
"R R R R R R 9X/ Y Y Y Y Y ] ( Y Y Y Y Y Y ] ( Y Y Y Y _ _ Y Y Y ( ] Y <.;.] W W ~ ^ W ~ { / / 8.^ ^ ^ W W W W W W E O.O.x E E E E E ^.*.x O.tX0X<.=.%.%.z z 5.z z z z Z 7.7.Z [.E.G F D T.F D F &.T.W.!.+.uXY.F S Q.W.B F S Z F ' V u u u u u u u u y y u u u u u y u a u u u y v 9XX.VXg.i i.y.y.y.y.t.i.7X`.h.i.i.f.+.i.i.t.p.pX,Xt.Y ) p u.fXB u.u.B l.V.b.J.sXD.l.u.u.u.m hXL.5 6 6 6 6 6 6 6 6 6 M M 8 0 N l.z.b < < < < < g b @ V < < < < < , 9.jXjXjXjXjX0.< , | 0X9X9X9X9X5X@ h v @ < < w :.; . v n v A A V . ; :.f < < ",
"| X.X.| | | | Y Y Y Y Y Y ] ( Y Y Y Y Y Y ] ( Y Y Y Y _ _ Y Y Y ( ] Y ;.^ [ W W ~ ^ W ~ { / / 8.^ ^ ^ W W W W W W W W 7XW l E E E %.^.E G / yX5XyX=.%.%.z z 5.z z z z z z ;.E.].G F F D T.F D F &.T.W.!.0X9.Y.F D T./.S F F Z F A S S u y y u u u y u v t y u u u u u C t t u t Y 4XkXVXi y.i.y.y.y.y.t.+.0X*Xh.i.t.{ pXp.t.y.7X9XjX_.9X7Xb L.L.m u.u.u.N.J.H.7XeXB.l.u.l.u.y.qXFX9 6 6 6 6 6 6 6 6 6 M M 8 0 N l.z.b < < < < < g b @ V < < < < < , 9.jXjXjXjXjX0.< , | 0X9X9X9X9X5X@ h v @ < < < :.:.. f v w V A g . :.:.< < < ",
"k k B k k k k Y Y Y Y Y Y ] ( Y Y Y Y Y Y ] ( Y Y Y Y _ _ Y Y Y ( ( <.;.Y [ W W ~ ^ W ~ { / / 8.^ ^ ^ W W W W W W W E 6X+.x E E E ^.*.! z G yXX.uX7.%.%.z z 5.z z z z z G ;.[.!.G F F D T.F D F &.&.!..X0XE.T.D D F W.W.S F Z { 7X' S b y v p u t ~ pX0XY k u t y y u s ( X.y X.X.{ kXM.t.p.i.y.y.y.t.f.yXC.hXZ.i.N.O.7XqXM.S aXo.tX>X7XaX6XfXx.B u.N.o.+.pXeXqX0XJ.l.c.C.l.y.9XFXg.4 6 6 6 6 6 6 6 6 M M 8 0 N l.z.b < < < < < g b @ V < < < < < , 9.jXjXjXjXjX0.< , | 0X9X9X9X9X5X@ h v @ < < 1 ; :.-   o h b g . - :.:.1 < < ",
"Y _ ] Y ( ( Y Y Y Y Y Y Y ] ( Y Y Y Y Y Y ] ( Y Y Y Y _ _ Y Y Y ( ( ;.^ W [ W W ~ ^ W ~ { / / 8.^ ^ ^ W W W W W W W W ~ 7XE l E %.^.' z z z / yXyXyX%.%.z z 5.z z z z z l *.[.G F D F D T.F D F &.T.!.uXo.Y.T.D D T.&./.F A o.qX7X7XA S b ' O.u t X.O.+.pXeXv  .k u t { 0X7XY eX9XZ.dXX.6X7XB.+.t.y.+.7XJ.g.kXuXt.qX0X6XaX0X] pXC.M.pX7X9XqXeXc.u.y.+.0X6X7XpX0XqXsXC.6XeX7Xy.9X>Xh.7 9 6 6 6 6 6 6 6 M M 8 0 N l.z.b < < < < < g b @ V < < < < < , 9.jXjXjXjXjX0.< , | 0X9X9X9X9X5X@ h v @ < < < < :.e.-   . $ . - e.:.< < < < ",
"Y ( ] Y Y Y Y Y Y Y Y Y Y ] ( Y Y Y Y Y Y ] ( Y Y Y Y _ _ Y Y Y ( <.;.Y W [ W W ~ [ W ~ { / / 8.^ ^ ^ W W W W W W W W E 6X+.x E ^.*.' z z ! z 8.uXpX,.%.z z 5.z z z z z l `.%X,.D F F D T.F F F &.Y.9.uXY.T.T.D D T.S W.W.A 4Xo.i.6XpXo.A 7X0XE t 4X' V ' 7X5XpXaXX.u pX+.+.0X{  .VXsXeXpXeXpXpXy.+.aXqXn.d.`.kX+.uXuXC.0XeX+.6XM.s.|.:X5XL.hX+.+.y.6XpX7XH.qXqXhXeXqX0XaX0Xy.0XH.nX4 9 6 6 6 6 6 6 6 M M 0 N N l.z.b < < < < < g b @ V < < < < < , 9.jXjXjXjXjX0.< , | 0X9X9X9X9X5X@ h v @ < < < < - e.; 1 @ @ 1 ; e.- < < < < ",
"Y ( ] Y Y Y Y Y Y Y Y Y Y _ ( Y Y Y Y Y Y ] Y Y Y Y Y ( ( Y Y Y ( ;.^ W W [ W W W ~ W ~ [ / / 8.^ ^ W W W W W W W W W W / 7XE %.^.l ' z z z ! H 0.aXtX%.z z ' z z z z z &.].3.w.D D D D T.D D D D E.uX#XY.T.T.D D T.D D /.D 4X{ F Z o.9X9Xo.{ ..y 5XS S A S 9X6Xo.5X4XqXC o.o.b s.CX{ 7Xv.+.eXpXo.qXaXqXd.d.&XkXeXuX6Xv.M.6X0XC.a.n.i.].#XfXO.eX0Xl.6X7X6XC.J.qXhXqX7XpXeXeXu.0X+.VX0 6 6 6 6 6 6 6 6 M M 8 0 0 l.z.b < < < < < g b @ V < < < < < , 9.jXjXjXjXjX0.< , | 0X9X9X9X9X5X@ h v @ < < < < 1 - < < < < < < - 1 < < < < ",
"_ ] ] _ _ _ _ _ _ _ _ _ _ ] ] _ _ _ _ _ _ ] ] _ _ _ _ ] ] _ _ ( ^ ;.] ^ [ [ ~ ~ [ [ ~ [ { / / 8.<.^ ^ ^ ^ ~ ~ ~ ~ ~ ~ [ Q tX..^.=.' 5.5.' ,.,.,.,.uXpX1.%.5.5.' ' ' ' ! [.Q.2.w.3.s.&.&.T.T.&.T.Y.9.uX!.T.E.T.T.&.T.T.F /. X5Xv.v.S A ' { F { 6Xo.O.A F F F F F C 6XuXM.F F F Z ;X;Xs.n.n.d.|.C.0XyXuXuXR.{.&X$XaXtXd.n.d.#XpXV.n.n.v.`.CXH.J.eXJ.0XqXb.B.S.V.sXsXG.H.H.6XpXu.eXX.VXM.M M M M M M M M B B N B B z.z.b < < < < < g b @ V < < < < < , 9.jXjXjXjXjX0.< , | 0X9X9X9X9X5X@ h v @ < < < < < < < @ O O @ < < < < < < < ",
"( _ ] ( ( ( ( ( ( ( ( ( ( ] ] ( ( ( ( ( ( ] _ ( ( ( ( ] ] ( _ ( ;.<.W ~ ~ [ ~ W [ [ W ~ { / / 8.^ ^ ^ ^ ~ ~ ~ ~ ~ ~ ~ ~ W  .tX^.! z 5.' ' ! ,.,.%.q.eXtX%.5.5.z ' ' ! &.].*.}.3.w.a.&.F T.F F &.E.0X#X!.T.E.T.&.F T.&.D 6.uXo.a.v.S S S D S S 0XpX' S S S S S S S S A v.S S S s.CXn.n.n.n.n.XXd.qXC.n.C.R.{.&X:XeXC.d.n.n.{.7Xn.n.n.n.n.FXB.C.+.C.aXqXM.B.S.C.V.L.G.C.b.6XpX7XpX+.*XK.4 M M M M M M M M M M N N z.z.b < < < < < g b @ V < < < < < , 9.jXjXjXjXjX0.< , | 0X9X9X9X9X5X@ h v @ < < < < < O @ e i.i.u @ @ < < < < < ",
"Y ( ] Y Y Y Y Y Y Y Y Y Y _ ( Y Y Y Y Y Y ] Y Y Y Y Y ( _ Y Y W ;.] W W W [ W W W ~ W ~ [ / / 8.^ ^ W W W W W W W W W W W Y %X3.l z ' z z z z ! %.q.yXuXQ z ' z z z l Q.Q.z &.D w.&.D D T.D F D 9.uX!.!.D E.T.D D T.D D 9X#XY.' F Z S S S S S ] ' S S S S S S S S S S F Z S x &X;XS v.v.s.f.n.v.s.s.s.d.n.d.&X*XO.d.n.f.n.n.v.v.f.v.d.G.FXoXN.c.c.J.J.c.N.B.B.B.L.G.C.N.+.0XaXpX5XA.VX7 6 6 6 6 6 6 6 M M 8 0 0 l.z.b < < < < < g b @ V < < < < < , 9.jXjXjXjXjX0.< , | 0X9X9X9X9X5X@ h v @ < < < < @ i NXLXAXLXLXNXu @ < < < < ",
"Y ( ] Y Y Y Y Y Y Y Y Y Y ] ( Y Y Y Y Y Y ] ( Y Y Y Y _ _ Y ) ;.<.] W W W [ W W ~ [ W ~ { / / 8.^ ^ ^ W W W W W W W W W W ,.%XtXG z ' z z z ! ! %.7.yXyXyXG 5.z z z z ].*.&.3.F 3.w.D F T.F F D uX9.!.Q.a.E.T.D D T.F 7XyXE./.F F S S S S S S A S S S S S S S S S S S F S S S CXn.f.v.v.v.v.n.v.v.v.v.n.n.d.&X&Xn.n.n.v.n.n.s.v.v.n.d.fX:X;XC.N.N.c.B.N.N.B.B.B.L.G.B.C.c.C.aXqXqX7XVX9 6 6 6 6 6 6 6 M M 0 N N l.z.b < < < < < g b @ V < < < < < , 9.jXjXjXjXjX0.< , | 0X9X9X9X9X5X@ h v @ < < < @ i.LXBX`.i i `.BXLXi.@ < < < ",
"Y ( ] Y Y Y Y Y Y Y Y Y Y ] ( Y Y Y Y Y Y ] ( Y Y Y Y _ _ Y W ;.W [ W W W [ W W ~ ^ W ~ { / / 8.^ ^ ^ W W W W W W W W W W W.=.tX[ x ' z z z ! ! ,.=.yX8.uXQ %.z z l Q.[.z &.&.&.&.w.&.D T.F D o.uXE.W.!.a.E.T.D F E.O.eX&.F ^.W.S S S S S S S S S S S S S S S S S S S F S x &XVXS v.v.v.v.v.n.v.v.v.v.n.n.d.&X&Xn.n.n.v.n.n.v.v.v.s.S.dXc.,XOXN.c.N.B.c.N.B.B.B.L.G.B.C.N.C.aX6XqXrXFXu.4 6 6 6 6 6 6 M M 8 0 N l.z.b < < < < < g b @ V < < < < < , 9.jXjXjXjXjX0.< , | 0X9X9X9X9X5X@ h v @ < < < e BXBX,   $ #   , BXBXe @ < < ",
"Y ( ] Y Y Y Y Y Y Y Y Y Y ] ( Y Y Y Y Y Y ] ( Y Y Y Y _ _ ) ;.<.W [ W W W [ W W ~ ^ W ~ { / / 8.^ ^ ^ W W W W W W W W W ` ^.! 9.tXx ' z z z ! ! ,.=.tX0.yX5X%.z z z ].E.%.&.&.&.F 7.7.A T.F D uX9.E.W.!.a.E.T.D D }.yX' &.F *./.S S S S S S S S S S S S S S S S S S S F S Z CXZ.f.v.v.v.v.v.n.v.v.v.v.n.n.d.&X&Xn.n.n.v.n.n.s.v.v.a.fXL.M.&X;X} c.N.B.c.N.B.B.B.L.G.B.B.N.C.0XN.qXrXlXK.4 9 6 6 6 6 6 M M 8 0 N l.z.b < < < < < g b @ V < < < < < , 9.jXjXjXjXjX0.< , | 0X9X9X9X0X5X@ h v @ < < # `.BX,   b p.a.V $ , BX].# < < ",
"Y ( ] Y Y Y Y Y Y Y Y Y Y ] ( Y Y Y Y Y Y ] ( Y Y Y Y _ ( Y ;.W W [ W W W [ W W ~ ^ W ~ { / / 8.^ ^ ^ W W W W W W W W W =.=.W ! tXQ z ' z z ! ! ,.=.1.yXz pX1.G l W.[.z &.&.&.&.&.&.w.&.T.C O.uX*.T.W.!.a.E.T.F D 9.6XC &.&.S /.E.Z S S S S S S S S S S S S S S S S S s.x oXCXS v.v.v.v.v.v.n.v.v.v.v.n.n.d.&X&Xn.n.n.v.n.n.s.v.s.n.dXV.b.m.,Xb.N.N.B.c.N.B.B.B.L.G.B.B.N.C.7XM.+.eXhX;X4 9 6 6 6 6 6 M M 8 0 N l.z.b < < < < < g b @ V < < < < < , o.tXtXtXtXtXo.< , K 3X1X3X1X3X| @ h v @ < < < BXBX  g A A p.s.n   BXBX< < < ",
"Y ( ] Y Y Y Y Y Y Y Y Y Y ] ( Y Y Y Y Y Y ] ( Y Y Y Y _ ( <.;.Y W [ W W W [ W W ~ ^ W ~ { / / 8.^ ^ ^ W W W W W W W W Q ^.Q Q ! 9.0.G ' z z ! ! ,.=.%.uXQ 4X9XG E [.E.F &.&.&.&.&.F 7.7.a.F pX{ *.T.W.!.a.E.T.D C 9.O.C &.&.S E./.Z S S S S S S S S S S S S S S S S S s.x CX&Xf.v.v.v.v.v.v.n.v.v.v.v.n.n.d.&X&Xn.n.n.v.n.n.s.v.a.H.fXM.V.N.;X&X} N.B.c.N.B.B.B.L.G.B.B.N.N.N.N.M.6XpXdX9 6 6 6 6 6 6 M M 8 0 N l.z.b < < < < < g b @ V < < < < < , / tXO.O.O.tXo.< , R 1X1X1X1X1X| @ h v @ < @ e BXI.  v n A n g g   g.BXe @ < ",
"Y ( ] Y Y Y Y Y Y Y Y Y Y ] ( Y Y Y Y Y Y ] ( Y Y Y Y ( _ ;.W W W [ W W W [ W W ~ ^ W ~ { / / 8.^ ^ ^ W W W W W W W W =.=.W Q Q Q yX1.z z z ! ! ,.=.%.<.yXG pX..E.[.z &.&.&.&.&.&.&.&.w.Y.7X7XC &.T.W.!.a.E.E.' ' uXo.A &.F D F /.*.Z S S S S S S S S S S S S S S S S S n.CXf.v.v.v.v.v.v.v.n.v.v.v.v.n.n.d.&X&Xn.n.n.v.n.n.s.v.s.dXG.b.V.b.OX,XN.N.B.c.N.B.B.B.L.G.B.B.N.N.c.N.N.c.eXlXy.6 6 6 6 6 6 M M 8 0 N l.z.b < < < < < g b @ V < < < < < ,  .tXO.O.O.tXo.< , R 3X1X1X1X1X| @ h v @ < @ e BX`.  v n V n b v   I.MXw < < ",
"Y ( ] Y Y Y Y Y Y Y Y Y Y ] ( Y Y Y Y Y Y ] ( Y Y Y Y ( <.;.Y W W [ W W W [ W W ~ ^ W ~ { / / 8.^ ^ ^ W W W W W W W W ^.` Q Q Q ! 0.0.G z z ! ! ,.=.%.%.uX^ 9.eX].W.z &.&.&.&.&.&.&.F 7.q.eX' D &.T.W.!.a.E.yX9XuXtXD D &.F D F W.^.Z S S S S S S S S S S S S S S S S G VX&XF v.v.v.v.v.v.v.n.v.v.v.v.n.n.d.&X&Xn.n.n.v.n.n.v.s.S.dXm.V.m.m.V.,XZ.N.B.c.N.B.B.B.L.G.B.B.N.N.N.N.c.N.0XlXD.4 6 6 6 6 6 M M 8 0 N l.z.b < < < < < g b @ V < < < < < ,  .tXO.O.O.tXo.< , R 3X1X1X1X1X| @ h v @ < < O BXBX  o b n A A <   MX_.@ < < ",
"Y ( ] Y Y Y Y Y Y Y Y Y Y ] ( Y Y Y Y Y Y ] ( Y Y Y Y ( ;.^ W W W [ W W W [ W W ~ ~ W ~ [ / / 8.^ ^ ^ W W W W W W W =.=.W Q Q Q Q Q tX! z z ! ! ,.=.%.%.^ uX%.5XkX5.2.*.*.*.&.&.&.&.&.*.uXO.C F &.T.W.Q.Y.6.yXF ' }.D D &.F D T.F /.F Z S S S S S S S S S S S S S S Z n.CXf.v.v.v.v.v.v.v.v.n.v.v.v.v.n.n.d.&X&Xn.n.n.v.n.n.v.a.fXH.m.V.m.m.V.&X;X} B.c.N.B.B.B.L.G.B.B.N.N.N.N.c.N.6XhXL.4 6 6 6 6 6 M M 8 0 N l.z.b < < < < < g b @ V < < < < < ,  .tXO.O.O.tXo.< , R 3X1X1X1X1X| @ h v @ < < O i.BX`.  o w f o   i.MXr.@ < < ",
"] ] { ] ] ] ] ] ] ] ] ] ] { { ] ] ] ] ] ] { ] ] ] ] } <.;.] [ [ { { [ [ [ { [ [ { { [ { 6.{ o.8.<.[ [ [ [ [ [ [ [ [ ^.4.1.1.1.1.1.5.0.9.%.5.5.5.5.=.2.5.*.9.9XkXaXuXyX0.}.tXuX4.E.}.E.0.pX=.T.T.E.}.Q.Q.E.yX|.E.T.{.}.T.}.}.T.}.{.W./.' v.v.v.v.v.v.v.v.v.v.v.v.v.v.S CX;Xn.{.{.{.{.{.{.{.{.XXXX{.{.{.XXXXXX&X&XXXoXXX{.XXXX{.OXdXOXOXA.A.A.OXOXZXA.S.B.B.S.S.S.L.G.S.C.C.B.B.B.B.C.b.sXlXB B B B B B B B B B ) x.z.v < < < < < g b @ V < < < < < ,  .tXO.O.O.tXo.< , R 3X1X1X1X1X| @ h v @ < < < @ NXIXI.$ . . $ r.BX`.@ < < < ",
"Y ( ] Y Y Y Y Y Y Y Y Y Y ] ( Y Y Y Y Y Y ] ( Y Y Y ( ;.<.W W W W [ W W W [ W W ~ [ W ~ { / / 8.^ ^ ^ W W W W W W 3.W.W ` Q Q Q Q Q 6.yXz z ! ! ,.=.%.%.z z 6.$XyXuX2.tXyX9.9.uX&.*.1.pXuXq.D F *.E.!.!.` yXE.F F T.F D &.F D T.T.D /.D S S S S S S S S S S S S S Z S CXv.v.v.v.v.v.v.v.v.v.n.v.v.v.v.n.n.d.&X&Xn.n.n.v.n.n.p.L.L.n.A.m.m.m.A.N.;X&XN.c.N.B.B.B.L.G.B.B.N.N.N.N.N.N.c.+.lXM 6 6 6 6 6 M M 0 N N l.z.b < < < < < g b @ V < < < < < ,  .tXO.O.O.tXo.< , R 3X1X1X1X1X| @ h v @ < < < < @ NXi.@ < < @ i `.@ < < < < ",
"Y ( ] Y Y Y Y Y Y Y Y Y Y ] ( Y Y Y Y Y Y ] ( Y Y ( W ;._ W W W W [ W W W [ W W ~ ~ W ~ { / / 8.^ ^ ^ W W W W W W ^.5.Q Q Q Q Q Q Q ` tXo.z ! ! ,.=.%.%.%.E [.).D uXuX*.*.*.*.yX6.&.pXpX4.yX2.D &.0..XI.6X9.Y.F D T.F D &.F D T.T.S W.W.B S S S S S S S S S S S S x *XVXS v.v.v.v.v.v.v.v.v.n.v.v.v.v.n.n.d.&X&Xn.n.n.v.n.n.v.dXS.m.A.b.m.m.A.B.oX;XN.c.N.B.B.B.L.G.B.B.N.N.N.N.N.N.c.o.lXM.4 6 6 6 6 M M 8 0 N l.z.b < < < < < g b @ V < < < < < ,  .tXO.O.O.tXo.< , R 3X1X1X1X1X| @ h v @ < < < < < O @ < < < < @ @ < < < < < ",
"Y ( ] Y Y Y Y Y Y Y Y Y Y ] ( Y Y Y Y Y Y ] ( Y Y Y ;.<._ W W W W [ W W W [ W W ~ ^ W ~ { / / 8.^ ^ ^ W W W W Y 5.^.W ` Q Q Q Q Q Q 1.6.tXz ! ! ,.=.%.%.z %.[.&.&.*.uXuX*.*.E.6.yXuXyXtXY.tXq.C tXrXuXQ.7XE.T.D D T.F D &.F D T.T.D F /.S S S S S S S S S S S S S S CXoXf.v.v.v.v.v.v.v.v.v.n.v.v.v.v.n.n.d.&X&Xn.n.n.v.n.d.G.fXM.V.A.b.m.m.A.m.b.ZXA.N.N.B.B.B.L.G.B.B.N.N.N.N.N.N.c.} lXD.7 6 6 6 6 M M 8 0 N l.z.b < < < < < g b @ V < < < < < ,  .tXO.O.O.tXo.< , R 3X1X1X1X1X| @ h v @ < < < < < < 1 1 < < 1 1 < < < < < < ",
"Y ( ] Y Y Y Y Y Y Y Y Y Y ] ( Y Y Y Y Y Y ] ( Y ( W ;.W ^ W W W W [ W W W [ W W ~ ^ W ~ { / / 8.^ ^ ^ W W W W W ^.5.Q Q Q Q Q Q Q Q 1.' tX6.z ! ,.=.%.%.z Q.[.z &.&.*.uXuX0.9.yXaX9.6.tXY.o.iX6.7XT.yXjXo.Y.T.D D T.F D &.F D T.T.D S W.W.Z S S S S S S S S S S x &XVXv.v.v.v.v.v.v.v.v.v.v.n.v.v.v.v.n.n.d.&X&Xn.n.n.v.n.d.fXG.b.V.A.b.m.m.A.m.N.=X=X} N.B.B.B.L.G.B.B.N.N.N.N.N.N.N.c.uXH.5 6 6 6 6 M M 8 0 N l.z.b < < < < < g b @ V < < < < < ,  .tXO.O.O.tXo.< , R 3X1X1X1X1X| @ h v @ < < < < < < #.>.>.>.>.#.1 < < < < < ",
"Y ( ] Y Y Y Y Y Y Y Y Y Y ] ( Y Y Y Y Y Y ] ( Y ) ;.<._ ^ W W W W [ W W W [ W W ~ ^ W ~ { / / 8.^ ^ ^ W W W W 5.^.W Q Q Q Q Q Q Q Q 1.Q o.tXz ! ,.=.%.%.z ].E.%.&.&.&.*.9.uXuXyXyX*.0.9.*.F yXiX{ Y.yXtXY.T.T.D D T.F D &.F D T.T.D D *./.S S S S S S S S S S S Z CXoXn.v.v.v.v.v.v.v.v.v.v.n.v.v.v.v.n.n.d.&X&Xn.n.n.v.s.S.dXb.V.V.A.b.m.m.A.m.b.Z.ZXN.N.B.B.B.L.G.B.B.N.N.N.N.N.N.N.M.6XsX6 6 6 6 6 M M 8 0 N l.z.b < < < < < g b @ V < < < < < ,  .tXO.O.O.tXo.< , R 3X1X1X1X1X| @ h v @ < < < < w >.>.>.:.#.>.>.>.w < < < < ",
"Y ( ] Y Y Y Y Y Y Y Y Y Y ] ( Y Y Y Y Y Y ] ( Y W ;.W ~ ~ W W W W [ W W W [ W W ~ ^ W ~ { / / 8.^ ^ ^ W W W W ^.3.Q Q Q Q Q Q Q Q Q 1.` ! tX1.z ,.=.%.z Q.[.5.&.&.&.&.&.*.*.*.$.0.9.tX1.*.*.0.uX*.T.W.!.a.E.T.D D T.F D &.F D T.T.D F S /.E.Z S S S S S S S S Z oXCXF n.v.v.v.v.v.v.v.v.v.v.n.v.v.v.v.n.n.d.&X&Xn.n.n.v.a.fXH.M.V.V.A.b.m.m.A.m.m.B.,XoXN.B.B.B.L.G.B.B.N.N.N.N.N.N.N.M.+.dXM 6 6 6 6 M M 8 0 N l.z.b < < < < < g b @ V < < < < < ,  .tXO.O.O.tXo.< , R 3X1X1X1X1X| @ h v @ < < < < >.>.; . . . . ; >.>.< < < @ ",
"Y ( ] Y Y Y Y Y Y Y Y Y Y ] ( Y Y Y Y Y Y ] ( ) <.<.Y ^ ~ W W W W [ W W W [ W W ~ ^ W ~ { / / 8.^ ^ ^ W W W ,.^.Q Q Q Q Q Q Q Q Q Q 1.` ! 9.tXz ,.=.%.z [.E.2.&.&.&.&.&.&.&.3.&.1.yXyX&.3.&.F 7.w.a.W.!.a.E.T.D D T.F D &.F D T.T.D F D *./.Z S S S S S S S S x CX&Xf.n.v.v.v.v.v.v.v.v.v.v.n.v.v.v.v.n.n.d.&X&Xn.n.n.s.m.dXm.m.m.V.A.b.m.m.A.m.m.B.=X;X} S.B.B.L.G.B.B.N.N.N.N.N.N.N.M.+.dXsX8 6 6 6 M M 8 0 N l.z.b < < < < < g b @ V < < < < < ,  .tXO.O.O.tXo.< , R 3X1X1X1X1X| @ h v @ < < 1 #.>.;   < n V g   : >.#.1 < < ",
"Y ( ] Y Y Y Y Y Y Y Y Y Y ] ( Y Y Y Y Y Y ] ( Y ;.W W ~ ~ W W W W [ W W W [ W W ~ [ W ~ { / / 8.^ ^ ^ W W W =.=.W Q Q Q Q Q Q Q Q Q 1.` Q Q yX,.%.=.z W.[.%.T.&.&.&.&.&.&.&.3.&.*.uXtX*.3.&.&.*.w.*.W.Q.a.E.T.D D T.F D &.F D T.T.D F F S /.E.Z S S S S S S Z n.CXf.v.n.v.v.v.v.v.v.v.v.v.v.n.v.v.v.v.n.n.d.&X&Xn.n.n.a.L.fXM.V.m.V.A.b.m.m.A.m.m.V.A.,XB.C.B.B.L.G.B.B.N.N.N.N.N.N.N.c.+.lXhX8 9 6 6 M M 0 N N l.z.b < < < < < g b @ V < < < < < ,  .tXO.O.O.tXo.< , R 3X1X1X1X1X| @ h v @ < < 1 >.>.. < A A p.s.g . >.>.1 < @ ",
"Y ( ] Y Y Y Y Y Y Y Y Y Y _ ( Y Y Y Y Y Y ] Y <.;.Y W ~ ~ W W W W [ W W W [ W W W ~ W ~ [ / / 8.^ ^ W W W Q ^.Q Q Q Q Q Q Q Q Q Q Q 1.` Q ! 9.0.%.=.z [.W.%.&.&.&.&.&.&.&.&.&.&.&.1.5.&.3.&.&.&.w.7.!.Q.D E.T.D D T.F D F F D T.&.D D D S E./.Z S S S S S S x VX&XS v.n.f.v.s.s.s.s.s.s.v.f.n.v.s.s.s.n.d.d.&X&Xn.n.n.s.dXS.b.m.b.V.A.b.m.b.A.m.b.A.B.;X&XC.B.B.L.G.B.B.N.N.c.c.c.c.N.c.o.pXzX8 6 6 6 M M 8 0 0 l.z.b < < < < < g b @ V < < < < < ,  .tXO.O.O.tXo.< , R 3X1X1X1X1X| @ h v @ < < f >.#.. v V A A p.A . #.>.w < < ",
"( _ ] ( ( ( ( ( ( ( ( ( ( ] _ ( ( ( ( ( ( ] ( ;.^ W W [ [ W ~ W [ [ W ~ ~ [ W W [ [ W ~ { / / 8.^ ^ ^ ^ ~ =.=.Q ` ` ` ` ` ` ` ` ` ` 1.1.` 1.1.yX,.=.E.[.&.*.}.&.&.&.&.&.&.&.}.&.&.*.&.&.}.&.&.*.*.w.W.Q.T.E.T.F F T.F F T.T.F T.T.F F F F F /.T.S S S S S S v.CXv.n.n.{.n.n.n.n.n.n.n.n.n.n.{.n.n.n.n.n.XXR.&X&Xn.Z.d.G.dXm.A.A.V.A.A.V.A.V.A.A.V.A.A.oX,XC.B.A.L.G.C.C.B.N.N.N.N.N.N.N.c.qXpXN M M M M M M N N z.z.b < < < < < g b @ V < < < < < ,  .tXO.O.O.tXo.< , R 3X1X1X1X1X| @ h v @ < < f >.#.. v n V b A V . #.>.f < < ",
"_ ] ] _ _ _ _ _ _ _ _ _ _ ] ] _ _ _ _ _ _ } <.;._ ^ ~ [ [ ~ [ ~ [ [ ~ [ [ [ [ ~ [ [ ~ [ { / / 8.<.^ ^ ^ ` ^.1.1.1.1.1.1.1.1.1.1.1.1.1.1.1.1.,.0.0.=.[.Q.&.*.}.&.&.&.&.&.&.3.}.&.&.2.&.&.}.&.&.*.E.w.^.!.T.E.T.T.&.T.T.&.T.T.F T.T.&.T.T.T.F W./.S F F F F Z ;X;Xv.n.n.{.n.n.n.n.n.n.n.n.n.n.{.n.n.n.n.{.XXR.&X&XZ.XXd.dXG.OXA.A.A.A.OXA.A.A.OXA.A.A.OXV.,XOXC.A.L.G.C.C.B.B.B.B.B.B.B.B.b.7XaX) M M M B B N B B z.z.b < < < < < g b @ V < < < < < ,  .tXO.O.O.tXo.< , R 3X1X1X1X1X| @ h v @ < < < >.>.  < n V w b g   >.>.< < < ",
"Y ( ] Y Y Y Y Y Y Y Y Y Y _ ( Y Y Y Y Y Y ( ;.^ W W W W ~ W W W W [ W W W [ W W W ~ W ~ [ / / 8.^ ^ W W =.=.W Q Q Q Q Q Q Q Q Q Q Q 1.` Q Q Q 1.yX^.].*.*.&.&.&.&.&.&.&.&.&.&.&.&.&.&.&.&.&.&.*.*.3.w.!.D E.T.D D T.D D F F D T.F D D D D D D /.D Z S S Z S CXn.f.f.v.n.f.s.s.s.s.s.s.s.s.f.n.v.f.s.s.d.d.d.&X&Xn.d.A.dXm.A.b.b.b.m.A.b.b.b.A.b.b.V.A.c.=X;XN.V.L.G.B.B.N.c.c.c.c.c.c.N.M.7XaXT 5 6 6 M M 8 0 0 l.z.b < < < < < g b @ V < < < < < ,  .tXO.O.O.tXo.< , R 3X1X1X1X1X| @ h v @ < < 1 #.>.-   < v h o   - >.#.1 < < ",
"Y ( ] Y Y Y Y Y Y Y Y Y Y ] ( Y Y Y Y Y ( <.;.Y W W W ~ ~ W W W W [ W W W [ W W ~ [ W ~ { / / 8.^ ^ ^ W ^.,.Q Q Q Q Q Q Q Q Q Q Q Q 1.` Q Q 1.,.tX,XQ.%.*.&.3.&.&.&.&.&.&.&.&.&.&.&.&.&.3.&.&.*.*.E.w.W.a.E.T.D D T.F D &.F D T.T.D F F F F S W.W.B S S x &X;XS v.v.v.n.v.v.v.v.v.v.v.v.v.v.n.v.v.v.v.n.n.d.&X&Xn.d.fXH.n.A.b.m.m.V.A.m.m.m.A.m.m.V.A.b.OXZXB.B.L.G.B.B.N.N.N.N.N.N.N.N.c.+.pXY 5 6 6 M M 0 N N l.z.b < < < < < g b @ V < < < < < ,  .tXO.O.O.tXo.< , R 3X1X1X1X1X| @ h v @ < < < < >.>.: . . $   : >.>.< < < < ",
"Y ( ] Y Y Y Y Y Y Y Y Y Y ] ( Y Y Y Y Y Y ;.<.W W W W ~ ~ W W W W [ W W W [ W W ~ ^ W ~ { / / 8.^ ^ ~ 3.^.W ` Q Q Q Q Q Q Q Q Q Q Q 1.` Q Q ,.Q 6.,X*.*.*.&.3.&.&.&.&.&.&.&.&.&.&.&.&.&.3.&.&.*.*.E.=.w.a.E.T.D D T.F D &.F D T.T.D F D D D D F /.D S S S CXn.f.v.v.v.n.v.v.v.v.v.v.v.v.v.v.n.v.v.v.v.n.n.d.&X&Xn.Z.dXV.V.A.b.m.m.V.A.b.m.m.A.m.b.V.A.m.B.,XOXB.L.G.B.B.N.N.N.N.N.N.N.N.N.M.7X@.5 6 6 M M 8 0 N l.z.b < < < < < g b @ V < < < < < ,  .tXO.O.O.tXo.< , R 3X1X1X1X1X| @ h v @ < < < < f >.#.1 @ @ 1 #.>.f < < < < ",
"Y ( ] Y Y Y Y Y Y Y Y Y Y ] ( Y Y Y Y ( W ;.W W W W W ~ ~ W W W W [ W W W [ W W ~ ^ W ~ { / / 8.^ ^ ~ ^.5.Q Q Q Q Q Q Q Q Q Q Q Q Q 1.` Q Q 1.^ Q.<X6.*.*.&.3.&.&.&.&.&.&.&.&.&.&.&.&.&.3.&.&.*.*.*.W.w.*.T.T.D D T.F D &.F D T.T.D F D D D F S W.W.B x &XCXS v.v.v.v.n.v.v.v.v.v.v.v.v.v.v.n.v.v.v.v.n.n.d.&X&Xd.L.fXM.A.A.b.m.m.V.A.b.m.m.A.m.b.V.A.m.B.;X;XN.L.G.B.B.N.N.N.N.N.N.N.N.N.M.6XJ.5 6 6 M M 8 0 N l.z.b < < < < < g b @ V < < < < < ,  .tXO.O.O.tXo.< , R 3X1X1X1X1X| @ h v @ < < < < 1 w < < < < < < f < < < < < ",
"Y ( ] Y Y Y Y Y Y Y Y Y Y ] ( Y Y Y Y Y ;.<.W W W W W ~ ~ W W W W [ W W W [ W W ~ ^ W ~ { / / 8.^ ~ 5.^.W ` Q Q Q Q Q Q Q Q Q Q Q Q 1.` Q Q ,.1.[.%X$X*.*.&.3.&.&.&.&.&.&.&.&.&.&.&.&.&.3.&.&.*.*.*.W.^.w.T.T.D D T.F D &.F D T.T.D F D D D F D &./.S Z CXZ.f.v.v.v.v.n.v.v.v.v.v.v.v.v.v.v.n.v.v.v.v.n.n.d.&X&Xn.dXS.b.V.A.b.m.m.V.A.b.m.m.A.m.b.V.A.b.V.OXZXB.L.G.B.B.N.N.N.N.N.N.N.N.N.M.O.sX5 6 6 M M 8 0 N l.z.b < < < < < g b @ V < < < < < ,  .tXO.O.O.tXo.< , R 3X1X1X1X1X| @ h v @ < < < < < < < < < < < < < < < < < < ",
"Y ( ] Y Y Y Y Y Y Y Y Y Y ] ( Y Y Y ( W ;.[ W W W W W ~ ~ W W W W [ W W W [ W W ~ ^ W ~ { / / 8.^ ~ ^.5.Q Q Q Q Q Q Q Q Q Q Q Q Q Q 1.` Q ` ^ +X[.=.$X4.*.&.3.&.&.&.&.&.&.&.&.&.&.&.&.&.3.&.&.*.*.*.W.Q.w.E.T.D D T.F D &.F D T.T.D F D D D D F S W.*.Z.CXS v.v.v.v.v.n.v.v.v.v.v.v.v.v.v.v.n.v.v.v.v.n.n.d.&X&XG.fXn.V.V.A.b.m.m.V.A.b.m.m.A.m.b.V.A.b.A.A.;X&XL.G.B.B.N.N.N.N.N.N.N.N.N.c.+.dX9 6 6 M M 8 0 N l.z.b < < < < < g b @ V < < < < < ,  .tXO.O.O.tXo.< , R 3X1X1X1X1X| @ h v @ < < < < < < < < < < < < < < < < < < ",
"Y ( ] Y Y Y Y Y Y Y Y Y Y ] ( Y Y Y ) <.<.] W W W W W ~ ~ W W W W [ W W W [ W W ~ ^ W ~ { / / 8.^ 1.^.Q Q Q Q Q Q Q Q Q Q Q Q Q Q Q 1.` Q ` Q [. X=.|.$X*.&.3.&.&.&.&.&.&.&.&.&.&.&.&.&.3.&.&.*.*.*.W.Q.7.w.a.F D T.F D &.F D T.T.D F D D D D F D T.^.CX&Xf.v.v.v.v.v.n.v.v.v.v.v.v.v.v.v.v.n.v.v.v.v.n.n.d.&X&XdXG.m.V.V.A.b.m.m.V.A.b.m.m.A.m.b.V.A.b.A.A.&X;XH.G.B.B.N.N.N.N.N.N.N.N.N.c.o.lXy.6 6 M M 8 0 N l.z.b < < < < < g b @ V < < < < < ,  .tXO.O.O.tXo.< , R 3X1X1X1X1X| @ h v @ < < < < < < < < < < < < < < < < < < ",
"Y ( ] Y Y Y Y Y Y Y Y Y Y ] ( Y Y ( W ;.W [ W W W W W ~ ~ W W W W [ W W W [ W W ~ [ W ~ { / / 8./ ^.3.Q ` Q Q Q Q Q Q Q Q Q Q Q Q Q 1.` ` W  X[.1. X3.kX4.*.3.&.&.&.&.&.&.&.&.&.&.&.&.&.3.&.&.*.*.*.W.Q.*.w.T.D D T.F D &.F D T.T.D F F F F F F F G Q.CXf.v.v.v.v.v.v.n.v.v.v.v.v.v.v.v.v.v.n.v.v.v.v.n.n.d.&X:XdXZ.A.m.V.A.b.m.m.V.A.m.m.m.A.m.m.V.A.m.V.A.A.ZXL.G.B.B.N.N.N.N.N.N.N.N.N.c.o.lXg.4 6 M M 0 N N l.z.b < < < < < g b @ V < < < < < ,  .tXO.O.O.tXo.< , R 3X1X1X1X1X| < g b @ < < < < < < < < < < < < < < < < < < ",
"Y ( ] Y Y Y Y Y Y Y Y Y Y _ ( Y Y ) <.;.Y [ W W W W W W ~ W W W W ^ W W W [ W W W ~ W ~ [ / / 8.,.^.Q Q Q Q Q Q Q Q Q Q Q Q Q Q Q Q 1.` Q W [. X5. X*.9.#X*.3.&.&.&.&.&.&.&.&.&.&.&.&.&.&.&.&.*.*.*.W.Q.*.w.7.D D T.D D F F D T.F D D D D D D D F x VX,XS v.s.s.s.f.v.n.f.s.s.s.s.s.s.s.s.f.n.v.f.s.s.d.d.d.&XFXL.Z.A.b.V.A.b.b.b.m.A.b.b.b.A.b.b.V.A.b.m.OXV.;X>XJ.B.B.N.c.c.c.c.c.c.c.N.c. .lXh.7 6 M M 8 0 0 l.z.b < < < < < g b @ V < < < < < ,  .tXO.O.O.tXo.< , R 3X1X1X1X1X| < < n h < < < < < < < < < < < < < < < < < < ",
"] ] { ] ] ] ] ] ] ] ] ] ] { ] ] ] ] ;.[ [ { [ [ [ [ [ { { [ [ [ [ { [ [ [ { [ [ { { [ { { { { 8.w. X1.1.1.1.1.1.1.1.1.1.1.1.1.1.1.1.6.1.[  X[.4.}. X}.}.kX}.}.3.}.}.}.}.3.}.}.3.}.}.}.3.}.}.}.}.E.}.W.Q.E. Xw.T.T.}.T.T.}.}.T.}.}.T.T.T.T.T.T.T.T.{.CX/.XXn.{.n.n.n.{.XXn.{.n.n.n.n.n.n.{.n.XX{.n.n.{.XXXXR.*XDXOXOXOXA.OXOXA.A.A.A.OXA.A.A.OXA.A.OXOXA.A.OXS.=XCXG.S.C.C.B.B.B.B.B.B.B.B.V.o.lXnXk B B B B B B x.z.v < < < < < g b @ V < < < < < ,  .tXO.O.O.tXo.< , R 3X1X1X1X1X| < < < b n n n n n n n n n n n n n n n n n n ",
"( ( ] ( ( ( ( ( ( ( ( ( ( ] _ ( ( <.;.W W [ W W W W W [ [ W W W ~ [ W W W [ W W [ [ W ~ { / / q.^.1.1.` ` ` ` ` ` ` ` ` ` ` ` ` ` ` 1.1.W [.+X1.4. X3.*.$X#X*.&.&.&.&.&.&.&.3.&.&.&.&.&.}.&.&.*.*.*.W.Q.*.E.w.3.D T.F F T.T.D T.T.F F F F F F F G ;X;XW./.M.n.v.v.v.n.{.v.n.v.v.v.v.v.v.n.v.{.n.v.v.n.n.n.R.>XfXZ.A.A.V.A.A.V.V.V.A.A.V.V.V.A.V.V.A.A.V.A.OXA.A.ZXS.C.C.B.N.N.N.N.N.N.N.N.c.o.lXVX4 9 M M 0 N N z.z.b < < < < < g b @ V < < < < < ,  .tXO.O.O.tXo.< , R 3X1X1X1X1X| < < < < < < < < < < < < < < < < < < < < w w ",
"Y ( ] Y Y Y Y Y Y Y Y Y Y ] ( Y ( ;.^ W W [ W W W W W ~ ~ W W W W [ W W W [ W W ~ ~ W ~ [ ~ / w.=.^ ,.Q Q Q Q Q Q Q Q Q Q Q Q Q Q Q 1.Q 2.[.5.5.4. X3.3.4.kX3.&.&.&.&.&.&.&.&.&.&.&.&.&.3.&.&.*.*.*.W.Q.*.E.3.w.D T.F D &.F D T.T.D D D D D D D F CX{.d./.R.v.v.v.s.v.n.s.v.v.v.v.v.v.v.v.s.n.v.v.v.v.n.d.d.SX:XA.A.A.m.V.A.b.m.b.V.A.b.m.b.A.m.b.V.A.b.V.A.A.A.ZX*Xx.B.N.N.N.N.N.N.N.N.N.c.} 7XVX6 6 M M 8 0 0 l.z.b < < < < < g b @ V < < < < < ,  .tXO.O.O.tXo.< , R 3X1X1X1X1X| < g s.a.a.a.a.a.a.a.a.a.a.a.a.a.a.a.a.a.n n ",
"Y ( ] Y Y Y Y Y Y Y Y Y Y ] ( Y ^ ;.Y W W [ W W W W W ~ ~ W W W W [ W W W [ W W ~ ^ W ~ { / / ^.,.Q ,.Q Q Q Q Q Q Q Q Q Q Q Q Q Q Q 1.W [.Q.1.4.4. X3.3.&.$X#X*.&.&.&.&.&.&.&.&.&.&.&.&.3.&.&.*.*.*.W.Q.*.E.T.w.3.s.F D &.F D T.T.D F F F F F G &XVXs.n.Q.Q.M.v.v.v.v.n.v.v.v.v.v.v.v.v.v.v.n.v.v.v.v.n.d.G.FX&XA.A.A.m.V.A.b.m.m.V.A.b.m.m.A.m.m.V.A.b.V.A.A.A.>X;Xx.B.N.N.N.N.N.N.N.N.N.c.C.7XVXM 6 M M 8 0 N l.z.b < < < < < g b @ V < < < < < , / tXO.O.O.tXo.< , R 3X1X1X1X1X| < g d.d.{.d.s.d.s.R.XXs.s.d.R.s.d.d.d.s.< < ",
"Y ( ] Y Y Y Y Y Y Y Y Y Y ] ( Y ;.<.W W W [ W W W W W ~ ~ W W W W [ W W W [ W W ~ ^ W ~ [ / 4.w.^ ,.,.Q Q Q Q Q Q Q Q Q Q Q Q Q Q Q ` 5.[.5.5.5.4. X3.3.3.4.kX&.&.&.&.&.&.&.&.&.&.&.&.&.3.&.&.*.*.*.W.Q.*.E.T.3.w.s.F D &.F D T.T.D F D D F D D CXXXd.R.R./.d.v.v.v.v.n.v.v.v.v.v.v.v.v.v.v.n.v.v.v.v.n.d.dX>X*XA.A.A.m.V.A.b.m.m.V.A.b.m.m.A.m.b.V.A.b.V.A.A.A.>XZXB.B.N.N.N.N.N.N.N.N.N.c.C.5XVXu.4 M M 8 0 N l.z.b < < < < < g b @ V < < < < < ,  .tXtXtXtXtXo.< , R 3X1X1X1X3X| < g d.s.,XoX=XXXXX=X-XXX=XoXoX=XR.s.d.s.< < ",
"Y ( ] Y Y Y Y Y Y Y Y Y Y ] ( ^ ;.W W W W [ W W W W W ~ ~ W W W W [ W W W [ W W ~ ^ W ~ [ / ^.7.,.,.,.Q Q Q Q Q Q Q Q Q Q Q Q Q Q ` ^ Q.Q.1.4.5.4. X3.3.4.&.$X6.*.&.&.&.&.&.&.&.&.&.&.&.3.&.&.*.*.*.W.Q.*.E.*.&.w.3.D D &.F D T.T.D F D D F G &XCXs.{.R.v.Q.Q.M.v.v.v.n.v.v.v.v.v.v.v.v.v.v.n.v.v.v.v.s.S.dX&X*XA.A.A.m.V.A.b.m.m.V.A.b.m.m.A.m.b.V.A.b.V.A.A.A.L.;X&Xx.N.N.N.N.N.N.N.N.N.c.C.5XnXg.7 M M 8 0 N l.z.b < < < < < g b @ V < < < < < , / O.+.+.+.O. .< , R wXI 2XI wXI < g d.XX<X,X-X-X-X<X-X-X=X-X-X-XoXs.d.a.< < ",
"Y ( ] Y Y Y Y Y Y Y Y Y Y ] ( ;.<.W W W W [ W W W W W ~ ~ W W W W [ W W W [ W W ~ ^ W ~ / 5.^.8.,.,.,.Q Q Q Q Q Q Q Q Q Q Q Q Q Q Q 1.[.2.5.4.5.4. X3.3.3.2.|.$X&.&.&.&.&.&.&.&.&.&.&.&.3.&.&.*.*.*.W.Q.*.E.*.&.3.w.D D &.F D T.T.D F D D F G CXoXd.R.R.d.R./.v.v.v.v.n.v.v.v.v.v.v.v.v.v.v.n.v.v.v.v.a.dXG.&X*XA.A.A.m.V.A.b.m.m.V.A.b.m.m.A.m.b.V.A.b.V.A.A.A.>X*X;Xx.N.N.N.N.N.N.N.N.N.c.C.5XK.K.7 M M 8 0 N l.z.b < < < < < g b @ V < < < < < , T  ./ / /  .Y < , J L P P P L K < g d.oXXX=XoXoX-X=XoX-XXX-XoX=XXXs.R.n < < ",
"Y ( ] Y Y Y Y Y Y Y Y Y Y ( ~ ;.W W W W W [ W W W W W ~ ~ W W W W [ W W W [ W W ~ ^ W ~ / ^.4.8.,.,.,.Q Q Q Q Q Q Q Q Q Q Q Q Q ` W Q.[.` 2.5.5.4. X3.3.3.4.3.$X6.*.&.&.&.&.&.&.&.&.&.&.3.&.&.*.*.*.W.Q.*.E.*.&.&.w.&.D &.F D T.T.D F D F G oXCXs.{.R.R.R.v.Q.Q.M.v.v.n.v.v.v.v.v.v.v.v.v.v.n.v.v.v.s.A.dXn.*X*XA.A.A.m.V.A.b.m.m.V.A.b.m.m.A.m.b.V.A.b.V.A.A.A.>XS.ZXB.N.N.N.N.N.N.N.N.N.c.N.5XK.K.7 M M 8 0 N l.z.b < < < < < g b @ V < < < < < , Y  . . . . .R < , J L P L L L K < g d.s.d.s.s.s.s.a.XXoXs.s.s.s.s.d.A < < < ",
"Y ( ] Y Y Y Y Y Y Y Y Y Y ( ;.<.Y W W W W [ W W W W W ~ ~ W W W W [ W W W [ W W ~ ^ W ~ 4.^./ q.,.,.,.Q Q Q Q Q Q Q Q Q Q Q Q Q Q Q [.}.5.5.5.5.4. X3.3.3.4.3.6.$X*.&.&.&.&.&.&.&.&.&.&.3.&.&.*.*.*.W.Q.*.E.*.&.F 7.7.A &.F D T.T.D F D F G CX&Xs.{.R.R.R.d.R./.v.v.v.n.v.v.v.v.v.v.v.v.v.v.n.v.v.v.a.fXL.n.*X*XA.A.A.m.V.A.b.m.m.V.A.b.m.m.A.m.b.V.A.b.V.A.A.A.>XG.;XOXN.N.N.N.N.N.N.N.N.c.N.5XD.VX7 M M 8 0 N l.z.b < < < < < g b @ V < < < < < , T  . . . . .R < , J L P L P L K @ g b < f f f f f f w < f f f f , , X + , > ",
"Y ( ] Y Y Y Y Y Y Y Y Y Y [ ;.W W W W W W [ W W W W W ~ ~ W W W W [ W W W [ W W ~ ~ W ~ ^.4./ q.,.Q Q Q Q Q Q Q Q Q Q Q Q Q Q ` W W.[.1.2.5.5.5.4. X3.3.2.2.}.2.kX5.&.&.&.&.&.&.&.&.&.&.3.&.&.*.*.*.W.Q.*.E.*.&.&.3.w.F F F D T.T.D D F G {.CXs.R.R.R.R.R.R.v./.E.M.v.n.s.v.v.v.v.v.v.v.v.s.n.v.v.s.n.dXA.Z.*X*XA.A.A.m.V.A.b.m.b.V.A.b.m.m.A.m.b.V.A.b.V.A.A.A.>XG.&X;X} c.N.N.N.N.N.N.N.c.N.7Xu.VX4 M M 8 0 0 l.z.b < < < < < g b @ V < < < < < , Y  . . . . .R < , J L P L P L K @ h v @ < < < < @ @ < < < < < + +.hXhXhXqXhX",
"( ( ] ( ( ( ( ( ( ( ( ( ) <.;.W W W W W W [ W W W W W [ [ W W W ~ [ W W W [ W W ^ [ W 1.^.[ 6.q.,.1.1.` ` ` ` ` ` ` ` ` ` ` ` ` Q [. X5.2.4.4.4.4. X3.3.3.4.}.2.#X$X*.&.&.&.3.&.&.&.&.&.3.&.&.*.*.*.W.Q.*.E.E.&.&.T.7.7.a.&.D T.T.F F F G VX&Xs.{.{.{.{.{.{.n.E./.M.n.n.v.v.v.v.v.v.v.v.v.v.{.n.n.a.L.fXn.Z.*X*XA.A.A.V.A.A.m.V.V.V.A.m.V.V.A.V.V.A.A.V.A.OXA.A.>XG.A.,XN.N.N.N.N.N.N.N.N.N.N.7Xu.VXM M M 0 N N l.z.b < < < < < g b @ V < < < < < , Y  . . . . .R < , J L P L L L K @ h v @ < < < < f w < < < < < > hXhXqXhXhXqX",
"] ] { ] ] ] ] ] ] ] ] ] ] ;.[ [ [ [ [ [ [ { [ [ [ [ [ [ [ [ [ [ [ [ [ [ [ { [ [ [ [ ~ ^. X[ 6.q.1.1.1.1.1.1.1.1.1.1.1.1.1.1.1.Q  X[.4.}.4.4.4.4.4. X}.}.}.}.}.4.4.kX4.*.3.3.}.&.3.3.3.&.}.3.&.*.*.}.W.Q.E.E.}.*.&.}.3.w.T.T.&.}.}.T.T.&.{.CX{.{.{.{.{.{.{.{.{.{./.XXn.XXn.n.n.n.n.n.n.n.n.n.XXn.n.n.dXS.OXOX*X*XS.OXA.A.A.OXA.A.A.A.OXA.A.A.OXA.A.A.OXA.A.OXOXOX>XOXS.,XOXB.B.B.B.B.B.B.B.B.B.7X) VXu.N B N B B z.z.b < < < < < g b @ V < < < < < , T  . . . . .R < , J L P L P L K @ h v @ w d.V d.V XXf < < < < > qXqX8XqXzXzX",
"Y ( ] Y Y Y Y Y Y Y Y Y <.;.W W W W W W W [ W W W W W ~ ~ W W W W [ W W W [ W W W ~ Q ^.6.^ [ q.,.Q Q Q Q Q Q Q Q Q Q Q Q Q ` W [.Q.5.2.2.5.5.5.4. X3.3.2.2.4.5.&.9.9.*.&.&.&.&.&.&.&.&.&.&.&.*.*.*.W.Q.*.E.*.&.&.3.F 7.7.F D T.&.D F x ;X;Xs.R.d.d.d.d.d.d.R.d.Q.Q.M.n.f.v.s.s.s.s.s.s.s.f.n.v.a.G.fXn.Z.Z.*X*XA.A.V.b.V.A.b.m.b.m.A.b.m.b.A.m.b.V.A.b.V.A.A.A.>XS.B.=X;X} c.c.c.c.c.c.c.N.c.7XN VXu.6 M 8 0 0 l.z.b < < < < < g b @ V < < < < < , T  . . . . .R < , J L P L P L K @ h v @ f XXV {.f p.< < < < < > hXqX8XhXhXzX",
"Y ( ] Y Y Y Y Y Y Y Y ( ;.<.W W W W W W W [ W W W W W ~ ~ W W W W [ W W W [ W W W ~ =.3.[ [ [ q.,.,.,.Q Q Q Q Q Q Q Q Q Q ` Q }.[.5.}.2.2.5.4.5.4. X3.3.3.2.}.2.2.5.kX&.&.&.&.&.&.&.&.&.3.&.&.*.*.*.W.Q.*.E.*.&.&.3.&.&.w.F D T.&.D D s.CX{.R.R.R.R.R.R.R.R.R.R.n./.R.n.s.v.v.v.v.v.v.v.v.v.n.v.s.dXG.m.Z.Z.*X*XA.A.A.m.V.A.b.m.m.V.A.m.m.m.A.m.m.V.A.b.V.A.A.A.>XG.A.OX,XN.N.N.N.N.N.N.N.N.c.7X) nXD.6 M 0 N N l.z.b < < < < < g b @ V < < < < < , T  . . . . .R < , J L P L P L K @ h v @ f V g n < A < < < < < > hXqX8X7X8X8X",
"Y ( ] Y Y Y Y Y Y Y Y <.;.] W W W W W W W [ W W W W W ~ ~ W W W W ^ W ~ W [ W W ~ ` ^.1.6.[ [ q.,.,.,.Q Q ` ` ` Q Q Q Q Q ` W [.Q.` }.2.2.5.5.5.4. X3.3.3.2.}.2.2.&.$X9.*.&.&.&.&.&.&.&.}.&.&.*.*.*.W.Q.*.E.*.&.&.3.&.F w.3.D &.T.F G ;XVXs.{.R.R.R.R.R.R.R.R.R.v.Q.Q.n.n.n.v.v.v.v.v.v.v.v.n.s.S.dXn.A.Z.Z.*X*XA.A.A.m.V.A.b.m.m.V.A.b.m.m.A.m.m.V.A.V.A.A.A.A.>XG.A.B.;XZ.N.N.N.N.N.N.N.N.c.7X) K.K.4 M 8 0 N l.z.b < < < < < g b @ V < < < < < , T  . . . . .R < , J L P L P L K @ h v @ < < < < < < < < < < < + hXzXzXzXzXzX",
"Y ( ] Y Y Y Y Y Y Y ( ;.<._ 6.{ 6.[ W W W [ W W W W W ~ ~ W W W W { 6.[ 6.[ W W ~ 3.=.W 6.^ [ q.,.,.,.Q Q 6.1.6.1.Q Q Q Q Q 2.[.5.2.4.2.2.5.4.5.4.%X}. X2.2.}.2.2.2.4.kX&.&.&.&.&.&.&.&. X}. X*.*.*.W.Q.*.E.*.&.&.3.&.F 3.w.A }.}.}.}.CXXXd.R.R.R.R.R.R.R.R.R.R.R.R./.oXn.oX{.f.v.v.v.v.v.v.n.a.fXH.n.V.Z.Z.*X*X*X*XV.m.V.A.b.m.m.V.A.b.m.m.A.m.b.A.OXOX*XOXA.A.>XG.A.B.;X&X} N.N.N.N.N.N.N.c.7X) K.K.4 M 8 0 N l.z.b < < < < < g b @ V < < < < < , Y  . . . . .R < , J L P L L L K @ h v @ < < < < < < < < < < < , j k k k k k ",
"Y ( ] Y Y Y Y Y Y ( ^ ;.Y ^ |.W { [ W W W [ W W W W W ~ ~ W W W W 6.{ W 6.[ W W ~ ^.,.` 6.^ [ q.,.,.,.Q ` |.Q 6.6.Q ` Q ` W Q.Q.` 2.4.2.2.5.4.5..X X X@X2.2.}.2.2.2.&.$X6.*.3.&.&.&.&.3. X&. X*.*.*.W.Q.*.E.*.&.&.3.&.&.&.w.%.{.}.}.;XVXs.{.R.R.R.R.R.R.R.R.R.R.R.v.Q.+XM.oXn.v.v.v.v.v.v.v.n.A.dXb.m.Z.Z.Z.*X*X:X*XV.m.V.A.b.m.m.V.A.b.m.m.A.m.b.OXOXV.:XOXA.A.>XG.A.B.oX;X} N.N.N.N.N.N.N.c.7X) g.VX6 M 8 0 N l.z.b < < < < < g b @ V < < < < < , Y  . . . . .R < , J L P L L L K @ h v < f f f f f f f g g f f f w , , , , , ",
"Y ( ] Y Y Y Y Y Y Y ;.<.W ^ [ { [ ~ W W W [ W W W W W ~ ~ W W W W [ { { 6.[ W Y 3.^.W ` 6.^ [ q.,.Q Q Q Q 1.6.6.1.Q Q Q Q ` [.2.2.2.4.2.2.5.5.5.4. X}.}.2.2.}.2.2.2.2.6.$X&.3.&.&.&.&.&. X}.}.*.*.*.W.Q.*.E.*.&.&.3.&.&.&.3.w.s.}.&.CXoXd.R.R.R.R.R.R.R.R.R.R.R.R.n.R.[.{.n.v.v.v.v.v.v.v.v.d.fXL.M.V.Z.Z.Z.*X:XOXOXV.m.V.A.b.m.b.V.A.b.m.m.A.m.b.V.OXA.OXA.A.A.>XG.A.A.V.,Xb.N.N.N.N.N.N.N.c.7X} u.VXM M 0 0 N l.z.b < < < < < g b @ V < < < < < , T  . . . . .R < , J L P L P L K @ h v < g g g g g g 3 3 3 f g g g g g g g g ",
"( ( ] Y ( ( Y ( ( W ;.W W [ W W W W W W W [ W W W W W [ ~ W W W W [ W W W [ W W ^.5.Q ` 6.[ [ q.,.1.1.Q ` Q Q Q Q ` ` ` W Q.[.1.2.2.}.2.2.4.4.5.4. X3.3.3.4.}.2.2.2.2.&.$X6.*.&.&.&.&.&.&.&.&.*.*.*.W.Q.*.E.E.&.&.3.&.&.&.&.w.3.D oXCXs.{.R.R.{.{.{.R.R.{.R.R.{.{.R.n./.W.M.v.v.v.v.v.v.v.s.m.dXV.m.m.Z.Z.Z.*X*XA.A.A.V.V.A.m.V.V.V.A.V.m.m.A.V.b.A.A.m.V.A.A.A.>XG.A.A.B.;XoXN.N.N.N.N.N.N.c.7X} u.VXM M 0 0 N l.z.b < < < < < g b @ V < < < < < , T  . . . . .R < , J L P L P L K @ h v @ < < < < O @ e a a < O @ < < < < < < ",
"C.Y C.C.#X{ Y |.C.;.q.|.W { 6.6.|.W { #XW [ |.|.#XW { #X~ ~ #X[ W 6.{ #X[ W #X}.^.6.|.|.6.[ #Xq.,.6.|.Q 6.6.|.|.Q 6.|.Q 6.NX@X.X2.}..X2.}.@X4.4..X%X@X4.4.@X}.2..X.X.X}.6.kXE.%. X X%.}.}. X X&. X XW.Q. X+X X&. X X&.}.+X&.7.w.T.CX&X{.-XXX{.+XoX=X{.{.=XXXR.+XoXd.oX+X[.XXf.OXoXf.oXoXOXXXH.dXOXb.OX*XZ.OX;X>X:XA.OX:XA.A.*XOX:XV.A.:XA.V.:XOXb.OXOX:XOXA.:X*X>X:X:X:XS.&X,XG.B.N.N.N.N.N.M.7X} m VXu.M 0 N N l.z.b < < < < < g b @ V < < < < < , T  . . . . .R < , J L P L P L K @ h v @ < < < O i ].LXJXLXJXI.< @ < < < < < ",
"C.Y C.C.#X{ Y #X|.;.6.#XW { 6.6.#XW 6.#XW [ #X#X#XW { #X~ [ #X{ W |.{ #X[ W #X%X5.|.|..X6.[ #Xq.,.6.|.Q 6.6.|.|.! 6..XW +X[..X.X2..X@X2.}.@X4.4..X%X@X4.4.@X}.2..X.X@X}.2.kX|.&. X X%. X}. X X&. X XW./. X+X X&. X+X&.}.@X&.&.w.+XCXT.XX-XXX{.+XoX-X{.{.-XXXR.=XoXd.oXoX[.+XM.OXOXf.oXOX*XoXdX:X*Xb.OX:XZ.OX;X>X:XA.OX:XA.A.*X*X:XV.A.:XA.V.:XOXb.OXOX:XOXA.:X*X>X>X:X:XOXm.ZX:XB.c.c.c.c.N.M.7X} 9 VXu.6 8 0 0 l.z.b < < < < < g b @ V < < < < < , T  . . . . .R < , J L P L P L K @ h v @ < < O a LXNX).p r.).LX].< < < < < < ",
"C.Y C.C.#X{ Y C.q.<.{ #XW { 6.6.#XW 6.#XW [ #X|.#XW { #X~ [ #X{ W |.{ #X[ ~ .X^.Q |.|.|.6.[ #Xq.,.6.|.Q 6.6.|.|.! 6.|.Q [.+X.X.X2..X@X2.}.@X4.4..X%X@X4.4.@X}.2..X.X@X}.2.$X$X*. X X%. X}. X X&. X XW./. X+X X&. X+X&.}.@X&.T.w.<XZXT.XX-XXX{.+XoX=X{.{.-XXXR.=XoXd.oXoX=X/.M.OXOXf.oXOXoX>XfXOX:Xb.OX:XZ.OX;X>X:XA.OX:XA.A.*X*X:XV.A.:XA.V.:XOXb.OXOX:XOXA.:X*X>X>X:X:XOXb.ZX*XC.B.B.B.B.C.b.7XJ.m VXK.M B B B z.z.b < < < < < g b @ V < < < < < , Y  . . . . .R < , J L P L L L K @ h v @ < < e NXJXr   # $   I.LXI.O < < < w ",
"C.T C.C.#X{ Y #Xe.W 6.#XW { 6.6.#XW 6.#XW [ #X|.#XW { #XW ~ #X[ W |.{ #X[ ~ %X3.W |.|..X6.^ #Xq.,.6.|.Q 6.6.|.|.! |.|.}.[.|..X.X5.}.@X2.}.@X4.4..X%X@X3.4.@X}.2..X.X@X4.2.@XkX5. X XD  X}. X X&. X XW./. X+X X%. X+X&.}.@X&.&.+XCX+X{.{.-XXX{.+XoX-X{.{.-XXXd.=XoXd.oXoX+X[.R.OXOXf.oXOXoXdXG.OX:Xb.OX:XZ.OX;X>X:XA.OX:XA.A.*X*X:XV.A.:XA.m.:XOXb.OXOX:XOXV.:X*X>X>X:X:XOXc.;X;XC.B.B.B.B.B.b.6Xo.m nXK.M N N N z.z.b < < < < < g b @ V < < < < < , Y  . . . . .R < , J L P L L L K @ h v @ < O P.LXu   v p.a.w   ].JX< < < < f ",
"C.( |.C.#X{ ( q.q._ 6.#X~ 6.6.6.#XW 6.#X[ { #X|.#X~ 6.#X[ [ #X{ [ #X{ #X{ ` /.6.` |.|.|.6.6.#Xq.,.6.|.` 6.6.|.|.` |.|.[.+X.X.X.X2..X@X4.}.@X}.4..X%X@X}.}.@X}.4..X.X@X}.}.@X$X#X X X&. X}. X X*. X XW./. X+X X&. X+X&.}.@X}.&.CX<X%XXXXX-XXX{.+XoX-XXXXX-XoX{.=XoX{.+XoXoX=XQ.OXOXv.OXoX>XdXm.*X*XV.OX:XOXOX;X>X:XA.OX:XA.A.*X*X:XA.OX:XA.A.:XOXA.*XOX:XOXA.:X*X>X>X:X:XOXV.-XZXB.c.c.c.c.N.M.6Xo.9 K.K.4 0 0 0 l.z.b < < < < < g b @ V < < < < < , T  . . . . .R < , J L P L P L K @ h v @ < O ).JXX @ A A a.p.$ I.LXi O < < < ",
"|.C.#XC.#X|.C.e.9.|.#X#X6.#X6.6.#X6.#X#X6.#X|.|.#X6.#X#X6.#X#X|.#X#X{ #X9.%X%X|.|.|.|.|.|.#X#Xq.6..X|.6..X6.|.|.|.#X@X[..X.X.X.X.X@X@X.X.X@X.X.X.X%X@X.X.X@X.X.X.X.X@X.X.X@X.XkX@X X X@X}. X X X+X XQ./. X+X+X X+X+X X+X+X X+XCX+X%XoX=X=X+X+X+XoX=XoX+X=XoX+X-X+XoX=XXX=X+X[.-XOXoX*XoXdX>XOX:X:XOX:X:X*X*X;X>X:X*X:X:XOX:X*XOX:XOX:X:XOX*X:X*X*X:XOX:X*X:X:X*X>X>X:X:X:X*X:XZXA.N.N.N.N.N.M.6Xo.9 K.VX4 0 N N l.z.b < < < < < g b @ V < < < < < , T  . . . . .R < , J L P L P L K @ h v @ < O ).NX. < V b b p.$ s JXa O < < < ",
"#XC.#XC.#XC.q.q.#X6.#X#X6.#X6.6.#X6.#X#X6.#X#X#X#X6.#X#X|.#X#X|.#X#X{ #X|./..X|.|..X|.#X|.#X#Xq.6..X|.|..X6.|.|.|.#X,X=X.X.X.X@X.X@X@X.X@X@X.X.X.X%X@X.X@X@X.X.X@X.X@X.X.X@X X$X$X X X@X}. X+X X+X XQ./. X+X+X X@X+X X+X@X}.<XZX}.%X@X=X-X+X=X=XoX-XoX=X-X+X+X-X+X+X-XoX=XoX+X,XOXoX-X*XgX*X*X:X:XOX:X:X*X*X;X>X:X*X:X:XOX:X:X*X:XOX:X:X*X*X:X*X*X:XOX:X*X:X:X:X>X>X:X:X:X*X:XZXoX} N.N.N.N.M.6X+.m D.VX6 0 0 N l.z.b < < < < < g b @ V < < < < < , T  . . . . .R < , J L P L P L K @ h v @ < O I.PXr . b n f g   ).LXe < < < < ",
"] ] { _ ] ] ;.<.[ [ [ [ [ { [ [ [ [ [ [ [ { [ [ [ [ [ { [ [ [ [ [ { W [ 3. X[ 1.1.6.` 1.6.6.6.q.1.1.1.1.1.` 1.1.` }.[.4.}.}.}.}.4.}.}.}.}.}.4.4.4. X}.}.}.}.}.}.}.}.}.}.}.}.}.4.kX3.&.}.}.3.3.*.E.}.W.Q.E.E.}.&.3.}.&.3.}.}.CXoX{. X%XXXXX{.XXXX{.XX{.XXXX{.{.XXXX{.XXXXXXXX{./.{.n.R.fXL.m.OXA.A.A.A.OXOXOX*X*XOXA.A.A.A.OXA.A.A.A.OXA.A.A.OXA.A.A.A.A.A.OXOXOX>X:XS.S.A.A.V.=X=X} N.N.N.N.M.+.+.m u.VX8 0 N N l.z.b < < < < < g b @ V < < < < < , T  . . . . .R < , J L P L P L K @ h v @ < @ i NX].. . < o   p NX).@ < < < < ",
"Y Y _ Y T ^ ;.Y W W W W W ~ W W W W W W W [ W W W W W W W W W W W ~ W W ^.5.Q Q ` ` Q Q 1.^ [ q.,.Q Q Q Q Q Q Q W Q.Q.` 2.2.2.2.2.2.4.2.5.5.5.5.4. X3.3.2.2.4.5.5.5.5.2.2.2.4.&.$X6.*.&.3.%.&.*.*.*.W.Q.*.E.*.&.&.&.&.&.%.-XCX}.}.T.w.}.d.R.d.d.d.d.d.d.d.d.d.d.d.d.R.{.d.d.s.Q.Q.f.n.dXm.b.A.b.b.b.m.m.Z.m.*X*XA.A.V.b.V.A.b.b.b.m.A.b.b.b.A.b.b.V.A.b.m.A.A.A.>XS.A.V.V.b.b.Z.;XN.N.N.N.N.c.+.+.y.u.VXM 8 0 0 l.z.b < < < < < g b @ V < < < < < , Y  . . . . .R < , J L P L L L K @ h v @ < < O I.PX).$ X $ < LXJXu @ < < < < ",
"Y ( ] ] N.q.<.W W W W W W ^ { 6.|.` W W W [ W W W W W ~ { { 6.[ W [ Y 3.^.[ ` Q ` 1.Q ` 6.[ [ q.6.6.|.|.1.Q ` Q 5.[.2.2.2.2.2.2.2.2.4.}.}..X X.X4. X3.3.3.2.}.}.}.}. X}.2.2.4.2.6.kX&.&.3.}.}.}. X}.W.Q.*.E.*.&.&.3.&.&.&.CXoX}.oXoX X%Xd.{.R.R.R.R.R.R.R.R.R.R.R.R.{.{.oXoX{.R./.a.L.fXM.V.A.A.OXA.m.Z.Z.Z.*X*XA.A.A.m.V.OXOXA.V.V.A.m.m.m.A.m.m.V.A.m.V.A.A.A.>X:XOXOXA.V.m.b.,Xb.N.N.N.N.c.+.8Xy.u.VXu.f.M.M.z.z.b < < < < < g b @ V < < < < < , T  . . . . .R < , J L P L P L K @ h v @ < < < O I.r.@ < < @ ).a O < < < < < ",
"Y ( ] _ .Xw._ W W W W W W ^ [ .X|.{ W W W [ W W W W W ~ { |.|.6.W [ W ^.5.` Q Q ` 1.Q ` 6.^ [ 8.|.|..X.X4.Q ` W Q.[.` 2.2.2.2.2.2.2.4.2..X.X@X.X}. X3.3.3.2.4..X@X@X+X}.5.2.4.5.&.$X6.*.3.}.+X+X+X XW.Q.*.E.*.&.&.3.&.%.oXCX&.{.XX+X=X%X}.d.R.R.R.R.R.R.R.R.R.R.R.R.{.{.XX=XoXs./.W.dXS.b.m.A.A.*X*XA.V.Z.Z.*X*XA.A.A.m.V.OXOX*XOXm.A.b.m.m.A.m.b.V.A.b.V.A.A.A.>X:XOXOX-XA.m.N.;XoX} N.N.N.c.o.8Xy.M VXu.v.M.oXS.z.b < < < < < g b @ V < < < < < , T  . . . . .R < , J L P L P L K @ h v @ < < < < O < < < < < O @ < < < < < < ",
"Y ( ] V.7.6.W W W W W W W ~ { |.|.` W W W [ W W W W W W [ |.|.[ W ~ 5.^.W 1.Q Q ` ` Q ` 1.^ [ 8.6.|.|.|.1.Q Q Q [.}.5.2.2.2.2.2.2.2.4.}.+X}..X.X4. X3.3.2.2.}.}.+X X+X}.5.2.4.2.2.6.$X*.3.}. X X X XW.Q.*.E.*.&.&.&.&.z CX=XT.}.}.XXoX X7.d.R.d.d.d.d.d.d.d.d.d.d.d.R.XXoXoXoXv.W.<XfXv.V.b.A.A.OXOXA.m.Z.m.*X*XA.A.V.b.V.A.OXOXA.m.A.b.m.b.A.m.b.V.A.b.m.A.A.A.>XOXOXOXOXA.b.c.&X;X} c.c.N.c.J.8Xy.M VXZ.f.M.n.S.z.b < < < < < g b @ V < < < < < , T  . . . . .R < , J L P L P L K @ h v @ < < < < < O O < @ O < < < < < < < < ",
"Y _ ] ~ ;.~ ~ ~ ~ ~ ~ ~ ~ [ [ ~ ~ ~ ~ ~ ~ [ ~ ~ ~ ~ ~ ^ [ ~ ~ ~ ^ [ ^.5.Q 1.` Q 1.1.Q [ 6.1.6.q.<.1.1.1.` ` W Q.[.1.4.4.4.4.4.4.4.4.}.4.4.4.4.4.4.%X4.4.4.4.}.4.4.4.4.4.4.4.}.4.4.2.kX6.E.2.&.*.*.*.W.Q.*.E.E.&.&.}.%.oXCX}.}. X X}.}.}.w.}.{.{.{.{.{.{.{.{.{.{.{.{.{.XX{.{.{.{.{.dX:Xm.A.A.S.A.A.V.A.A.OXZ.*X*XS.A.A.A.A.S.A.V.A.A.S.V.A.A.OXA.V.A.A.V.A.OXS.S.>XG.S.S.A.A.A.V.OXZXN.N.N.N.c.J.7Xu.M VXD.8 N 0 z.x.v < < < < < g b @ n < < < < < , T  . . . . .R < , J L P L P L K @ h v @ < < < < @ P.].NXNX).u O < < < < < < ",
"k k k ! ! k k k k k k k k l k k k k k k k l k k k k k l l k k k k x =.l l l l l l l l l l l l l l l l l l l l !.D x G G G G G G G G G G G G G G G G G G G G G G G G G G G G G G G x ` [ H x x x x G D C V G G x x G H Z.n.G A D D A D A %.%.A A A A A A A A A A A A A A A A A V M.G.E.B B B S B B B B B S S f.M.B B B B B B B B B B S B B B S B B B S B B f.f.f.M.M.B B B B B B B !.B B B B B ) @.m 6 g.u.3 6 6 0 M.h < < < < < g b @ V < < < < < , Y  . . . . .R < , J L P L P L K @ h v @ < < < < ].JXLX).NXLXJXP.O < < < < < ",
"n n n n n n n n n n n n n n n n n n n n n n n n n n n n n n n n n b b n n b n n n n n n b n b b n n n n n n n b b b b b b b b b b b b b b b b b b b b b b b b b b b b b b b b b b b b b b b n b b b b b b b b n n b n b b b b b b b b b b b b b b b b b b b b b b b b b b b b b b v b b b b b b b b b b b b b b b b b b b b b b b b b b b b b b b b b b b b b b b b b b b b b b b b b b b b b b b n n b b n n n n h < < < < < < < n V b < < < < < , Y  . . . . .R < , J L P L L L K @ h v @ < < O ).PXI..     o NXJXu @ < < < < ",
"< < < < < < < < < < < < < < < < < < < < < < < < < < < < < < < < < < < < < < < < < < < < < < < < < < < < < < < < < < < < < < < < < < < < < < < < < < < < < < < < < w w w w w w w w w w w w w w < < < < < < < < < < < < < < < < < < < < < < < < < < < < < < < < < < < < < < < < < < < < < < < < < < < < < < < < < < < < < < < < < < < < < < < < < < < < < < < < < < < < < < < < < < < < < < < < < < < < < < < < < < < < < < < < @ @ < < @ @ < < < < , T  . . . . .R < , J L P L P L K @ h v @ < O a JXP.  @ b b   X ).).< < < < < ",
"< < < < < < < < < < < < < < < < < < < < < < < < < < < < < < < < < < < < < < < < < < < < < < < < < < < < < < < < < < < < < < < < < @ @ @ @ @ @ @ @ @ @ @ @ @ @ @ < O # O O O O O O O O O O O # < < < < < < < < < < < < < < < < < < < < < < < < < < < < < < < < < < < < < < < < < < < < < < < < < < < < < < < < w < < < < < < < < < < < < < < < < < < < < < < < < < < < < < < < < < < < < < < < < < < < < < < < < < < < < < < < b v @ n g n < < < < , T  . . . . .R < , J L P L P L K @ h v @ < O ).LX, # A p.v w   I.MXe < < < < ",
"< < < < < < < < < < < < < < < < < < < < < < < < < < < < < < < < < < < < < < < < < < < < < < < < < < < < < < < < < < < < < < < < < b b b b b b b b b b b b b b v < U.(.(.(.(.(.(.(.(.(.(.(.(.(.r @ < < < < < < < < < < < < < < < < < < < < < < < < < < < < < < < < < < < < < < < < < < < < < < < < < < < < < f g @ g A V V V V V V V V V V V V V V V V V V V V A V V A V V V V V V V V V V V V V V V V V V V V V A g < < < < w a.p.v a.XXa.n @ < < , T  . . . . .R < , J L P L P L K @ h v @ < O ).NX. < V V v p.# y ].u @ < < < ",
"h g h h h h h h h h h h h h h g g g g < < < < @ < < < < < < < < < < < < @ < < < g g h h h g h h g g g g h h h h g g g g g < < < g p.b b b b b b b b b b b b b p.3 HXmX'.mXmXmXmXmXmXmXmXmX'.KXr.O < < < < < < < < < < < < < < < < < < < < < < < < < < < < < < < < < < < < < < < < < < < < < < < < < < < < < w g @ v V h v v v v v v v v v v v v v v v v h h h g h h h h v v v v v v v v v v v v v v v v v v v h A h @ < < < w a.a.A p.XXa.n @ < < , T  ./  ./  .Y < , J L P P P L K @ h v @ < O ).LX, # V V A n   r.MXe @ < < < ",
"v A g g g h g h h h h h h h h f A <Xb < < < @ b A v s.< A h < g < g < g b g < < p.A b h g A h h p.A a.p.h h h h g f =XoXw < < < g V h A n A V V h b b A V b h V 3 mX(.'.'.'.(.'.'.'.'.'.'.(.mXr.O < < < < < < < < < < < < < < < < < < < < < < < < < < < < < < < < < < < < < < < < < < < < < < < < < < < < < w g @ v n g h h h h h h h h h h h h h h g v A b d.d.n A A A g h h h h h h h h h h h h h h h h h h g V g < < < < < b n g V h V < < < < , Y .. ... ...R < , J I L L L I P @ h v @ < O r.LXr.  < h h # $ ).).< < < < < ",
"R.XXd.R.d.d.{.v h h h h h h h f a.=Xp.< < < @ V p.d.< @ s.s.a.a.a.a.s.s.{.b < < oXoXa.R.d.XXa.h oXXXR.s.g h h h g h oXoXh < < < g V n oX{.XXXXa.n oXXXR.R.XXg A 3 mX'.mX'.mX'.'.mXmXmXmXmX(.HXr.O < < < < < < < < < < < < < < < < < < < < < < < < < < < < < < < < < < < < < < < < < < < < < < < < < < < < < w g @ v n g h h h h h h h h h h h h h h g b d.v d.oXXXd.-Xb g g h h h h h h h h h h h h h h h h h g V g < < < < < @ @ @ o o o < < < < < k T T T T T k < < % J J J J J J @ h v @ < < < ].LXr.  . . X ).MXa @ < < < < ",
"R.XXoXoXa.s.R.V g h h h h h h w d.<XA < < < < g d.d.V < a.d.d.a.s.a.A d.d.b < < XXb XXXXs.=XXXg oXXXs.A g h h h g h -X=Xg < < < g n V s.A XXR.a.A XXXXd.R.R.h A 3 mX'.mX'.mX'.'.'.'.mX'.mX'.HXr.O < < < < < < < < < < < < < < < < < < < < < < < < < < < < < < < < < < < < < < < < < < < < < < < < < < < < < w g @ v n g h h h h h h h h h h h h h h h v XXp.XXp.oXR.XXs.A p.b g h h h h h h h h h h h h h h h g V g < < < < < < < n A p.g < < < < < , , , < , w , < < , , , , , , , @ h v @ < < < e NX).O < < < ).P.@ < < < < < ",
"a.A A A b n V b h h h h h h h g n =Xv w < < < g g < v < f h < h < h < g f h < < V g V V n A A v a.p.n b h h h h g f XXR.f < < < g V g g g h b b g v h b b h g V 3 mX(.(.(.(.'.(.(.'.(.(.'.(.mXr.O < < < < < < < < < < < < < < < < < < < < < < < < < < < < < < < < < < < < < < < < < < < < < < < < < < < < < w g @ v n g h g g g g g g g g g g g g g g g V V b h h v g b b b v g g g g g g g g g g g g g g g h g V g < < < < < < V R.d.XXn @ < < < < 1 ; ;.;.: :.,.1 < 1 ; :.;.f ;.:.> h v @ < < < @ w < < < < < < < < < < < < < ",
"g g g g g g g g g g g g g g g g g f g < < < < < < < @ < < @ < @ < @ < < < @ < < g h g g g g g g g g g g g g g h g g g g f < < < g p.n V V V n n V V V n n V V p.< HXHXmXHXmXmXHXHXmXHXHXmXmXKXr.O < < < < < < < < < < < < < < < < < < < < < < < < < < < < < < < < < < < < < < < < < < < < < < < < < < < < < w g @ v A v b b b b b b b b b b b b b b b b v v v b b b b v v v b b b b b b b b b b b b b b b b b v A h @ < < < < < p.s.d.XXn @ < < < 1 : ; ;.e.; ;.:.1 < j ; ,.,.: e.;.> f V < @ < < < @ @ < < < < @ < < < < < < < ",
"< < < < < < < < < < < < < < < < < < < < < < < < < < < < < < < < < < < < < < < < < < < < < < < < < < < < < < < < < < < < < < < < < g h h h h h h h h h h h h h g < s P.P.P.P.P.P.P.P.P.P.P.P.r.e < < < < < < < < < < < < < < < < < < < < < < < < < < < < < < < < < < < < < < < < < < < < < < < < < < < < < < f g < g n b n n n n n n n n n n n n n n n n n n n n n n n n n n n n n n n n n n n n n n n n n n n b n f < < < < < < g b g b < < < < < < < f f ; j ; f < < < < f f f ; j < < v V h g g g g g g g g g g g g g g g g g ",
"@ @ @ @ @ @ @ @ @ @ @ @ @ @ @ @ @ @ @ @ @ @ @ @ @ @ @ @ @ @ @ @ @ @ @ @ @ @ @ @ @ @ @ @ @ @ @ @ @ @ @ @ @ @ @ @ @ @ @ @ @ @ @ @ @ o o o o o o o o o o o o o o o @ O # # # # # # # # # # # # # @ @ @ @ @ @ @ @ @ @ @ @ @ @ @ @ @ @ @ @ @ @ @ @ @ @ @ @ @ @ @ @ @ @ @ @ @ @ @ @ @ @ @ @ @ @ @ @ @ @ @ @ @ @ @ < < @ @ o o o o o o o o o o o o o o o o o o o o o o o o o o o o o o o o o o o o o o o o o o o o o o o @ @ @ @ @ @ @ @ o o o @ @ @ @ @ @ @ @ @ , o , @ @ @ @ @ @ @ @ , o @ @ o < v v v v v v v v v v v v v v v v v v ",
"v v v v v v v v v v v v v v v v v v v v v v v v v v v v v v v v v v v v v v v v v v v v v v v v v v v v v v v v v v v v v v v v v v v v v v v v v v v v v v v v v v v v v v v v v v v v v v v v v v v v v v v v v v v v v v v v v v v v v v v v v v v v v v v v v v v v v v v v v v v v v v v v v v v v v v v v v v v v v v v v v v v v v v v v v v v v v v v v v v v v v v v v v v v v v v v v v v v v v v v v v v v v v v v v v v v v v v v v v v v v v v v v v v v v v v v v v v v v v v h h h h h h h h h h h h h h h h h h ",
"R.A g h h h h h h h h h h h h h h h h h h h h h h h h h h h h h h h h h h h h h h h h h h h h h h h h h h h h h h h h h h h h h h h h h h h h h h h h h h h h h h h h h h h h h h h h h h h h h h h h h h h h h h h h h h h h h h h h h h h h h h h h h h h h h h h h h h h h h h h h h h h h h h h h h h h h h h h h h h h h h h h h h h h h h h h h h h h h h h h h h h h h h h h h h h h h h h h h h h h h h h h h h h h h h h h h h h h h h h h h h h h h h h h h h h h h h h h h h h h h h h h h h h h h h h h h h h h h h ",
"d.b o < @ @ @ @ @ @ @ @ @ @ @ @ @ @ @ @ @ @ @ @ @ @ @ @ @ @ @ @ @ @ @ @ @ @ @ @ @ @ @ @ @ @ @ @ @ @ @ @ @ @ @ @ @ @ @ @ @ @ @ @ @ @ @ @ @ @ @ @ @ @ @ @ @ @ @ @ @ @ @ @ @ @ @ @ @ @ @ @ @ @ @ @ @ @ @ @ @ @ @ @ @ @ @ @ @ @ @ @ @ @ @ @ @ @ @ @ @ @ @ @ @ @ @ @ @ @ @ @ @ @ @ @ @ @ @ @ @ @ @ @ @ @ @ @ @ @ @ @ @ @ @ @ @ @ @ @ @ @ @ @ @ @ @ @ @ @ @ @ @ @ @ @ @ @ @ @ @ @ @ @ @ @ @ @ @ @ @ @ @ @ @ @ @ @ @ @ @ @ @ @ @ @ @ @ @ @ @ @ @ @ @ @ @ @ @ @ @ @ @ @ @ @ @ @ @ @ @ @ @ @ @ @ @ @ @ @ @ @ @ @ @ @ @ @ @ @ @ @ @ @ @ @ ",
"d.b < < < < < < < < < < < < < < < < < < < < < < < < < < < < < < < < < < < < < < < < < < < < < < < < < < < < < < < < < < < < < < < < < < < < < < < < < < < < < < < < < < < < < < < < < < < < < < < < < < < < < < < < < < < < < < < < < < < < < < < < < < < < < < < < < < < < < < < < < < < < < < < < < < < < < < < < < < < < < < < < < < < < < < < < < < < < < < < < < < < < < < < < < < < < < < < < < < < < < < < < < < < < < < < < < < < < < < < < < < < < < < < < < < < < < < < < < < < < < < < < < < < < < < < < < < < < < < ",
"R.v < < < < < < < < < < < < < < < < < < < < < < < < < < < < < < < < < < < < < < < < < < < < < < < < < < < < < < < < < < < < < < < < < < < < < < < < < < < < < < < < < < < < < < < < < < < < < < < < < < < < < < < < < < < < < < < < < < < < < < < < < < < < < < < < < < < < < < < < < < < < < < < < < < < < < < < < < < < < < < < < < < < < < < < < < < < < < < < < < < < < < < < < < < < < < < < < < < < < < < < < < < < < < < < < < < < < < < < < < < < < < < < < < < < < < < < < < < < < < < < < < < < < < < < < < < < < < < ",
"p.< < < < < < < < < < < < < < < < < < < < < < < < < < < < < < < < < < < < < < < < < < < < < < < < < < < < < < < < < < < < < < < < < < < < < < < < < < < < < < < < < < < < < < < < < < < < < < < < < < < < < < < < < < < < < < < < < < < < < < < < < < < < < < < < < < < < < < < < < < < < < < < < < < < < < < < < < < < < < < < < < < < < < < < < < < < < < < < < < < < < < < < < < < < < < < < < < < < < < < < < < < < < < < < < < < < < < < < < < < < < < < < < < < < < < < < < < < < < < < < < < < < < < < < < < < < < < < < ",
"< < < < < < < < < < < < < < < < < < < < < < < < < < < < < < < < < < < < < < < < < < < < < < < < < < < < < < < < < < < < < < < < < < < < < < < < < < < < < < < < < < < < < < < < < < < < < < < < < < < < < < < < < < < < < < < < < < < < < < < < < < < < < < < < < < < < < < < < < < < < < < < < < < < < < < < < < < < < < < < < < < < < < < < < < < < < < < < < < < < < < < < < < < < < < < < < < < < < < < < < < < < < < < < < < < < < < < < < < < < < < < < < < < < < < < < < < < < < < < < < < < < < < < < < < < < < < < < < ",
"< < < < < < < < < < < < < < < < < < < < < < < < < < < < < < < < < < < < < < < < < < < < < < < < < < < < < < < < < < < < < < < < < < < < < < < < < < < < < < < < < < < < < < < < < < < < < < < < < < < < < < < < < < < < < < < < < < < < < < < < < < < < < < < < < < < < < < < < < < < < < < < < < < < < < < < < < < < < w g < < < < < < < < < < < < < < < < < < < < < < < < < < < < < < < < < < < < < < < < < < < < < < < < < < < < < < < < < < < < < < < < < < < < < < < < < < < < < < < < < < < < < < < < < < < < < < < < < < ",
"< < < < < < < < < < < < < < < < < < < < < < < < < < < < < < < < < < < < < < < < < < < < < < < < < < < < < < < < < < < < < < < < < < < < < < < < < < < < < < < < < < < < < < < < < < < < < < < < < < < < < < < < < < < < < < < < < < < < < < < < < < < < < < < < < < < < < < < < < < < < < < < < < < < < < < < < < < < < w g < < < < < < < < < < @ @ @ @ @ < < < < < < < < < < < < h n n n n n n n n n n n n n n n n n n n n n n n n n n n n n n n n n n n n n n n n n n n n n n n n n n n n n n n n n n n n n n b n n n b n n b ",
"< < < < < < < < < < < < < < < < < < < < < < < < < < < < < < < < < < < < < < < < < < < < < < < < < < < < < < < < < < < < < < < < < < < < < < < < < < < < < < < < < < < < < < < < < < < < < < < < < < < < < < < < < < < < < < < < < < < < < < < < < < < < < < < < < < < < < < < < < < < < < < < < < < < < < < < < < < < < w g < < < < < < < @ a.d.h h v v w R.g < < < < < < < < < h V g g g g g g g g g g g g g g g g g g g g g g g g g g g g g g g g g g g g g g g g g g g g g g g g g g g g g g g g g g g g g g v g g w N h g b ",
"@ < < < < < < < < < < < < < < < < < < < < < < < < < < < < < < < < < < < < < < < < < < < < < < < < < < < < < < < < < < < < < < < < < < < < < < < < < < < < < < < < < < < < < < < < < < < < < < < < < < < < < < < < < < < < < < < < < < < < < < < < < < < < < < < < < < < < < < < < < < < < < < < < < < < < < < < < < < < w g < < < < < < < < d.R.p.oXR.d.d.d.g @ < < < < < < < < n < < w < < < w < v w < < < w < g g < w < < w < h g < w < < w < h w < < < w < w v < w < < w < f h < w < < w < h g < w < < w < g I.e 3 + H.N < oX",
"@ < < < < < < < < < < < < < < < < < < < < < < < < < < < < < < < < < < < < < < < < < < < < < < < < < < < < < < < < < < < < < < < < < < < < < < < < < < < < < < < < < < < < < < < < < < < < < < < < < < < < < < < < < < < < < < < < < < < < < < < < < < < < < < < < < < < < < < < < < < < < < < < < < < < < < < < < < < @ < g < < < < < < < @ a.d.d.R.A b a.d.f < < < < < < < < < n < < < < < < < < h < < < < < < < f < < < < < @ g f @ < < < < < g < < < < < < < h < < < < < < < g < < < < < @ g w < < < < < < 3 P.e @ , G.m.V XX",
"g g g g g g g g g g g g g g g g g g g g g g g g g g g g g g g g g g g g g g g g g g g g g g g g g g g g g g g g g g g g g g g g g g g g g g g g g g g g g g g g g g g g g g g g g g g g g g g g g g g g g g g g g g g g g g g g g g g g g g g g g g g g g g g g g g g g g g g g g g g g g g g g g g g g g g g g g g g g g g < < < < < < < < < < < < < < < < < < < < < < < < < < n < < < < < < < < h < < < < < < w g < < < < < < g g < < < < < < g < < < < < < < h < < < < < < < g < < < < < < g f < < < < < < f Y.e < n OXOXp.XX",
"w w f w w w w w w w w w w w w w w w w w w w f w w w < w f w w w w w w w w < w w w w w w w w w w f w f w f w f f w f w w w w w w w w w w w f w f w f w w w w w f w w w w w w w w w w w w w w w w w w w w w w w w w < w w w w w w w w w w w w w w w w w w w w w w w w w w w w w w w w w < w < w w w w w w w w w w w w w w f g < < + + + + + + + + + + + + + + + + + + + + + < < < n < < < < < @ < < h < < < < @ < < g < < < < @ @ g g < < < < < @ g < < < < < @ < h < < < < < @ < g < < < < < @ g f < < < @ < @ 3 Y.e < g :XM.b XX",
"< < o < < < < < < < < < < < < < < < < < < < @ @ @ @ w @ @ < < @ @ @ @ @ < < < < < < < < < < < < o @ @ @ @ @ o o < o @ < < < < < < < < < @ @ @ @ @ o @ < @ < < o < @ < < < < < < < < < < < < < < < < < < < < @ < < < < < < < < < < < < < < < < < < < < < < < < < < < < < < < < < < < < < < < < < < < < < < < < < < < < < < g @ 5 ) ) ) ) ) ) ) ) ) ) ) ) ) ) ) ) ) ) ) l.N < < < n < < < < < b h g g < < < < b w v w < < < v n v h f < < @ g h b g < < < @ h b h g < < < f b h g g < < < g v f b < < < < v h b f P.e < X H.N + XX",
"a.n g < < < < < < < < < < < < < < < < < A < v g g h p.g g b d.< h g h < p.A o < < < < < < < a.d.v g h g h g b b w b g < < < < < < @ n R.v h g h f A A v < g V A < g < < < < < < < < < < < < < < < < < @ h b g s.A d.f < < < < < < < < < < < < < < < < < < < < < < < < < < < @ b v n a.A d.n < < < < < < < < < < < < < < w g X x.GXDXDXDXDXDXDXDXDXDXDXDXDXDXDXDXDXDXDXDXGX5 < < n < A s.g g s.XXb h < < < v d.s.a.< < < < h V b b w < < w a.p.A b < < < g d.d.p.g < < < w a.d.v g < < < w A d.A < < < < A h n g P.e < + H.N , oX",
"a.XXoXb @ < < < < < < < < < < < < < < < p.f s.d.s.p.oXp.A oXd.d.oXs.d.XXd.A o < < < < < < @ R.p.d.A oXa.R.XXR.d.a.d.a.< < < < < < o A oXs.oXp.XXR.A d.d.d.d.R.s.d.n @ < < < < < < < < < < < < < < < < @ b b A g h XX< < < < < < < < < < < < < < < < < < < < < < < < < < < < o V XXXXs.# XXb < < < < < < < < < < < < < < w g X G.SXF.fXfXfXdXdXdXgXdXfXgXfXfXdXdXfXfXfXfXDX5 , < n < p.V v g A a.A h < < < n a.p.A < < < g b v p.g f < < h A a.A v < < < v p.a.V g < < w v A a.n f < < w V A A A < < < g h V A 3 P.e < X H.N , XX",
"s.a.d.g < < < < < < < < < < < < < < < < d.A a.p.p.p.s.a.R.XXb A d.p.XXd.d.n @ < < < < < < < p.< n g d.p.XXs.b n p.XXV < < < < < < @ b A a.s.s.XXs.V a.n d.n p.b XXg < < < < < < < < < < < < < < < < < @ h d.n a.A b @ < < < < < < < < < < < < < < < < < < < < < < < < < < < @ b b V s.V A < < < < < < < < < < < < < < < w g X G.DXfXfXfXgXDXgXdXgXSXSXSXdXDXDXSXfXfXfXfXDX5 , < n < < < < < w < w h < < < < f @ f g < < < < < g g g < < < < < w g < < < < < w w h < < < < f < w g < < < w g @ g g < < < < f g f P.e < + H.N O `.",
"w < < < < < < < < < < < < < < < < < < < < w < < < < < < < < < < < < < < w < < < < < < < < < < < < < < < < < < < h V @ < < < < < < < < < < < < < < w < < < < < v A < < < < < < < < < < < < < < < < < < < < g < w < < < < < < < < < < < < < < < < < < < < < < < < < < < < < < < < < < < f < < < < < < < < < < < < < < < < w g X G.SXF.fXfXfXdXdXfXdXdXdXdXfXdXdXdXfXfXfXfXDX5 , < b v oXXXXXXXXXXXXXoXXXXXXXXXXXXXoXoXXXXXXXXXXXXXoXoXXXXXoXXXXXXXoXXXXXXXoXXXXXXXoXXXXXXXXXXXXXXXoXXXXXXXXXXXXXoXoXXXXXXXXXXXXXoX[.oXXXR.fXOXQ.KX",
"< < < < < < < < < < < < < < < < < < < < < @ < < < < < < < < < < < < < < < < < < < < < < < < < < < < < < < < < < < @ < < < < < < < < < < < < < < < < < < < < < < < < < < < < < < < < < < < < < < < < < < < @ < < < < < < < < < < < < < < < < < < < < < < < < < < < < < < < < < < < < < @ < < < < < < < < < < < < < < < < < g X G.GXdXgXgXgXgXdXgXgXgXgXgXgXgXgXdXgXgXgXgXGX5 , < n < < < < < < < < v < < < < < < f g < < < < < < g g < < < < < < g < < < < < < < h < < < < < < < g < < < < < < g f < < < < < < f P.e < + H.N HXNX",
"f w f w w w w w w w w w w w w w w w w w f f w w w w w f f f w w w w w w f w w w w w w w w w w w w w w f f f w w w f w w w w w w w w w w w w w w w f f f w w w w w w w w w w w w w w w w w w w w w w w w w f w w w w w w w w w w w w w w w w w w w w w w w w w w w w w w w w w w w w w f w w w w w w w w w w w w w w w w f g + ) gXdXdXdXdXdXdXdXdXdXdXdXdXdXdXdXdXdXdXdXfX< < < n < < < < < < < < h < < < < < < w f < < < < < < g f < < < < < < g < < < < < < < h < < < < < < < g < < < < < < g w < < < < < < 3 P.e < + J.JX'.m.",
"g g g g g g g g g g g g g g g g g g g g g g g g g g g g w g g g g g g g g g g g g g g g g g g g g g g g w g g g g g g g g g g g g g g g g g g g g g w g g g g g g g g g g g g g g g g g g g g g g g g g g g g g g g g g g g g g g g g g g g g g g g g g g g g g g g g g g g g g g g g g g g g g g g g g g g g g g g g f g g < + X X X X X X X X X X X X X X X X X X X X X < < < n < < < < < < < < h < < < < < < w g < < < < < < g g < < < < < < g < < < < < < < h < < < < < < < g < < < < < < g f < < < < < < f Y.e < o >XNXo XX",
"< < < < < < < < < < < < < < < < < < < < < < < < < < + + < < + < < < < < < < < < < < < < < < < < < < + + 3 + + < < < < < < < < < < < < < < < < , X < 3 + + < < < < < < < < < < < @ @ @ @ @ @ @ @ @ @ @ @ @ @ @ @ @ @ @ @ @ @ @ @ @ @ @ @ @ @ @ @ < < < @ @ @ @ @ @ @ @ @ @ @ @ @ @ @ @ @ @ @ @ @ @ @ @ @ @ @ @ @ @ @ @ < < g < w f f f f f f f f f f f f f f f f f f f f f < < < n < < < < < < < < h < < < < < < w g < < < < < < g g < < < < < < g < < < < < < < h < < < < < < < g < < < < < < g f < < < < < < 3 P.e O s ZX8 , oX",
"< < < < < < < < < < < < < < < < < < < < < < < < < + 0 F.k.F.j.< < < < < < < < < < < < < < < < < < < x.fXfXgXz.+ < < < < < < < < < < < < < < , < F.fXfXfXU + < < < < < < < < < < v v v v v v v v v v v v v v v v v v v v v v v v v v v v v v v f < < < h v v v v v v v v v v v v v v v v v v v v v v v v v v v v v v g < w g g g g g g g g g g g g g g g g g g g g g g g g g f < n < < < < < < < < h < < < < < < w g < < < < < < g g < < < < < < g < < < < < < < h < < < < < < < g < < < < < < g f < < < < < < 3 P.e v '.ZXN , oX",
"< < < < < < < < < < < < < < < < < < < < < < < < + U F.8 # 7 j.F.3 < < < < < < < < < < < < < < < + fXF.6 O 0 fXF.+ < < < < < < < < < < < < < < fXk.7 O U gXx.+ < < < < < < < < g p.b n n n n n n n n n n n n n V V V n n n n n n n n n n n b A b @ < < p.n n n n n n n n n n n n n b n V V n n n n n n n n n n n n A n @ w g @ < < < < < < < < < < < < < < < < < < < < < < < < < n < < < < < < < < h < < < < < < w g < < < < < < g g < < < < < < g < < < < < < < h < < < < < < < g < < < < < < g f < < < < < < f P.a ).(.ZXd.r XX",
"g g g g g g g g g g g g f g w < < < < < < < < , 5 F.7   < +   j.j.+ < < < < < < < < < < < < < + x.fX  . w   . F.0 + < < < < < < < < < < < + k.k.  o w   7 fX6 + < < < < < < < g V g g g g g g g g g g g g n V A s.V g g g g g g g g g g g g b v @ < < A g g g g g g g g g g g g V a.p.p.s.g g g g g g g g g g g g v n @ w g < < < < < < < < < < < < < < < @ < < < < < < < < < < n < < < < < < < < h < < < < < < w g < < < < < < g g < < < < < < g < < < < < < < h < < < < < < < g < < < < < < g f < < < < < < 3 Y.!.U.KXZX!.r XX",
"h h h h h h h h h h g g XXa.f < < < < < < < < + U k.  g a.s., O F.< < < < < < < < < < < < < < + fXU   A V 3   U j.+ < < < < < < < < < < < < gX7 X A p.h   F.x.X < < < < < < < g A g h h h h h h h h h h g A d.A d.n h h h h h h h h h h h g n v @ < < A h h h h h h h h h h h g a.XXd.A s.g h h h h h h h h h h h b n @ w g < < @ g d.v w < g < g < w < < A g v h b h < < < < < n < < < < < < < < h < < < < < < < f @ < < < < @ g f @ < < < < < g < < < < < < < h < < < < < < < g < < < < < @ g w @ < < < < < f !.a P.'.<Xa., XX",
"h h h h h h h h h h g h -X+Xg < < < < < < < < + l.j.  v v p.f # k.5 , < < < < < < < < < < < < @ fX8 X A n A X q k.+ < < < < < < < < < < < 5 fXO @ A b g   U j.+ < < < < < < < g V g g g g g g g g g g g g v V V b g g g g g g g g g g g g g b v @ < < A g g g g g g g g g g g g v h b V g g g g g g g g g g g g g v n @ w g < < @ b oXV a.XXd.a.s.d.XXV g d.d.d.a.d.A @ < < < < n < g g g g g g g b g g g g g g h h g g g g g g v v g g g g g g v g g g g g g g b g g g g g g g v g g g g g g v h g g g g g g b !.h v HXZXN e oX",
"h h h h h h h h h h g v oXXXg < < < < < < < < + q k.  # w v   7 F., < < < < < < < < < < < < < X fXj.  f b f   j.j.+ < < < < < < < < < < < + fXq   g b <   k.q + < < < < < < < g p.b n n n n n n n n n n n b b b b n n n n n n n n n n n n b A b @ < < p.n n n n n n n n n n n n b b b b n n n n n n n n n n n n b A n @ w g < < @ v d.a.XXXXb d.a.R.XXv g d.V A XXV A @ < < < < n < < < < < < < < v < < < < < < f g < < < < < < g g < < < < < < g < < < < < < < v < < < < < < w g < < < < < < h g < < < < < b b P.e O HX>X8 , oX",
"h h h h h h h h h h g g -XoXw < < < < < < < < < , k.j.  . . O F.U + < < < < < < < < < < < < < + 8 gXq   $   q F.3 < < < < < < < < < < < < + ) gX7   $   j.k.< < < < < < < < < < v v v v v v v v v v v v v v v v v v v v v v v v v v v v v v b f < < < v v v v v v v v v v v v v v v v v v v v v v v v v v v v v v b g < w g < < < < < g g w < < R.V < w < n < < h n v @ < < < < n < < < < < < < < h < < < < < < w f < < < < < < g f < < < < < < g < < < < < < < h < < < < < < < g < < < < < < g w < < < @ h v 3 Y.e < HX>X8 , oX",
"h h h h h h h h h h g g g h g < < < < < < < < < , 6 k.< @ + q j.+ < < < < < < < < < < < < < < < + x.k.+ < + j.0 + < < < < < < < < < < < < < + k.l.+ < < j.6 , < < < < < < < < < @ @ @ @ @ < < @ @ @ @ @ @ @ @ @ @ @ @ @ @ @ @ @ @ @ @ @ @ @ @ < < < < @ @ @ @ @ < < < @ @ @ @ @ @ @ @ @ @ @ @ @ @ @ @ @ @ @ @ @ @ @ < < w g < < < < < < < < < < g < < < < < < < < < < < < < < < n < < < < < < < < h < < < < < < w g < < < < < < g g < < < < < < g < < < < < < < h < < < < < < < g < < < < < < g f < < < g b < f P.w e HX:XN , oX",
"< < < < < < < < < < < < < < < < < < < < < < < < < @ + < < < @ + < < < < < < < < < < < < < < < < < + + < < < + @ < < < < < < < < < < < < < < < + @ < < < + < < < < < < < < < < < < < < < < @ + < < < < < < < < < < < < < < < < < < < < < < < < < < < < < < < < < @ + , < < < < < < < < < < < < < < < < < < < < < < < < < w g < < < , X < < X < < < < < @ < @ @ @ < @ @ @ < < < < n < < < < < < < < h < < < < < < w g < < < < < < g g < < < < < < g < < < < < < < h < < < < < < < g < < < < < < g w < < f b < < f P.< u HXH.N , oX",
"< < < < < < < < < < < < < < < < < < < < < < < < < f < < f < f < f < < < < < < < < < < < < < < < < < g < < < < < < < < < < < < < < < < < < < < < < f < < g < < < < < < < < < < < < < < @ < b S g + < < < < < < < < < < < < < < < < < < < < < < < < < < < < < , < b S h @ < < < < < < < < < < w < < < < < < < < < < < < < w g < < + 6 F.fXfXF.3 + < < @ A v p.n p.n p.n p.< < < < n < < < < < < < < h < < < < < < w g < < < < < < g g < < < < < < g < < < < < < < h < < < < < < < g < < < < < < g f @ w n < < < 3 P.< a HXH.N , oX",
"h h h h h h h h h h g g g g f < < < < < < < < < < d.V g d.s.s.s.s.< < < < < < < < < < < < < < < @ b R.g A d.d.p.< < < < < < < < < < < < < < @ a.A d.b v R.h @ < < < < < < < < < < < @ b OX@XOX:Xn.< < < < < < < < < < A v V V V V V A n < < < < < < < < < @ h OX:XoX:X{.f < < < < < < < < < b A V V V V V V V < < < < < w g < + 0 gXx.7 8 k.gX6 + < @ A s.n oXA XXA XXA h @ < < n < < < < < < < < h < < < < < < w g < < < < < < g g < < < < < < g < < < < < < < h < < < < < < < g < < < < < < g w < n < < < < 3 P.< r.mXJ.N , oX",
"h h h h h h h h h h g g oXR.w < < < < < < < < @ h p.A V A oXA XXA v @ < < < < < < < < < < < < < @ A p.V n d.d.A < < < < < < < < < < < < < < @ b s.A A V p.n @ < < < < < < < < < < , h :Xh   . . OXOX+ < < < < < < < < b n b a.b p.V A b < < < < < < < < < < :XS . . . {.@X< < < < < < < < < g A v s.v a.b p.b f < < < < w g < < fXU   + +   j.fX+ < @ v A a.R.s.R.s.d.s.f < < < n < < < < < < < < h < < < < < < w g < < < < < < g g < < < < < < g < < < < < < < h < < < < < < < g < < < < < < g w b g < < < < 3 P.@ P.mXJ.N , oX",
"h h h h h h h h h h g v -XoXg < < < < < < < < < < a.p.b s.A a.A a.< < < < < < < < < < < < < < < @ v d.n A a.a.A < < < < < < < < < < < < < < @ v b a.A n d.g < < < < < < < < < < < + OXZ   g n @ . @Xb + < < < < < < < h h V b n b n n b < < < < < < < < o {.v.  < n <   OXS o < < < < < < < p.v V b V b n b n < < < < < w g + q fX  < p.s.f . fX6 + < < < h w h w h w h < < < < n < < < < < < < < h < < < < < < w f < < < < < < g g < < < < < < g < < < < < < < h < < < < < < < g < < < < < < g V g < < < < < 3 I.O U.'.J.N , oX",
"h h h h h h h h h h g v =XoXg < < < < < < < < < < < < < < < < < < < < < < < < < < < < < < < < < < < < < @ o < < < < < < < < < < < < < < < < < < < < < < < < < < < < < < < < < < < < @Xo o A p.A . v.v.o < < < < < < < < < < < < < < < < < < < < < < < < , OXf X A p.a.. Z XXo < < < < < < < < < < < < < < < < < < < < < w g + l.F.  h A v g . fXq + < < < o @ @ @ @ @ @ < < < < n w h h h h h h h n h h h h h h v b h h h h h g b b h h h h h h b h h h h h h h n h h h h h h v b h h h h h g V n g h h h h h v !.j ).'.H.) g oX",
"h h h h h h h h h h g f =XXXw < < < < < < < < < < < < @ @ < @ < < < < < < < < < < < < < < < < < < < @ f h v < < < < < < < < < < < < < < < < < < @ @ < @ < < < < < < < < < < < < < < @XO o A v <   n.v.o < < < < < < < < < < < < @ < < < < < < < < < < < @ OXj . V h b . S oXo < < < < < < < < < < < < @ < < < < < < < < w g + 0 gX. X b h   # gX5 , < A n b p.a.A a.A a.< < < < n < < < < < < < < h < < < < < < w g < < < < < < g g < < < < < < g < < < < < < < h < < < < < < < g < < < < < h V < < < < < < < 3 I.O (.(.J.N , oX",
"h h h h h h h h h h g g g g f < < < < < < < < < < @ v a.p.v A < < < < < < < < < < < < < < < < < < < g R.d.XXV @ < < < < < < < < < < < < < < < g a.p.v A f < < < < < < < < < < < < + OXS   < g . . OXb @ < < < < < < < < < n v n n < < < < < < < < < < < o {.n.  @ < .   OXS o < < < < < < < < @ b v n n g < < < < < < < w g < + F.F.. . $ . k.j.+ < < g a.R.oXn oXA XXA v @ < < n < < < < < < < < h < < < < < < w g < < < < < < g g < < < < < < g < < < < < < < h < < < < < < < g < < < @ g b g f < < < < < < 3 I.O '.(.J.N , oX",
"< < < < < < < < < < < < < < < < < < < < < < < < < @ A d.s.p.d.g < < < < < < < < < < < < < < < < < @ p.s.d.XXA @ < < < < < < < < < < < < < < o n d.s.p.d.b @ < < < < < < < < < < < < g >Xb . . X v.S @ < < < < < < < < < < A A V n < < < < < < < < < < < < < :XS . $ . {.OX@ < < < < < < < < < @ n p.V V < < < < < < < < w g < , 5 fX6 o o 6 k.< < < < {.A s.R.s.s.s.s.d.< < < < n < < < < < < < < h < < < < < < w g < < < < < < g g < < < < < < g < < < < < < < h < < < < < < < g < < < g b < g f < < < < < < 3 I.O '.U.J.N , oX",
"< < < < < < < < < < < < < < < < < < < < < < < < < < h v v v p.g < < < < < < < < < < < < < < < < < < v a.n a.v < < < < < < < < < < < < < < < < g v v v A v @ < < < < < < < < < < < < @ b b < < < b < < < < < < < < < < < < h < n n < < < < < < < < < < < < @ h V < < < S f < < < < < < < < < < < g < b V < < < < < < < < w g < < , + < < < < @ < < < < g f @ < f < f < f < < < < n < < < < < < < < h < < < < < < w g < < < < < < g g < < < < < < g < < < < < < < h < < < < < < < g < < w n < @ g w < < < < < < 3 I.@ mXU.J.N , oX",
"< < < < < < < < < < < < < < < < < < < < < < < < < < < < < < < < < < < < < < < < < < < < < < < < < < < @ @ < < < < < < < < < < < < < < < < < < < < < < < < < < < < < < < < < < < < < < @ @ < < < @ < < < < < < < < < < < < < < @ < < < < < < < < < < < < < < , @ < < < + < < < < < < < < < < < < < < < < < < < < < < < < w g < < < < < < < < < < < < < < < < < < < < < < < < < < n < < < < < < < < h < < < < < < w g < < < < < < g g < < < < < < g < < < < < < < h < < < < < < < g < < n < < < g f < < < < < < f P.< mXr.J.N , oX",
"< < < < < < < < < < < < < < < < < < < < < < < < < < < < < < < < < < < < < < < < < < < < < < < < < < < < < < < < < < < < < < < < < < < < < < < < < < < < < < < < < < < < < < < < < < < < < < < < < < < < < < < < < < < < < < < < < < < < < < < < < < < < < < < < < < < < < < < < < < < < < < < < < < < < < < < < < < < < < < < < < < < < < < < < < < < < < < < < < < < < < < < < n < < < < < < < < h < < < < < < w g < < < < < < g g < < < < < < g < < < < < < < h < < < < < < < g < n g < < < g f < < < < < < f Y.w HXs J.N , oX",
"< < < < < < < < < < < < < < < < < < < < < < < < < < < < < < < < < < < < < < < < < < < < < < < < < < < < < < < < < < < < < < < < < < < < < < < < < < < < < < < < < < < < < < < < < < < < < < < < < < < < < < < < < < < < < < < < < < < < < < < < < < < < < < < < < < < < < < < < < < < < < < < < < < < < < < < < < < < < < < < < < < < < < < < < < < < < < < < < < < < < < < < < n < < < < < < < < h < < < < < < w f < < < < < < g f < < < < < < g < < < < < < < h < < < < < < < g b g @ < < < g w < < < < < < 3 P.e HXt J.N , XX",
"< < < < < < < < < < < < < < < < < < < < < < < < < < < < < < < < < < < < < < < < < < < < < < < < < < < < < < < < < < < < < < < < < < < < < < < < < < < < < < < < < < < < < < < < < < < < < < < < < < < < < < < < < < < < < < < < < < < < < < < < < < < < < < < < < < < < < < < < < < < < < < < < < < < < < < < < < < < < < < < < < < < < < < < < < < < < < < < < < < < < < < < < n < < < < < < < < v < < < < < < f g < < < < < < g g < < < < < < g < < < < < < < v < < < < < < < V v < < < < < h g < < < < < < f Y.u HXr H.N , oX",
"< < < < < < < < < < < < < < < < < < < < < < < < < < < < < < < < < < < < < < < < < < < < < < < < < < < < < < < < < < < < < < < < < < < < < < < < < < < < < < < < < < < < < < < < < < < < < < < < < < < < < < < < < < < < < < < < < < < < < < < < < < < < < < < < < < < < < < < < < < < < < < < < < < < < < < < < < < < < < < < < < < < < < < < < < < < < < < < < < < < < < < < < n < g g g g g g g b g g g g g g h h g g g g g g v v g g g g g g v g g g g g g g b g g g g g f n n f g g g g g v h g g g g g g h Y.a HXr H.B e oX",
"< < < < < < < < < < < < < < < < < < < < < < < < < < < < < < < < < < < < < < < < < < < < < < < < < < < < < < < < < < < < < < < < < < < < < < < < < < < < < < < < < < < < < < < < < < < < < < < < < < < < < < < < < < < < < < < < < < < < < < < < < < < < < < < < < < < < < < < < < < < < < < < < < < < < < < < < < < < < < < < < < < < < < < < < < < < < < < < < < < < < < < < < n < < < < < < < < h < < < < < < < f @ < < < < @ g f @ < < < < < g < < < < < < < h < < < < @ g b g < < < < < @ g w @ < < < < < f i.s HXX H.N + XX",
"< < < < < < < < < < < < < < < < < < < < < < < < < < < < < < < < < < < < < < < < < < < < < < < < < < < < < < < < < < < < < < < < < < < < < < < < < < < < < < < < < < < < < < < < < < < < < < < < < < < < < < < < < < < < < < < < < < < < < < < < < < < < < < < < < < < < < < < < < < < < < < < < < < < < < < < < < < < < < < < < < < < < < < < < < < < < < < < < < < < < < < < < n < < < < < < < < h < < < < < < w g < < < < < < g g < < < < < < g < < < < < < < h < < < < g b < g < < < < < < g f < < < < < < f i.P.HXo H.N , oX",
"g g g g g g g g g g g g g g g g g g g g g g g g g g g g g g g g g g g g g g g g g g g g g g g g g g g g g g g g g g g g g g g g g g g g g g g g g g g g g g g g g g g g g g g g g g g g g g g g g g g g g g g g g g g g g g g g g g g g g g g g g g g g g g g g g g g g g g g g g g g g g g g g g g g g g g g g g g g g g g g g g g g g g g g g g g g g g g g g g g g g g g g < n < < < < < < < < h < < < < < < w g < < < < < < g g < < < < < < g < < < < < < < h < < < w n < < g < < < < < < g f < < < < < < f i.U.mX# H.N , oX",
"< < < < < < < < < < < < < < < < < < < < < < < < < < < < < < < < < < < < < < < < < < < < < < < < < < < < < < < < < < < < < < < < < < < < < < < < < < < < < < < < < < < < < < < < < < < < < < < < < < < < < < < < < < < < < < < < < < < < < < < < < < < < < < < < < < < < < < < < < < < < < < @ < < < < < < < < < < < < < < < < < < < < < < < < < < < < < < < < < < < < < < < < < n < < < < < < < < h < < < < < < w g < < < < < < g g < < < < < < g < < < < < < < h < < < n w < < g < < < < < < g f < < < < < < f i.(.mX$ H.N , oX",
"< < < < < < < < < < < < < < < < < < < < < < < < < < < < < < < < < < < < < < < < < < < < < < < < < < < < < < < < < < < < < < < < < < < < < < < < < < < < < < < < < < < < < < < < < < < < < < < < < < < < < < h g @ @ @ @ < @ @ < < < < < < < < < < < < < < < < < < < < < < < < @ b g V < g g V g g g g g f g g g w < < < < < < < < < < < < < < < < < < < < < < < < < < < < < < < n < < < < < < < < h < < < < < < w g < < < < < < g g < < < < < < g < < < < < < < h < < n f < < < g < < < < < < g f < < < < < < f i.(.'.$ H.N , oX",
"< < < < < < < < < < < < < < < < < < < < < < < < < < < < < < < < < < < < < < < < < < < < < < < < < < < < < < < < < < < < < < < < < < < < < < < < < < < < < < < < < < < < < < < < < < < < < < < < < < < < @ v a.b h v A n h V V < < < < < < < < < < < < < < < < < < < < < < < < o A R.XXa.d.d.R.d.XXXXA XXXXs.a.R.v < < < < < < < < < < < < < < < < < < < < < < < < < < < < < < < n < < < < < < < < h < < < < < < w g < < < < < < g g < < < < < < g < < < < < < < h < b g < < < < g < < < < < < g f < < < < < < f i.'.'.$ H.N , oX",
"< < < < < < < < < < < < < < < < < < < < @ @ < @ < < < < < < < < @ < @ < < < < < < < < @ < < < < < < < < < < < @ @ < < < @ < < < < < < < < < < < < < < < < < < < < < < < < < < < < < < < < < < < < < < < o A b g a.XXp.A XXXXXX< < < < < < < < < < < < < < < < < < < < < < < < @ V n V XXb s.s.s.d.p.h XXn R.s.p.A @ < < < < < < < < < < < < < < < < < < @ < < < < < < < < < < < n < < < < < < < < h < < < < < < w f < < < < < < g f < < < < < < g < < < < < < < g v h @ < < < < g < < < < < < g w < < < < < < f i.'.(.$ H.N , oX",
"V v f < < < < < < < < a.A w w g s.< < w n n f g < g g < < < < < s.g s.< b n < g < < w h < < < < < < < < @ v V v A h g < b A < < < < < < < < @ V d.g w A g w g f g w g < < < < < < < < < < < < < < < < < < < a.b p.A g g V b V < < < < < < < < < < < < < < < < < < < < < < < < < < < g p.< f < < f < < w f f < g < < < < < < < < < < < < < < < < < b g b f v b b A @ < < < < < < n < < < < < < < < v < < < < < < f g < < < < < < g g < < < < < < g < < < < < < < V b < < < < < < g < < < < < < g g < < < < < < g i.mXU.# H.N , oX",
"s.d.A @ < < < < < < < XXd.R.XXs.{.A A s.p.d.a.a.s.R.s.< < < < < XXs.XXA XXXXp.oXR.b d.d.n @ < < < < < < o d.XXs.{.V d.XXn oXn @ < < < < < < o s.XXs.XXd.XXR.p.XXs.d.XXw < < < < < < < < < < < < < < < < < < @ < @ @ < < @ < < < < < < < < < < < < < < < < < < < < < < < < < < < < < < < < < < < < < < < < < @ o < < < < < < < < < < < < < < < < @ d.R.XXp.s.s.d.p.o < < < < < < n w h h h h h h h n h h h h h g v v g h h h h g b b g h h h h h b h h h h h g b A g h h h h h h b g h h h h g b v g h h h h h v Y.HXI.< H.) g oX",
"a.A s.< < < < < < < < a.p.R.a.s.s.s.R.a.V a.a.a.s.V A < < < < < s.R.a.XXXXR.s.d.a.d.d.d.b @ < < < < < < < a.p.d.A s.XXXXV XXA @ < < < < < < @ A a.d.d.a.R.a.XXd.a.XXa.< < < < < < < < < < < < < < < < < < < < < < < < < < < < < < < < < @ < < < < < < < < < < < < < < < < < < < < < < @ < < < < < < < < < < b n < < < < @ @ < < < < < < < < < < < p.b d.a.a.a.d.A @ < < < < < < n < < < < < < < < h < < < < < < < f @ < < < < @ g f @ < < < < < g < < < < @ f b h < < < < < < < g < < < < < @ g w @ < < < < < 3 P.HXs X H.N + oX",
"< g w < < < < < < < < < < w w f w w f < g g < g < < < < < < < < < < < f < < < f < w V n @ < < < < < < < < < @ f f g f < g < < < < < < < < < < < < < g < < f w w g < g < < < < < < < @ A d.s.g w f f w g s.g < < < < < < < < < < a.a.g < g < w < < < < < < < < < @ b d.s.v < g w w f a.v < < < < < < < < < @ b R.A V a.A A a.< < < < < < < < < < < < < < g < < g < < < < < < < < n < < < < < < < < h < < < < < < w g < < < < < < g g < < < < < < g < < < < w n < h < < < < < < < g < < < < < < g f < < < < < < 3 I.KXu o H.N , oX",
"< < < < < < < < < < < < < < < < < < < < < < < < < < < < < < < < < < < < < < < < < < < < < < < < < < < < < < < < < < < < < < < < < < < < < < < < < < < < < < < < < < < < < < < < < < @ v A s.d.d.A XXXXa.R.d.< < < < < < < < < @ n p.a.s.R.s.XXs.@ < < < < < < < < f p.a.d.d.A XXXXs.d.R.g @ < < < < < < < @ a.V a.d.s.a.oXd.< < < < < < < < < < < < < < < < < < < < < < < < < < n < < < < < < < < h < < < < < < w g < < < < < < g g < < < < < < g < < < < n < < h < < < < < < < g < < < < < < g f < < < < < < 3 ).HXe o H.N , oX",
"< < < < < < < < < < < < < < < < < < < < < < < < < < < < < < < < < < < < < < < < < < < < < < < < < < < < < < < < < < < < < < < < < < < < < < < < < < < < < < < < < < < < < < < < < < @ h A n A s.h XXn R.p.A g < < < < < < < < f XXA a.s.n p.XXV < < < < < < < < < f A V n d.g XXA d.d.V v @ < < < < < < < < p.n n b g g b b < < < < < < < < < < < < < < < < < < < < < < < < < < n < < < < < < < < h < < < < < < w g < < < < < < g g < < < < < < g < < < n f < < h < < < < < < < g < < < < < < g f < < < < < < * ).HX< + H.N , oX",
"< < < < < < < < < < < < < < < < < < < < < < < < < < < < < < < < < < < < < < < < < < < < < < < < < < < < < < < < < < < < < < < < < < < < < < < < < < < < < < < < < < < < < < < < < < < < < < < w < f g g < < < < < < < < < < < < h g g < < < w f < < < < < < < < < < < < < w < w g g < < < < < < < < < < < < @ @ @ @ < < @ < < < < < < < < < < < < < < < < < < < < < < < < < < < n < < < < < < < < h < < < < < < w g < < < < < < g g < < < < < < g < < b g < < < h < < < < < < < g < < < < < < g f < < < < < < * '.mXO + H.N , oX",
"< < < < < < < < < < < < < < < < < < < < < < < < < < < < < < < < < < < < < < < < < < < < < < < < < < < < < < < < < < < < < < < < < < < < < < < < < < < < < < < < < < < < < < < < < < < < < < < < < < @ @ < < < < < < < < < < < < @ @ @ < < < < < < < < < < < < < < < < < < < < < @ @ < < < < < < < < < < < < < < < < < < < < < < < < < < < < < < < < < < < < < < < < < < < < < < n < < < < < < < < h < < < < < < w g < < < < < < g g < < < < < < g < v h @ < < < h < < < < < < < g < < < < < < g f < < < < < < * '.'.O + H.N , oX",
"g g g g g g g g g g g g g g g g g g g g g g g g g g g g g g g g g g g g g g g g g g g g g g g g g g g g g g g g g g g g g g g g g g g g g g g g g g g g g g g g g g g g g g g g g g g g g g g g g h g g g g g g g g g g g g g g g g g h h g g g g g g g g g g g g g g g g g g g g g g g g g g g g g g g g g g g g g g g g g g g g g g g g g g g g g g g g g g g g g g g g g g < n < < < < < < < < h < < < < < < < f < < < < < @ g f @ < < < < < g h v @ < < < < h < < < < < < < g < < < < < @ g w < < < < < O r.KXu @ X H.N + XX",
"< < < < < < < < < < < < < < < < < < + + , < < < < < < < < < < < < < < < < + + + < < < < < < < < < < < < < < < < , + + , < < < < < < < < < < < < < < < < < 1 < < < < < < < < < < < < < < < < < + + + < < < < < < < < < < < < < < < < + + + , < < < < < < < < < < < < < < < < < < < < < < < < < < < < < < < < < < < , , < < < < < < < < < < < < < < < < , + + , < < < < < < < < < n < < w w w w w w v w w w w w < g g < w w w w < h g < w w w w < b V < w w w < w v < w w w w < f h < w w w w < h g < w < w 3 u KX'.3 f , H.N w oX",
"< < @ @ @ @ @ < < < < < < < < < + 6 U U 8 + < < < < < < < < < < < < < + < l.z.q < + < < < < < < < < < < < < < + N z.} j + < < < < < < < < < < < < < @ r $.$.d < < < < < < < < < < < < < < , , ) x.} 3 + < < < < < < < < < < < < , + U x.z.6 + < < < < < < < < < < < < < < f j j 3 , < < < < < < < < < < < < < @ g B B g @ < < < < < < < < < < < < < + 6 U U 8 + < < < < < < < < n < g g g g g g g b g g g g g f g h f g g g g f v h f g g g w v A f g g g g g g b f g g g g g g v f g g g g f v h f g g 3 h KXI.i.v f r H.B e oX",
"g < n b b b n h < < < < < < < @ l.F.j.j.F.j.< < < < < < < < < < < < + q fXfXj.k.k.8 + < < < < < < < < < < < < J.sXJ.H.sXx.+ < < < < < < < < < < < < s ~.$.$.~.$.r < < < < < < < < < < < , 5 H.sXx.H.sX) + < < < < < < < < < < < 3 F.fXk.fXfXz.+ < < < < < < < < < < < < k Z k B S j < < < < < < < < < < < < < S m.S ' m.S < < < < < < < < < < < < , j.F.j.j.F.j.< < < < < < < < n < < < < < < < < h < < < < < @ < f @ < < < < @ g f @ < < @ < b g < < < < < < < h < < < < < < < g @ < < < < @ g w @ < < O HX(.* P.e < X H.N + XX",
"n g p.b b b V V @ < < < < < + U F.#     . k.j.+ < < < < < < < < < < 3 fXU       U F.3 < < < < < < < < < < + J.H..     O fX} + < < < < < < < < < < d ~.r   $ $ $.~.< < < < < < < < < < < , H.x.      4 dXM + < < < < < < < < < + F.F.      7 gXU + < < < < < < < < < < k B .     o ' j < < < < < < < < < < @ S M..     # {.B @ < < < < < < < < < + U F.#     . k.j.+ < < < < < < n < < < < < < < < h < < < < < < w g < < < < < < g g < < < < n < g < < < < < < < h < < < < < < < g < < < < < < g f < < O mX'.# f P.e < + H.N , XX",
"b g n n {.a.h n < < < < < < < F.7 . b A o . F.6 , < < < < < < < < X F.k.  3 < g   j.j.+ < < < < < < < < + M sX. # n n   7 H.< < < < < < < < < < < ~.d   h A w   ~.s O < < < < < < < < + } H.  < A b   ) H.+ < < < < < < < < + ) fX  o V V   q fX+ < < < < < < < < < f S . . g g . @ S < < < < < < < < < < f {.# . f g . o {.< < < < < < < < < < 3 F.O . b A o # F.5 , < < < < < n < < < < < < < < h < < < < < < w g < < < < < < g g < < < n g < g < < < < < < < h < < < < < < < g < < < < < < g w < # '.HXO < f Y.e < + H.N , oX",
"b g V b oXs.v n @ < < < < @ 6 k.. @ b a.n   j.U + < < < < < < < < + fXq . V b a.o 8 k.+ < < < < < < < < + } J.  h A v @ . x.6 , < < < < < < < < w ~.X @ A n g   $.$.O < < < < < < < < + J.}   n A a.< * sX< < < < < < < < < X k.k.  b A A w # fX5 , < < < < < < < , j k   < h h @ . B 3 < < < < < < < < @ v M.  < h h < . M.h , < < < < < < < + 0 k.. f A a.n . k.q + < < < < < n < < < < < < < < h < < < < < < w g < < < < < < g g < < b g < < g < < < < < < < h < < < < < < < g < < < < < < g e # (.HX< < < 3 P.e < + H.N , oX",
"b g V g v h v n < < < < < @ 6 fX. X v A h   k.q + < < < < < < < < + fXU   b A A . q k.+ < < < < < < < < + ) H.  f V A < $ J.5 , < < < < < < < < < ~.> # V V h . d d < < < < < < < < < X J.J.  v b g X 4 sX< < < < < < < < < X x.F.  h V g . 7 fX3 < < < < < < < < , j B   @ g < . $ S < < < < < < < < < , h n.  o g < . . m.g < < < < < < < < @ 6 F.. < g V g   k.0 + < < < < < n < < < < < < < < h < < < < < < w g < < < < < < g g @ v h @ < < g < < < < < < < h < < < < < < < g < < < < < < h O U.KXe @ < < 3 P.e < + H.N , oX",
"n g a.V V V A V @ < < < < < @ fXU   < <   7 F.3 < < < < < < < < < + x.fX  # < # . k.U + < < < < < < < < < 3 sX4   < <   0 J., < < < < < < < < < O $.$.  o < $ X $.r < < < < < < < < < + N sX# . < #   J.J.+ < < < < < < < < + 0 fXO . < @   j.F.+ < < < < < < < < < < Z O   o #   3 k < < < < < < < < < < < m.3   # o   f M.< < < < < < < < < < < k.0   # <   7 F.< < < < < < < n < < < < < < < < h < < < < < < w g < < < < < < g w h v < < < < g < < < < < < < h < < < < < < < g < < < < < < 3 r.KXa O < < < f Y.e < + H.N , oX",
"< < g g g g g < < < < < < < + 0 SX8 . . @ F.U + < < < < < < < < < < + fXF.. $ . j.k.@ < < < < < < < < < < + } dX@ . . 4 H.6 , < < < < < < < < < < w ~.s $ . # $.$.< < < < < < < < < < < + J.sXX $ . N sX3 < < < < < < < < < < + k.gXX $ . q F.3 < < < < < < < < < < , j ' o . . < k < < < < < < < < < < < @ b OX< . . < ' f < < < < < < < < < < + 0 fX7 . . < F.q + < < < < < < n < < < < < < < < g < < < < < @ < w @ < < < < @ w v v @ < < < < g < < < < < < < g @ < < < < < < g @ < < < < O a KXr.# < < < , 3 P.e < X H.N + XX",
"b b b b b b b g < < < < < < < + 0 6 < < 3 0 + < < < < < < < < < < < , 5 q < < < 0 3 < < < < < < < < < < < < , N 3 < < 5 6 , < < < < < < < < < < < < r r < < < r < < < < < < < < < < < < < < N < < < 6 3 , < < < < < < < < < < < < q < < < 6 6 @ < < < < < < < < < < < < f < < < < < < < < < < < < < < < < < < h < < < < f < < < < < < < < < < < < + 8 5 < < 3 0 + < < < < < < < n < g g g g g g g b g g g g g g h v g g g g g g v A g g g g g g v g g g g g g g b g g g g g g g v g g g g f g KX).* h g g g g h !.v g e H.B e oX",
"V V n b b b V V @ < < < < < < < + , < < < + < < < < < < < < < < < < < < + < < < , < < < < < < < < < < < < < < + < < < < < < < < < < < < < < < < < < < < < < < < < < < < < < < < < < < < < < + < < < , < < < < < < < < < < < < < < + < < < , < < < < < < < < < < < < < < < < < < < < < < < < < < < < < < < < < < < < < < < < < < < < < < < < < < < < , < < < < , < < < < < < < < n < f f f f f f f v f f f f f w g h w f f f w g A g w f f f f f v f f f f f f f v w f f f f f g h w f g f 3 HX'.* e f f f f w g I.g f , H.B w oX",
"s.d.b g h g v n < < < < < < < w < < < < < < @ < < < < < < < < < < < < < < < < < < < < < < < < < < < < < < < < < < < < < @ @ < @ < < < < < < < < < < < < < < @ @ < < < < < < < < < < < < < < < < < < < @ < < < < < < < < < < < < < < < < < < < < < < < < < < < < < < < < < < < < < < < < < < < < < < < < < < < < < < < < < < < < < < < < < < < < < < < < < < @ @ < @ < < < < < < n < < < < < < < < h < < < < < @ < f @ < < < < b h w @ < < < < < g < < < < < < < h < < < < < < < g @ < < # mX'.* w @ < < < < < 3 P.e < X H.N + XX",
"{.s.p.g h h b n @ < < < o g s.A a.f R.g a.f w s.a.d.g < < < < < w d.v h d.p.d.< g d.a.d.g < < < < < < < A a.d.h v R.w g b v g v < < < < < < < f s.b d.p.a.< v b g g h < < < < < < < < o s.g p.A V A o b d.s.s.< < < < < < @ < d.< b d.p.a.< h d.s.d.< < < < < < @ V g n g g V n V < g A V V < < < < < < < V g f A n V < < V V A f < < < < < < < s.V f R.h w b v f v < < < < < < n < < < < < < < < h < < < < < < w g < < < < n w f g < < < < < < g < < < < < < < h < < < < < < < g < < # '.HXO g f < < < < < < f Y.e < + H.N , oX",
"v b h g g g v n @ < < < v d.d.v b b A XXoXg p.d.d.XXb @ < < < @ v p.V n A XXV b a.d.d.XXh @ < < < < < @ g R.A V n p.b a.XXd.a.s.< < < < < < < < a.p.p.XXV v d.R.a.s.A @ < < < < < < h n oXv g a.V V w d.d.R.R.w < < < < < g p.XXv V p.XXV b s.d.R.XXg < < < < f f b g v g v n p.v h V V p.p.w < < < < < b p.v v b a.v v n A p.p.g @ < < < < @ g p.A n p.n V XXd.p.d.f < < < < < n < < < < < < < < h < < < < < < w f < < < b g @ g g < < < < < < g < < < < < < < h < < < < < < < g < # (.HX< @ g f < < < < < < 3 P.e < + H.N , oX",
"V n V V V V A n @ < < < g A d.A h V d.p.R.h A d.a.R.v @ < < < < w d.p.V d.a.d.f p.s.a.R.g @ < < < < < < XXA d.A V d.g n n V n d.< < < < < < < < V n d.a.a.g A n V A a.< < < < < < < w v d.a.v a.b b < s.a.s.d.w < < < < < < v d.p.A d.a.s.w a.s.s.d.g < < < < < < h v p.h b V n V < n V V A w < < < < < g V n v V n A w b V V p.g < < < < < < < s.a.n R.v b V V n s.v @ < < < < n < < < < < < < < h < < < < < < w g < < v h < < g g < < < < < < g < < < < < < < h < < < < < < < g # U.KXe @ < g f < < < < < < 3 P.e < + H.N , oX",
"g g g g g g g w < < < < < @ < < < < < @ @ < < < < f < < < < < < < < < < < < < < < < < w < < < < < < < < f < < < < < < < < < < < < < < < < < < < < < < < < < < < < w < < < < < < < < < @ @ < f < < < < < < < < < < < < < < < < < < < < < < < < < < w < < < < < < < < < < < < < < < < < < < < < < < < < < < < < < < < < < < < < < < < < < < < < < < < < < < < < < < w < < < < < < n < < < < < < < < h < < < < < < w g @ h v < < < g g < < < < < < g < < < < < < < h < < < < < < w 3 r.KXa O < < g f < < < < < < 3 P.e < + H.N , oX",
"@ @ @ @ @ @ @ < < < < < < < < < < < < < < < < < < @ < < < < < < < < < < < < < < < < < @ < < < < < < < < @ < < < < < < < < < < < < < < < < < < < < < < < < < < < < < < < < < < < < < < < < < @ < < < < < < < < < < < < < < < < < < < < < < < < < < < < < < < < < < < < < < < < < < < < < < < < < < < < < < < < < < < < < < < < < < < < < < < < < < < < < < < < < < < < < < < < < n < < < < < < < < h < < < < < < f w g b < < < < g g < < < < < < g < < < < < < < h < < < < < < O a KXr.O < < < g f < < < < < < f Y.e < + H.N , oX",
"f f f f f f f w w w w w w w w w w w w w w w w w w w w w w w w w w w w w w w w w w w w w w w w w w w w w w w w w w w w w w w w w w w w w w w w w w w w w w w w w w w w w w w w w w w w w w w w w w w w w w w w w w w w w w w w w w w w w w w w w w w w w w w w w w w w w w w w w w w w w w w w w w w w w w w w w w w w w w w w w w w w w w w w w w w w w w w w w w w w w w f < < n < < < < < < < < h < < < < < < < v b < < < < @ g f @ < < < < < g < < < < < < < h < < < < < @ e KXU.# < < < @ g w < < < < < < 3 P.e < X H.N + XX",
"g g g g g g g g g g g g g g g g g g g g g g g g g g g g g g g g g g g g g g g g g g g g g g g g g g g g g g g g g g g g g g g g g g g g g g g g g g g g g g g g g g g g g g g g g g g g g g g g g g g g g g g g g g g g g g g g g g g g g g g g g g g g g g g g g g g g g g g g g g g g g g g g g g g g g g g g g g g g g g g g g g g g g g g g g g g g g g g g g g g g g g f < n w g g g g g g g b g g g g g g h A g g g g g g v v g g g g g g v g g g g g g g b g g g g g f HX'.* g g g g g v h g g g g g g h !.v g e H.B e oX",
"< < < < < < < < < < < < < < < < < < < < < < < < < < < < < < < < < < < < < < < < < < < < < < < < < < < < < < < < < < < < < < < < < < < < < < < < < < < < < < < < < < < < < < < < < < < < < < < < < < < < < < < < < < < < < < < < < < < < < < < < < < < < < < < < < < < < < < < < < < < < < < < < < < < < < < < < < < < < < < < < < < < < < < < < < < < < < < < < < < < < < < < < n < < < < < < < < v < < < < < < A g < < < < < < g g < < < < < < g < < < < < < < v < < < < O mX'.7 < < < < < < g g < < < < < < f P.e < + H.N , oX",
"< < < < < < < < < < < < < < < < < < < < < < < < < < < < < < < < < < < < < < < < < < < < < < < < < < < < < < < < < < < < < < < < < < < < < < < < < < < < < < < < < < < < < < < < < < < < < < < < < < < < < < < < < < < < < < < < < < < < < < < < < < < < < < < < < < < < < < < < < < < < < < < < < < < < < < < < < < < < < < < < < < < < < < < < < < < < < < < < < < < < < < < < n < < < < < < < < h < < < < < b h w < < < < < < g f < < < < < < g < < < < < < < h < < < # '.HXO g < < < < < < g w < < < < < < 3 P.e < X H.N , oX",
"< < < < < < < < < < < < < < < < < < < < < < < < < < < < < < < < < < < < < < < < < < < < < < < < < < < < < < < < < < < < < < < < < < < < < < < < < < < < < < < < < < < < < < < < < < < < < < < < < < < < < < < < < < < < < < < < < < < < < < < < < < < < < < < < < < < < < < < < < < < < < < < < < < < < < < < < < < < < < < < < < < < < < < < < < < < < < < < < < < < < < < < < n < < < < < < < < h < < < < b g < g < < < < < < g g < < < < < < g < < < < < < < h < < # (.HX< < g < < < < < < g f < < < < < < f Y.e < + H.N , oX",
"< < < < < < < < < < < < < < < < < < < < < < < < < < < < < < < < < < < < < < < < < < < < < < < < < < < < < < < < < < < < < < < < < < < < < < < < < < < < < < < < < < < < < < < < < < < < < < < < < < < < < < < < < < < < < < < < < < < < < < < < < < < < < < < < < < < < < < < < < < < < < < < < < < < < < < < < < < < < < < < < < < < < < < < < < < < < < < < < < < < < < < < < n < < < < < < < < h < < < v h @ w f < < < < < < g g < < < < < < g < < < < < < < h < # U.KXe O < g < < < < < < g f < < < < < < 3 P.e < + H.N , oX",
"< < < < < < < < < < < < < < < < < < < < < < < < < < < < < < < < < < < < < < < < < < < < < < < < < < < < < < < < < < < < < < < < < < < < < < < < < < < < < < < < < < < < < < < < < < < < < < < < < < < < < < < < < < < < < < < < < < < < < < < < < < < < < < < < < < < < < < < < < < < < < < < < < < < < < < < < < < < < < < < < < < < < < < < < < < < < < < < < < < < < < < < < n < < < < < < < < h < @ h v < < w g < < < < < < g g < < < < < < g < < < < < < < v O r.KXs O < < g < < < < < < g f < < < < < < 3 P.e < + H.N , oX",
"< < < < < < < < < < < < < < < < < < < < < < < < < < < < < < < < < < < < < < < < < < < < < < < < < < < < < < < < < < < < < < < < < < < < < < < < < < < < < < < < < < < < < < < < < < < < < < < < < < < < < < < < < < < < < < < < < < < < < < < < < < < < < < < < < < < < < < < < < < < < < < < < < < < < < < < < < < < < < < < < < < < < < < < < < < < < < < < < < < < < < < < < n < < < < < < < < h < g b < < < w g < < < < < < g g < < < < < < g < < < < < < < f u KXr.O < < < g < < < < < < g f < < < < < < 3 P.e < + H.N , oX",
"< < < < < < < < < < < < < < < < < < < < < < < < < < < < < < < < < < < < < < < < < < < < < < < < < < < < < < < < < < < < < < < < < < < < < < < < < < < < < < < < < < < < < < < < < < < < < < < < < < < < < < < < < < < < < < < < < < < < < < < < < < < < < < < < < < < < < < < < < < < < < < < < < < < < < < < < < < < < < < < < < < < < < < < < < < < < < < < < < < < < < < < < n < < < < < < < < g g n < < < < w g < < < < < < g g < < < < < < g < < < < < < < v KXU.# < < < < g < < < < < < g f < < < < < < f Y.e < + H.N , oX",
"< < < < < < < < < < < < < < < < < < < < < < < < < < < < < < < < < < < < < < < < < < < < < < < < < < < < < < < < < < < < < < < < < < < < < < < < < < < < < < < < < < < < < < < < < < < < < < < < < < < < < < < < < < < < < < < < < < < < < < < < < < < < < < < < < < < < < < < < < < < < < < < < < < < < < < < < < < < < < < < < < < < < < < < < < < < < < < < < < < < < < < < < n < < < < < < < @ v b < < < < @ < w @ < < < < @ g f @ < < < < < g < < < < < @ @ HX(.# < < < < < g @ < < < < @ g < @ < < < < < 3 P.e < X H.N + XX",
"< < < < < < < < < < < < < < < < < < < < < < < < < < < < < < < < < < < < < < < < < < < < < < < < < < < < < < < < < < < < < < < < < < < < < < < < < < < < < < < < < < < < < < < < < < < < < < < < < < < < < < < < < < < < < < < < < < < < < < < < < < < < < < < < < < < < < < < < < < < < < < < < < < < < < < < < < < < < < < < < < < < < < < < < < < < < < < < < < < < < < < < < n w g g g g g g g A v g h g g g v v g g g g g g b v g g g g g g b g g g h h 3 mXMX7 h g g g g h b g g g g h g b v g g g g g g h !.v g e H.B e oX",
"< < < < < < < < < < < < < < < < < < < < < < < < < < < < < < < < < < < < < < < < < < < < < < < < < < < < < < < < < < < < < < < < < < < < < < < < < < < < < < < < < < < < < < < < < < < < < < < < < < < < < < < < < < < < < < < < < < < < < < < < < < < < < < < < < < < < < < < < < < < < < < < < < < < < < < < < < < < < < < < < < < < < < < < < < < < < < < < < < < < < < < < < n < < < < < < < V b < < < < < < g g < < < < < < g g < < < < < < h < < < w O '.HXj < w < < < < w h < < < < < < h g < < < < < < g I.e 3 , H.N < oX",
"< < < < < < < < < < < < < < < < < < < < < < < < < < < < < < < < < < < < < < < < < < < < < < < < < < < < < < < < < < < < < < < < < < < < < < < < < < < < < < < < < < < < < < < < < < < < < < < < < < < < < < < < < < < < < < < < < < < < < < < < < < < < < < < < < < < < < < < < < < < < < < < < < < < < < < < < < < < < < < < < < < < < < < < < < < < < < < < < < < < < < < < < n < < < < < < b g g < < < < < < w f < < < < < @ g f @ < < < < < g < < < # (.HX< g < < < < < < < g < < < < < @ g w < < < < < < 3 P.e < X H.N , XX",
"< < < < < < < < < < < < < < < < < < < < < < < < < < < < < < < < < < < < < < < < < < < < < < < < < < < < < < < < < < < < < < < < < < < < < < < < < < < < < < < < < < < < < < < < < < < < < < < < < < < < < < < < < < < < < < < < < < < < < < < < < < < < < < < < < < < < < < < < < < < < < < < < < < < < < < < < < < < < < < < < < < < < < < < < < < < < < < < < < < < < < < < < n < < < < < b h @ h < < < < < < w g < < < < < < g g < < < < < < g < < # U.KXe @ v < < < < < < < g < < < < < < g f < < < < < < f Y.e < + H.N , oX",
"< < < < < < < < < < < < < < < < < < < < < < < < < < < < < < < < < < < < < < < < < < < < < < < < < < < < < < < < < < < < < < < < < < < < < < < < < < < < < < < < < < < < < < < < < < < < < < < < < < < < < < < < < < < < < < < < < < < < < < < < < < < < < < < < < < < < < < < < < < < < < < < < < < < < < < < < < < < < < < < < < < < < < < < < < < < < < < < < < < < < < < < < n < < < @ h v < < h < < < < < < w g < < < < < < g g < < < < < < g < O r.KXa O < h < < < < < < < g < < < < < < g f < < < < < < 3 P.e < + H.N , oX",
"< < < < < < < < < < < < < < < < < < < < < < < < < < < < < < < < < < < < < < < < < < < < < < < < < < < < < < < < < < < < < < < < < < < < < < < < < < < < < < < < < < < < < < < < < < < < < < < < < < < < < < < < < < < < < < < < < < < < < < < < < < < < < < < < < < < < < < < < < < < < < < < < < < < < < < < < < < < < < < < < < < < < < < < < < < < < < < < < < < < < < < < < n < < < g b < < < h < < < < < < w g < < < < < < g g < < < < < < h O p KXr.O < < h < < < < < < < g < < < < < < g f < < < < < < 3 P.e < + H.N , XX",
"< < < < < < < < < < < < < < < < < < < < < < < < < < < < < < < < < < < < < < < < < < < < < < < < < < < < < < < < < < < < < < < < < < < < < < < < < < < < < < < < < < < < < < < < < < < < < < < < < < < < < < < < < < < < < < < < < < < < < < < < < < < < < < < < < < < < < < < < < < < < < < < < < < < < < < < < < < < < < < < < < < < < < < < < < < < < < < < < < < < < < < < < n < @ g b < < < < h < < < < < < w g < < < < < < g g < < < < < < f w KXU.# < < < h < < < < < < < g < < < < < < g f < < < < < < 3 P.e < + H.N , oX",
"< < < < < < < < < < < < < < < < < < < < < < < < < < < < < < < < < < < < < < < < < < < < < < < < < < < < < < < < < < < < < < < < < < < < < < < < < < < < < < < < < < < < < < < < < < < < < < < < < < < < < < < < < < < < < < < < < < < < < < < < < < < < < < < < < < < < < < < < < < < < < < < < < < < < < < < < < < < < < < < < < < < < < < < < < < < < < < < < < < < < < < < < n < < n < < < < < h < < < < < < w f < < < < < < g g < < < < < @ f HX(.# < < < < h < < < < < < < g < < < < < < g w < < < < < < 3 P.e < + H.N , XX",
"< < < < < < < < < < < < < < < < < < < < < < < < < < < < < < < < < < < < < < < < < < < < < < < < < < < < < < < < < < < < < < < < < < < < < < < < < < < < < < < < < < < < < < < < < < < < < < < < < < < < < < < < < < < < < < < < < < < < < < < < < < < < < < < < < < < < < < < < < < < < < < < < < < < < < < < < < < < < < < < < < < < < < < < < < < < < < < < < < < < < < < < < n w b w < < < < < v < < < < < < w g < < < < < < g g < < < < < < HX'.# < < < < < h < < < < < < < g < < < < < < g f < < < < < < f I.e < X H.N , oX",
"< < < < < < < < < < < < < < < < < < < < < < < < < < < < < < < < < < < < < < < < < < < < < < < < < < < < < < < < < < < < < < < < < < < < < < < < < < < < < < < < < < < < < < < < < < < < < < < < < < < < < < < < < < < < < < < < < < < < < < < < < < < < < < < < < < < < < < < < < < < < < < < < < < < < < < < < < < < < < < < < < < < < < < < < < < < < < < < < < < < < < < < < v A f @ < < < < < < < < < < < < < < < < < < < < < < < < < < O P.'.O < < < < < < < < < < < < < < < < < < < < < < < < < < < < < < u < < + N 5 , b ",
"< < < < < < < < < < < < < < < < < < < < < < < < < < < < < < < < < < < < < < < < < < < < < < < < < < < < < < < < < < < < < < < < < < < < < < < < < < < < < < < < < < < < < < < < < < < < < < < < < < < < < < < < < < < < < < < < < < < < < < < < < < < < < < < < < < < < < < < < < < < < < < < < < < < < < < < < < < < < < < < < < < < < < < < < < < < < < < < < < < < < < < < < < v n n n n n n n n n n n n n n n n n n n n n n n n n n n n n n M n n n n n n n n n n n n n n n n n n n n n n n n n n n n n n n b n n n b n n b ",
"< < < < < < < < < < < < < < < < < < < < < < < < < < < < < < < < < < < < < < < < < < < < < < < < < < < < < < < < < < < < < < < < < < < < < < < < < < < < < < < < < < < < < < < < < < < < < < < < < < < < < < < < < < < < < < < < < < < < < < < < < < < < < < < < < < < < < < < < < < < < < < < < < < < < < < < < < < < < < < < < < < < < < < < < < < < < < < < < < < < < < < < < < < < f w w w w w f w w w w w w w f w w w w w w f f w w w w w w w w w w w w w w f w w w w w w w f w w w w w w f w w w w w w w f w w w w f f w f ",
"n n n n n n n n n n n n n n n n n n n n n n n n n n n n n n n n n n n n n n n n n n n n n n n n n n n n n n n n n n n n n n n n n n n n n n n n n n n n n n n n n n n n n n n n n n n n n n n n n n n n n n n n n n n n n n n n n n n n n n n n n n n n n n n n n n n n n n n n n n n n n n n n n n n n n n n n n n n n n n n n n n n n n n n n n n n n n n n n n n n n n n n n n n b b b b b b b b b b b b b b b b b b b b b b b b b b b b b b b b b b b b b b b b b b b b b b b b b b b b b b b b b b b b b b b b b b b b b b ",
"f f f f f f f f f f f f f f f f f f f f f f f f f f f f f f f f f f f f f f f f f f f f f f f f f f f f f f f f f f f f f f f f f f f f f f f f f f f f f f f f f f f f f f f f f f f f f f f f f f f f f f f f f f f f f f f f f f f f f f f f f f f f f f f f f f f f f f f f f f f f f f f f f f f f f f f f f f f f f f f f f f f f f f f f f f f f f f f f f f f f f f f f f f f f f f f f f f f f f f f f f f f f f f f f f f f f f f f f f f f f f f f f f f f f f f f f f f f f f f f f f f f f f f f f f f f f f f f f ",
"b b n n n b b b b b b b b b b b b b b b n b n b b b b b b b b b b b b b b b b b b b b b b b b b b b b b b b b b b b b b b b b b b b b b b b b b b b b b b b b b b b b b b b b b b b b b b b b b b b b b b b b b b b b b b b b b b b b b b b b b b b b b b b b b b b b b b b b b b b b b b b b b b b b b b b b b b b b b b b b b b b b b b b b b b b b b b b b b b b b b b b b b b b b b b b b b b b b b b b b b b b b b b b b b b b b b b b b b b b b b b b b b b b b b b b b b b b b b b b b b b b b b b b b b b b b b b b b b ",
"@ @ o o o @ < @ @ < @ @ @ @ @ @ @ @ @ @ @ @ @ @ @ @ @ < @ @ @ @ @ @ @ @ @ @ @ @ @ @ @ @ @ @ @ @ @ @ @ @ @ @ @ @ @ @ @ @ @ @ @ @ @ @ @ @ @ @ @ @ @ @ @ @ @ @ @ @ @ @ @ @ @ @ @ @ @ @ @ @ @ @ @ @ @ @ @ @ @ @ @ @ @ @ @ @ @ @ @ @ @ @ @ @ @ @ @ @ @ @ @ @ @ @ @ @ @ @ @ @ @ @ @ @ @ @ @ @ @ @ @ @ @ @ @ @ @ @ @ @ @ @ @ @ @ @ @ @ @ @ @ @ @ @ @ @ @ @ @ @ @ @ @ @ @ @ @ @ @ @ @ @ @ @ @ @ @ @ @ @ @ @ @ @ @ @ @ @ @ @ @ @ @ @ @ @ @ @ @ @ @ @ @ @ @ @ @ @ @ @ @ @ @ @ @ @ @ @ @ @ @ @ @ @ @ @ @ @ @ @ @ @ @ @ @ < < @ @ < @ @ @ @ ",
"< < b b b g < < < < < < < < < < < < < w g g g w < < < < < < < < < < < < < < < < < < < < < < < < < < < < < < < < < < < < < < < < < < < < < < < < < < < < < < < < < < < < < < < < < < < < < < < < < < < < < < < < < < < < < < < < < < < < < < < < < < < < < < < < < < < < < < < < < < < < < < < < < < < < < < < < < < < < < < < < < < < < < < < < < < < < < < < < < < < < < < < < < < < < < < < < < < < < < < < < < < < < < < < < < < < < < < < < < < < < < < < < < < < < < < < < < < < < < < < < < < < < < < < < < < < < < < < < ",
"@ v XXp.XXV @ < O u < < < O O < < < < g d.R.XXb @ < @ u < < < O O < < < < < < < < < < < < < < < < < < < < < < < < < < < < < < < < < < < < < < < < < < < < < < < < < < < < < < < < < < < < < < < < < < < < < < < < < < < < < < < < < < < < < < < < < < < < < < < < < < < < < < < < < < < < < < < < < < < < < < < < < < < < < < < < < < < < < < < < < < < < < < < < < < < < < < < < < < < < < < < < < < < < < < < < < < < < < < < < < < < < < < < < < < < < < < < < < < < < < < < < < < < < < < < < < < < < w h v g b b v v g < < ",
"@ v a.d.a.n , < u ].P.@ e P.P.e < < < g h s.d.g < < a ].r.O u I.P.< < < < < < < < < < < < < < < < < < < < < < < < < < < < < < < < < < < < < < < < < < < < < < < < < < < < < < < < < < < < < < < < < < < < < < < < < < < < < < < < < < < < < < < < < < < < < < < < < < < < < < < < < < < < < < < < < < < < < < < < < < < < < < < < < < < < < < < < < < < < < < < < < < < < < < < < < < < < < < < < < < < < < < < < < < < < < < < < < < < < < < < < < < < < < < < < < < < < < < < < < < < < < < < < < < < < f n p.p.b o d.b w < = ",
"@ v R.s.< v < < < I.a @ w u u < < < < h < a.s.f < < e I.u @ e u u < < < < < < < < < < < < < < < < < < < < < < < < < < < < < < < < < < < < < < < < < < < < < < < < < < < < < < < < < < < < < < < < < < < < < < < < < < < < < < < < < < < < < < < < < < < < < < < < < < < < < < < < < < < < < < < < < < < < < < < < < < < < < < < < < < < < < < < < < < < < < < < < < < < < < < < < < < < < < < < < < < < < < < < < < < < < < < < < < < < < < < < < < < < < < < < < < < < < < < < < < < < < < < < < < < < < < p.v n V h n n h < w ",
"< f n b v g < < < < < < < @ @ < < < < f v b n f < < < < < < < @ @ < < < < < < < < < < < < < < < < < < < < < < < < < < < < < < < < < < < < < < < < < < < < < < < < < < < < < < < < < < < < < < < < < < < < < < < < < < < < < < < < < < < < < < < < < < < < < < < < < < < < < < < < < < < < < < < < < < < < < < < < < < < < < < < < < < < < < < < < < < < < < < < < < < < < < < < < < < < < < < < < < < < < < < < < < < < < < < < < < < < < < < < < < < < < < < < < < < < < < < < < < < < < < < < < < < < < h v @ < < f < < < < < ",
"< < @ @ < < < < < < < < < < < < < < < < < @ @ < < < < < < < < < < < < < < < < < < < < < < < < < < < < < < < < < < < < < < < < < < < < < < < < < < < < < < < < < < < < < < < < < < < < < < < < < < < < < < < < < < < < < < < < < < < < < < < < < < < < < < < < < < < < < < < < < < < < < < < < < < < < < < < < < < < < < < < < < < < < < < < < < < < < < < < < < < < < < < < < < < < < < < < < < < < < < < < < < < < < < < < < < < < < < < < < < < < < < < < < < < < < < < < < < < < < < < < < < < < < < < < < < < < < < < < < < ",
"< < < < < < < < < < < < < < < < < < < < < < < < < < < < < < < < < < < < < < < < < < < < < < < < < < < < < < < < < < < < < < < < < < < < < < < < < < < < < < < < < < < < < < < < < < < < < < < < < < < < < < < < < < < < < < < < < < < < < < < < < < < < < < < < < < < < < < < < < < < < < < < < < < < < < < < < < < < < < < < < < < < < < < < < < < < < < < < < < < < < < < < < < < < < < < < < < < < < < < < < < < < < < < < < < < < < < < < < < < < < < < < < < < < < < < < < < < < < < < < < < < < < < < < < < < < < < < < < "
};
