/* XPM */
static char *mb_gate_lr[] = {
/* columns rows colors chars-per-pixel */
"256 256 256 2 ",
"   c #0B0B0D",
".  c #070909",
"X  c #0D0D12",
"o  c #080914",
"O  c #140D13",
"+  c #0D161A",
"@  c #131414",
"#  c #1A1415",
"$  c #15161B",
"%  c #1B151B",
"&  c #16191D",
"*  c #19191F",
"=  c #181A16",
"-  c #12090B",
";  c #2C1A1D",
":  c #321A1E",
">  c #3D1B1C",
",  c #19241E",
"<  c #13321B",
"1  c #24291D",
"2  c #34361D",
"3  c #2B3618",
"4  c #0E1A21",
"5  c #151A21",
"6  c #1B1C22",
"7  c #181826",
"8  c #1A1D33",
"9  c #221E24",
"0  c #2C1D23",
"q  c #251E2A",
"w  c #3A1E25",
"e  c #2F1A32",
"r  c #1E2026",
"t  c #1D2229",
"y  c #162728",
"u  c #14392C",
"i  c #1A2933",
"p  c #16333E",
"a  c #19333A",
"s  c #0D3032",
"d  c #222226",
"f  c #22242B",
"g  c #25292E",
"h  c #292A2D",
"j  c #2A2628",
"k  c #3F2027",
"l  c #35242A",
"z  c #242631",
"x  c #262931",
"c  c #292B34",
"v  c #2D2F39",
"b  c #27263A",
"n  c #322D35",
"m  c #392A37",
"M  c #2E313B",
"N  c #2A3634",
"B  c #31333D",
"V  c #393439",
"C  c #30332A",
"Z  c #502F10",
"A  c #6B2318",
"S  c #643904",
"D  c #462529",
"F  c #592B27",
"G  c #4F3336",
"H  c #7A3934",
"J  c #6B2E2C",
"K  c #5A1D20",
"L  c #3C580E",
"P  c #344A13",
"I  c #004C2C",
"U  c #085A38",
"Y  c #0B4C32",
"T  c #026238",
"R  c #224F2A",
"E  c #415B0D",
"W  c #4A5113",
"Q  c #6F4605",
"!  c #49670B",
"~  c #52730D",
"^  c #4C4439",
"/  c #564E39",
"(  c #645B3D",
")  c #6A493A",
"_  c #65643C",
"`  c #716833",
"'  c #5D662B",
"]  c #193641",
"[  c #1C3A45",
"{  c #173846",
"}  c #123854",
"|  c #2B2946",
" . c #2C2B4A",
".. c #262948",
"X. c #312D4B",
"o. c #343641",
"O. c #363944",
"+. c #393B46",
"@. c #3B3D4A",
"#. c #34344C",
"$. c #312E54",
"%. c #29365B",
"&. c #353558",
"*. c #28334C",
"=. c #1E296D",
"-. c #3D3A6C",
";. c #393864",
":. c #30386C",
">. c #201D62",
",. c #511A44",
"<. c #731B53",
"1. c #493B47",
"2. c #5D3E49",
"3. c #563D49",
"4. c #4D304D",
"5. c #653D48",
"6. c #773D43",
"7. c #6E314D",
"8. c #4D346B",
"9. c #6C2E77",
"0. c #174957",
"q. c #134954",
"w. c #3E414E",
"e. c #364249",
"r. c #304955",
"t. c #0D6743",
"y. c #1B5968",
"u. c #085E71",
"i. c #08506F",
"p. c #294367",
"a. c #324974",
"s. c #036478",
"d. c #1B6471",
"f. c #296979",
"g. c #316F49",
"h. c #4D4742",
"j. c #494748",
"k. c #514B45",
"l. c #5E414B",
"z. c #594846",
"x. c #4A554B",
"c. c #424552",
"v. c #454A5A",
"b. c #484A59",
"n. c #51445E",
"m. c #584556",
"M. c #495355",
"N. c #4D5C54",
"B. c #4C5659",
"V. c #4B5A5B",
"C. c #465759",
"Z. c #595556",
"A. c #57585A",
"S. c #585544",
"D. c #614A45",
"F. c #61424D",
"G. c #644D49",
"H. c #6A4948",
"J. c #744B47",
"K. c #675446",
"L. c #674856",
"P. c #6A5655",
"I. c #78595A",
"U. c #764C50",
"Y. c #54684D",
"T. c #526454",
"R. c #4D6552",
"E. c #4D4E6B",
"W. c #494763",
"Q. c #544763",
"!. c #4E506D",
"~. c #4B5663",
"^. c #51546C",
"/. c #555967",
"(. c #464876",
"). c #4C5473",
"_. c #4A587B",
"`. c #525472",
"'. c #585A78",
"]. c #554A77",
"[. c #635B63",
"{. c #6E506C",
"}. c #44676A",
"|. c #586566",
" X c #5B6277",
".X c #476B78",
"XX c #65636A",
"oX c #6A6644",
"OX c #882C1A",
"+X c #893738",
"@X c #973838",
"#X c #8F3229",
"$X c #A63A3A",
"%X c #AD3829",
"&X c #884439",
"*X c #974437",
"=X c #A84339",
"-X c #B74239",
";X c #AE4828",
":X c #905A22",
">X c #CC4230",
",X c #E04129",
"<X c #B13C42",
"1X c #8E1A66",
"2X c #852F59",
"3X c #884848",
"4X c #954645",
"5X c #8D4E4F",
"6X c #AB4442",
"7X c #B54445",
"8X c #91526A",
"9X c #CC4749",
"0X c #CC3E25",
"qX c #5E962A",
"wX c #AAAA0D",
"eX c #0F2A92",
"rX c #292E8D",
"tX c #1833AF",
"yX c #6D3685",
"uX c #045090",
"iX c #354F8C",
"pX c #01748A",
"aX c #037C94",
"sX c #0C6C85",
"dX c #26738B",
"fX c #085BA8",
"gX c #3C52A4",
"hX c #325AAB",
"jX c #256AB4",
"kX c #4A4789",
"lX c #5A5B88",
"zX c #4B4994",
"xX c #534C96",
"cX c #505492",
"vX c #68598F",
"bX c #52658D",
"nX c #686691",
"mX c #4A58A6",
"MX c #5856A6",
"NX c #4A5BB6",
"BX c #645BB5",
"VX c #665BAB",
"CX c #5065B2",
"ZX c #6F64AB",
"AX c #1139C7",
"SX c #2C6DCE",
"DX c #4F68CF",
"FX c #6A68CA",
"GX c #5170EA",
"HX c #455FC5",
"JX c #833590",
"KX c #895A95",
"LX c #228499",
"PX c #2393AA",
"IX c #0E90A9",
"UX c #2AA0C6",
/* pixels */
"6 6 6 6 6 6 6 6 6 6 6 6 6 6 6 6 6 6 6 6 6 6 6 6 6 6 6 6 6 6 6 6 6 6 6 6 6 6 6 6 6 6 6 6 6 6 6 6 6 6 6 6 6 6 6 6 6 6 6 6 6 6 6 6 6 6 6 6 6 6 6 6 6 6 6 6 6 6 6 6 6 6 6 6 6 6 6 6 6 6 6 6 6 6 6 6 6 6 6 6 6 6 6 6 6 6 6 6 6 6 6 6 6 6 6 6 6 6 6 6 6 6 6 6 6 6 6 6 6 6 6 6 6 6 6 6 6 6 6 6 6 6 6 6 6 6 6 6 6 6 6 6 6 6 6 6 6 6 6 6 6 6 6 6 6 6 6 6 6 6 6 6 6 6 6 6 6 6 6 6 6 6 6 6 6 6 6 6 6 6 6 6 6 6 6 6 6 6 6 6 6 6 6 6 6 6 6 6 6 6 6 6 6 6 6 6 6 6 6 6 6 6 6 6 6 6 6 6 6 6 6 6 6 6 6 6 6 6 6 6 6 6 6 6 6 6 6 6 6 6 6 6 6 6 6 6 ",
"6 6 6 6 6 6 6 6 6 6 6 6 6 6 6 6 6 6 6 6 6 * * $ * * 6 6 6 6 6 6 6 6 6 6 6 6 6 6 6 6 6 6 6 6 6 6 6 6 6 6 6 6 6 6 6 6 6 6 6 6 6 6 6 6 6 6 6 6 6 6 6 6 6 6 6 6 6 6 6 6 6 6 6 6 6 6 6 6 6 6 6 6 6 6 6 6 6 6 6 6 6 6 6 6 6 6 6 6 6 6 6 6 6 6 6 6 6 6 6 6 6 6 6 6 6 6 6 6 6 6 6 6 6 6 6 6 6 6 6 6 6 6 6 6 6 6 6 6 6 6 6 6 6 6 6 6 6 6 6 6 6 6 6 6 6 6 & * * & * 6 * * 6 $ $ $ * $ & 6 & 6 & 6 * $ & 6 6 $ & 6 & 6 $ $ & & 6 * 6 * & * $ * $ & $ & & 6 & & 6 6 6 * $ * 6 & * * $ 6 6 6 6 6 % 6 % * % 6 * % 6 % * * 6 * % 6 6 6 6 6 6 6 ",
"6 6 6 6 * % % % % * 6 * % % % % % 6 6 * 6 ] r.r.] 8 * 6 6 6 6 6 6 6 6 6 6 6 6 6 6 6 6 6 6 6 6 6 6 6 6 6 6 6 6 6 6 6 6 6 6 6 6 6 6 6 6 6 6 6 6 6 6 6 6 6 6 6 6 6 6 6 6 6 6 6 6 6 6 6 6 6 6 6 6 6 6 6 6 6 6 6 6 6 6 6 6 6 6 6 6 6 6 6 6 6 6 6 6 6 6 6 6 6 6 6 6 6 6 6 6 6 6 6 6 6 6 6 6 6 6 6 6 6 6 6 6 6 6 6 6 6 6 6 6 6 6 6 6 6 6 6 6 6 6 6 6 & o.c c O.c c M v d b.c.c.v c.B 6 O.f O.g B b.O.* 6 @.@.* o.g b.c.@.w.* B d c c.M c.O.b.@.c.o.@.c B w.x c f o.b.O.f B M B w.r 6 v 6 t [ t [ [ 0.r a 0.t 0.a a 6 a 0.t 6 6 6 r < I ",
"] % 6 * t dXLXLXPXdX# y.LXLXLXLXf.t * 7 r.qXqXqXqXY.i * 6 6 6 6 6 6 6 6 6 6 6 6 6 6 6 6 6 6 6 6 6 6 6 6 6 6 6 6 6 6 6 6 6 6 6 6 6 6 6 6 6 6 6 6 6 6 6 6 6 6 6 6 6 6 6 6 6 6 6 6 6 6 6 6 6 6 6 6 6 6 6 6 6 6 6 6 6 6 6 6 6 6 6 6 6 6 6 6 6 6 6 6 6 6 6 6 6 6 6 6 6 6 6 6 6 6 6 6 6 6 6 6 6 6 6 6 6 6 6 6 6 6 6 6 6 6 6 6 6 6 6 6 6 6 6 6 6 6 6 @ ~././.'.@.O.~.c.X ~.@.b.@.nX~.v nXo.nXb.~.w.b.x B ~.c.f nXo.c.w./.b.$ b.d w./.@. Xx /.O. X/.b.w.~.c.@./.'.o./.M $  Xb.c.nXx * M * a dX0.f.y.dX0.y.0.] dX0.0.6 0.f.[ % 6 6 , I < ",
"[ % 6 % f.UXPXLXPXdX# d.UXLXLXPXUXy.O r.qX' 6 $ P Y.d.t 6 6 6 6 6 6 6 6 6 6 6 6 6 6 6 6 6 6 6 6 6 6 6 6 6 6 6 6 6 6 6 6 6 6 6 6 6 6 6 6 6 6 6 6 6 6 6 6 6 6 6 6 6 6 6 6 6 6 6 6 6 6 6 6 6 6 6 6 6 6 6 6 6 6 6 6 6 6 6 6 6 6 6 6 6 6 6 6 6 6 6 6 6 6 6 6 6 6 6 6 6 6 6 6 6 6 6 6 6 6 6 6 6 6 6 6 6 6 6 6 6 6 6 6 6 6 6 6 6 6 6 6 6 6 6 6 6 6 6 $ w. X Xv.b.b.c./.6 c.B b.@. X~.~. X/.c. X~.b.~.f B ~./.~. X~.w.o./.c.@ ~.@.c.~.@.b.$ b.v  X~.b.w.b.~.b.b.~.M b.f 6 /.b.b. Xv & B * i d.d.0.y.d.0.0.y.y.d.0.y.] 0.f.a % 6 6 , I < ",
"[ % 6 % LXPX6 # % % # d.UXt O r PXf.8 .X' o 6 t ] i dX[ * 6 6 6 6 6 6 6 6 6 6 6 6 6 6 6 6 6 6 6 6 6 6 6 6 6 6 6 6 6 6 6 6 6 6 6 6 6 6 6 6 6 6 6 6 6 6 6 6 6 6 6 6 6 6 6 6 6 6 6 6 6 6 6 6 6 6 6 6 6 6 6 6 6 6 6 6 6 6 6 6 6 6 6 6 6 6 6 6 6 6 6 6 6 6 6 6 6 6 6 6 6 6 6 6 6 6 6 6 6 6 6 6 6 6 6 6 6 6 6 6 6 6 6 6 6 6 6 6 6 6 6 6 6 6 6 6 6 6 6 x v v f B +.6 c.M x g O.c @.M v 6 o.f c c c.M * 6 O.+.M 6 c v f B +.* v c.v @.v f & v f x c @.g v w.x f f f c 6 f c c M O.6 6 x 6 t a a i a q.6 a 0.t [ i a 0.i t a * 6 6 r < < ",
"[ % r % y.UXPXPXPX0.O d.UXa t ] UXf.% y.LX[ % t i % f.y.* 6 6 6 6 6 6 6 6 6 6 6 6 6 6 6 6 6 6 6 6 6 6 6 6 6 6 6 6 6 6 6 6 6 6 6 6 6 6 6 6 6 6 6 6 6 6 6 6 6 6 6 6 6 6 6 6 6 6 6 6 6 6 6 6 6 6 6 6 6 6 6 6 6 6 6 6 6 6 6 6 6 6 6 6 6 6 6 6 6 6 6 6 6 6 6 6 6 6 6 6 6 6 6 6 6 6 6 6 6 6 6 6 6 6 6 6 6 6 6 6 6 6 6 6 6 6 6 6 6 6 6 6 6 6 6 6 6 6 6 6 * & 6 & $ 6 $ & * 6 $ * $ & * 6 $ 6 * * $ & 6 6 $ $ & 6 * * 6 & $ 6 * $ * $ * 6 6 * 6 * * $ 6 * $ * 6 6 6 * 6 6 6 5 & $ 6 6 6 6 6 * * 6 % % 6 * % 6 % * % % * 6 * 6 6 6 6 6 7 ",
"[ % 6 6 6 y.LXdXPXPX6 y.UXUXUXUXUX0.6 dXUXy.O * 6 * f.0.6 6 6 6 6 6 6 6 6 6 6 6 6 6 6 6 6 6 6 6 6 6 6 6 6 6 6 6 6 6 6 6 6 6 6 6 6 6 6 6 6 6 6 6 6 6 6 6 6 6 6 6 6 6 6 6 6 6 6 6 6 6 6 6 6 6 6 6 6 6 6 6 6 6 6 6 6 6 6 6 6 6 6 6 6 6 6 6 6 6 6 6 6 6 6 6 6 6 6 6 6 6 6 6 6 6 6 6 6 6 6 6 6 6 6 6 6 6 6 6 6 6 * 6 6 6 6 6 6 * * 6 6 6 6 6 6 6 6 6 6 6 6 6 6 6 6 6 6 6 6 6 6 6 6 6 6 6 6 6 6 6 6 6 6 6 6 6 6 6 6 6 6 6 6 6 6 6 6 6 6 6 6 6 6 6 r 6 6 6 6 6 6 6 6 6 6 * * 6 6 * 6 * * 6 5 6 6 6 6 6 6 6 * 6 6 6 6 6 * 6 6 & * 6 6 * ",
"[ % 6 6 6 % % O 0.UXt y.UXd.d.d.0.% i d.dXUX0.a # [ dXa * 6 6 6 6 6 6 6 6 6 6 6 6 6 6 6 6 6 6 6 6 6 6 6 6 6 6 6 6 6 6 6 6 6 6 6 6 6 6 6 6 6 6 6 6 6 6 6 6 6 6 6 6 6 6 6 6 6 6 6 6 6 6 6 6 6 6 6 6 6 6 6 6 6 6 6 6 6 6 6 6 6 6 6 6 6 6 6 6 6 6 6 6 6 6 6 6 6 6 * t r 6 6 6 6 6 6 6 6 6 6 6 6 6 6 6 6 6 6 6 d B r 6 c f 6 6 g x 6 r 6 6 6 6 6 6 6 f x 6 6 6 6 6 6 6 6 6 6 6 6 6 6 6 6 6 6 6 t t * 6 6 6 6 6 6 6 6 6 6 I r 6 6 6 % % * 6 6 % q.u.i * 6 6 6 6 6 6 6 t ] [ y f c f M M v c f c d x 6 6 t a a t * c f B c f o.x f f v ",
"PXPXPX0.a PXPXPXUXPX* d.UXr O # % 6 % t PXLXUXLX[ dXy.t 6 6 6 6 6 6 6 6 6 6 6 6 6 6 6 6 6 6 6 6 6 6 6 6 6 6 6 6 6 6 6 6 6 6 6 6 6 6 6 6 6 6 6 6 6 6 6 6 6 6 6 6 6 6 6 6 6 6 6 6 6 6 6 6 6 6 6 6 6 6 6 6 6 6 6 6 6 6 6 6 6 6 6 6 6 6 6 6 6 6 6 6 6 6 6 6 6 6 6 t [ 6 6 6 6 6 6 6 6 6 6 6 6 6 6 6 6 6 6 6 * x @.v c.w.w.c.O.+.+.r w.O.@.@.c.@.B w.b.o.* 6 6 6 6 6 6 6 6 6 6 6 6 6 6 6 6 6 6 6 [ t 6 6 6 6 6 6 6 6 7 < T < 7 * y q.q.u.6 6 * 0.u.{ % 6 6 6 6 6 6 * i y.y.a c c.O.c.@.M b.o.@.f O.6 6 t [ [ t 6 b.o.c.@.+.f c.B v M ",
"dXdXdX[ i dXdXdXdX[ # 0.dXt 6 6 6 6 6 i [ 0.LXy.dXy.t * 6 6 6 6 6 6 6 6 6 6 6 6 6 6 6 6 6 6 6 6 6 6 6 6 6 6 6 6 6 6 6 6 6 6 6 6 6 6 6 6 6 6 6 6 6 6 6 6 6 6 6 6 6 6 6 6 6 6 6 6 6 6 6 6 6 6 6 6 6 6 6 6 6 6 6 6 6 6 6 6 6 6 6 6 6 6 6 6 6 6 6 6 6 6 6 6 6 6 6 t [ 6 6 6 6 6 6 6 6 6 6 6 6 6 6 6 6 6 6 6 6 6 o.b.@.+.b.+.@.v B f w.w.o.+.@.B c.c.O.B * 6 6 6 6 6 6 6 6 6 6 6 6 6 6 6 6 6 6 r [ 6 6 6 6 6 6 6 6 6 7 < < < 6 6 r i a p 6 6 * q.u.p % 6 6 6 6 6 6 * i y.y.a f c.c.O.@.v B v.O.o.B * 6 i [ [ t c c.c.w.+.+.M +.o.+.g ",
"% % # * 6 # % % # % 6 * % 6 6 6 6 6 6 6 # a ] t [ 6 6 6 6 6 6 6 6 6 6 6 6 6 6 6 6 6 6 6 6 6 6 6 6 6 6 6 6 6 6 6 6 6 6 6 6 6 6 6 6 6 6 6 6 6 6 6 6 6 6 6 6 6 6 6 6 6 6 6 6 6 6 6 6 6 6 6 6 6 6 6 6 6 6 6 6 6 6 6 6 6 6 6 6 6 6 6 6 6 6 6 6 6 6 6 6 6 6 6 6 6 6 6 6 6 6 6 6 6 6 6 6 6 6 6 6 6 6 6 6 6 6 6 6 r c 6 x f f f f x f f w.d r r x x f g f g 6 6 6 6 6 6 6 6 6 6 6 6 6 6 6 6 6 6 6 6 6 6 6 6 6 6 6 6 6 6 6 6 7 6 6 6 6 * % % 6 6 6 r y 6 6 6 6 6 6 6 6 6 r i i t 6 f f d c x 6 f r c r 6 6 t i i 6 d 6 f v f 6 v 6 f x 6 ",
"6 6 6 6 6 6 6 6 6 6 6 6 6 6 6 6 6 6 6 6 6 % % * % 6 6 6 6 6 6 6 6 6 6 6 6 6 6 6 6 6 6 6 6 6 6 6 6 6 6 6 6 6 6 6 6 6 6 6 6 6 6 6 6 6 6 6 6 6 6 6 6 6 6 6 6 6 6 6 6 6 6 6 6 6 6 6 6 6 6 6 6 6 6 6 6 6 6 6 6 6 6 6 6 6 6 6 6 6 6 6 6 6 6 6 6 6 6 6 6 6 6 6 6 6 6 6 6 * 6 6 6 6 6 6 6 6 6 6 6 6 6 6 6 6 6 6 6 * & * & * * & * & & 6 6 & * * & & * & * & 6 6 6 6 6 6 6 6 6 6 6 6 6 6 6 6 6 6 6 * 6 6 6 6 6 6 6 6 6 6 6 6 6 6 6 6 6 6 6 6 6 6 6 * * 6 6 6 6 6 6 6 6 6 * * * * 6 * * * & & 6 * * $ * 6 6 * * * * * 6 * $ * * $ 6 * & 6 ",
"f f f f f f f f f f f f f f f f f f f f f f f f f f f f f f f f f f f f f f f f f f f f f f f f f f f f f f f f f f f f f f f f f f f f f f f f f f f f f f f f f f f f f f f f f f f f f f f f f f f f f f f f f f f f f f f f f f f f f f f f f f f f f f f f f f f f f f f f f f f f f f f f f f f f f f f f f f f f f f f f f f f f f f f f f f f f f f f f f f f f f f f f f f f f f f f f f f f f f f f f f f f f f f f f f f f f f f f f f f f f f f f f f f f f f f f f f f f f f f f f f f f f f f f f f f f f f f f f ",
"c c c c c c c c x x c x c x c c c x x c c x x x x x x x x x x x x x x x x x x x x x x x x x x x x x x x x x x x x x x x x x x x x x x x x x x x x x x x x x x x x x x x x x x x x x x x x x x x x x x x x x x x x x x x x x x x x x x x x x x x x x x x x x x x x x x x x x x x x x x x x x x x x x x x x x x x x x x x x x x c c x x x x x x x x x x x x x x x x x x x x x x x x x x x x x x x x x x x x x x c c c c c x x x x x x c x x x x x x c x x x x c x g g g g g g g g g g g g g x x x x x x x x x x x x x x x x x x x ",
"* * * * & * * * * * * * * 6 * * * * * * * * * * * * * * * * * * * * * * * * * * * * * * * * * * * * * * * * * * * * * * * * * * * * * * * * * * * * * * * * * * * * * * * * * * * * * * * * * * * * * * * * * * * * * * * * * * * * * * * * * * * * * * * * * * * * * * * * * * * * * * * * * * * * * * * * * * * * * * * * * * * * * * * * * * * * * * * * * * * * * * * * * * * * * * * * * * * * * * * * * * $ $ & * * * * * * * * 6 6 * * * 6 * * 6 6 6 * 6 c c c c c c c c c c c c c x x x x x x x x x x x x x x x x x x x ",
"6 6 6 6 f d r 6 6 6 6 6 6 6 r r r 6 6 6 r 6 6 6 6 6 6 6 6 6 6 6 6 6 6 6 6 6 6 6 6 6 6 6 6 6 6 6 6 6 6 6 6 6 6 6 6 6 6 6 6 6 6 6 6 6 6 6 6 6 6 6 6 6 6 6 6 6 6 6 6 6 6 6 6 6 6 6 6 6 6 6 6 6 6 6 6 6 6 6 6 6 6 6 6 6 6 6 6 6 6 6 6 6 6 6 6 6 6 6 6 6 6 6 6 6 6 6 6 6 6 6 6 6 6 6 6 6 6 6 6 6 6 6 6 6 6 6 6 6 6 6 6 6 6 6 6 6 6 6 6 6 6 6 6 6 6 6 6 6 6 6 6 6 6 6 6 6 6 6 6 6 6 6 6 6 6 6 6 6 6 6 6 6 6 6 6 6 6 f o.@.v 6 6 6 6 6 6 6 6 & 6 6 6 6 6 d 6 6 6 6 6 g w.@.c.w.@.@.@.@.@.c.w.w.@.f r d d d d d d d d d d d d d d d d d ",
"@.+.M B v @.+.@.v x c.c +.d O.c c.v o.M c.o.v c * 6 6 6 6 6 6 6 6 6 6 6 6 6 6 6 6 6 6 6 6 6 6 6 6 6 6 6 6 6 6 6 6 6 6 6 6 6 6 6 6 6 6 6 6 6 6 6 6 6 6 6 6 6 6 6 6 6 6 6 6 6 6 6 6 6 6 6 6 6 6 6 6 6 6 6 6 6 6 6 6 6 6 6 6 6 6 6 6 6 6 6 6 6 6 6 6 6 6 6 6 6 6 6 6 6 6 6 6 6 6 6 6 6 6 6 6 6 6 6 6 6 6 6 6 6 6 6 6 6 6 6 6 6 6 6 6 6 6 6 6 6 6 6 6 6 6 6 6 6 6 6 6 6 6 6 6 6 6 6 6 6 6 6 6 6 6 6 6 6 6 6 6 6 & M /.v.c.r 6 6 6 6 * x B v d 6 6 * g O.B d c o.* f +.B.~.c.b.b.b.c.b.~.+.@.+.6 * 6 6 6 6 6 6 6 6 6 6 6 6 6 6 6 6 6 ",
"v @.O.v 6 B +.c.B B c.c.O.c B +.c.+.c.c.B o.c.M & 6 6 6 6 6 6 6 6 6 6 6 6 6 6 6 6 6 6 6 6 6 6 6 6 6 6 6 6 6 6 6 6 6 6 6 6 6 6 6 6 6 6 6 6 6 6 6 6 6 6 6 6 6 6 6 6 6 6 6 6 6 6 6 6 6 6 6 6 6 6 6 6 6 6 6 6 6 6 6 6 6 6 6 6 6 6 6 6 6 6 6 6 6 6 6 6 6 6 6 6 6 6 6 6 6 6 6 6 6 6 6 6 6 6 6 6 6 6 6 6 6 6 6 6 6 6 6 6 6 6 6 6 6 6 6 6 6 6 6 6 6 6 6 6 6 6 6 6 6 6 6 6 6 6 6 6 6 6 6 6 6 6 6 6 6 6 6 6 6 6 6 6 6 & B b.o. X6 6 6 6 6 * f @.@.v * 6 & M c +.+.w.O.& g @.c././././././. X/.+.@.+.6 6 6 6 6 6 6 6 6 6 6 6 6 6 6 6 6 6 6 ",
"& v x M g g f g v v g v g 6 B M f M r v 6 f f f * 6 6 6 6 6 6 6 6 6 6 6 6 6 6 6 6 6 6 6 6 6 6 6 6 6 6 6 6 6 6 6 6 6 6 6 6 6 6 6 6 6 6 6 6 6 6 6 6 6 6 6 6 6 6 6 6 6 6 6 6 6 6 6 6 6 6 6 6 6 6 6 6 6 6 6 6 6 6 6 6 6 6 6 6 6 6 6 6 6 6 6 6 6 6 6 6 6 6 6 6 6 6 6 6 6 6 6 6 6 6 6 6 6 6 6 6 6 6 6 6 6 6 6 6 6 6 6 6 6 6 6 6 6 6 6 6 6 6 6 6 6 6 6 6 6 6 6 6 6 6 6 6 6 6 6 6 6 6 6 6 6 6 6 6 6 6 6 6 6 6 6 6 6 * c c./.nX6 6 6 6 6 6 f M f f 6 6 6 6 B g v v c 6 f @.c.~.b././.c.b.~.b.@.w.M 6 6 6 6 6 6 6 6 6 6 6 6 6 6 6 6 6 6 6 ",
"r 6 6 6 6 6 6 6 6 6 6 6 6 6 6 6 6 6 6 6 6 6 6 6 6 6 6 6 6 6 6 6 6 6 6 6 6 6 6 6 6 6 6 6 6 6 6 6 6 6 6 6 6 6 6 6 6 6 6 6 6 6 6 6 6 6 6 6 6 6 6 6 6 6 6 6 6 6 6 6 6 6 6 6 6 6 6 6 6 6 6 6 6 6 6 6 6 6 6 6 6 6 r 6 6 6 6 6 6 6 6 6 6 6 6 6 6 6 6 6 6 6 6 6 6 6 6 6 6 6 6 6 6 6 6 6 6 6 6 6 6 6 6 6 6 6 6 6 6 6 6 6 6 6 6 6 6 6 6 6 6 6 6 6 6 6 6 6 6 6 6 6 6 6 6 6 6 6 6 6 6 6 6 6 6 6 6 6 6 6 6 6 6 6 6 6 6 6 6 6 r 6 6 6 6 6 6 6 6 6 * 6 6 6 6 6 6 * 6 * * 6 6 f +.o.B o.c.O.B B B B o.v 6 6 6 6 6 6 6 6 6 6 6 6 6 6 6 6 6 6 6 6 ",
"c v c v c c c v v v v v v c v c c v c v c c c c c c c c c c c c c c v v v v c c c c c c c c c c c c c c c c c c c c c c c c c c c c c c c c c c c c c c c c c c c c c c c c c c c c c c c c c c c c c c c c c c c c c c c c c c c c c c c c c c c c c c c c c c c c c c c c c c c c c c c c c c c c c c x c c c c c c c c c c c c c c c c c c c c c c c c c c c c c c c c c c c c c c c c c c c c x 6 6 6 6 6 6 c v x 6 6 6 6 6 6 6 6 6 6 6 6 6 6 6 6 6 6 6 * g g * 6 6 * 6 6 6 6 6 6 6 6 6 6 6 6 6 6 6 6 6 6 6 6 6 6 6 6 6 6 6 ",
"9 ; 6 6 6 6 6 6 6 6 6 6 6 6 6 6 6 6 6 6 6 6 6 6 6 6 6 6 6 6 6 6 = *.mXiXgX&.G O.O.V (.;.l 6 6 6 6 6 6 6 6 d 0 j 3 , , * 6 6 6 6 6 6 6 6 6 6 6 6 6 6 6 6 6 6 6 6 6 6 6 6 6 6 6 6 6 6 6 6 6 6 6 6 6 6 6 * d d p y y r 6 6 6 * 6 6 * r 6 6 6 6 6 6 6 6 6 6 6 6 6 6 6 6 6 6 6 6 6 6 6 6 6 6 6 6 6 6 6 t y i  .z f 6 6 6 6 6 6 6 6 6 6 6 6 6 6 6 6 6 6 6 6 r 6 6 6 6 6 6 6 6 6 6 6 6 6 6 6 6 6 6 6 f b &.g 6 6 6 6 d c 6 v 6 6 6 6 6 0 : : ; : : 6 6 0 : : ; : : * g g 6 6 6 6 6 6 6 6 6 6 6 6 6 6 6 6 6 6 6 6 6 6 6 6 6 6 6 6 6 6 6 ",
"l n 9 6 6 6 6 6 6 6 6 6 6 6 6 f r 6 6 6 6 6 6 6 6 d d 6 6 6 6 6 = a.(.G 1.1.j.1.1.G kXkXG d r d 6 6 f 6 9 l l D P 1 1 r 6 6 6 6 6 6 6 6 6 6 6 6 6 f 6 6 6 6 6 6 6 6 6 f 6 6 6 6 6 6 f 6 6 6 6 6 f 6 6 1 j C q.p a y 6 r f 6 r d 6 f 6 6 6 6 6 6 6 6 6 6 6 6 6 6 6 6 r d 6 6 6 6 6 6 6 6 6 f 6 6 6 y i { -.b b f 6 d d 6 6 6 f 6 6 6 f 6 6 f 6 6 f 6 6 g 6 6 6 6 6 6 6 6 6 6 6 6 6 6 6 6 f t z b $.;.x 6 6 6 6 r c 6 v 6 6 6 6 6 0 : : ; : : 6 6 0 : : ; : : * g g * 6 6 6 6 6 % * 6 6 # 6 6 6 6 6 6 6 6 6 6 6 6 6 6 6 6 6 6 6 6 ",
"1.1.d 6 6 6 6 6 6 6 6 6 6 6 6 d 6 6 6 6 6 6 6 6 6 r r 6 6 6 6 6 = a.(.G 1.1.1.1.1.G (.mXW.f 6 r 6 6 f 6 9 l l D P 1 1 r 6 6 6 6 6 6 6 6 6 6 6 6 6 f 6 6 6 6 6 6 6 6 6 f 6 6 6 6 6 6 d 6 6 6 6 6 f 6 6 , j 3 q.p a t 6 6 d 6 r d * f 6 6 6 6 6 6 6 6 6 6 6 6 6 6 6 6 r d 6 6 6 6 6 6 6 6 6 d 6 6 6 y i { -.b b f 6 r r 6 6 6 f 6 6 6 f 6 6 f 6 6 f 6 6 f 6 6 6 6 6 6 6 6 6 6 6 6 6 6 6 6 f r z b X.&.x 6 6 6 6 6 B v M 6 6 6 6 6 0 : : ; : : 6 6 0 : : ; : : * g g * 6 6 6 * 6 y.dXdXLXd.t * 6 6 6 6 6 6 6 6 6 6 6 6 6 6 6 6 6 6 ",
"G +.d 6 6 6 6 6 6 6 6 6 6 6 6 d 6 6 6 6 6 6 6 6 6 r r 6 6 6 6 6 = a.E.G 1.1.1.1.1.1.1.kXNX;.j g 6 6 f 6 9 l l D P 1 1 r 6 6 6 6 6 6 6 6 6 6 6 6 6 f 6 6 6 6 6 6 6 6 6 f 6 6 6 6 6 6 f 6 6 6 6 6 f 6 6 , j 3 q.p a t 6 6 d 6 r d * f 6 6 6 6 6 6 6 6 6 6 6 6 6 6 6 6 r d 6 6 6 6 6 6 6 6 6 f 6 6 6 y i { -.b b f 6 r r 6 6 6 f 6 6 6 f 6 6 f 6 6 f 6 6 f 6 6 6 6 6 6 6 6 6 6 6 6 6 6 6 6 f r z b X.&.x 6 6 6 6 r c 6 v 6 6 6 6 6 0 : : ; : : 6 6 0 : : ; : : * g g * 6 6 * i dXLXd.{ y.dXLX[ % 6 6 6 6 6 f * * * * 6 6 6 6 6 6 6 ",
"l j 6 6 6 6 6 6 6 6 6 6 6 6 6 d 6 6 6 6 6 6 6 6 6 r r 6 6 6 6 6 = iXE.G 1.1.1.1.1.1.1.G (.kX1.B & 6 f 6 9 l l D P 1 1 r 6 6 6 6 6 6 6 6 6 6 6 6 6 f 6 6 6 6 6 6 6 6 6 f 6 6 6 6 6 6 f 6 6 6 6 6 f 6 6 , j 3 q.p a t 6 6 d 6 r d * f 6 6 6 6 6 6 6 6 6 6 6 6 6 6 6 6 r d 6 6 6 6 6 6 6 6 6 f 6 6 6 y i { -.b b f 6 r r 6 6 6 f 6 6 6 f 6 6 f 6 6 f 6 6 f 6 6 6 6 6 6 6 6 6 6 6 6 6 6 6 6 f r z b X.&.x 6 6 6 6 d c 6 v 6 6 6 6 6 0 : : ; : : 6 6 0 : : ; : : * g g * 6 6 6 dXLX& - @ -   dXLXt 6 6 6 6 f O.B v B v f @.c * 6 6 6 ",
"l 0 9 6 6 6 6 6 6 6 6 6 6 6 6 d 6 6 6 6 6 6 6 6 6 r r 6 6 6 6 5 = iXW.G 1.1.1.1.1.1.1.1.(.kXG +.d 6 f 6 9 l l D P 1 1 r 6 6 6 6 6 6 6 6 6 6 6 6 6 f 6 6 6 6 6 6 6 6 6 f 6 6 6 6 6 6 f 6 6 6 6 6 f 6 6 , j 3 q.p a t 6 6 d 6 r d * f 6 6 6 6 6 6 6 6 6 6 6 6 6 6 6 6 r d 6 6 6 6 6 6 6 6 6 f 6 6 6 y i { -.b b f 6 r r 6 6 6 f 6 6 6 f 6 6 f 6 6 f 6 6 f 6 6 6 6 6 6 6 6 6 6 6 6 6 6 6 6 f r z b X.&.x 6 6 6 6 d c 6 v 6 6 6 6 6 0 : : ; : : 6 6 0 : : ; : : * g g * 6 % 0.PX5 O M o.+.6 - dXy.# 6 6 6 f @.o.@.@.w.+.c.g * 6 6 6 ",
"l 0 9 6 6 6 6 6 6 6 6 6 6 6 6 d 6 6 6 6 6 6 6 6 6 r r 6 6 6 d c j zXW.1.1.1.1.1.1.1.1.1.(.cX1.1.1.x r 6 6 l l D P 1 1 r 6 6 6 6 6 6 6 6 6 6 6 6 6 f 6 6 6 6 6 6 6 6 6 f 6 6 6 6 6 6 f 6 6 6 6 6 f 6 6 , j 3 q.p a t 6 6 d 6 r d * f 6 6 6 6 6 6 6 6 6 6 6 6 6 6 6 6 r d 6 6 6 6 6 6 6 6 6 f 6 6 6 y i { -.b b f 6 r r 6 6 6 f 6 6 6 f 6 6 f 6 6 f 6 6 f 6 6 6 6 6 6 6 6 6 6 6 6 6 6 6 6 f r z b X.&.x 6 6 6 6 d c 6 v 6 6 6 6 6 0 : : ; : : 6 6 0 : : ; : : * g g * 6 % d.dX  x B B B B - y.LX* 6 6 6 r c 6 v O.r v g f 6 6 6 6 ",
"m 0 9 6 6 6 6 6 6 6 6 6 6 6 6 f r 6 6 6 6 6 6 6 6 f f 6 6 6 zXmXmXCX1.1.1.1.j.1.1.1.1.1.W.cXG 1.1.1.1.c j l l D P 1 1 r 6 6 6 6 6 6 6 6 6 6 6 6 6 f 6 6 6 6 6 6 6 6 6 f 6 6 6 6 6 6 f 9 6 6 6 6 f 6 6 1 j C q.a a t 6 9 f 6 d d 6 f 9 6 6 6 6 6 6 6 6 6 6 6 6 6 6 6 t f 6 6 6 6 6 6 6 6 r f 6 6 t i i { -.b b z 6 d f 6 6 6 f 6 6 6 f 6 6 f 6 6 f 6 6 g 6 6 6 6 6 6 6 6 6 6 6 6 6 6 6 6 f t z b $.;.x 6 6 6 6 d c 6 v 6 6 6 6 6 0 : : ; : : 6 6 0 : : ; : : * g g * 6 % f.y.  c v B g f   ] d.6 6 6 6 6 & 6 6 6 * $ 6 6 6 6 6 6 ",
": ; # # # # # # # # # # # # @ * = # # # # # # # @ = = # @ 8 cXG 1.1.G G G G G G G G 1.1.c.NXkXE.1.1.j.1.1.n w D P 1 , , 6 6 6 6 7 7 7 7 5 4 4 4 4 y 4 4 4 4 4 4 4 4 4 y 4 4 4 4 4 4 y 5 4 4 4 4 y 4 5 , y u q.s s y 4 5 y + 5 5 + t 5 4 & $ @ @ # # # # # # # # # @ = * @ @ @ @ @ @ @ # # * @ = = y y p ;.z f 6 # = = @ # # * # # = * # # * = @ * = = 1 @ # # # # # # # # # # # # # # # * * 9 f | &.x 6 6 6 6 d c 6 v 6 6 6 6 6 0 : : ; : : 6 6 0 : : ; : : * g g * 6 % d.LX- f M v B v - y.y.* 6 6 f @.f B O.+.f f @.@.B 6 6 6 ",
"mXmXgXgXgXgXgXgXgXgXgXgXgXgXgXgXgXgXgXgXgXgXgXgXgXgXgXgXgXgXDXmXmXNXmXmXmXmXcXlX{.{.U.J.6.{.vXMX3.1.c.1.1.l.3.G / ^ C d f 8 q j 1 < 3 2 Z F J J H #X#X#X#X#X#X#X#X#X#X#X#X#X#X#X#X#X#X#X#X#X#X#X#X#X#X#X#X#X&X+X#X#X#XOX#X#X#X#X#X#XOXOX+X6.{.].kXxXzXzXzXmXmXgXgXgXmXmXmXmXmXmXmXmXmXgXhXhXgXgXgXgXgXhXHXmXmXgXgXgXgXgXgXgXgXgXgXgXgXgXgXgXgXgXgXgXgXgXgXgXgXgXgXgXgXgXgXgXgXgXgXgXgXgXgXgXgXgXNX-.h 6 6 6 6 d c 6 v 6 6 6 6 6 0 : : ; : : 6 6 0 : : ; : : * g g * 6 % ] LXa . f x g O & d.q.% 6 * c +.B B c.+.v O.@.c.@.6 6 6 ",
"8.8.;.;.;.;.;.;.;.;.;.;.;.;.;.;.;.;.;.;.;.;.;.;.;.;.;.;.&.-.NX].kXlXkXcXcXcXMXMXCXFXFXZXvX6.H VX5X5X5XF.1.m.l.G.S.k.h.h j P L P W :X;X;X%X#XH J J J F F F F F F F F F F F F F F F F F F F Q Q Q Q Q F F F F j.G G F G B..X.X~.M.G m.vXZXFXNXgXgXiXiXiXa.a.a.a.a.a.a.a.a.a.a.(.E.{.{.8X8XKXCXfXuX:.%.p.a.zX:.:.:.%.%.%.%.%.%.:.%.%.%.:.%.%.:.%.%.:.%.%.:.%.%.%.%.%.%.%.%.%.%.%.%.%.%.%.%.:.%.:.:.iX-.h 6 6 6 6 d c 6 v 6 6 6 6 6 0 : : ; : : 6 6 0 : : ; : : * g g * 6 6 % d.PXa   X X 5 d.y.6 6 6 6 r o.c M v B r v B B v 6 6 6 ",
"> > : ; ; ; ; ; ; ; ; ; ; ; ; : ; ; ; ; ; ; ; ; ; : : ; ; v cXG 3.3.G G G G 3.G G 1.n.cXNXHX].cX1.3.F.3X3XH.1.l./ h.h.( W P 2 #X%XJ D d , , , , 4 y , , , , , , , , , y , , , , , , y y , , , , 3 P L 3 y u q.s p i.s.i.q.{ s { iXHXhX} { s s s s s s s s s s s s s a a s s s s s s i C J %X*Xr.u.q.y a ;.z f 6 = * * # = # * = # = * # # * = @ * = = d # = = = = = = = = = = = = = = # * * 9 f | &.x 6 6 6 6 d c 6 v 6 6 6 6 6 0 : : ; : : 6 6 0 : : ; : : * g g * 6 6 6 6 f.[ % 6 * t y.t 6 6 6 6 6 * 6 * * * 6 6 * 6 * 6 6 6 ",
"D k l 0 0 0 0 0 0 0 0 0 0 0 0 l l 0 0 0 0 0 0 0 0 l l 0 ; X.cX3.3.l.3.3.3.3.m.3.3.3.3.3.G Q.DXDX3.3.m.1.2.5X3Xz./ k._ / @.H %XH , , , , d , 1 d w %XJ , 1 1 1 1 1 1 1 j d 1 1 1 1 1 j d 1 1 1 d j 6 1 L E C q.{ sXy.a a [ s %.DXgX[ s a p p ] ] ] ] ] ] ] ] ] ] ] p ] [ p ] ] ] ] ] ] ] { { J %XG u.s.[ -.| b z 6 d d 6 6 6 f 6 6 6 f 6 6 f 6 6 f 6 6 g 6 6 6 6 6 6 6 6 6 6 6 6 6 6 6 6 f t z b $.;.x 6 6 6 6 d c 6 v 6 6 6 6 6 0 : : 0 ; 0 6 6 0 : : ; : : * g g * 6 6 6 6 % # 6 t 6 # % 6 6 6 6 6 6 6 6 6 6 6 6 6 6 6 6 6 6 6 ",
"D k w 0 0 0 0 0 0 0 0 0 0 0 0 l l 0 0 0 0 0 0 0 0 l l 0 ; $.cXG 3.l.3.3.3.3.l.3.3.3.3.m.3.3.3.DXDX3.l.3.3.l.3X4X_ _ k.w.*X-Xz.O.V j j H *XJ , F =XJ.@X1 , 1 , , 1 1 1 g d 1 1 1 1 , j d , 1 1 d h 1 1 1 P ! u.pX0.p p { a p.DXp.y [ ] p p p p p p p p p p p p p p p ] ] p p p p p p p p ] [ s N %X+Xi.aX-.b b f 6 r r 6 6 6 f 6 6 6 f 6 6 f 6 6 f 6 6 f 6 6 6 6 6 6 6 6 6 6 6 6 6 6 6 6 f r z b X.&.x 6 6 6 6 d c 6 v 6 6 6 6 6 9 ; 0 Z W W d 6 0 : : ; : : * g g * 6 6 6 * t y.LXLXLXd.i * 6 6 6 6 6 * 6 6 6 6 6 6 6 6 6 6 6 6 ",
"D k w 0 0 0 0 0 0 0 0 0 0 0 0 l l 0 0 0 0 0 0 0 0 l 0 ; ; $.cXG 3.l.3.3.3.1.m.3.1.1.3.l.3.3.3.Q.DXNX3.3.3.F.2.J.:Xk.j.*X-Xw.h.) J.V J &Xz.#X4 F J.e.J.#X, , F F , 1 1 h 1 1 1 1 1 , j d 1 1 1 d g 1 1 1 3 R LXq.{ { ] a p.DXp.a ] [ ] p p p p p p p p p p p p p p p ] ] p p p p p p p p ] [ a p { *X+Xi.dX| b f 6 r r 6 6 6 f 6 6 6 f 6 6 f 6 6 f 6 6 f 6 6 6 6 6 6 6 6 6 6 6 6 6 6 6 6 f r z b X.&.x 6 6 6 6 d c 6 v 6 6 6 6 7 2 W W wXwXwXj 7 j 2 2 2 2 2 * g g * 6 6 * i LXdXy.p y.dXPX[ % 6 6 6 6 x f * 6 6 6 * 6 6 6 6 6 6 ",
"m m j 9 9 9 9 9 9 9 9 9 9 9 9 j d 9 9 9 9 9 9 9 9 h X. .b a.kXG 1.3.1.1.1.5.6.5.5.5.5.j.1.1.3.3.3.GXMXG 3.l.D._ 3XU.) =Xj.D.=X&X&X*X$Xh.j.@XH #X5.j.1.+X1 , %X#X4 d r g r r , r r , j d , 1 1 1 h 1 1 1 C sXd.R q.{ p [ DX%.s [ p [ ] p p p p p p p p p p p p p p p ] ] p p p p p p p p ] [ p p ] } *X&XsXd.q f 6 r r 6 6 6 f 6 6 6 f 6 6 f 6 6 f 6 6 f 6 6 6 6 6 6 6 6 6 6 6 6 6 6 6 6 f r z b X.&.x 6 6 6 6 d c 6 v 6 6 6 6 4 ` wXwX2 d j 6 6 j 2 2 1 2 2 * g g * 6 6 6 dXdX$ - # -   f.LXi * 6 * x B o.c v @.B B g B O.* 6 6 ",
"3X6.H J H H H H H H H H H H J H H J H J J J J J A vXKXJXKXKX8X3X3X3X3X3X3X-X7X7X7X7X>X3XU.J.U.F.m.cXHXkXG F._ K.S.4X,X*X*X*X2.@.@.z.) h.h.) ) =X/ k.j.*XZ #X&X*XF 3 3 2 3 3 2 3 3 3 1 1 1 d r r g , 1 1 d.0.0.g.g.{ s HXiXs [ ] p [ ] p p p p p p p p p p p p p p p ] ] p p p p p p p p ] [ p p ] { q.*X3XsX0.9 6 r r 6 6 6 f 6 6 6 f 6 6 f 6 6 f 6 6 f 6 6 6 6 6 6 6 6 6 6 6 6 6 6 6 6 f r z b X.&.x 6 6 6 6 d c 6 v 6 6 6 6 6 j 2 2 2 2 2 6 6 j 2 2 1 2 2 * g g * 6 % 0.PX& @ M o.+.d   dXd.# 6 * x B o.@.@.+.@.@.@.w.B * 6 6 ",
"J H F K K K K K K K K K K F K F K K K F 5.5.5.5.G MXJ J J J 6.J.J.U.H.H.3X*XL.H.F.F.4X4XL.U.3X3X5XvX8XDX3.( K.H.) >X-XH.3.j.k.( ( _ S._ _ S./ / ( _ S.( ;X;Xx.( :XL L L L :X;XL L L W E L L P P 2 r ; 0.d.R y.q.g.Y iXhXa p ] ] p [ ] p p p p p p p p p p p p p p p ] ] p p p p p p p p ] [ p p ] { q.q.-X5.pXx 6 r r 6 6 6 f 6 6 6 f 6 6 f 6 6 f 6 6 f 6 6 6 6 6 6 6 6 6 6 6 6 6 6 6 6 d 6 z b  .&.x 6 6 6 6 d c 6 v 6 6 6 6 6 j 2 2 1 2 2 6 6 1 2 2 2 2 2 * g g * 6 % d.dX  x B B B B - y.LX* 6 6 6 c f f x f @.f g f f 6 6 6 ",
"4.4.8.(.(.(.(.(.(.(.(.(.kXkXkXkXkXkXkXzXzXkXkXkXzX].l.l.l.l.2.3.l.l.2.3.6.+Xm.l.2.3.J.=X+X5.l.l.m.MXJ.vXCX` l.J.,X&XG.J.S._ ( / k.k.h.h.h.h.h.h.h.k.h.j.H.) j.z.+X1 j y D &X&X2 < 2 -XF 1 #X2 P L L R s.N R y.q.q.g.DX[ [ p [ [ p [ ] p ] ] ] ] ] ] ] ] ] ] ] ] ] p ] [ p ] ] ] ] ] ] p ] [ p ] ] { q.0.a.%XZ.u.; f r = = = r * * 6 d 6 6 f 6 6 f 6 6 z 6 6 6 6 6 6 6 6 6 6 6 6 6 6 6 6 f f z b $.;.x 6 6 6 6 d c 6 v 6 6 6 6 6 j 2 2 1 2 2 r 4 :XwXwXW 2 2 * g g * 6 % f.y.  c v B g f   ] d.6 6 6 6 6 * 6 * 6 6 & 6 6 6 6 6 6 ",
"].].(.8.8.8.8.8.8.8.8.8.4.4.4.4.4.4.4.4.D D D D k G F.F.F.F.F.F.l.J.=X*X=XJ.l.F.F.F.F.J.*X3Xl.F.F.MXm.G CXKX3X=X=Xk._ ` K.j.k.k.k.k.k.k.k.k.k.k.k.k.k.k.j.j.k.k.*X2 u G *Xz.) J 2 Z *X&X2 >XF J J 3 d.g.R e.y.0.q.DXa.a [ ] [ [ ] [ [ [ [ [ [ [ [ [ [ [ [ [ [ [ [ [ [ [ [ [ [ [ [ [ [ [ [ [ [ [ [ { q.0.a.r.0X.X} 9 | &.8.(.kXkXkXkXzXkXkXzXkXkXzXkXkXzXkXkXkXkXkXkXkXkXkXkXkXkXkXkXkXkXkXkXzXzXMX(.g 6 6 6 6 d c 6 v 6 6 6 6 6 j 2 2 2 2 2 6 7 2 W W 2 2 2 * g g * 6 % y.LX- r M M B v - y.y.* 6 6 f @.f B +.+.f g @.@.o.6 6 6 ",
"K K > > > > > > > > > > > > > D k > > w k k k k w G F.2.2.2.2.2.3.4X+X3.2.3.F.2.2.2.2.m.6.+X1.l.2.cXNX|.P.DX-X,X( _ ( z.3Xh.h.h.h.h.h.h.h.h.h.h.h.k.h.h.h.h.h.j.) #X#X*XD.j./ *X*X%XD.) %X*XF @XOXq.d.R g.R y.Y iXZX` { ] p ] ] p [ p p p p p p p p p p p p p p p p ] ] p p p p p p p p p ] p p ] { { 0.a.} o.-X{.iXkX-.&. .$.| | | | b |  .| .. .b |  .b b b b b b b b b b b b b b b b | |  .$.;.-.h 6 6 6 6 d c 6 v 6 6 6 6 6 d j j f g g 6 6 9 0 0 f x z 6 g g * 6 % a LX] . r x f O 5 d.[ % 6 * x +.B B c.+.v O.@.c.@.6 6 6 ",
"F D D k k k k k k k k k k k k D D k k k k k k D w G F.2.2.2.2.2.3.4X6.3.2.2.F.2.2.2.2.l.6.=X3XJ.3.G ].bX) VXKX&X` ( z.k.J.J.j.h.h.h.h.h.h.h.h.h.h.k.h.h.h.h.h.h.h.z.D.k.j.h.h.j.k.&Xk.j.) ) #X&X&Xs.[ Y &X' t.0.SX3X:XR ] p ] ] p [ ] p p p p p p p p p p p p p p p ] ] p p p p p p p p ] [ p p ] { { 0.a.[ a.zX=X$Xm %.:.kXkXkXkXzXzXzXzXzXzXzXzXzXzXxXzXzXzXzXzXzXzXzXzXzXzXzXzXzXzXzXzXzXxXxXMXkXg 6 6 6 6 d c 6 v 6 6 6 6 6 d j j f z f 6 6 9 l 0 6 8 6 6 g g * 6 6 % d.PXp   X   5 f.y.6 6 6 6 6 B x v v B 6 c M B v 6 6 6 ",
"F D D k k k k k k k k k k k w D D w k k k k k D w G F.2.2.2.2.2.3.4X6.3.2.2.F.2.2.2.2.F.2.6.3X=X5.2./.vX@X>XDXY.:X3Xk.z.z.5Xk.h.h.h.h.h.h.h.h.h.h.k.h.h.h.h.h.h.h.h.h.k.h.h.h.h.h.j.k.k.j.h.;X+XU.y.R R *X4Xg.mXhX) @XR Y p ] ] p o.] p p p p p p p p p p p p p p p ] ] p p p p p p p p ] [ p p ] { { 0.a.iXmXp.iXKX>X8X8.;.%.%...*.*.....*.....*.....$.................................*. .$.%.-.-.h 6 6 6 6 d c 6 v 6 6 6 6 6 d j j f x z 6 6 9 l ; a.gXgX8 f g * 6 6 6 6 d.a * 6 6 t 0.r 6 6 6 6 6 * 6 * * * 6 * * * * 6 6 6 ",
"F D D k k k k k k k k k k k w D D w k k k k k D w G F.2.2.2.2.3.3.4X6.3.2.2.F.2.2.2.2.F.2.3.m.4X$X*X5XKX>X3X XCX( 5XJ.k.k.J.J.h.h.h.h.h.h.h.h.h.h.k.h.h.h.h.h.h.h.h.h.k.h.h.h.h.h.h.k.h.h.j.=X&XU.N Y ^ 3XJ./.FXH.) @XR ^ p ] ] p %XV p p p p p p p p p p p p p p p ] ] p p p p p p p p ] [ p p ] { q.q.mXzXa.mXkXsXp.J %X%X@X+XJ J 2.G 4.4.4.4.4.4.4.4.4.4.4.4.4.4.4.4.4.4.4.4.4.4.4.4.4.4.4.4.8.8.g 6 6 6 6 d c 6 v 6 6 6 6 6 d j j d r r 6 6 9 j ; %.a.:.6 f g * 6 6 6 6 % 5 6 1 6 7 % 6 6 6 6 6 6 6 6 6 6 6 6 6 6 6 6 6 6 6 ",
"F D D k k k k k k k k k k k w D D w k k k k k D w G F.2.2.2.5.6.6.=X5.3.2.2.F.2.2.2.2.F.2.2.F.l.2.( &X>XU.CX XCXXX) 5XD.z.k.3Xz.h.h.h.h.h.h.h.h.h.k.h.h.h.h.h.h.h.h.h.k.h.h.h.h.h.h.k.h.h.j.@XXXI.C Y ^ 3XK.ZXbX&X&X*XN -XN ] ] p 6X+.p p p p p p p p p p p p p p p ] ] p p p p p p p p ] [ p p ] { { iXmXzXmXp.*.p.dX....4.5.H +X@X@X@X@X$X$X$X$X$X$X$X$X$X$X$X$X$X$X$X$X$X$X$X$X$X$X$X$X$X$X$X6X3.x 6 6 6 6 d c 6 v 6 6 6 6 6 6 d 9 @.W.v.t 6 9 j 0 6 t t 6 g g * 6 6 6 6 d W ! W ! W 1 7 6 6 6 6 6 6 6 * * 6 6 6 6 6 6 6 6 6 ",
"G 3.G w D k k k k k k k k D w D D w D k k k k D w G F.2.2.5.=X@X*X&X2.2.2.2.F.2.2.2.2.F.2.2.l.3.z.:X>XJ.z._ MXvXDX( J.5Xk.k.H.J.h.h.h.h.h.h.h.h.h.k.h.h.h.h.h.h.h.h.h.k.h.h.h.h.h.h.k.h.h.h.k.dX3X^ Y / &XbXKXG.4X*XJ.H -X*X] { J FXr.s p p p p p p p p p p p p p p ] ] p p p p p p p p ] [ p p ] { p.mXNXmX:.p.%.%.dXp.| ..*.......*.....*.....*.....$................................. . .$.$.-.-.h 6 6 6 6 d c 6 v 6 6 6 6 5 D J G `.nXbXf * 9 j 0 z b z 6 g g * 6 6 6 1 ! W 2 1 3 W ~ 2 7 6 6 6 6 6 6 x x * 6 * 6 6 6 6 6 6 ",
"3.3.G w k w w w w w w w w k w D k w k k k k k k w G F.2.3.5.@X1.3.m.3.2.2.3.l.2.3.3.3.m.3.3.H.4X-X=XH.l._ ( {.VXGX'./ 5XJ.k.k.3Xz.h.h.h.h.h.h.h.h.k.h.h.h.h.h.h.h.h.h.k.h.h.h.h.h.h.k.h.h.^ }.f.G.&XN ;XK.DX8XZ.V.Y.N.>XG.&XB G 5XGXW.s ] p p p p p p p p p p p p p ] ] p p p p p p p p ] [ p p ] { mXgXNXp.p.p.%.%.p.dX|  .#. .|  .X.| | X. .| X. . .$.|  . . . . . . . . . . . . . .| X. .$.&.-.-.h 6 6 6 6 d c 6 v 6 6 6 6 5 ) 6X4X'.bXlXf * 9 j 0 f b z 6 g g * 6 6 6 W W @ o 5 $ o W ! 1 6 6 6 6 6 6 o.o.+.B v d 6 6 6 6 6 ",
"F F D D D D D D D D D D D D D D D D D D D D D D k G H.5.5.6.@X5.5.H.5.5.5.5.H.H.6.6.+X*X@X-X%X=X` z.F.D._ H.) {.nXDXG.D.5Xz.k.H.J.h.h.h.h.h.h.h.h.k.h.h.h.h.h.h.h.h.h.k.h.h.h.h.h.h.k.h.h.j.f.M.C.3X) &XbXCXg.~.V.N.Y.-XZ.H.;X&XmXDX{.i ] p p p p p p p p p p p p p ] ] p p p p p p p p ] [ p ] s iXmXmXiXa.p.p.%.p.%.dXp.| $.| |  .X.| | X. .| X. . .$.| | | | | | | | | | | | | | | | X. .$.&.-.-.h 6 6 6 6 d c 6 v 6 6 6 6 5 H 5X3X'.bXlXf * 9 j 0 f b z 6 g g * 6 7 2 ! @ $ B o.+.f o W W 7 6 6 6 6 6 o.o.@.g c.6 6 6 6 6 6 ",
"%X%X%X%X%X%X%X%X%X%X%X%X%X%X%X%X%X%X%X%X%X%X%X%X%X%X-X-X-X-X>X-X-X-X-X-X-X-X-X-X-X=X=X=X4XJ.F.Y.S.F.L._ K.H.J.{. XlXMX) 5XU.k.z.5Xz.k.k.k.k.k.k.k.k.k.k.k.k.k.k.k.k.k.k.k.k.k.k.k.k.k.k.k.}.}.B.V.U.&XU.DX|.}.~.~.V.Y.5XB.U.>X~.mX_.KXG { [ [ [ [ [ [ [ [ [ [ [ [ [ [ [ [ [ [ [ [ [ [ [ [ [ [ [ p.mXmXiXiXa.a.a.p.p.p.a.dXX.&.$.$.$.&.$.$.&.$.$.&.$.$.&.$.$.$.$.$.$.$.$.$.$.$.$.$.$.$.$.&.&.&.;.8.-.h 6 6 6 6 d c 6 v 6 6 6 6 5 H 5X4X'.bXlXf * 9 j 0 f b z 6 g g * 6 7 W W X x B B o.O.+ 2 W 6 6 6 6 6 6 x x 6 x M & 6 6 6 6 6 ",
"F F D D D D D D D D D D D D D D D D D D 5.5.5.5.5.F.F.5.2.6.@X3.5.F.5.5.2.2.l.2.3.3.3.m.3.3.z._ F.l.K._ D.K.H.P.CXlXDX/.) 5Xz.k.H.J.h.h.h.h.h.h.h.k.h.h.h.h.h.h.h.h.h.k.h.h.h.h.h.h.k.h.j.f.M.M.C.Z.0XZXCXx.}.~.V._.bXY.M.k.K..XmXc.CXW.s p p p p p p p p p p p p p ] [ p p p p p p p p ] p p p iXNXiXp.iXa.p.p.%.p.p.%.dX%.X. . . .X.| | X. .| $. .$.$.|  . . . . . . . . . . . . . .| X. .$.&.-.-.h 6 6 6 6 d c 6 v 6 6 6 6 5 H 5X4X'.bXlXf * 9 j 0 z b z 6 g g * 6 7 W W o c v v B B $ 3 W 6 6 6 6 6 6 $ * f 6 6 d r 6 6 6 6 ",
"F D D w k k k k k k k k k k w D D w w D 2.2.2.2.2.l.l.2.3.6.@X3.2.l.2.2.2.2.F.2.2.2.2.F.2.2.( K.l.l._ D.D.H.H.J.P.MXlXCX/ J.3Xk.k.3Xz.h.h.h.h.h.h.k.h.h.h.h.h.h.h.h.h.k.h.h.h.h.h.h.k.^ }.}.x.M.B.x.[.DXN.N.}.~.N.mXCXY.bX_.c.CX).b.W.FXiX@.[ p p p p p p p p p p p ] ] p p p p p p p p ] a.s %.mXmXp.a.iXa.p.p.%.p.p.%.a.iXX. .|  .X.| | X. .| X.$.$.$.| | | | | | | | | | | | | | | | X. .$.&.-.-.h 6 6 6 6 d c 6 v 6 6 6 6 5 H 5X4X'.bXlXf * 0 l 0 f i z 6 g g * 6 7 W W o d f x B c o W W 7 6 6 6 6 c v B +.6 O.@.w.f 6 6 6 ",
"F D D k k k k k k k k k k D w D D k w D 2.2.2.2.2.F.F.2.3.6.@X3.5.F.2.2.2.2.F.2.2.2.2.F.2.z._ F.l.( _ D.D.H.H.J.( MX) CXlX) 5XD.h.J.J.h.h.h.h.h.h.k.h.h.h.h.h.h.h.h.h.k.h.h.h.h.h.h.k.k.f.M.M.M.B.x.DXbXx.N.}.~.N.CXCXM.GXDX_.bXY.W.c.CXgXmXkXs p p p { ] p p p p p ] ] p p p p p p p p ] hX] zXNXa.p.a.iXa.p.p.%.p.p.%.%.dX&.| |  .X.| | X. .|  .&.&.$.|  .| | | | | | | | | | | |  .| X. .$.&.-.-.h 6 6 6 6 d c 6 v 6 6 6 6 5 H 5X4X'.bXlXf * 9 j 0 b ....6 g g * 6 7 1 ! 3 o $ g f X = W 2 7 6 6 6 c @.+.w.c c w.@.c.x * 6 6 ",
"F D D k k k k k k k k k k k w D D k w D 2.2.2.2.2.l.l.2.3.6.@X3.5.F.2.2.2.2.F.2.2.2.2.F.2.( K.F.z._ G.D.D.H.H.J.( MXG.L.DXz.J.3Xk.z.3Xz.h.h.h.h.h.k.h.h.h.h.h.h.h.h.h.k.h.h.h.h.h.h.^ }.}.x.M.B.x.mXCXx.N.N.}.~.N.mXCX_.bXbXDX~.Y.B.v.c.mXGXFXiXp ] v G a ] p p p p ] ] p p p p p p p s [ hXp.NXzXp.p._.cXa.p.p.p.p.p.%.&.f.a.|  . .X.| | X. .| #.8.mX$. . .| | | | | | | | | | | |  .| X. .$.&.-.-.h 6 6 6 6 d c 6 v 6 6 6 6 5 H 5X4X'.nXlXf * 0 l : iXHXNXt f g * 6 6 7 W ~ 1 X @ X = ~ W 6 6 6 6 6 6 c f x f r B c B r 6 6 6 ",
"F D D k k k k k k k k k k k w D D k w D 2.2.2.2.2.F.F.2.3.6.+X3.5.F.2.2.2.2.F.2.2.2.2.F.l._ F.F.( ( G.D.D.H.H.J.( bXP.) lXCX/ 5XD.h.J.J.j.h.h.h.h.k.h.h.h.h.h.h.h.h.h.k.h.h.h.h.h.h.k..XM.M.M.x.).DXV.M.N.N.}.~.V.mXCXbX_. XCXj.N.T.v.w.I.KX).MX} s G 9Xa.s ] p p p ] ] p p p p p p 1.a.{ DXmXmXp.p.a._.cXp.gXNXr.p.p.%.p.p.dX .#.#. . .| X. .#.8.8.DX;.&.|  . .|  . .| | | | | | |  .| X. .$.&.-.-.h 6 6 6 6 d c 6 v 6 6 6 6 5 H 5X4X'.nXlXf & J %X#XzXHXNXt f g * 6 6 6 6 W 1 * # % ; W 6 6 6 6 6 6 6 * 6 * 6 6 * * * 6 6 6 6 ",
"G G D w k k k k k k k k k k w D D k w D 2.2.2.2.2.F.l.2.3.6.+X3.5.F.2.2.2.2.F.2.2.2.l.5.( K.F.D._ D.G.D.D.H.H.J.( MX'.D.) CXcX) 5Xh.z.5Xk.h.h.h.h.k.h.h.h.h.h.h.h.h.h.k.h.h.h.h.h.^ ~.}.x.M.M.M.DXbXx.B.N.N.}.V.V.mXCXGX).N.|.b.v.Y.M.v.c.z.w.{.HX} G FXhXp.p p p p ] { p ] { G *.s 4XBXa.GXNXkX%.a.)._.lXp.HXNXW.W.p.%.a.W.dXp.4.1.X.X.| X.| 8.mXNXGXa.mX| #.X.| X.| | | | | | | |  .| X. .$.&.-.-.h 6 6 6 6 d c 6 v 6 6 6 6 5 H 5X4X'.bXlXf & J %X%XzXHXNXt f g * 6 6 6 6 $ 6 [ p.*.t $ 6 6 6 6 6 6 6 6 6 6 6 6 6 6 6 6 6 6 6 ",
"3.m.G w k k k k k k k k k D w D D k w D 2.2.2.2.2.l.F.5.2.+X+X3.5.F.2.2.2.2.F.2.2.2.2.F._ l.F.K.( D.G.D.D.H.H.J.( P.CXG.) G.DX'.&XG.h.J.J.h.h.h.h.k.h.h.h.h.h.h.h.h.h.k.h.h.h.h.h.h..XC.M.M.x.DXmXx.B.M.N.N.}.V.~.CXM.DX).x.Y.B.v.N.T.v.v.v.r.) vXiXU.MXDXZXp.a p p [ V c V g {.NXp.vXDXmXGXNXa.p.a.lXlXCXa.NXGXkXW.kXa.a.^._.dX3.8.-.iX .$.| (.GXGXGXiXDX .1.kX .(.&.|  . . . . . . .| X. .$.&.-.-.h 6 6 6 6 d c 6 v 6 6 6 6 5 H 5X4X'.bXlXf & J %X%XzXHXNXt f g * 6 6 6 % %.jXUXjXUXjXp.6 6 6 6 6 6 6 6 * * 6 6 * 6 6 6 6 6 6 ",
"G G D w w w w w w w w w w w w D D w w D 2.2.2.2.3.+X=X@X@X$X6.3.2.F.2.2.2.2.F.2.2.2.2.K.( 2.D._ D.D.G.D.D.H.H.J.K.) lXcXG.) Z.DX{.&Xk.z.3Xh.h.h.h.k.h.h.h.h.h.h.h.h.h.k.h.h.h.h.^ C..XM.M.x.CXCXx.M.M.M.N.N.}.bXDXbXx.CX~.M.T.R.v.B.Y.v.v.v.v.b.4XcX{.cXW.{.iXA iX} N J.W.L.BXVXFXGXCXKXBXZXGXNXcXv.DXmXDXiXNXGXcXb.CXzXgXcXW.iX^.1.NXNX#.&.#.zXGXmXDXmXDX-.W.NX .NX:.b | | | | | | | | X. .$.$.-.-.h 6 6 6 6 d c 6 v 6 6 6 6 5 H 5X4X'.bXlXf & J %X%XzXHXNXt f g * 6 6 % p.UXa.y @ 5 %.UXiX% 6 6 6 6 6 f c c g 6 x d 6 6 6 6 6 ",
"F D D D D D D D D D D D D 3.3.3.3.3.3.3.F.F.F.F.l.*XJ.l.l.l.l.F.F.F.l.F.F.l.F.F.F.F.F._ D.F.K.K.G.G.G.G.G.K.H.J.K.K.P.lXCXlX) [.DXvX) k.U.J.j.k.k.k.k.k.k.k.k.k.k.k.k.k.k.k.k.k.k..X~.x.B.DXCXx.V.B.B.N.N.N..XCXCXbXx.V.V.M.B.Y.M.B.T.T.v.b.b.r.H.KXFXW.c.^.cX{.DXp.a.GXDXmXFXFX8XGXvX4XFX8XFXGXvXmXGXDXGXcXCXGXCXB.CXDXGXmXmXCXbXkXDXDXn.1.n.GXGXcXDXNXDXmXDXHX$.NX-.|  . . . . . . . .$.$.&.&.8.-.h 6 6 6 6 d c 6 v 6 6 6 6 5 H 5X4X'.bXlXf & J %X%XzXHXNXt f g * 6 * i jXp.. % g 9 . [ jX*.% 6 6 6 6 f c.c.+.w.v.g * 6 6 6 6 ",
"F D D D D D D D D D D D D F.F.F.F.F.F.F.l.l.l.F.l.*XH.l.F.F.F.l.F.F.l.l.l.l.F.F.l.2.K.K.F.D._ G.D.D.G.D.G.K.H.J.K.K.D.) G.CX/.) Z.DXCXA./ &X^ h.k.k.k.k.k.k.k.k.k.k.k.k.k.k.k.^ C.}.M.bXDXmXx.B.V.M.B.N.N.N.bXbXN.V.B.B.B.M.B.T.R.B.M.Y.b.v.v.v.j.vXHXc.v.m.CXDXGXa.MXKXGXBXvXDX=XKX{.5XGX8X8XGXGXGXFXZXGXGXDXDXGX^.mXGXGXmXDXGXbXGXGXGXNXlXkXGXDXE.cXDXCXNXDXGX&.DXa. . . . . . . . . .$.$.&.&.-.-.h 6 6 6 6 d c 6 v 6 6 6 6 5 H 5X4X'.bXlXf & J %X%XzXHXNXt f g * 6 # a.jX  6 o.o.@.M . dXdX# 6 6 6 6 6 O.o.B O.o.g 6 6 6 6 6 ",
"F D D w w w w w w w w w D 2.2.l.2.2.2.2.2.2.2.2.3.*XH.3.2.2.2.2.2.F.2.2.2.2.F.2.2.2._ G.2.( _ D.D.D.G.D.D.H.H.J.K.D.D.G.) Z.CXZ.) ) vXDXCXvX[.j.^ ^ ^ ^ ^ ^ ^ ^ ^ ^ ^ ^ ^ ^ h.j.bXCXDXCX).x.M.M.B.M.M.M.~.CXDXbXV.C.M.M.B.M.M.B.Y.B.v.R.N.v.v.v.v.r.W.v.v.b.FXcXGXNXcX4XVXHXlXDX&X8X5XcXGX^.8XFXBX8X>XKXGXGXCXCXGXDXDXDXGXCXGXGXmXDXGXGXGXDXDXGXMXn.E.MXkXmXmXGX&.DXiX#. .| | | | | | | X. .$.&.-.-.h 6 6 6 6 d c 6 v 6 6 6 6 5 H 5X4X'.bXlXf & J %X%XzXHXNXt f g * 6 % dXiX  c M B c c   p.jX6 6 6 6 * 6 * * & 6 6 6 * 6 6 6 6 ",
"F D D D D D D D D D D D G 2.2.F.l.2.2.2.2.2.2.2.3.*XH.2.2.2.2.2.2.F.2.2.2.2.F.l.2.D.( F.l._ G.G.D.D.G.D.D.H.H.J.K.K.D.D.D.) `.CXG.z.) J.).CXFXDXHXCXCXCXmXmXmXmXmXmXmXCXCXCXHXDXDXmX).x.x.M.M.M.B.M.M.x.CXbXGX_.V.V.M.M.B.M.B.M.R.T.v.M.Y.v.v.v.v.v.v.v.v.c.DXkXNXFXL.4X*Xr.E.CXr.) 5XVXFX!.8XZX,X=X5X{.ZXHXcX!.cXGXDXDXDXDXDXGXGXDXGXNXcXGXGXDXQ.n.Q.Q.n.m.n.mX(.BXcX@. .|  .| | |  .| X. .$.&.-.-.h 6 6 6 6 d c 6 v 6 6 6 6 5 H 5X4X'.nXlXf & J %X%XcXHXNXt f g * 6 % iXiX  x v M c c   } f.6 6 6 6 c 6 g f c 6 6 x c f 6 6 6 ",
"G G 3.2.2.2.2.2.2.2.2.2.2.2.2.F.l.2.2.2.2.2.2.2.3.*XF.2.2.2.2.2.2.F.2.2.2.2.F.l.2._ D.F.K.( D.G.D.D.G.D.D.H.H.J.K.K.D.D.D.G.) lXCXG.D.5X/ ^ 3XG.b.^.!._.lXlXcXcXcXlXlX_.).E.j..XC.j.M.B.M.M.M.M.B.M.M.V.CXN.DX).V.C.M.M.B.M.B.B.M.Y.M.v.R.N.v.v.v.v.v.v.v.v.W.v.W.{.b.U.3Xr.W.mXv.v.vXZX`.!.8XZX,X5XiX/.8XmX^.`.).CXE.CXmXHXmXDXGXCXGXMX3.cXDX(.Q.W.n.U.m.W.H.vXmXZXBXW.1. .|  .| |  .| X. .$.&.-.-.h 6 6 6 6 d c 6 v 6 6 6 6 5 J 4X&XE.lX_.f 5 J %X#XiXHXhX8 f g * 6 # p.jX  $ v M B f - a.p.% 6 * x @.c B c.+.x M w.c.+.6 6 6 ",
"H.F.5.2.2.2.2.2.2.2.2.2.2.2.2.F.l.2.2.2.2.2.2.2.3.*XF.2.2.2.2.2.2.F.2.2.2.2.F.2.z.( l.F._ D.D.G.D.D.G.D.D.H.H.J.K.K.D.D.D.D.G.) lXlX/ U.) ^ D.3X^ _.~.^ ^ ^ ^ ^ ^ ^ ^ ^ ^ ^ x.f.M.M.B.M.M.M.M.M.B.M.M.~.mXN.}.V.V.C.M.M.B.M.B.B.M.Y.N.v.M.Y.v.v.v.v.v.v.v.v.c.v.v.w.v.b.b.v.v.v.c.E.ZXlXE.^.`.vX3X).)._.5X`._.).).).E.mX_.CX{._.NX).DXMXm.Q.CXU.U.4Xm.>X4XW.=X6XDXKXFXDXn.&.|  .| |  .| X. .$.&.-.-.h 6 6 6 6 d c 6 v 6 6 6 6 5 F &XH b.(.(.f 5 F OXOXrXAXtX8 f g * 6 * t jXf.  @ 6 &   [ iXi * 6 * g @.B B @.+.c o.@.w.+.6 6 6 ",
"F.L.F.2.2.2.2.2.2.2.2.2.2.2.2.F.l.2.2.2.2.2.2.2.2.*XF.2.2.2.2.2.2.F.2.2.2.2.F.2._ D.l.K._ D.G.G.D.D.G.D.D.H.H.J.K.K.D.D.D.D.D.D.G.CXCXMXZX^.h.3Xm.HXmX^ j.h.h.h.h.h.h.k.h.^ }.~.M.M.B.M.M.M.M.x.M.M.x.).bXN.}.V.V.C.M.M.B.M.B.B.M.V.Y.v.v.R.M.v.v.v.v.v.v.v.v.v.v.v.b.v.v.v.v.v.c.lXZX`.!.`.!.E.).).).bX6X5X{.U.5X5X{.).E.mX6XQ.5XQ.CXcXn.Q.Q.=X=X-Xm.,X-XW.=X0XcXKXU.DXMXO. . .| |  .| X. .$.&.-.-.h 6 6 6 6 d c 6 v 6 6 6 6 5 F &XH W._.(.f 5 F #XOXrXAXtX8 f g * 6 6 % %.UXr.O @ @ i dX%.* 6 6 6 6 g r f d f 6 f f f f 6 6 6 ",
"[.[.L.2.2.2.2.2.2.2.2.2.2.2.2.F.l.2.2.2.2.2.2.2.2.*XF.2.2.2.2.2.2.F.2.2.2.2.5.D._ l.l._ D.D.G.G.D.D.G.D.D.H.H.J.K.K.D.D.D.D.D.D.D.G./.z.{.VX^ /.FX_.mXb.^ h.^ ^ h.h.h.k.h.x.f.M.M.M.B.M.M.M.x.bXbXx.x._.bXx.}.V.V.C.M.M.B.M.B.B.M.B.Y.N.v.M.Y.v.v.v.v.v.v.v.v.v.v.v.v.b.v.v.v.v.E.ZXlXE.^.`.!.!.!.).).bX{.6X-X6X-X-X5X(.Q.E.-X{.-X3X'.8XF.Q.m.>X-X3X4X,X4X4X,X0X].8XH W.DXzX|  .| |  .| X. .$.&.-.-.h 6 6 6 6 d c 6 v 6 6 6 6 5 F &XH W._.(.f 5 F #XOXrXAXtX8 f g * 6 6 6 % [ 8 7 7 7 7 a * 6 6 6 6 6 * 6 6 6 6 6 6 6 * 6 6 6 6 ",
"L.L.F.2.2.2.2.2.2.2.2.2.2.2.2.F.2.2.2.2.2.2.2.2.2.*XF.2.2.2.2.2.2.F.2.2.2.2.5.( D.2.D._ D.D.D.G.D.D.G.D.D.H.H.J.K.K.D.D.D.D.D.D.D.D.) D.) VXlXcX8X) !.cX^ ^ ~.b.^ h.h.k.^ }.}.M.M.M.B.M.M.~.M.CXCXx.x._.bXx.}.V.V.C.M.M.B.M.M.B.M.B.N.Y.v.v.Y.M.v.v.v.v.v.v.v.v.v.v.v.v.v.v.v.c.lXZX`.E.!.^.E.!.!.).)._.vX-X,X-X6X=X-X5X5XL.-XU.-X>XU.-X>XQ.n.>XL.3X-X-X3X-X>X,XL.-XU.b.cXHX| | | | | | X. .$.&.-.-.h 6 6 6 6 d c 6 v 6 6 6 6 5 F &XH W._.(.f 5 F #XOXrXAXtX8 f g * 6 6 6 6 $ 3 W ! W 2 % 6 6 6 6 6 6 6 6 6 6 6 6 6 6 6 6 6 6 6 ",
"H.F.5.2.2.2.2.2.2.2.2.2.2.2.2.F.F.2.2.2.2.2.2.2.2.=XF.2.2.2.2.2.l.F.2.2.l.2.G._ l.l._ K.D.D.G.G.D.D.G.D.D.H.H.J.K.K.G.D.D.D.D.D.D.D.D.D.z.I.vXGX{.3Xj.mXk.b.DXcX^ k.h.k.j.f.x.M.M.M.M.M.B.GXbXmXmXB.x.CX XN.}.V.V.V.M.B.B.M.B.B.M.V.M.Y.N.v.N.T.v.v.v.v.v.v.v.v.v.v.b.b.v.v.v.W.ZXvX!.!.^.`.!.!.).).)._.vX>X>X-X6X6X>X-X>X=X-XU.4X4X5X6X>X3XL.-XE.6X=X4X3X>XL.4X4X-XU.W.m.mX$. . . . . .$. .$.&.-.-.h 6 6 6 6 d c 6 v 6 6 6 6 5 F &XH W._.(.f 5 F #XOXrXAXtX8 f g * 6 6 6 6 W ~ ~ W ~ ~ ~ d 6 6 6 6 r 6 * 6 6 6 6 6 6 * * 6 6 6 ",
"H.H.F.F.F.F.F.F.F.F.F.F.F.F.F.F.F.F.l.J.=X*X*X*X=X*XF.F.F.F.F.F.F.F.F.F.F.2.K.K.F.G._ G.G.G.G.G.G.G.G.G.G.K.H.J.K.K.K.G.G.G.G.G.G.G.G.G.G.H.3XMXZ.5Xz.mX~.CXCXCX^.k.k.z.}.bXmXB.V.B.CX_.~.CXCXbXCXV.~.DX/.T.}.~.~.V.B.V.V.B.V.V.B.V.B.N.Y.B.B.Y.B.b.b.b.b.b.b.b.b.b.~.~.b.~.v.lXZX'.^.`.`.`.`.`.`.`._.lXlX>XI.-X6X6X6X5X4X6X-X>X5X_.6X8XbX=X>X3XE.U.U.U.U.-XE.U.>X-X3XE.Q.mX-.X.$.$.$.$.&.&.&.;.8.-.h 6 6 6 6 d c 6 v 6 6 6 6 5 F &XH W._.(.f 5 F #XOXrXAXtX8 f g * 6 6 7 W qX1 o X o = ~ ~ 6 6 * g @.v c g d O.o.o.c x o.f 6 6 ",
"5.5.5.2.2.2.2.2.2.2.2.2.2.2.2.F.2.2.3.+X+X2.5.5.5.F.l.2.2.2.2.2.2.F.2.2.2.z._ l.l._ K.G.D.D.D.G.D.D.G.D.D.H.H.J.K.D.D.D.D.D.D.D.D.D.D.D.D.z.3X) h.U.J.W.CXcX^ ~.mX^ h.k.dXCXCXB.j.!.CXmXCXbXDXbXbXmX).bXx.N.}.C.V.C.M.M.B.M.M.B.M.B.M.M.Y.M.v.N.R.v.v.v.v.v.v.v.v.v.v.v.v.v.v.ZXvXE.!.E.!.^.E.E.!.).)._.lX>X{.-X4X4X4XQ.a.4X6X,X5Xa.6X4XdX-X,X3XW.W.W.Q.n.4XW.U.,X=X3XW.m.mX-.| | | | |  . .$.$.-.-.h 6 6 6 6 d c 6 v 6 6 6 6 5 F &XH W._.(.f 5 F #XOXrXAXtX8 f g * 6 7 3 ~ 1 o g B M $ = ~ P 7 * c v c.o.O.@.B c.c.+.c.c.f 6 6 ",
"F.F.5.2.2.2.2.2.2.2.2.2.2.2.2.F.l.2.3.+X6.3.2.2.2.l.F.2.2.2.2.2.2.F.2.2.2.( K.l.D._ D.G.D.D.G.G.D.D.G.D.D.H.H.J.K.K.D.D.D.D.D.D.D.D.D.D.D.z.H.5Xk.z.5X/ j.j.h.h.cXh.^ N.CX_.bXmX~.mXbXM._.x.DXbXx.bXDXbXx.N.}.V.V.C.M.M.B.M.B.B.M.B.M.M.N.Y.v.v.Y.b.v.v.v.v.v.v.v.v.v.b.v.c.'.ZX'.E.!.!.!.`.!.!.!.).)._.lX5X{.-X5X5X/.^.!.[.I.>X5Xa.6X4XiX X$X4XW.n.n.Q.n.n.W.U.>X4X3XW.m.MXkX|  . . .| X. .$.&.-.-.h 6 6 6 6 d c 6 v 6 6 6 6 5 F &XH W._.(.f 5 F #XOXrXAXtX8 f g * 6 7 W ~ o f B B +.B o ! ~ 7 6 f O.c r o.B d c c x v v f 6 6 ",
"F.F.5.2.2.2.2.2.2.2.2.2.2.2.2.F.l.2.3.+X6.3.2.2.2.F.l.2.2.2.2.2.2.F.2.2.l._ G.l.( K.D.G.D.D.D.G.D.D.G.D.D.H.H.J.K.K.D.D.D.D.D.D.D.D.D.D.D.D.z.3XH.k.J.J.^ h.h.^ mXb.^ CXCXV._.CXCXCXB.M.x.M.).~.M.M.DX_.x.N.}.V.V.C.M.M.B.M.B.B.M.B.M.M.M.Y.M.v.N.R.v.v.v.v.v.v.v.v.v.b.v.v.VXvXE.!.!.!.!.`.!.!.!.).)._.lX_.`.6X5X5X_.E.!.).^.L.Q.(.4X4X_.iX3X3XW.n.Q.Q.n.n.W.U.=Xm.=XU.n.kXHXX. .|  .| X. .$.&.-.-.h 6 6 6 6 d c 6 v 6 6 6 6 5 F &XH W._.(.f 5 F #XOXrXAXtX8 f g * 6 7 ! W o c M B B o.$ 3 ~ 6 6 6 * * * g & * * & & * 6 6 6 6 ",
"F.5.5.2.2.2.2.2.2.2.2.2.2.2.2.F.l.2.3.+X6.3.2.2.2.l.l.2.2.2.2.2.2.F.2.2.K.( F.D._ D.D.G.D.D.D.G.D.D.G.D.D.H.H.J.K.K.D.D.D.D.D.D.D.D.D.D.D.D.z.H.3Xk.z.5Xh.h.h.^ E.CXCXmXB.M.M.x.M.M.B.M.M.M.M.M.B.M.M.B.N.N.}.V.V.C.M.M.B.M.B.B.M.B.M.M.M.N.R.v.M.Y.v.v.v.v.v.v.v.v.v.b.c.`.ZX'.E.!.!.!.!.`.!.!.!.).)._.lX`.`.-XQ.^.!.!.!.!.`.).!.!./.Q.E.bXE.n.Q.n.Q.Q.n.n.W.L.4XW.4X=Xm.n.mX;.| |  .| X. .$.&.-.-.h 6 6 6 6 d c 6 v 6 6 6 6 5 F &XH W._.(.f 5 F #XOXrXAXtX8 f g * 6 7 W ~ o g M x g B o W ~ 6 6 6 6 6 M x B B g x M d 6 6 6 6 ",
"F.F.5.2.2.2.2.2.2.2.2.2.2.2.2.F.l.2.3.@X6.3.2.2.2.l.l.2.2.2.2.2.2.F.2.2._ z.F.( ( D.D.G.D.D.D.G.D.D.G.D.D.H.H.J.K.K.D.D.D.D.D.D.D.D.D.D.D.D.D.z.5XH.h.J.J.h.h.h.^ b.dXN.M.M.M.M.M.M.B.M.M.M.M.M.B.M.M.M.N.N.}.V.V.C.M.M.B.M.B.B.M.B.M.M.M.M.Y.M.v.R.N.v.v.v.v.v.v.v.v.b.v.nXVX!.!.!.!.!.!.`.!.!.!.).)._.lX`.`.6X^.).^.!.!.!.`.!.!.!.).!.E._.bX3.Q.n.Q.Q.n.n.n.n.n.n.a.3XU.n.cXa.|  . .| X. .$.&.-.-.h 6 6 6 6 d c 6 v 6 6 6 6 5 F &XH W._.(.f 5 F #XOXrXAXtX8 f g * 6 7 2 ~ = X x v r $ X ~ W 7 6 6 6 6 O.o.@.w.v B ~.o.6 6 6 6 ",
"L.L.F.2.2.2.2.2.2.2.2.2.2.2.2.F.F.2.3.@X6.3.2.2.2.l.l.2.2.2.2.2.2.F.2.K.( 2.G._ D.D.D.G.D.D.D.G.D.D.G.D.D.H.H.J.K.K.D.D.D.D.D.D.D.D.D.D.D.D.D.z.J.3Xh.z.5Xh.h.h.^ M..XM.M.M.M.M.M.M.B.M.M.M.M.M.B.M.M.M.N.N.}.V.V.C.M.M.B.M.B.B.M.B.M.M.M.M.T.R.v.M.Y.v.v.v.v.v.v.v.b.v.!.ZXlXE.!.!.!.!.!.`.!.!.!.).)._.lX`.`.6X^.).^.!.!.!.`.!.!.!.`.!.!.`.bXQ.Q.Q.Q.Q.n.n.n.n.n.n.W.L.3Xv.cXNX&.|  .| X. .$.&.-.-.h 6 6 6 6 d c 6 v 6 6 6 6 5 F &XH W._.(.f 5 F #XOXrXAXtX8 f g * 6 6 6 ~ ~ = X @ X X ~ ~ d 6 6 6 6 6 c M O.O.c 6 o.o.6 6 6 6 ",
"L.L.F.2.2.2.2.2.2.2.2.2.2.3.3.l.l.3.1.@X6.3.2.2.2.F.F.2.2.2.2.2.2.F.2._ D.2.K.( D.D.D.G.D.D.G.G.D.D.G.D.D.H.H.J.K.K.D.D.D.D.D.D.D.D.D.D.D.D.D.D.z.5XD.h.3XH.h.h.^ .X~.B.M.M.M.M.M.M.B.M.M.M.M.M.B.M.M.M.N.N.}.V.V.C.M.M.B.M.B.B.M.B.M.M.M.M.M.Y.M.v.R.N.v.v.v.v.v.v.v.v.vXZX!.!.!.!.!.!.!.`.!.!.!.).)._.lX`.`.6X^.).^.!.!.!.`.!.!.!.`.!.!.!.bX).n.Q.Q.Q.n.n.n.n.n.n.W.m.4XJ.].GX:.b  .| X. .$.&.-.-.h 6 6 6 6 d c 6 v 6 6 6 6 5 F &XH W._.(.f 5 F #XOXrXAXtX8 f g * 6 6 6 d ~ 2 5 & * j ~ 3 7 6 6 6 6 6 6 6 6 6 6 6 6 6 6 6 6 6 ",
"F.F.5.2.2.2.2.2.2.2.2.2.5.6.+X3X3X+X6.=X5.2.2.2.2.l.l.2.2.2.2.2.l.2.z.( l.l._ D.D.D.D.G.D.D.D.G.D.D.G.D.D.H.H.J.K.D.D.D.D.D.D.D.D.D.D.D.D.D.D.D.z.U.J.h.D.3Xh.^ M.f.M.B.M.M.M.M.M.M.B.M.M.M.M.M.B.M.M.M.N.N.}.V.V.C.M.M.B.M.M.B.M.B.M.M.M.M.M.R.R.v.M.Y.v.v.v.v.v.v.v.^.ZXlXE.!.!.!.!.E.!.`.E.!.!.).)._.lX`.`.I.^.!.^.E.!.!.`.!.!.!.`.E.!.^._.bXn.Q.n.Q.n.n.n.n.n.n.n.W.=X=X(.GXiXb  .| X. .$.&.-.-.h 6 6 6 6 d c 6 v 6 6 6 6 5 F &XH W._.(.f 5 F #XOXrXAXtX8 f g * 6 6 6 6 6 6 6 6 6 6 r 6 6 6 6 6 6 6 6 6 6 6 6 6 6 6 6 6 6 6 ",
"H.H.F.F.F.F.F.F.F.F.F.l.3X=X3X3X3X3X4X3XF.F.F.F.F.F.F.F.F.F.F.F.F.F._ G.F.K.oXG.G.G.G.G.G.G.G.G.G.G.G.G.G.K.H.J.K.K.K.G.G.G.G.G.G.G.G.G.G.G.G.G.G.G.5XG.k.3XG.h..X}.M.V.B.B.B.B.B.B.V.B.B.B.B.B.V.B.B.N.N.T.}.~.~.V.B.B.V.B.B.V.B.V.B.B.B.B.B.B.Y.B.b.T.V.v.b.b.b.b.v.vXZX`.^.`.`.`.`.`.`.`.`.`.`.`._._.lX'.'._.`.`.`.`.`.`.`.`.`.`.`.`.`.`.^.bX^.Q.Q.Q.Q.Q.Q.Q.Q.Q.Q.W.=X-X!.GXiX| $.X.&.$.&.&.8.-.h 6 6 6 6 d c 6 v 6 6 6 6 5 F &XH W._.(.f 5 F #XOXrXAXtX8 f z * 6 6 6 6 6 6 6 6 6 6 6 6 6 6 6 6 6 6 6 6 6 6 6 6 6 6 6 6 6 6 ",
"H.F.2.3.3.3.3.3.3.3.3.1.&X6.1.l.l.3.3.3.2.2.2.2.2.F.F.2.2.2.2.2.2.G.( l.l._ K.D.D.D.D.G.D.D.G.G.D.D.G.D.D.H.H.J.K.K.D.D.D.D.D.D.D.D.D.D.D.D.D.D.D.z.J.J.h.H.3Xx..XM.M.B.M.M.M.M.M.M.B.M.M.M.M.M.B.M.M.N.N.N.}.V.V.C.M.B.B.M.B.B.M.B.M.M.M.M.M.M.Y.N.v.M.Y.v.v.v.v.v.E.ZXlXE.!.!.!.!.!.!.!.`.!.!.!.).)._.lX'.`.`.!.^.^.!.!.!.`.!.!.!.`.!.!.`.E.bX_.n.Q.Q.n.Q.n.n.n.n.n.W.=X>XW.GXgXb  .| X. .$.&.-.-.h 6 6 6 6 d c 6 v 6 6 6 6 5 F &XH W._.(.f 5 F #XOXrXAXtX8 f g 6 6 6 6 6 6 6 6 6 6 6 6 6 6 6 6 6 6 6 6 6 6 6 6 6 6 6 6 6 6 6 ",
"F.2.5.+X+X+X+X+X+X+X+X+X=X5.2.F.F.2.2.2.2.2.2.2.2.l.l.2.2.2.2.2.2._ D.2.K._ G.D.D.D.D.G.D.D.D.G.D.D.G.D.D.H.H.J.K.K.D.D.D.D.D.D.D.D.D.D.D.D.D.D.D.G.D.5Xz.k.3X X~.M.M.B.M.M.M.M.M.M.B.M.M.M.M.M.B.M.M.M.N.N.}.V.V.C.M.M.B.M.B.B.M.B.M.M.M.M.M.M.M.Y.v.v.Y.M.v.v.v.c.lXZX`.E.!.!.!.!.!.!.!.`.E.!.!.).)._.lX`.`.`.!.^.^.E.!.!.`.!.!.!.`.!.!.`.!.).bXn.Q.Q.n.n.n.n.n.n.n.W.U.=XQ.GXgXb  .| X. .$.&.-.-.h 6 6 6 6 d c 6 v 6 6 6 6 5 F &XH W._.(.f 5 F #XOXrXAXtX8 d c & 6 6 6 6 6 6 6 6 6 6 6 6 6 6 6 6 6 6 6 6 6 6 6 6 6 6 6 6 6 6 ",
"3X3X=X+X6.6.6.6.6.6.6.6.6.2.2.F.l.2.2.2.2.2.2.2.2.l.l.2.2.2.2.2.z._ l.l._ D.G.D.D.D.D.G.D.D.D.G.D.D.G.D.D.H.H.J.K.K.D.D.D.D.D.D.D.D.D.D.D.D.D.D.D.G.z.3XJ.h.G.bXM.M.M.B.M.M.M.M.M.M.B.M.M.M.M.M.B.M.M.M.N.N.}.V.V.C.M.M.B.M.B.B.M.B.M.M.M.M.M.M.M.Y.N.v.N.Y.v.v.v.W.ZXvXE.!.!.!.!.!.!.!.!.`.!.!.!.).)._.lX`.`.`.!.^.^.!.!.!.`.!.!.!.`.!.!.`.!.E.bXE.n.Q.n.n.n.n.n.n.n.n.W.4Xm.DXgXb  .| X. .$.&.-.-.h 6 6 6 6 d c 6 v 6 6 6 6 5 F &XH W._.(.f 5 F #XOXrXAXtX8 * v x d f f f f f f f f f f f f f f f f f f f f f f f f f f f f f ",
"4X&X6.3.3.3.3.3.3.3.3.3.3.2.2.F.l.2.2.2.2.2.2.2.2.l.l.2.2.2.2.2.( K.2.D._ D.G.D.D.D.D.G.D.D.D.G.D.D.G.D.D.H.H.J.K.K.D.D.D.D.D.D.D.D.D.D.D.D.D.D.D.G.D.H.5X/ }.XXZ.M.M.B.M.M.M.M.M.M.B.M.M.M.M.M.B.M.M.M.N.N.}.V.V.C.M.M.B.M.B.B.M.B.M.M.M.M.M.M.M.N.Y.v.v.Y.M.v.c.lXZX'.E.!.!.!.!.!.!.!.!.`.!.!.!.).)._.lX`.`.`.!.^.^.!.!.!.`.!.!.!.`.!.!.`.!.E.bX_.n.Q.n.n.n.n.n.n.n.n.W.4XL.NXzXb  .| X. .$.&.-.-.h 6 6 6 6 d c 6 v 6 6 6 6 5 F &XH W._.(.f 5 F #XOXrXAXtX8 * 5 f x x x x x x x x x x x x x x x x x x x x x x x x x x x x x x ",
"F.2.2.2.2.2.2.2.2.2.2.2.2.2.2.F.l.2.2.2.2.2.2.2.2.l.l.2.2.2.2.z._ F.l._ K.D.G.D.D.D.D.G.D.D.D.G.D.D.G.D.D.H.H.J.K.K.D.D.D.D.D.D.D.D.D.D.D.D.D.D.D.G.D.z.3XJ.f.P.P.M.M.B.M.M.M.M.M.M.B.M.M.M.M.M.B.M.M.M.N.N.}.V.V.C.M.M.B.M.B.B.M.B.M.M.M.M.M.M.M.M.Y.M.v.N.T.v.b.ZXnX!.!.!.!.!.!.!.!.!.!.`.!.!.!.).)._.lX`.`.`.!.^.^.!.!.!.`.!.!.!.`.!.!.`.!.E.`.bXQ.Q.n.n.n.n.n.n.n.n.W.4X-X(.zX|  .| X. .$.&.-.-.h 6 6 6 6 d c 6 v 6 6 6 6 5 F &XH W._.(.f 5 F #XOXrXAXtX8 6 c x x x x x x x x x x x x x x x x x x x x x x x x x x x x x x x ",
"L.L.F.2.2.2.2.2.2.2.2.2.2.2.2.F.l.2.2.2.2.2.2.2.2.l.l.2.2.2.2.( K.F.D._ D.D.G.D.D.D.D.G.D.D.D.G.D.D.G.D.D.H.H.J.K.K.D.D.D.D.D.D.D.D.D.D.D.D.D.D.D.G.D.z.H.XX}.Z.I.B.M.B.M.M.M.M.M.M.B.M.M.M.M.M.B.M.M.M.N.N.}.V.V.C.M.M.B.M.B.B.M.B.M.M.M.M.M.M.M.M.N.Y.v.v.Y.c.'.ZX'.!.!.!.!.!.!.!.!.!.!.`.!.!.!.).)._.lX`.`.`.!.^.^.!.!.!.`.!.!.!.`.!.!.`.!.!.^.bX).Q.n.n.n.n.n.n.n.n.Q.m.*X].mX|  .| X. .$.&.-.-.h 6 6 6 6 d c 6 v 6 6 6 6 5 F &XH W._.(.f 5 F #XOXrXAXtX8 f w.@.@.@.@.@.w.w.@.@.w.@.@.w.w.O.d f f f f f f f f f f f f f f f ",
"L.L.F.2.2.2.2.2.2.2.2.2.2.2.2.F.l.2.2.2.2.2.2.2.2.F.F.2.2.2.l._ F.F.( K.D.D.G.D.D.D.D.G.D.D.G.G.D.D.G.D.D.H.H.J.K.K.D.D.D.D.D.D.D.D.D.D.D.D.D.D.D.G.D.D.z.bXA.M.P.P.M.B.M.M.M.M.M.M.B.M.M.M.M.M.B.M.M.M.N.N.}.V.V.C.M.M.B.M.B.B.M.B.M.M.M.M.M.M.M.M.M.Y.M.v.N.R.VXVX!.`.!.!.!.!.!.!.!.!.!.`.!.!.!.).)._.lX`.`.`.!.^.^.!.!.!.`.!.!.!.`.!.!.`.!.!.^._.bXQ.Q.n.n.n.n.n.n.n.n.W.4XL.gX|  .| X. .$.&.-.-.h 6 6 6 6 d c 6 v 6 6 6 6 5 F &XH W._.(.f 5 F #XOXrXAXtX8 f @.c.~.c.b.w.b.b.w.b.c.b.c.+.@.B * 6 6 6 6 6 6 6 6 6 6 6 6 6 6 6 ",
"F.L.F.2.2.2.2.2.2.2.2.2.2.2.2.F.2.2.2.2.2.2.2.2.2.l.l.2.2.2.K.( l.G._ D.D.D.G.D.D.D.D.G.D.D.D.G.D.D.G.D.D.H.H.J.K.D.D.D.D.D.D.D.D.D.D.D.D.D.D.D.D.G.D.) /. XI.M.Z.I.M.B.M.M.M.M.M.M.B.M.M.M.M.M.B.M.M.M.N.N.}.C.V.C.M.M.B.M.M.B.M.B.M.M.M.M.M.M.M.M.M.N.R.v.M.|.ZX'.!.`.E.!.E.E.E.E.E.E.!.^.E.E.!.).)._.lX`.`.`.!.!.!.E.!.E.`.!.E.!.^.E.E.^.!.E.^.!.bXQ.n.n.n.n.n.n.n.n.n.W.3XU.gX| | |  . .$.$.-.-.h 6 6 6 6 d c 6 v 6 6 6 6 5 F &XH W._.(.f 5 F #XOXrXAXtX8 f +.~. X/././. X/././././.b.+.@.B 6 6 6 6 6 6 6 6 6 6 6 6 6 6 6 6 ",
"H.F.F.F.F.F.F.F.F.F.F.F.F.F.F.F.F.F.F.F.F.F.F.F.F.F.F.F.F.F._ G.F.K.K.G.G.G.G.G.G.G.G.G.G.G.G.G.G.G.G.G.G.K.H.J.K.K.K.G.G.G.G.G.G.G.G.G.G.G.G.G.G.G.G.D..X/.I.P.B.I.P.V.B.B.B.B.B.B.V.B.B.B.B.B.V.B.B.N.N.T.}.~.~.V.B.B.V.B.B.V.B.V.B.B.B.B.B.B.B.B.B.B.Y.B.b.nXZX`.`.`.`.`.`.`.`.`.`.`.`.`.`.`.`.).)._.lX'.'.`.`.`.`.`.`.`.`.`.`.`.`.`.`.`.`.`.`.^.bX'.n.Q.Q.Q.Q.Q.Q.Q.Q.W.3X3XmX .X.X.&.$.&.&.8.-.h 6 6 6 6 d c 6 v 6 6 6 6 5 F &XH W._.(.f 5 F #XOXrXAXtX8 f @.b.c.b.c./.~.b./.b.~.b.b.@.w.x 6 6 6 6 6 6 6 6 6 6 6 6 6 6 6 6 ",
"H.F.F.F.F.F.F.F.F.F.F.F.F.F.l.F.F.l.F.F.F.F.F.F.l.F.F.l.2.K.K.F.G._ G.G.G.G.G.G.G.G.G.G.G.G.G.G.G.G.G.G.G.H.H.J.K.K.K.G.G.G.G.G.G.G.G.G.G.G.G.G.G.G.D.A..XZ.P.I.B.A.I.V.B.B.B.B.B.B.B.B.B.B.B.B.V.B.B.N.N.T.}.~.~.V.B.B.B.M.B.B.M.V.B.B.B.B.B.B.B.B.B.M.T.R.^.ZXnX!.`.`.^.`.`.`.`.`.`.^.`.`.^.`.`.).)._.lX'.'.`.`.`.`.^.`.`.`.`.^.`.`.^.^.`.`.^.`.^._.bXn.Q.Q.Q.Q.Q.Q.Q.Q.W.U.>XvX*.X. .$.$.&.&.8.-.h 6 6 6 6 d c 6 v 6 6 6 6 5 F &XH b._.(.f 5 F #XOXrXAXtX8 f +.o.o.o.o.o.B w.@.o.o.o.o.O.c 6 6 6 6 5 5 5 5 5 6 * & * & & 6 6 ",
"5.5.5.2.2.2.2.2.2.2.2.2.2.2.2.F.2.2.2.2.2.2.2.2.2.l.l.2.2._ z.2.( ( D.D.D.D.G.D.D.D.D.G.D.D.D.G.D.D.G.D.D.H.H.J.K.D.D.D.D.D.D.D.D.D.D.D.D.D.D.D.D.G.D..X/.Z.Z.I.Z.M.I.P.M.M.M.M.M.M.B.M.M.M.M.M.B.M.M.M.N.N.}.C.V.C.M.M.B.M.M.B.M.B.M.M.M.M.M.M.M.M.M.M.M.Y.vXVX|./.E.^.E.!.E.E.E.E.!.E.!.^.E.E.!.).)._.lX`.`.`.!.!.!.E.!.E.`.!.E.!.^.E.E.^.!.E.`.!.!.bXQ.n.n.n.n.n.n.n.n.W.L.>XvX..| |  . .$.$.-.-.h 6 6 6 6 d c 6 v 6 6 6 6 5 F &XH W._.(.f 5 F #XOXrXAXtX8 f z 6 6 6 6 6 6 6 6 6 6 6 6 6 6 6 6 6 6 j l l l l 9 t b b b b t 6 ",
"F.F.5.2.2.2.2.2.2.2.2.2.2.2.2.F.l.2.2.2.2.2.2.2.2.F.F.2.D.( l.l._ G.D.D.D.D.G.D.D.D.D.G.D.D.G.G.D.D.G.D.D.H.H.J.K.K.D.D.D.D.D.D.D.D.D.D.D.D.D.D.D.D.Z..XZ.A.Z.P.I.M.Z.I.M.M.M.M.M.M.B.M.M.M.M.M.B.M.M.M.N.N.}.V.V.C.M.M.B.M.B.B.M.B.M.M.M.M.M.M.M.M.M.M.M.|.ZXlX/.|.!.^.!.!.!.!.!.!.!.!.!.`.!.!.!.).)._.lX`.`.`.!.^.^.!.!.!.`.!.!.!.`.!.!.`.!.!.`.!.E.bX).n.Q.n.n.n.n.n.n.W.L.,XvX..| | X. .$.&.-.-.h 6 6 6 6 d c 6 v 6 6 6 6 5 D J J @.p.&.r 5 K A A =.tXeX7 g g 6 6 * * * & 6 * 6 6 6 6 6 6 6 6 6 5 7X9X7X7X9XF hXSXSXSXGXa.# ",
"F.F.5.2.2.2.2.2.2.2.2.2.2.2.2.F.l.2.2.2.2.2.2.2.2.l.F.2._ D.2.K.( G.D.D.D.D.G.D.D.D.D.G.D.D.D.G.D.D.G.D.D.H.H.J.K.K.D.D.D.D.D.D.D.D.D.D.D.D.D.D.D.D..X/.Z.Z.Z.Z.I.Z.M.I.Z.M.M.M.M.M.B.M.M.M.M.M.B.M.M.M.N.N.}.V.V.C.M.M.B.M.B.B.M.B.M.M.M.M.M.M.M.M.M.M.x.lXZX`.!.|./.).!.!.!.!.!.!.!.!.!.`.!.!.!.).)._.lX`.`.`.!.^.^.!.!.!.`.!.!.!.`.!.!.`.!.E.`.!.E._.bXn.Q.n.n.n.n.n.n.W.L.>XvX*.| | X. .$.&.-.-.h 6 6 6 6 d c 6 v 6 6 6 6 5 D J F #.&.&.6 5 D A A =.eXeX7 g x & g v v v o.d v r 6 6 6 6 6 6 6 6 6 6X@X@X+X<XF hXfXjXfXjXa.@ ",
"5.5.5.2.2.2.2.2.2.2.2.2.2.2.2.F.l.2.2.2.2.2.2.2.2.F.2.z.( l.l._ G.G.D.D.D.D.G.D.D.D.D.G.D.D.D.G.D.D.G.D.D.H.H.J.K.K.D.D.D.D.D.D.D.D.D.D.D.D.D.D.D.Z..XZ.Z.Z.Z.Z.P.P.M.A.I.M.M.M.M.M.B.M.M.M.M.M.B.M.M.M.N.N.}.V.V.C.M.M.B.M.B.B.M.B.M.M.M.M.M.M.M.M.M.M.V.ZXnX/.^./.|.).!.!.!.!.!.!.!.!.!.`.!.!.!.).)._.lX`.`.`.!.^.^.!.!.!.`.!.!.!.`.!.!.`.!.E.`.!.!.`.bXQ.n.n.n.n.n.n.n.W.L.-XMX$.| | X. .$.&.-.-.h 6 6 6 6 d c 6 v 6 6 6 6 5 D J F #.&.&.r 5 K A A =.eXeX7 g x $ o.O.w.c O.6 o.@.o.6 6 6 6 6 6 6 6 6X@X<X+X7XF hXjXSXjXjXa.@ ",
"L.F.F.2.2.2.2.2.2.2.2.2.2.2.2.F.l.2.2.2.2.2.2.2.2.F.2.( D.2.K._ D.G.D.D.D.D.G.D.D.D.D.G.D.D.D.G.D.D.G.D.D.H.H.J.K.K.D.D.D.D.D.D.D.D.D.D.D.D.D.D.) .X|.Z.Z.Z.Z.Z.Z.I.Z.B.I.Z.M.M.M.M.B.M.M.M.M.M.B.M.M.M.N.N.}.V.V.C.M.M.B.M.B.B.M.B.M.M.M.M.M.M.M.M.M.x.lXZX'.|.^.^.|.^.E.!.!.!.!.!.!.!.!.`.!.!.!.).)._.lX`.`.`.!.^.^.!.!.!.`.!.!.!.`.!.!.`.!.E.`.!.!.^.bX).n.Q.n.n.n.n.n.W.L.=XMX$.| | X. .$.&.-.-.h 6 6 6 6 d c 6 v 6 6 6 6 5 D J F #.&.&.r 5 K A A =.eXeX7 g x $ v c B 6 M 6 +.B B 6 6 6 6 6 6 6 6 6X@X@X+X<XF hXfXfXuXjXa.@ ",
"[.[.L.2.2.2.2.2.2.2.2.2.2.2.2.F.l.2.2.2.2.2.2.2.2.2.D._ l.l._ D.D.G.D.D.D.D.G.D.D.D.D.G.D.D.D.G.D.D.G.D.D.H.H.J.K.K.D.D.D.D.D.D.D.D.D.D.D.D.D.D.z..XZ.Z.Z.Z.Z.Z.Z.I.P.B.P.I.M.M.M.M.B.M.M.M.M.M.B.M.M.M.N.N.}.V.V.C.M.M.B.M.B.B.M.B.M.M.M.M.M.M.M.M.M.B.ZXnX~.|./.!./.|.E.!.!.!.!.!.!.!.!.`.!.!.!.).)._.lX`.`.`.!.^.^.!.!.!.`.!.!.!.`.!.!.`.!.E.`.!.!.^._.bXn.Q.n.n.n.n.n.n.n.L.vX%.| | X. .$.&.-.-.h 6 6 6 6 d c 6 v 6 6 6 6 5 D J F #.&.&.r 5 K A A =.eXeX7 g g 6 6 6 6 6 6 6 r 6 6 6 6 6 6 6 6 6 5 7X9X7X7X9XF hXSXSXSXGXa.# ",
"L.L.F.2.2.2.2.2.2.2.2.2.2.2.2.F.l.2.2.2.2.2.2.2.2.2._ D.2.D._ D.D.G.D.D.D.D.G.D.D.D.D.G.D.D.D.G.D.D.G.D.D.H.H.J.K.K.D.D.D.D.D.D.D.D.D.D.D.D.D.) }..XZ.Z.Z.Z.Z.Z.Z.Z.I.A.B.I.Z.M.M.M.B.M.M.M.M.M.B.M.M.M.N.N.}.V.V.C.M.M.B.M.B.B.M.B.M.M.M.M.M.M.M.M.x.'.ZX'.^./.|.^.^.|.^.E.!.!.!.!.!.!.!.`.E.!.!.).)._.lX`.`.`.!.^.^.E.!.!.`.!.!.!.`.!.!.`.!.E.`.!.!.`.!.bXQ.n.n.n.n.n.n.n.W.n.vX%.| | X. .$.&.-.-.h 6 6 6 6 d c 6 v 6 6 6 6 5 D J F #.&.&.r 5 K A A =.eXeX7 g g * 6 6 6 6 6 6 6 6 6 6 6 6 6 6 6 6 6 j l l l l 6 t b b b b 6 * ",
"F.5.5.2.2.2.2.2.2.2.2.2.2.2.2.F.l.2.2.2.2.2.2.2.2.D._ l.l._ K.D.G.G.D.D.D.D.G.D.D.D.D.G.D.D.G.G.D.D.G.D.D.H.H.J.K.K.D.D.D.D.D.D.D.D.D.D.D.D.D.z.bXA.Z.Z.Z.Z.Z.Z.Z.A.I.P.M.P.P.C.M.M.B.B.M.M.M.M.B.M.M.N.N.N.}.V.V.V.M.B.B.M.B.B.M.B.B.M.M.M.M.M.M.M.B.ZXnX/.^.^.|./.^.|.|.E.!.!.!.!.!.!.^.`.!.!.!.).)._.lX'.`.`.!.^.`.!.!.!.`.!.!.!.`.!.!.`.!.!.`.!.!.`.E.bX).n.Q.Q.Q.Q.Q.Q.Q.m.vX%.|  .$. .$.&.-.-.h 6 6 6 6 d c 6 v 6 6 6 6 5 D J F #.&.&.r 5 K A A =.eXeX7 g g r f f f f f f f f f f f f f f f f f f t t t t f f d d d d f f ",
"H.H.F.F.F.F.F.F.F.F.F.F.F.F.F.F.F.F.F.F.F.F.F.F.5.K.K.F.G._ G.G.G.G.G.G.G.G.G.G.G.G.G.G.G.G.G.G.G.G.G.G.G.K.H.J.K.K.K.G.G.G.G.G.G.G.G.G.G.G.D.|..XZ.A.A.A.A.A.A.A.A.P.I.A.A.I.A.B.B.V.B.B.B.B.B.V.B.B.N.N.T.}.~.~.V.B.B.V.B.B.V.B.V.B.B.B.B.B.B.B.M.'.ZX'././.^.|.|.`.`.|.^.`.`.`.`.`.`.`.`.`.`.`.)._._.lX'.'.`.`.`.`.`.`.`.`.`.`.`.`.`.`.`.`.`.`.`.`.`.^._.bXn.Q.Q.Q.Q.Q.Q.Q.m.vX:.X.X.&.$.&.&.8.-.h 6 6 6 6 d c 6 v 6 6 6 6 5 D J F #.&.&.r 5 K A A =.eXeX7 g g 6 6 6 6 6 6 6 6 6 6 6 6 6 6 6 6 6 6 5 4 4 4 4 6 % # = = # * 6 ",
"F.5.5.2.2.2.2.2.2.2.2.2.2.2.2.F.2.2.2.2.2.2.2.2.l._ F.2.( K.D.D.D.G.D.D.D.D.G.D.D.D.D.G.D.D.D.G.D.D.G.D.D.H.H.J.K.D.D.D.D.D.D.D.D.D.D.D.D.D.D..XA.A.Z.Z.Z.Z.Z.Z.Z.Z.Z.I.P.M.P.P.M.M.B.M.M.M.M.M.B.M.M.M.N.N.}.V.V.C.M.M.B.M.M.B.M.B.M.M.M.M.M.M.M.M.nXZX^.^.^.^.^.|./.^.|.|.E.!.!.!.!.E.!.^.E.!.!.).)._.lX`.`.`.!.!.^.E.!.!.`.!.E.!.`.E.E.`.!.E.`.!.!.`.E.!.bXQ.n.n.n.n.n.n.Q.m.vX:.| | X. .$.&.-.-.h 6 6 6 6 d c 6 v 6 6 6 6 5 D J F #.&.&.r 5 K A A =.eXeX7 g g * 6 6 6 6 6 6 6 6 6 6 6 6 6 6 6 6 5 H +X+X+X+Xk :.iXiXiXiX*.% ",
"F.F.5.2.2.2.2.2.2.2.2.2.2.2.2.F.l.2.2.2.2.2.2.2.( K.F.z._ D.D.D.D.G.D.D.D.D.G.D.D.D.D.G.D.D.D.G.D.D.G.D.D.H.H.J.K.K.D.D.D.D.D.D.D.D.D.D.D.) /..XZ.A.Z.Z.Z.Z.Z.Z.Z.Z.Z.P.I.M.Z.I.M.M.B.M.M.M.M.M.B.M.M.M.N.N.}.V.V.C.M.M.B.M.B.B.M.B.M.M.M.M.M.M.M.^.ZXlX~.^.^.^.^.|.|.^.^.|.!.!.!.!.!.!.!.`.!.!.!.).)._.lX`.`.`.!.^.^.!.!.!.`.!.!.!.`.!.!.`.!.E.`.!.!.`.!.E.bX!.n.Q.n.n.n.n.Q.m.vX:.|  .X. .$.&.-.-.h 6 6 6 6 d c 6 v 6 6 6 6 5 D J F #.&.&.r 5 K A A =.eXeX7 g g * 6 r 6 d d 6 6 r * 6 * 6 6 6 6 6 6 7X<X<X$X9XF hXSXjXjXSXa.@ ",
"F.F.5.2.2.2.2.2.2.F.F.F.l.2.2.F.l.2.2.2.2.2.2.l._ D.F.K.K.G.D.D.D.G.D.D.D.D.G.D.D.D.D.G.G.G.G.G.D.D.G.D.D.H.H.J.K.K.D.D.D.G.G.G.D.D.D.D.D.D..XA.Z.A.Z.Z.Z.Z.Z.A.A.A.Z.A.I.Z.M.P.P.M.B.M.M.M.M.M.V.V.V.M.N.N.}.V.V.C.M.M.B.M.B.B.M.V.V.B.M.M.M.M.M.nXZX^.^.^.^.^.^.^.|.'.`.|./.E.!.!.!.!.!.`.!.!.!.).)._.lX'.'.`.!.^.^.!.!.!.`.!.!.!.`.!.E.`.`.`.`.!.!.`.!.E._._.n.Q.n.n.n.n.Q.m.vX:.|  .X. .$.&.-.-.h 6 6 6 6 d c 6 v 6 6 6 6 5 D J F #.&.&.r 5 K A A =.eXeX7 g x $ M o.+.M @.r B o.c r o.f 6 6 6 6 6 <X@X$X+X<XF hXfXjXfXjXa.# ",
"F.F.5.2.2.2.2.2.2.L.F.L.F.2.2.F.l.2.2.2.2.2.2.K.( l.G._ G.G.D.D.D.G.D.D.D.D.G.D.D.D.D.G.P.D.P.G.D.D.G.D.D.H.H.J.K.K.D.D.D.P.G.P.G.D.D.D.D.A..XZ.A.A.Z.Z.Z.Z.A.A./.[.Z.A.P.I.M.Z.I.M.B.M.M.M.M.B./.B./.M.N.N.}.V.V.C.M.M.B.M.B.B.M./.V.|.B.M.M.M./.ZXlX~.^.^.^.^./.^.|.|.`.'.|.E.!.!.!.!.!.`.!.!.!.).)._.lX'.lX`.!.^.^.!.!.!.`.!.!.!.`.!.E.'.`.'.'.E.!.`.!.E.).bXn.n.n.n.n.n.Q.m.vX:.|  .X. .$.&.-.-.h 6 6 6 6 d c 6 v 6 6 6 6 5 D J F #.&.&.r 5 K A A =.eXeX7 g x $ o.B @.f B 6 o.c c.o.c.d 6 6 6 6 6 <X@X$X+X<XF hXfXjXfXjXa.# ",
"F.F.5.2.2.2.2.2.2.F.L.L.F.2.2.F.l.2.2.2.2.2.2._ z.F.K.K.G.G.D.D.D.G.D.D.D.D.G.D.D.D.D.G.G.G.P.G.D.D.G.D.D.H.H.J.K.K.D.D.D.G.G.G.G.D.D.D.D..X/.Z.Z.A.Z.Z.Z.Z.A.A.A.A.Z.A.Z.I.Z.M.I.P.C.M.M.M.M.M./.B.V.N.N.N.}.V.V.C.M.M.B.M.B.B.M.V.V./.B.M.M.M.vXZX^.^.^.^.^.^.^.^./.|.`.^.|./.E.!.!.!.!.`.!.!.!.).)._.lX'.lX`.!.^.^.!.!.!.`.!.!.!.`.!.E.'.`.`.`.!.!.`.!.!.E.bXE.n.n.n.n.n.Q.n.vX-.X. .X. .$.&.-.-.h 6 6 6 6 d c 6 v 6 6 6 6 5 D J F #.&.&.r 5 K A A =.eXeX7 g z & g r g 6 x 6 c B g B c f 6 6 6 6 6 7X<X$X$X9XF hXSXjXfXSXa.@ ",
"L.L.F.2.2.2.2.2.2.2.2.2.2.2.2.F.l.2.2.2.2.2.D.( 2.D._ D.D.D.D.D.D.G.D.D.D.D.G.D.D.D.D.G.D.D.G.G.D.D.G.D.D.H.H.J.K.K.D.D.D.D.D.D.D.D.D.D.Z..XZ.A.Z.A.Z.Z.Z.Z.Z.Z.Z.Z.Z.A.Z.P.I.M.Z.I.B.M.M.M.M.M.B.M.M.M.N.N.}.V.V.C.M.M.B.M.B.B.M.B.B.M.M.M.M.~.ZXlX~.^.^.^.^.^.^.^.^.|.|.!./.|.E.!.!.!.!.`.!.!.!.).)._.lX'.`.`.!.^.^.!.!.!.`.!.!.!.`.!.!.`.^.!.`.!.!.`.!.!.E.bX_.n.Q.n.n.n.Q.n.vX-.#. .X. .$.&.-.-.h 6 6 6 6 d c 6 v 6 6 6 6 5 D J F #.&.&.r 5 K A A =.eXeX7 g g * 6 6 6 6 * 6 * * * * * 6 6 6 6 6 5 H @X@X@X@Xk a.gXiXiXgX%.= ",
"L.[.F.2.2.2.2.2.2.2.L.L.2.L.F.l.L.L.L.2.L.L.( P.L.( oXG.P.D.G.P.D.P.P.P.D.G.P.D.G.P.D.G.G.P.G.G.P.D.G.P.P.K.H.I.K.K.P.G.G.G.P.G.D.P.G.D..X|.P.Z.[.[.Z.[.A.Z./.A.[.Z.A.[.Z./.8X[.B.I.[.M.V./.M.V.V.|.B.N.T.N.}.}.|.V.M.|.B.B.|.B.B.V./.V.M.|.B.lXZX X'.^. X'.^. X'.^.'. XXX^.'.XX^.'.'.'.!.`.'.!.`.'.).lXlXlX'.`.'.!.`.'.'.`.!.'.`.^.'.^.`.'.'.'.!.'.`.^.'.'.'.).bX^.Q.n.n.n.Q.n.vXiX#. .X. .$.&.-.-.h 6 6 6 6 d c 6 v 6 6 6 6 5 D J F #.&.&.r 5 K A A =.eXeX7 g g 6 6 6 6 6 6 6 6 6 6 6 6 6 6 6 6 6 6 5 4 4 4 4 6 % # # # # * 6 ",
"F.F.F.2.2.2.2.2.2.2.L.L.2.P.L.2.L.L.L.2.L.P.( L.L._ P.P.P.D.P.P.D.P.P.P.D.G.P.D.G.P.D.P.G.P.G.G.P.D.G.P.P.K.H.I.K.K.P.G.G.P.P.P.D.P.G.Z.bX[.[.Z.[.[.Z.[./.Z.[./.[.Z./.[.Z./.I.I.B.P.I.M.V.|.M./.V.|.B.N.|.N.}.}.|.V.M.|.B.B.|.B.V./.|.V.M.|./.ZXnX X X^. X X^. X'.^. X'.XX/.'. X|.'.'.'.!.`.'.!.'.lX).lXnXlX'.'.lX!.`.'.'.`.!.'.`.^. X`.`.'.'.'.!.'.`.!.'.'.'.E.bX'.Q.n.n.n.Q.n.{.iXO. . . .$.$.-.-.h 6 6 6 6 d c 6 v 6 6 6 6 5 D J F #.&.&.r 5 K A A =.eXeX7 g g r f f f f 9 d x d 9 d f f f f f f f f f f f f f f f f f f f f ",
"H.H.F.F.F.F.F.F.F.F.L.L.2.P.L.l.L.L.L.2.L.oXz.L.K._ P.P.P.D.P.P.D.P.P.P.D.G.P.D.G.P.D.P.G.P.G.G.P.D.G.P.P.K.H.I.K.K.P.G.G.P.P.P.D.P.H..X XP.[.Z.[.[.Z.[.A.Z.[./.[.Z./.[.Z.[.[.8XZ.A.I.Z.V.|.M./.V.|.B.N.|.N.}.}.|.V.M.|.B.B.|.B.V.V./.V.M.T.nXZX X X X^. X X^. X'.^. X'. X|.'.'.|.'.'.'.!.`.'.!.'. X).lXnXlX'.'.'.!.`.'.'.`.!.'.`.`.'.`.`.'.'.'.!.'.`.^.'.'.'.E.bX'.Q.Q.Q.Q.Q.n.{.zX8.#.&.&.&.;.8.-.h 6 6 6 6 d c 6 v 6 6 6 6 5 D J F #.&.&.r 5 K A A =.eXeX7 g g * 6 6 * 6 y.LXdXLXy.6 * 6 6 6 6 6 6 * * * 6 & * 6 6 6 & * 6 6 ",
"F.F.5.2.2.2.2.2.2.2.L.L.2.P.L.2.L.L.L.2.P.oXl.P.oXD.P.P.P.z.P.P.D.P.P.P.D.G.P.D.G.P.z.P.G.P.G.G.P.D.G.P.P.H.H.I.K.K.P.G.G.P.P.P.z.P.P..X[.[.[.Z.[.[.Z.[.A.Z.[./.[.Z./.[.Z.[./.I.P.V.XXI.V.|.M.V.V.|.B.N.|.N.}.}.|.V.M.|.B.M.|.B.V.V.|.V.M.|.ZXnX X X X^. X X^. X'.^. X'. X|. X'./. X'.'.!.`.'.E.'. X).lXnXlX`.`.'.!.`.'.'.`.!.'.`.!.'.^.`.'.'.'.E.'.`.!.'.'.'.E.bXbXn.Q.Q.Q.Q.n.{.DXNX| $. .$.&.-.-.h 6 6 6 6 d c 6 v 6 6 6 6 5 D J F #.&.&.r 5 K A A =.eXeX7 g g 6 6 6 t dXLXy.p y.dXLXt * 6 6 * v +.f d f r c v f 6 x M d r 6 ",
"F.F.5.2.2.2.2.2.2.2.L.L.L.P.L.L.L.L.L.L.oXP.L.P.oXG.P.G.P.G.P.P.G.P.P.P.G.P.P.G.P.P.G.P.G.P.G.P.P.G.P.P.P.P.U.I.K.K.P.K.P.P.P.P.G.U. X XP.[.[.A.[.[.A.XX[.A.[.A.[.A.[.[.A.[./.XXI./.|.I.|.|.V.|.V.|.V.T.|.T.}.}.|.|.V.|.V.V.|.V./.V././.V.lXZXlX X X X'. X X'. X X'. X'. X|.XX'.'.XX'.'.'.'.'.`.'. X_.bXlXlX'.'.'.`.'.'.'.'.'.'.'.'.'.'.'.'.'.'.'.'.'.'.'.'.'.`.'.bXQ.n.n.n.Q.n.{.DXNX:.|  .$.&.-.-.h 6 6 6 6 d c 6 v 6 6 6 6 5 D J F #.&.&.r 5 K A A =.eXeX7 g g * 6 % y.LXy - % - 5 LXd.* 6 6 & o.c.c.w.@.c.B @.@.@.@.@.+.B * ",
"F.F.5.2.2.2.2.2.2.2.L.L.L.{.L.P.L.L.{.P.oXP.P.oXP.P.P.P.P.P.P.P.P.P.P.P.P.P.P.P.P.P.P.P.G.P.P.P.P.P.P.P.P.P.I.I.K.P.P.P.P.P.P.P.P.P.bXXX[.[.XX[.XX[.[.XX[.[.[.A.XX[.XX[.[.XX[.XXI.XX|.[.I.|.|.|.V.|.|.|.|.T..X}.|.|.|.|.|.|.|./.|.V.|.|.|.ZXZX X X X X X X X X X X X X'. X XXX X'. X XlX'.'.'.'.lXlX XbXlXlXlXlX X'.'.'.'.'.'. X'.'. X'. X'.'.'.'. X'.'.'.'.'.'.'.bXE.n.n.n.Q.n.{.DXzXa.|  .$.&.-.-.h 6 6 6 6 d c 6 v 6 6 6 6 5 D J F #.&.&.r 5 K A A =.eXeX7 g g 6 6 t PX{ - M O.+.O p PXi * 6 6 x M o.B @.O.M B v o.v v @.c * ",
"F.F.5.2.2.2.2.2.2.2.L.L.L.L.F.L.L.L.L.K.K.L.K._ G.G.G.G.G.G.G.G.G.P.G.G.G.G.P.G.G.G.G.P.G.G.G.G.G.G.P.G.G.P.U.U.K.K.K.G.G.G.G.G.H.|..XP.A.A.A.A.A.A.A.A.A.A.A.A.A.A.A.A.A.A.A.A.P.I.A.A.I.A.V.V.V.V.V.V.T.T.}.}.|.V.V.V.V.V.V.V.V.V.V.B.'.ZXlX/.'.'.'./.'.'.'.'.'.'.'./.'.`.|.|.`.'.|.'.`.'.'.`.'.'._.lXlX'.'.'.'.`.'.`.'.`.'.'.`.`.'.`.'.`.`.`.'.'.`.'.`.`.`.`.`.bX_.n.Q.n.n.n.Q.FXlXiX|  .$.&.-.-.h 6 6 6 6 d c 6 v 6 6 6 6 5 D J F #.&.&.r 5 K A A =.eXeX7 g g 6 % ] LXy * B M c 6 5 LX[ % 6 6 6 & & 6 & $ 6 & 6 * * 6 c 6 6 ",
"5.5.5.2.2.2.2.2.2.2.2.2.2.2.2.l.2.2.l._ l.2.( K.z.D.D.D.D.D.D.D.D.G.D.D.D.D.G.D.D.D.D.G.D.D.D.D.D.D.G.D.D.H.H.J.( D.D.D.D.D.D.D.D..XA.Z.Z.Z.Z.Z.Z.A.Z.Z.Z.Z.Z.Z.Z.Z.Z.A.Z.Z.Z.Z.Z.I.P.M.P.P.M.M.B.M.M.M.N.N.}.C.V.C.M.M.B.M.M.B.M.B.M.M.nXZX^.^.^.^.^.^.^.^.^.^.^.^.^./.^.^.^.|.^.!.|./.E.^.E.E.!.).)._.lX`.`.`.E.!.!.E.E.E.^.E.E.!.^.E.E.^.!.E.^.E.!.`.E.E.E.E.E._.bXn.Q.n.n.n.E.FX{.gX|  .$.$.-.-.h 6 6 6 6 d c 6 v 6 6 6 6 5 D J F #.&.&.r 5 K A A =.eXeX7 g g 6 * a PXi @ M M c @ 5 dXa % 6 6 6 c x r v c c v r 6 r 6 6 6 6 ",
"L.F.5.2.2.2.2.2.2.2.2.2.2.2.2.F.F.m.K.K.2.D._ D.D.G.G.G.P.G.D.D.D.G.D.D.D.D.G.P.G.G.D.G.D.D.G.G.D.D.G.D.D.H.H.J.K.P.P.P.G.D.D.) /..XZ.A.Z.Z.Z.Z.Z.A.A././.A.Z.Z.Z.Z.Z.A.A./././.Z.P.I.B.Z.I.M.M.V.V.V.V.A.N.}.V.V.C.M.M.B.M.B.B.M.B.B./.ZXlX~.^.^.^.^.^.^.^.^.^.^.^././././.^.|.|.!./.|.!.`.`.^.!.).)._.lX'.`.`.!.!.`.`.^.!.`.!.!.!.`.!.!.`.!.!.`.!.!.`.`.`.`.!.!.!.bXQ.n.n.n.n.W.Q.6XgX .&.&.;.8.-.h 6 6 6 6 d c 6 v 6 6 6 6 5 D J F #.&.&.r 5 K A A =.eXeX7 g g 6 6 6 LXy.. 6 g d   [ d.6 6 6 6 6 o.o.6 O.+.w.@.c o.c.o.+.g 6 ",
"L.L.F.2.2.2.2.2.2.2.2.2.2.2.2.F.l.Z.oXl.2.( ( D.D.G.D.P.P.G.D.D.D.G.D.D.D.D.G.P.P.P.G.G.D.D.D.G.D.D.G.D.D.H.H.J.K.P.P.P.G.D.D.D..XA.Z.Z.Z.Z.Z.Z.Z.A././././.A.Z.Z.Z.Z.A././././.A.Z.I.P.M.P.P.M.B././././.N.}.V.V.C.M.M.B.M.B.B.M.B.B.nXnX^.^.^.^.^.^.^.^.^.^.^.^.^.^./.'.'.^./.|.^.!.|./.).`.'.!.).)._.lX`.`.`.!.!.`.'.'.!.`.!.!.!.`.!.!.`.!.E.`.!.!.`.`.`.'.`.!.E.bXE.n.n.n.n.n.1.-XmX .&.W.W.].-.h 6 6 6 6 d c 6 v 6 6 6 6 5 D J F #.&.&.r 5 K A A =.eXeX7 g g * 6 % [ PX0.  +   { dX[ * 6 6 6 6 B O.M +.B @.@.x M B B O.v * ",
"L.L.F.2.2.2.2.2.2.2.2.2.2.2.2.F.L.K.K.l.D._ D.D.D.G.G.G.P.G.D.D.D.G.D.D.D.D.G.G.G.G.D.G.D.D.G.G.D.D.G.D.D.H.H.J.K.K.K.P.G.D.D.A..XZ.A.Z.Z.Z.Z.Z.Z.A./.A.A.A.Z.Z.Z.Z.Z.A.A.A.A.A.Z.Z.P.I.M.Z.I.M.B.V.V.V.A.N.}.V.V.V.M.B.B.M.B.B.M.B./.ZXlX/.^.^.^.^.^.^.^.^.^.^.^.^./.'./././.^.|.|.^./.|.`.`.`.).).)._.lX'.`.`.!.^.`.`.`.!.`.!.!.!.`.!.!.`.!.!.`.!.!.`.^.`.`.`.!.E.bX_.n.Q.Q.Q.n.&.&XxX%.&.&.;.(.8.h 6 6 6 6 r c 6 v 6 6 6 6 5 D J F #.&.&.r 5 K A A =.eXeX7 g g * 6 6 % y.0.# % % a 0.* 6 6 6 6 6 6 r d f d 6 r 6 6 6 6 d 6 6 ",
"5.5.2.2.2.2.2.2.2.2.2.2.2.2.2.2.2.( z.2.( ( z.z.z.D.D.z.z.z.z.z.D.D.z.z.z.z.D.D.z.z.z.D.z.z.D.D.z.z.D.z.D.D.H.H.( ) ) z.z.z.) .XA.Z.Z.Z.Z.Z.Z.Z.Z.Z.Z.Z.Z.Z.Z.Z.Z.Z.Z.Z.Z.Z.Z.Z.Z.Z.Z.I.Z.M.P.P.M.M.M.x.M.N.}.C.C.M.M.M.M.M.M.M.M.M.lXZX^.~.^.^.^.^.^.^.^.^.^.^.^.^.^.^.~.^.^.^./.|.!.E.|.^.E.E.E.!.)._.lX`.).!.E.E.E.E.E.E.!.E.E.E.!.E.E.!.E.E.!.E.E.!.E.E.E.E.E.E.).bX3.n.n.n.n.&.H vX:.|  .$.;.-.g 6 6 6 6 d c 6 v 6 6 6 6 5 D J F #.&.&.r 5 K A A =.eXeX7 g g * 6 6 6 # 6 ] 0.[ 6 # 6 6 6 6 6 6 6 6 6 * * 6 6 6 6 6 6 6 6 6 ",
"n n n n n n n n n n n n n n n n n n n n n n n n n n n n n n n n n n n n n n n n n n n n n n n n n n n n n n n n n n n n n n n M M B B B B B B B B B B B B B B B B B B B B B B B B B M B B M B V M M M M M M M M M M M M M M M M M M o.o.M M M M M M M M M M M M M M M M M M M M M B M M B B M M M M M M M M M M M M M M M M M M M M M M M M M M M M M M M M M M M M M o.v v v v v v n B v c c c c M 6 6 6 6 6 6 v x c 6 6 6 6 5 D J F #.&.&.6 5 K A A =.eXeX7 g g * 6 6 % [ dXPXdXPXdXq.* 6 6 6 6 6 6 6 6 r g 6 6 f f 6 6 6 6 6 ",
"f f f f f f f f f f f f f f f f f f f f f f f f f f f f f f f f f f f f f f f f f f f f f f f f f f f f f f f f f f f f f f f f f f f f f f f f f f f f f f f f f f f f f f f f f f f f f f f f f f f f f f f f f f f f f f f f f f d d f f f f f f f f f f f f f f f f f f f f f f f f f f f f f f f f f f f f f f f f f f f f f f f f f f f f f f f f f f f f f f f f f f f f f f f f f f f f f 6 6 6 6 6 6 * d g 6 * 6 6 6 5 D J F #.&.&.r 5 K A A =.eXeX7 g g * 6 % ] PXd.y @ 5 y.PXa * 6 6 6 6 6 6 6 +.B @.x @.c.x * 6 6 6 ",
"6 6 6 6 6 6 6 6 6 6 6 6 6 6 6 6 6 * 6 6 * * * * * * 6 6 6 6 6 6 6 6 6 6 6 6 6 6 6 6 6 6 6 6 6 6 6 6 * 6 * 6 * * * * * * * * 6 6 6 6 6 6 6 6 * & & & & & & & & & & & & & 6 6 6 6 6 6 6 6 6 6 6 6 6 & + + + + + 5 % @ @ @ @ @ $ 6 6 6 6 6 6 6 6 6 6 6 6 6 6 6 6 6 6 6 6 6 6 6 * & & & & & & & & & & & & * 6 6 6 * * * * * * * * * * * * * * * * * * * * * * * * * * * * * * * * * * * * * * * * * * 6 6 6 6 6 r x * f f g 6 6 6 5 D J F +.&.&.6 5 D A A =.eXeX7 g g 6 6 6 dXd.  # x % . 0.y.6 6 6 6 6 6 6 6 v c.o.w.O.+.x * 6 6 6 ",
"6 6 6 6 6 6 6 6 6 6 6 6 6 6 6 6 6 6 6 6 6 6 6 6 6 6 6 6 6 6 6 6 6 6 6 6 6 6 6 6 6 6 6 6 6 6 6 6 6 6 6 6 6 6 6 6 6 6 6 6 6 6 6 6 6 6 6 6 6 6 d c c c c c c c c c c c c x 6 6 6 6 6 6 6 6 6 6 6 6 5 D H H H H H D *.iXa.a.a.iX..* 6 6 6 6 6 6 6 6 6 6 6 6 6 6 6 6 6 6 6 6 6 6 x c c c c c c c c c c c c d 6 f * x M v v v v v v v v v v v v v v v v v v v v v v v v v v v v v v v v v v v v v v v M f 6 6 6 * M O.x O.w.O.f 6 6 6 9 6 6 7 6 7 6 6 9 6 6 7 8 7 6 g g 6 * i PXa O o.B x @ y dXi * 6 6 6 6 6 6 x x d g f f f 6 6 6 6 ",
"6 * 6 6 6 * * 6 6 f f f g g f g g g f f g g g g g g f f g g r 6 6 6 6 6 6 6 6 6 6 * 6 * * * * 6 6 f f g f g g g f f f g g g g f f x f 6 6 * x B x c c c c c c c c c c B r 6 6 6 6 6 * 6 * * * 6 + H 9X<X<X<X9XH iXSXjXjXjXSXa.@ 6 6 6 6 6 6 6 6 6 6 6 6 6 6 6 6 6 6 6 6 6 6 B c c c c c c c x c c x M c 6 f * v c g x x x x x x x x x x x x x x x x g g x g x x x x x x x x x x x x x x x x x g M x * 6 6 * v +.B O.w.O.f 6 6 6 5 2 W W 1 W 5 6 5 2 2 W 1 W 5 g g 6 % ] LX5 * B v B g + d.a % 6 6 6 6 6 6 * * * 6 * * 6 6 6 6 6 ",
"o.c f x O.f x 6 f O.M B x f +.c g c c c g g g g g g g r ~.b.6 6 6 6 o.c o.f M M d g f g f B c 6 f @.B c c B c x @.O.w.c f g g d M  Xv 6 6 * x c B O.o.o.M c B B O.B x v d & v o.c +.c g x x g 6 + H <X+X@X+X<XH iXjXfXjXuXjXa.# 6 6 6 6 6 6 6 6 6 6 6 6 6 6 6 6 6 6 6 6 6 6 v c c c +.M c v +.M B M c c 6 f * c c f g g g g g g g g g g g g f B v O.c.B o.@.c f g g g g g g g g g g g g g g g f c x * 6 6 6 r x d g d g 6 6 6 6 j W ' ' W W 7 6 d W W W W ` 5 g g 6 * i PX] - v B B O y dXi * 6 6 6 6 B B f +.O.B 6 B +.@.f 6 6 ",
"c.@.@.@.w.b.o.6 g b.c.b.@.w.c.v.b.w.w.c.g g g g g g f f v.c.d 6 6 6 v c.B $ B w.@.+.@.+.@.c.v 6 f b.@.c.w.b.@.c b.@.@.g g g g d B b.B 6 6 * x c @.w.v.c.O.O.b.c.@.b.c M d $ B o.+.w.@.v.c.v @.6 + H <X@X<X+X<XH iXjXfXSXfXjXa.@ 6 6 6 6 6 6 6 6 6 6 6 6 6 6 6 6 6 6 6 6 6 6 v M O.B b.@.o.B v.b.~.+.x c 6 f * c c f g g g g g g g g g g g g f O.B +.c.b.c.B.x x x g g g g g g g g g g g g g g f v x * 6 6 6 6 & 6 6 6 * 6 6 6 6 6 6 d 1 2 2 6 6 6 1 1 1 1 3 5 g g 6 6 * f.dX$ X 6 @ + y.y.6 6 6 6 6 6 o.o.M +.c.B v @.@.c.c * 6 ",
"v M v M B M c 6 f w.w.@.@.@.w.w.w.B B O.x g g g g g f r /.b.6 6 6 6 c M B f x o.v M v v v B v 6 g o.c w.B c.@.c c.O.o.g g g g d B  Xv 6 6 * x c v x B o.B c O.B O.B x v r * x d c v M B c d B 9 + H <X+X<X+X<XH iXjXfXjXuXjXa.# 6 6 6 6 6 6 6 6 6 6 6 6 6 6 6 6 6 6 6 6 6 6 v x @.v B M B +.B o.O.M c c 6 f * c c f g g g g g g g g g g g g f M @.+.M o.O.B o.B M f g g g g g g g g g g g g g f v x * 6 6 6 6 r +.@.w.f 6 6 6 6 7 2 j 2 2 2 6 6 * t ..i 8 ..* g g 6 6 * i PXd.O $ @ 0.sXi * 6 6 6 6 6 c B c B B v d o.M O.f 6 6 ",
"* * * 6 * * 6 6 6 g g g x g x f x g g g g g g g g g f f x x r 6 6 6 6 * * 6 6 * * 6 * 6 6 * 6 6 6 g g g g f g g x g g g g g g f f c f 6 6 * x B x c x x c c x x x x c B r 6 6 6 6 6 * 6 6 6 * 6 + H 9X$X<X<X9XH iXSXjXjXjXSXa.@ 6 6 6 6 6 6 6 6 6 6 6 6 6 6 6 6 6 6 6 6 6 6 B c c c x c c c c x x x M c 6 f * v c g x g g g g g g g g g g g x g g g g f f g g g g g g g g g g g g g g g g g x g v x * 6 6 6 * M @.w.c.g * 6 6 6 d ' W ' ' W 7 6 6 ..%.%.z %.& f c & 6 6 % i i * 6 6 t i % 6 6 6 6 6 6 * * * * & * 6 * * * * 6 6 ",
"6 6 6 6 6 6 6 6 6 6 6 6 6 6 6 6 6 6 6 6 6 6 6 6 6 6 6 6 6 6 6 6 6 6 6 6 6 6 6 6 6 6 6 6 6 6 6 6 6 6 6 6 6 6 6 6 6 6 6 6 6 6 6 6 6 6 6 6 6 6 d c c c c c c c c c c c c c 6 6 6 6 6 6 6 6 6 6 6 6 5 D +X+X+X+X+XD *.iXiXiXiXiX*.* 6 6 6 6 6 6 6 6 6 6 6 6 6 6 6 6 6 6 6 6 6 6 x c c c c c c c c c c c c f 6 f * x B v M M M M M M M M M M M M M M M M M M M M M M M M M M M M M M M M M M M M M v B f 6 6 6 6 6 f B v B r 6 6 6 6 6 2 2 W 2 d 6 6 6 t z ..b t 6 6 v x r d f 9 9 d d d d 9 f d d d d d d d d d d d d d d d d d d d ",
"* * * * * * * * * * * * * * * * * * * * * * * * * * * * * * * * * * * * * * * * * * * * * * * * * * * * * * * * * * * * * * * * * * * * * * * & & & & & & & & & & & & & * * * * * * * * * * * * 6 & + + + + + & # O @ @ @ O $ 6 * * * * * * * * * * * * * * * * * * * * * * & & & & & & & & & & & & & & 6 6 * * * * * * * * * * * * * * * * * * * * * * * * * * * * * * * * * * * * * * * * * * * * * * * * 6 * $ & $ * * * * * * 5 5 5 5 5 * * * * * $ & * 6 * 6 f x x x c x x x x x x x x x x x x x x x x x x x x x x x x x x ",
"x x x x c x x x x x x x c x x c c x x x x x x x x x x x x x x x x x x x x x x x x x x x x x x x x x x x x x x x x x x x x x x x x x x x x x x c c c c c c c c c c c c c x x x x x x x x x x x x x c c c c c c c c c c c c c c x x x x x x x x x x x x x x x x x x x x x x x c c c c c c c c c c c c c x x x x x x x x x x x x x x x x x x x x x x x x x x x x x x x x x x x x x x x x x x x x x x x x x x x x x c c c x x x x x x c c c c x x x x x c c x x x x x g g x g g g g g g g g g g g g g g g g g g g g g g g g g g g x ",
"@.w.@.w.@.@.c.@.@.w.w.w.@.@.w.@.@.@.w.@.f f f f f f f f f f f f f f f f f f f f f f f f f f f f f f f f f f f f f f f f f f f f f f f f f f f f f f f f f f f f f f f f f f f f f f f f f f f f f f f f f f f f f f f f f f f f f f f f f f f f f f f f f f f f f f f f f f f f f f f f f f f f f f f f f f f f f f f f f f f f f f f f f f f f f f f f f f f f f f f f f f f f f f f f f f f f f f f f f f f f f f f f f f f f f f f f f f f f f f f f f f f f f f f f f f f f f f f f f f f f f f f f f f f f f f f f f f f f ",
"c.O.b.b.c.b.b.b.c.b./.c.c.b./.c.b.+.@.+.6 * 6 6 6 6 6 6 6 6 6 6 6 6 6 6 6 6 6 6 6 6 6 6 6 6 6 6 6 6 6 6 6 6 6 6 6 6 6 6 6 6 6 6 6 6 6 6 6 6 6 6 6 6 6 6 6 6 6 6 6 6 6 6 6 6 6 6 6 6 6 6 6 6 6 6 6 6 6 6 6 6 6 6 6 6 6 6 6 6 6 6 6 6 6 6 6 6 6 6 6 6 6 6 6 6 6 6 6 6 6 6 6 6 6 6 6 6 6 6 6 6 6 6 6 6 6 6 6 6 6 6 6 6 6 6 6 6 6 6 6 6 6 6 6 6 6 6 6 6 6 6 6 6 6 6 6 6 6 6 6 6 6 6 6 6 6 6 6 6 6 6 6 6 6 6 6 6 6 6 6 6 6 6 6 6 6 6 6 6 6 6 6 6 6 6 6 6 6 6 6 6 6 6 6 6 6 6 6 6 6 6 6 6 6 6 6 6 6 6 6 6 6 6 6 6 6 6 6 6 6 6 6 6 6 6 ",
"v.O.c././././.'.c.~. X/././././.~.+.@.+.6 6 6 6 6 6 6 6 6 6 6 6 6 6 6 6 6 6 6 6 6 6 6 6 6 6 6 6 6 6 6 6 6 6 6 6 6 6 6 6 6 6 6 6 6 6 6 6 6 6 6 6 6 6 6 6 6 6 6 6 6 6 6 6 6 6 6 6 6 6 6 6 6 6 6 6 6 6 6 6 6 6 6 6 6 6 6 6 6 6 6 6 6 6 6 6 6 6 6 6 6 6 6 6 6 6 6 6 6 6 6 6 6 6 6 6 6 6 6 6 6 6 6 6 6 6 6 6 6 6 6 6 6 6 6 6 6 6 6 6 6 6 6 6 6 6 6 6 6 6 6 6 6 6 6 6 6 6 6 6 6 6 6 6 6 6 6 6 6 6 6 6 6 6 6 6 6 6 6 6 6 6 6 6 6 6 6 6 6 6 6 6 6 6 6 6 6 6 6 6 6 6 6 6 6 6 6 6 6 6 6 6 6 6 6 6 6 6 6 6 6 6 6 6 6 6 6 6 6 6 6 6 6 6 6 6 ",
"c.+.c.~.'.b.b.b.c.c.b.b./.'.c.b.b.@.w.B 6 6 6 6 6 6 6 6 6 6 6 6 6 6 6 6 6 6 6 6 6 6 6 6 6 6 6 6 6 6 6 6 6 6 6 6 6 6 6 6 6 6 6 6 6 6 6 6 6 6 6 6 6 6 6 6 6 6 6 6 6 6 6 6 6 6 6 6 6 6 6 6 6 6 6 6 6 6 6 6 6 6 6 6 6 6 6 6 6 6 6 6 6 6 6 6 6 6 6 6 6 6 6 6 6 6 6 6 6 6 6 6 6 6 6 6 6 6 6 6 6 6 6 6 6 6 6 6 6 6 6 6 6 6 6 6 6 6 6 6 6 6 6 6 6 6 6 6 6 6 6 6 6 6 6 6 6 6 6 6 6 6 6 6 6 6 6 6 6 6 6 6 6 6 6 6 6 6 6 6 6 6 6 6 6 6 6 6 6 6 6 6 6 6 6 6 6 6 6 6 6 6 6 6 6 6 6 6 6 6 6 6 6 6 6 6 6 6 6 6 6 6 6 6 6 6 6 6 6 6 6 6 6 6 6 6 ",
"O.+.O.O.w.o.O.O.O.O.O.o.c.c.o.O.O.+.M 6 6 6 6 6 6 6 6 6 6 6 6 6 6 6 6 6 6 6 6 6 6 6 6 6 6 6 6 6 6 6 6 6 6 6 6 6 6 6 6 6 6 6 6 6 6 6 6 6 6 6 6 6 6 6 6 6 6 6 6 6 6 6 6 6 6 6 6 6 6 6 6 6 6 6 6 6 6 6 6 6 6 6 6 6 6 6 6 6 6 6 6 6 6 6 6 6 6 6 6 6 6 6 6 6 6 6 6 6 6 6 6 6 6 6 6 6 6 6 6 6 6 6 6 6 6 6 6 6 6 6 6 6 6 6 6 6 6 6 6 6 6 6 6 6 6 6 6 6 6 6 6 6 6 6 6 6 6 6 6 6 6 6 6 6 6 6 6 6 6 6 6 6 6 6 6 6 6 6 6 6 6 6 6 6 6 6 6 6 6 6 6 6 6 6 6 6 6 6 6 6 6 6 6 6 6 6 6 6 6 6 6 6 6 6 6 6 6 6 6 6 6 6 6 6 6 6 6 6 6 6 6 6 6 6 6 6 ",
"6 6 6 6 6 6 6 6 6 6 6 6 6 6 6 6 6 f 6 6 + + + + + + + + + + + + + + + + + + + + + + + + + + 6 6 d 6 6 6 6 6 6 6 6 6 6 6 6 6 6 6 6 6 6 6 6 6 6 6 6 6 6 6 6 6 f 6 6 7 7 7 7 7 7 7 7 7 7 7 7 7 7 7 7 7 7 7 7 7 7 7 7 7 7 6 d r 6 6 6 6 6 6 6 6 6 6 6 6 6 6 6 6 6 6 6 6 6 6 6 6 6 6 6 6 6 f 6 % # # # # # # # # # # # # # # # # # # # # # # # # # * 6 f 6 6 6 6 6 6 6 6 6 6 6 6 6 6 6 6 6 6 6 6 6 6 6 6 6 6 6 6 6 f 6 & @ @ @ @ @ @ @ @ @ @ @ @ @ @ @ @ @ @ @ @ @ @ @ @ @ 6 6 f 6 6 6 6 6 6 6 6 6 6 6 6 6 6 6 6 6 6 6 6 6 6 6 6 6 6 ",
"6 6 6 6 * 6 6 6 6 6 6 6 6 6 6 6 6 f 6 9 H +X+X+X+X+X+X+X+X+X+X+XH +XH +X+X+X+X+X+X+X+X+X+XH 6 6 f 6 d f f f f f f f f f f f f f f f f f f f f f f f f f 6 6 f 6 1 E L E E E E E E E E E L L L L E E E E E E E E L E P 7 d r 6 f f f f f f f f f f f f f f f f f f f f f f f f f f 6 6 f % ] s.u.u.u.u.u.u.u.u.u.u.u.u.u.u.u.u.u.u.u.u.u.u.u.s.i * f 6 6 f f f f f f f f f f f f f f f f f f f f f f f f f 6 6 f $ X.kXkXkXkXkXkXkXkXkXkXkXkXkXkXkXkXkXkXkXkXkXkXkXkX(.6 6 f 6 d f f f f f f f f f f f f f f f f f f f f f f f f ",
"6 6 6 r g 6 * * * 6 f 6 6 6 6 6 6 f 6 j 9X<X<X<X<X<X<X<X<X<X<X<X<X<X<X<X<X<X<X<X<X<X<X<X<X9X6 6 f * z f f f f f f f f f f f g f g f f f f f f f f f t z f 6 f 7 2 ~ ! ~ ~ ~ ~ ~ ~ ~ ~ ! ~ ~ ~ ~ ! ~ ~ ~ ~ ~ ~ ~ ! ~ ~ 7 d r 6 x f f f f f f f f f f f f f g f f f f f f f f f t x 6 6 f # u.IXpXaXpXpXpXpXpXpXpXpXaXaXaXaXpXpXpXpXpXpXpXaXpXIXq.% f 6 f z t f f f f f f f f f f f g f f f f f f f f f t x 6 6 f @ (.FXMXBXBXBXBXBXBXBXBXBXBXBXBXBXBXBXBXBXBXBXBXBXBXFXf 6 f * g f d f f f f f f f f f f f g f f f f f f f f f f ",
"6 6 * v c.v M o.v o.o.& 6 6 6 6 6 f 5 l 7X+X+X+X+X+X+X+X+X+X@X7X$X$X<X+X+X+X+X+X+X+X+X+X+X7X9 6 f 6 f r 6 6 6 6 6 6 6 6 6 o.v z o.f 6 6 6 6 6 6 6 6 6 f f 6 f 7 3 ~ L E E E E E E E L ! ~ ! ~ ! L E E E E E E E L ! ! 7 d r 6 g 6 6 6 6 6 6 6 6 6 r o.M c o.6 6 6 6 6 6 6 6 6 6 f 6 6 f # y.pXu.s.s.s.s.s.s.s.u.pXIXsXaXpXu.s.s.s.s.s.s.s.u.aX{ % f 6 f f 6 6 6 6 6 6 6 6 6 M o.z o.f 6 6 6 6 6 6 6 6 6 f 6 6 f @ (.VXkXzXkXkXkXkXkXkXkXBXVXMXBXxXkXkXkXkXkXkXkXkXkXBXf 6 f * f t 6 6 6 6 6 6 6 6 r o.o.c o.6 6 6 6 6 6 6 6 6 6 ",
"6 6 & v c.@.b.+.@.w.B * 6 6 6 6 6 f 5 l 7X+X@X@X@X@X@X@X@X+X@X<X@X@X$X@X@X@X@X@X@X@X@X@X@X7X9 6 f * g r 6 6 6 6 6 6 6 6 6 v v g c f 6 6 6 6 6 6 6 6 6 f f 6 f 7 3 ~ L E E E E E E E L ! ! ! ! ! E E E E E E E E L ! ! 7 d r 6 g 6 6 6 6 6 6 6 6 6 t v v x c r 6 6 6 6 6 6 6 6 6 f 6 6 f # y.aXu.s.s.s.s.s.s.s.s.pXpXpXpXsXs.s.s.s.s.s.s.s.u.aX{ % f 6 f f 6 6 6 6 6 6 6 6 6 v v x c f 6 6 6 6 6 6 6 6 6 f 6 6 f @ (.BXkXxXxXxXxXxXxXxXxXVXMXxXMXxXzXxXxXxXxXxXxXxXzXBXf 6 f * f t 6 6 6 6 6 6 6 6 t v v x c r 6 6 6 6 6 6 6 6 6 ",
"6 6 6 f c x c f d c f 6 6 6 6 6 6 f 6 l 9X$X$X$X$X$X$X$X$X$X$X$X$X$X$X$X$X$X$X$X$X$X$X$X$X7X6 6 f * z f r t t t t t t t t 6 r t 6 r t t t t t t t t r g f 6 f 7 2 ~ ! ! ! ! ! ! ! ! ! ! ! ! ! ! ! ! ! ! ! ! ! ! ! ~ ~ 7 d r 6 x t r t t t t t t t r 6 6 r r t t t t t t t t t r x 6 6 f # u.IXsXpXpXpXpXpXpXpXpXpXpXpXpXpXpXpXpXpXpXpXpXpXs.IXq.% f 6 f g r t t t t t t t t 6 6 r r r t t t t t t t t r x 6 6 f @ (.FXxXMXMXMXMXMXMXMXMXMXMXMXMXMXMXMXMXMXMXMXMXMXMXFXf 6 f * g f r t t t t t t t r 6 r r r t t t t t t t t r t ",
"6 6 6 6 * * * 6 6 * 6 6 6 6 6 6 6 f 6 9 @X@X@X@X@X@X@X@X@X@X@X@X@X@X@X@X@X@X@X@X@X@X@X@X@X+X6 6 f 6 f g f g g g g g g g g g g g g g g g g g g g g g f z 6 6 f 7 1 ! ! ! ! ! ! ! ! ! ! ! ! ! ! ! ! ! ! ! ! ! ! ! ! ! L 7 d r 6 f g f g g g g g g g g g g g g g g g g g g g g g g g 6 6 f % q.pXsXsXsXsXsXsXsXsXsXsXsXsXsXsXsXsXsXsXsXsXsXsXsXsXa % f 6 6 z f g g g g g g g g g g g g g g g g g g g g g g g 6 6 f $ &.MXxXMXMXMXMXMXMXMXMXMXMXMXMXMXMXMXMXMXMXMXMXMXMXxX6 6 f 6 f z f g g g g g g g g g g g g g g g g g g g g f g ",
"6 6 6 6 6 6 6 6 6 6 6 6 6 6 6 6 6 f 6 6 + + + + + + + + + + + + + + + + + + + + + + + + + 4 6 6 d 6 6 6 6 6 6 6 6 6 6 6 6 6 6 6 6 6 6 6 6 6 6 6 6 6 6 6 6 6 f 6 6 7 7 7 7 7 7 7 7 7 7 7 7 7 7 7 7 7 7 7 7 7 7 7 7 7 7 6 d r 6 6 6 6 6 6 6 6 6 6 6 6 6 6 6 6 6 6 6 6 6 6 6 6 6 6 6 6 6 f 6 * # % % % % % % % % % % % % % % % % % % % % % % % # * 6 f 6 6 6 6 6 6 6 6 6 6 6 6 6 6 6 6 6 6 6 6 6 6 6 6 6 6 6 6 6 f 6 & @ @ @ @ @ @ @ @ @ @ @ @ @ @ @ @ @ @ @ @ @ @ @ @ @ 6 6 f 6 6 6 6 6 6 6 6 6 6 6 6 6 6 6 6 6 6 6 6 6 6 6 6 6 6 ",
"6 6 6 6 6 6 6 6 6 6 6 6 6 6 6 6 6 f 6 6 6 6 6 6 6 6 6 6 6 6 6 6 6 6 6 6 6 6 6 6 6 6 6 6 6 6 6 6 d 6 6 6 6 6 6 6 6 6 6 6 6 6 6 6 6 6 6 6 6 6 6 6 6 6 6 6 6 6 f 6 6 6 6 6 6 6 6 6 6 6 6 6 6 6 6 6 6 6 6 6 6 6 6 6 6 6 6 6 d r 6 6 6 6 6 6 6 6 6 6 6 6 6 6 6 6 6 6 6 6 6 6 6 6 6 6 6 6 6 f 6 6 6 6 6 6 6 6 6 6 6 6 6 6 6 6 6 6 6 6 6 6 6 6 6 6 6 6 6 f 6 6 6 6 6 6 6 6 6 6 6 6 6 6 6 6 6 6 6 6 6 6 6 6 6 6 6 6 6 f 6 6 6 6 6 6 6 6 6 6 6 6 6 6 6 6 6 6 6 6 6 6 6 6 6 6 6 6 6 f 6 6 6 6 6 6 6 6 6 6 6 6 6 6 6 6 6 6 6 6 6 6 6 6 6 6 ",
"6 6 6 6 6 6 6 6 6 6 6 6 6 6 6 6 6 f 6 6 6 6 6 6 6 6 6 6 6 6 6 6 6 6 6 6 6 6 6 6 6 6 6 6 6 6 6 6 d 6 6 6 6 6 6 6 6 6 6 6 6 6 6 6 6 6 6 6 6 6 6 6 6 6 6 6 6 6 f 6 6 6 6 6 6 6 6 7 6 6 6 6 6 6 6 6 6 6 6 6 6 6 6 6 6 6 6 6 d r 6 6 6 6 6 6 6 6 6 6 6 6 6 6 6 6 6 6 6 6 6 6 6 6 6 6 6 6 6 f 6 6 6 6 % * r * * 6 6 6 6 6 6 6 6 6 6 6 r 6 r 6 6 6 6 6 6 f 6 6 6 6 * * 6 6 * 6 6 6 6 6 6 6 6 6 6 6 6 6 6 6 6 6 6 6 6 f 6 6 6 6 = * 6 & & 6 6 6 6 6 6 6 6 6 6 6 6 6 6 6 6 6 6 6 6 f 6 6 6 6 * 6 6 * 6 6 6 6 6 6 6 6 6 6 6 6 6 6 6 6 6 6 ",
"6 6 d +.x r f f f f d 6 6 6 6 6 6 f 6 6 6 6 6 6 6 6 6 6 6 6 6 6 O.M * 6 6 6 6 6 6 6 6 6 6 6 6 6 d 6 6 6 6 j C C C 6 6 6 6 6 6 6 6 6 * x M v r v x 6 6 6 6 6 f 6 6 6 6 1 P P P 1 6 6 6 6 6 6 6 6 6 6 o.B +.+.M 6 6 6 6 6 d r 6 6 6 6 N N N c 6 6 6 6 6 6 6 6 6 6 f M o.f v 6 6 6 6 6 6 f 6 6 6 * { s.s.i.i * 6 6 6 6 6 6 6 * c o.M B o.f 6 6 6 6 6 f 6 6 6 * x e.+.e.x 6 6 6 6 6 6 6 6 f v M c B x M 6 6 6 6 6 f 6 6 6 * &.zXzXzX| & 6 6 6 6 6 6 6 g @.O.+.@.c o.* 6 6 6 6 f 6 6 6 6 n 1.1.1.f 6 6 6 6 6 6 6 f v c M v M v M f 6 ",
"6 * g b.B c.c.@.+.@.b.M * 6 6 6 6 f 6 6 6 6 6 6 6 6 6 6 6 6 6 r O.B 6 6 6 6 6 6 6 6 6 6 6 6 6 6 d 6 6 6 C j @ @ ; V d 6 6 6 6 6 6 6 6 O.O.v c v c 6 6 6 6 6 f 6 6 7 1 P , @ = P 3 7 6 6 6 6 6 6 6 * M O.+.w.B 6 6 6 6 6 d r 6 6 6 e.g X @ f N 6 6 6 6 6 6 6 6 6 f c x v c 6 6 6 6 6 6 f 6 6 % q.u.5 + y i.p % 6 6 6 6 6 6 * o.@.B +.B d 6 6 6 6 6 f 6 6 * c e.6 @ 6 @.c * 6 6 6 6 6 6 6 v f o.o.c x 6 6 6 6 6 f 6 6 = -.zX7 $ b MX$.= 6 6 6 6 6 6 d w.@.v.c.c.@.* 6 6 6 6 f 6 6 * V V $ @ d j.f 6 6 6 6 6 6 6 M c o.M o.B B x 6 ",
"6 6 f M o.w.B c +.@.O.g 6 6 6 6 6 f 6 6 6 6 6 6 6 6 6 6 6 6 6 6 M x 6 6 6 6 6 6 6 6 6 6 6 6 6 6 d 6 6 j C   $ 6 X ; C 6 6 6 6 6 6 6 6 f x c f c f 6 6 6 6 6 f 6 6 6 L = X x 6 X P , 6 6 6 6 6 6 6 6 f x M v c 6 6 6 6 6 d r 6 * N N . X 6   g g 6 6 6 6 6 6 6 6 c c g c c 6 6 6 6 6 6 f 6 * i s.X % 6 O 5 i.6 6 6 6 6 6 6 6 f M v B o.6 6 6 6 6 6 f 6 6 6 e.$   6   X M 6 6 6 6 6 6 6 6 f f x x z r 6 6 6 6 6 f 6 * b zXX @ c @ 7 xX6 6 6 6 6 6 6 x v c c M x c 6 6 6 6 6 f 6 5 h 1.  @ 6   9 1.* 6 6 6 6 6 6 f x x x x x c d 6 ",
"6 6 6 6 6 & 6 & c c * 6 6 6 6 6 6 f 6 6 6 6 6 6 6 6 6 6 6 6 6 6 & * 6 6 6 6 6 6 6 6 6 6 6 6 6 6 d 6 5 C d   d c 6 @ C 6 6 6 6 6 6 6 6 6 & * * & 6 6 6 6 6 6 f 6 7 1 L X 6 M O.O 3 3 7 6 6 6 6 6 6 6 * * & & * 6 6 6 6 6 d r 6 6 B * @ f c * $ N 6 6 6 6 6 6 6 6 * * 6 & * 6 6 6 6 6 6 f 6 % { 0.- M v M X q.i * 6 6 6 6 6 6 * & * & * 6 6 6 6 6 6 f 6 * g o.  d f 6   c f 6 6 6 6 6 6 6 6 * * * * 6 6 6 6 6 6 f 6 = &.-.. M B f . rXb * 6 6 6 6 6 * * * & * & & 6 6 6 6 6 f 6 & V n   g x r X 1.9 6 6 6 6 6 6 6 6 * * * * * 6 6 ",
"6 6 6 6 6 c r f 6 f 6 6 6 6 6 6 6 f 6 6 6 6 6 6 6 6 6 6 6 6 6 r f d f 6 6 6 6 6 6 6 6 6 6 6 6 6 d 6 5 n j . 6 g $ @ C 6 6 6 6 6 6 6 6 6 f 6 f g 6 6 6 6 6 6 f 6 6 1 L X d B c o 3 1 7 6 6 6 6 6 6 6 r f f f d 6 6 6 6 6 d r 6 * B r   f g @ * N 6 6 6 6 6 6 6 6 6 f 6 g f 6 6 6 6 6 6 f 6 % { i.- x B g X q.y * 6 6 6 6 6 6 f d d f 6 r 6 6 6 6 6 f 6 6 f +.. * g r   M f 6 6 6 6 6 6 6 6 f 6 f z 6 6 6 6 6 6 f 6 = $.kX. x M r   rX8 * 6 6 6 6 6 f 6 d f d f f 6 6 6 6 6 f 6 & n n . d d X @ 1.6 6 6 6 6 6 6 6 6 f 6 g f 6 6 6 ",
"6 6 6 6 f @.@.+.O.+.6 6 6 6 6 6 6 f 6 6 6 6 6 6 6 6 6 6 6 * g +.B @.+.g * 6 6 6 6 6 6 6 6 6 6 6 d 6 6 d G $   @   j j 5 6 6 6 6 6 6 * x c v o.o.6 6 6 6 6 6 f 6 6 7 L 3 o $ X , P 6 6 6 6 6 6 6 6 6 w.c +.v B * 6 6 6 6 d r 6 6 g B X X X X N f 6 6 6 6 6 6 6 6 c c M O.M 6 6 6 6 6 6 f 6 6 6 s.s   &   p q.* 6 6 6 6 6 6 6 @.@.@.c.M @.6 6 6 6 6 f 6 6 6 +.g . @   6 M 6 6 6 6 6 6 6 6 g c v o.o.6 6 6 6 6 6 f 6 6 6 zX..  &   >.rX* 6 6 6 6 6 6 o.B w.O.@.+.@.v * 6 6 6 f 6 6 d 1.*   @ . h V * 6 6 6 6 6 6 6 c c M O.M 6 6 6 ",
"6 6 6 * f @.v +.O.o.r 6 6 6 6 6 6 f 6 6 6 6 6 6 6 6 6 6 6 6 6 O.B c.+.x * 6 6 6 6 6 6 6 6 6 6 6 d 6 6 5 C V $ $ d C 6 6 6 6 6 6 6 6 * x x v v c 6 6 6 6 6 6 f 6 6 6 1 L * $ & P 1 7 6 6 6 6 6 6 6 f w.B O.+.c * 6 6 6 6 d r 6 6 6 B g $ $ f h 6 6 6 6 6 6 6 6 6 c x M v x 6 6 6 6 6 6 f 6 6 % { u.# $ 6 q.y 6 6 6 6 6 6 6 6 +.+.c.c.c.c.6 6 6 6 6 f 6 6 6 f @.* $ * M t 6 6 6 6 6 6 6 * x x v v c 6 6 6 6 6 6 f 6 6 = $.kX@ $ 6 rX8 * 6 6 6 6 6 f O.@.b.O.w.@.@.M 6 6 6 6 f 6 6 & n V $ $ 6 m 6 6 6 6 6 6 6 6 6 c x M v x 6 6 6 ",
"6 6 6 6 6 c 6 6 f c 6 6 6 6 6 6 6 f 6 6 6 6 6 6 6 6 6 6 6 6 6 d x g c 6 6 6 6 6 6 6 6 6 6 6 6 6 d 6 6 6 6 6 6 6 6 6 6 6 6 6 6 6 6 6 6 6 x r r r 6 6 6 6 6 6 f 6 6 6 6 6 6 6 6 6 6 6 6 6 6 6 6 6 6 6 x x x v g 6 6 6 6 6 d r 6 6 6 6 6 6 6 6 6 6 6 6 6 6 6 6 6 6 6 x 6 d 6 6 6 6 6 6 6 f 6 6 6 * 6 6 6 6 6 6 6 6 6 6 6 6 6 d c f f x d f 6 6 6 6 6 f 6 6 6 6 6 6 6 6 6 6 6 6 6 6 6 6 6 6 6 x d r r 6 6 6 6 6 6 f 6 6 6 * 6 6 6 6 * * 6 6 6 6 6 6 f M 6 f c g x x f 6 6 6 6 f 6 6 6 6 6 6 6 6 6 6 6 6 6 6 6 6 6 6 6 x 6 d 6 6 6 6 ",
"6 6 6 6 6 6 6 6 * 6 6 6 6 6 6 6 6 f 6 6 6 6 6 6 6 6 6 6 6 6 6 6 * 6 * 6 6 6 6 6 6 6 6 6 6 6 6 6 d 6 6 6 6 6 6 6 6 6 6 6 6 6 6 6 6 6 6 6 * 6 6 6 6 6 6 6 6 6 f 6 6 6 6 6 6 6 6 6 6 6 6 6 6 6 6 6 6 6 * * * & 6 6 6 6 6 6 d r 6 6 6 6 6 6 6 6 6 6 6 6 6 6 6 6 6 6 6 * 6 6 6 6 6 6 6 6 6 f 6 6 6 6 6 6 6 6 6 6 6 6 6 6 6 6 6 6 * 6 6 * 6 6 6 6 6 6 6 f 6 6 6 6 6 6 6 6 6 6 6 6 6 6 6 6 6 6 6 6 6 6 6 6 6 6 6 6 6 f 6 6 6 6 6 6 6 6 6 6 6 6 6 6 6 6 6 * 6 6 * 6 6 * 6 6 6 6 6 f 6 6 6 6 6 6 6 6 6 6 6 6 6 6 6 6 6 6 6 * 6 6 6 6 6 6 ",
"6 6 6 6 6 6 6 6 6 6 6 6 6 6 6 6 6 f 6 6 5 6 5 6 6 6 6 6 6 6 6 6 6 6 6 6 5 6 6 6 6 6 6 6 6 5 6 6 d 6 6 6 6 6 6 6 6 6 6 6 6 6 6 6 6 6 6 6 6 6 6 6 6 6 6 6 6 6 f 6 6 6 6 6 6 6 6 6 6 6 6 6 6 6 6 6 6 6 6 6 6 6 6 6 6 6 6 6 d r 6 6 6 6 6 6 6 6 6 6 6 6 6 6 6 6 6 6 6 6 6 6 6 6 6 6 6 6 6 f 6 6 * 6 6 6 6 6 6 6 6 6 6 6 6 6 6 6 6 6 6 6 6 6 6 6 * 6 6 f 6 6 * 6 6 6 6 6 6 6 6 6 6 6 6 6 6 6 6 6 6 6 6 6 * 6 * 6 6 f 6 * * * * * * * * * * * * 6 6 * * 6 * * 6 6 6 6 * * * 6 6 f 6 6 6 6 6 6 6 6 6 6 6 6 6 6 6 6 6 6 6 6 6 6 6 6 6 6 ",
"6 6 6 6 6 6 6 6 6 6 6 6 6 6 6 6 6 f 6 0 7X6X6X6X6X6X6X6X6X6X6X$X$X$X6X6X6X6X6X6X6X6X6X6X7X<X6 6 f 5 Z Q Q Q Q Q Q Q Q Q Q Q Q Q Q Q Q Q Q Q Q Q Q Q Q Q 2 5 f 7 3 ~ ~ ~ ~ ~ ~ ~ ~ ~ ~ ~ ~ ~ ~ ~ ~ ~ ~ ~ ~ ~ ~ ~ ~ ~ E 7 d r 6 U T U U U U U U U U U U U U U U U U U U U U U U U T y 6 f # q.IXpXaXaXaXaXaXaXaXaXaXaXpXaXaXaXaXaXaXaXaXaXaXaXIX] % f % { fXuXfXfXfXfXfXfXfXfXfXuXuXfXfXfXfXfXfXfXfXfXfXfXfXi * f @ ;.FXVXBXBXBXBXBXBXBXBXBXVXVXVXBXBXBXBXBXBXBXBXBXBXVX6 6 f & ,.1X1X1X1X1X1X1X1X1X1X1X1X1X1X1X1X1X1X1X1X1X1X1X1X",
"6 6 6 6 6 6 6 6 6 6 6 6 6 6 6 6 6 f 5 l 7X@X@X@X@X@X@X@X@X@X@X$X$X$X@X@X@X@X@X@X@X@X@X@X@X7X9 6 f 5 Q S S S S S S S S S S S Q Q S S S S S S S S S S S Q Z 5 f 7 2 ~ E ! ! ! ! ! ! ! ! ! ! ! ! ! ! ! ! ! ! ! ! ! E ! ~ 7 d r 6 T I I I I I I I I I I I U U I I I I I I I I I I I T y 6 f # u.IXs.s.s.s.s.s.s.s.s.s.pXpXpXs.s.s.s.s.s.s.s.s.s.IXq.% g # } fXuXuXuXuXuXuXuXuXuXuXuXuXuXuXuXuXuXuXuXuXuXuXuXfXp * g @ (.BXxXxXxXxXxXxXxXxXxXMXVXMXMXxXxXxXxXxXxXxXxXxXxXBXf 6 f + <.1X<.<.<.<.<.<.<.<.<.1X1X1X<.<.<.<.<.<.<.<.<.<.<.",
"6 6 6 6 6 6 6 6 6 6 6 6 6 6 6 6 6 f 5 l 7X#X@X@X@X@X@X@X@X@X@X$X-X9X$X+X@X@X@X@X@X@X@X@X@X7X9 6 f 5 S S S S S S S S S S S S Q Q Q S S S S S S S S S S Q Z 5 f 7 3 ~ L E E E E E E E E ! ~ ~ ~ ! E E E E E E E E E ! ! 7 d r 6 U I I I I I I I I I I U U T U I I I I I I I I I I T y 6 f # y.aXs.s.s.s.s.s.s.s.s.sXaXIXIXs.s.s.s.s.s.s.s.s.u.IX{ % f # } fXi.uXuXuXuXuXuXuXuXuXfXfXfXi.uXuXuXuXuXuXuXuXi.fXp * f @ (.BXkXxXxXxXxXxXxXxXxXMXBXFXBXzXxXxXxXxXxXxXxXxXxXBXf 6 f + <.1X<.<.<.<.<.<.<.<.<.1X1X1X1X<.<.<.<.<.<.<.<.<.<.",
"6 6 * 6 6 6 6 * 6 6 6 6 6 6 6 6 6 f 5 l 7X#X+X+X+X+X+X+X+X+X+X@X@X@X@X+X+X+X+X+X+X+X+X+X#X7X9 6 f 5 S S S S S S S S S S S S S S S S S S S S S S S S Z Q Z 5 f 7 3 ~ L L L L L L L L L L ! E ! E L L L L L L L L L ! ! 7 d r 6 U I I I I I I I I I I I I I I I I I I I I I I I I T y 6 f # y.pXu.s.u.u.u.u.u.s.u.s.pXs.s.s.u.u.u.u.u.u.u.s.u.aX{ % f # } fXi.i.i.i.i.i.i.i.i.i.uXuXuXi.i.i.i.i.i.i.i.i.i.fXp * f @ (.VXkXkXkXkXkXkXkXkXkXxXMXxXxXkXkXkXkXkXkXkXkXkXkXBXf 6 f + <.1X<.<.<.<.<.<.<.<.<.<.<.<.<.<.<.<.<.<.<.<.<.<.<.",
"6 f B d 6 6 r g 6 6 6 c d 6 6 6 6 f 6 j 9X-X-X-X-X-X-X-X-X-X-X-X-X-X-X-X-X-X-X-X-X-X-X-X-X9X6 6 f 4 Q Q Q Q Q Q Q Q Q Q Q Q Q Q Q Q Q Q Q Q Q Q Q Q Q :XZ 5 f 7 3 ~ ~ ~ ~ ~ ~ ~ ~ ~ ~ ~ ~ ~ ~ ~ ~ ~ ~ ~ ~ ~ ~ ~ ~ ~ ~ 7 d r 6 T T T T T T T T T T T T U U T T T T T T T T T T U T y 6 f # u.IXaXIXaXaXaXaXaXaXaXaXaXaXaXaXaXaXaXaXaXaXaXIXaXIXq.% g # } fXfXfXfXfXfXfXfXfXfXfXfXfXfXfXfXfXfXfXfXfXfXfXfXfXp * g @ (.FXBXBXBXBXBXBXBXBXBXBXBXBXBXBXBXBXBXBXBXBXBXBXBXFXf 6 f + <.1X1X1X1X1X1X1X1X1X1X1X1X1X1X1X1X1X1X1X1X1X1X1X1X",
"* O.f B O.@.@.@.O.B O.+.@.f 6 6 6 f 6 6 F J J J J J J J J J J J J J J J J J J J J J J J J F 6 6 f 5 : Z Z Z Z Z Z Z Z Z Z Z Z Z Z Z Z Z Z Z Z Z Z Z Z Z 1 6 f 6 1 P P P P P P P P P P P P P P P P P P P P P P P P P 3 5 d r 6 u u u u u u u u u u u u u u u u u u u u u u u u u u 6 6 f * i 0.q.q.q.q.q.q.q.q.q.q.0.0.q.q.q.q.q.q.q.0.q.q.q.q.y 6 f * i } } } } } } } } } } } } } } } } } } } } } } } } } 6 6 f * b -.;.-.-.-.-.-.-.-.-.-.-.-.-.-.-.-.-.-.-.-.-.;.-.&.6 6 f & e ,.,.,.,.,.,.,.,.,.,.,.,.,.,.,.,.,.,.,.,.,.,.,.,.",
"* v B B O.M M O.v c +.B O.c * 6 6 f 6 6 i i i i i i i i i i i x 5 y i i i i i i i i i i i i 6 6 f * t i t t t t t t t t t i 8 7 i t t t t t t t t t t i 6 6 f 6 6 b b b b b b b b b b b b 7 b b b b b b b b b b b b z * d r 6 f q q q q q q q q q q f 9 9 f q q q q q q q q q q f 6 6 f 6 d l j j j j j j j j j l 0 ; l j j j j j j j j j j l 9 6 f 6 6 d d d 9 9 9 9 9 d d d ; ; d d d 9 9 9 9 9 9 d d d 6 6 f 6 d g f f d d f f d g f h * r g f f f d f d d f g g g 6 6 f 6 t y y y y y y y y y y y & y y y y y y y y y y y y ",
"6 6 d 6 6 6 6 6 6 6 6 6 6 6 6 6 6 f 6 6 B x c B B B c B B x x B g v c x v B B v o.O.v x c B 6 6 f * g f r f g x f f x d d f g d g r d f g f g c g d r g f 6 f 6 f B g x M B B c B v x h B f B c h v M B v o.B c h c M * d r 6 x t r f z x f f x t r f f f f r t f g f x c f t r x 6 6 f * c M x v M B M v o.c x v v x M x c M M M M O.M x x M f 6 f 6 f z t t z x z f x t t f f f f t t z z f x c z t t x 6 6 f * c M x v B o.M v o.c x B x v v x v M B v o.O.v c c B 6 6 f * g f 6 f z x f f x d 9 z f z f d f g z f c c f d f ",
"6 6 6 6 6 6 6 6 6 6 6 6 6 6 6 6 6 f 6 6 M f f B c.@.+.O.+.g f v f c x f c b.c.O.+.c.v f g M 6 6 f * g r 6 t M v M c v f 6 r f d f 6 6 M O.v c M v 6 6 f f 6 f 6 f v f f O.w.@.O.+.o.f f M f v g f B b.w.O.+.c.x f x v * d r 6 g 6 6 f o.v M c v r 6 f f f f 6 r o.o.c c o.x 6 6 f 6 6 f * x c f c c.@.@.o.@.c f x c g v f g c.b.+.O.c.O.f f v f 6 f 6 f f 6 r M v M c v f 6 f f f f 6 r o.o.c c o.x 6 6 f 6 6 f * x c f c c.@.@.o.@.c f v g c x f c b.c.O.O.c.M f g M 6 6 f * f t 6 f o.v M c v r 6 f d f r 6 f O.o.c v o.f 6 6 ",
"6 6 6 6 6 6 6 6 6 6 6 6 6 6 6 6 6 f 6 6 M f f c O.B B o.M f f v f c x f g O.B B c o.c f f M 6 6 f 6 f r 6 6 x c x x x r 6 r f d f 6 6 z x x f f x 6 6 f f 6 f 6 f v f f M O.B B o.v f f v f v f f c O.B B c o.x f g v * d r 6 g 6 6 t c x x x x 6 6 d f f f 6 6 x x x f x f 6 6 f 6 6 f * x c f g o.o.B B B g f x c g c f f B B B c M B f f v f 6 f 6 f f 6 6 x c x x x r 6 f f f f 6 6 x x x f x f 6 6 f 6 6 f * x c f g o.o.B B B g f c g c x f g o.B B c B v f f M 6 6 f * f t 6 t c x x x x 6 6 f d f 6 6 r c x x f c f 6 6 ",
"6 6 6 6 6 6 6 6 6 6 6 6 6 6 6 6 6 f 6 6 B c c c x c c c c c c B f v v c c x c c c c c c c B 6 6 f * z f f f t t t t t f f f g d x t f t t t f t d f t z f 6 f 6 f B c c c x c c c c c c B f B c c c x c c c c c c v M * d r 6 x f f f t t t t t f f g f f g f f t t t f t f f t x 6 6 f * c B c c c c c c c c c M c g B c c c x c c c c c c B f 6 f 6 f z t f t t t t t f f f f f g f f t t t f t f f t x 6 6 f * c B c c c c c c c c c B g c M c c x c c c c c c c B 6 6 f * g f f f t t t t t f t x d z f f f r t t f t f f f ",
"6 6 6 6 6 6 6 6 6 6 6 6 6 6 6 6 6 f 6 6 x c c c c c c c c c c c 6 f c c c c c c c c c c c x 6 6 f 6 d f f f f f f f f f f f d 6 f f f f f f f f f f f f 6 6 f 6 6 c c c c c c c c c c c c 6 x c c c c c c c c c c c g 6 d r 6 f f f f f f f f f f f f 6 6 f f f f f f f f f f f f 6 6 f 6 d c c c c c c c c c c c f r c c c c c c c c c c c c 6 6 f 6 6 f f f f f f f f f f f 6 6 f f f f f f f f f f f f 6 6 f 6 d c c c c c c c c c c c r f c c c c c c c c c c c x 6 6 f 6 r f f f f f f f f f f f 6 d f f f f f f f f f f f ",
"6 6 6 6 6 6 6 6 6 6 6 6 6 6 6 6 6 f 6 6 * * * * * * * * * * * * 6 * * * * * * * * * * * * 6 6 6 d 6 6 6 6 6 6 6 6 6 6 6 6 6 6 6 6 6 6 6 6 6 6 6 6 6 6 6 6 6 f 6 6 * * * * * * * * * * * * 6 * * * * * * * * * * * * 6 6 d r 6 6 6 6 6 6 6 6 6 6 6 6 6 6 6 6 6 6 6 6 6 6 6 6 6 6 6 6 6 f 6 6 * * * * * * * * * * * 6 6 * * * * * * * * * * * * 6 6 f 6 6 6 6 6 6 6 6 6 6 6 6 6 6 6 6 6 6 6 6 6 6 6 6 6 6 6 6 6 f 6 6 * * * * * * * * * * * 6 6 * * * * * * * * * * * * 6 6 f 6 6 6 6 6 6 6 6 6 6 6 6 6 6 6 6 6 6 6 6 6 6 6 6 6 6 ",
"6 6 6 6 6 6 6 6 6 6 6 6 6 6 6 6 6 f 6 6 6 r d d d d d d d d d r r d d d d d d d d r r 6 r 6 6 6 d 6 6 6 6 6 6 6 6 6 6 6 6 6 6 6 6 6 6 6 6 6 6 6 6 6 6 6 6 6 f 6 6 6 d d d d d d d d d d r r d d d d d d d d r d 6 r 6 6 d r 6 6 6 6 6 6 6 6 6 6 6 6 6 6 6 6 6 6 6 6 6 6 6 6 6 6 6 6 6 f 6 6 6 d d d d d d d d d d r r d d d d d d d d r r 6 6 6 6 f 6 6 6 6 6 6 6 6 6 6 6 6 6 6 6 6 6 6 6 6 6 6 6 6 6 6 6 6 6 f 6 6 6 d d d d d d d d d d r d d d d d d d d r r 6 6 6 6 6 f 6 6 6 6 6 6 6 6 6 6 6 6 6 6 6 6 6 6 6 6 6 6 6 6 6 6 ",
"6 f 6 6 f * & 6 d * 6 6 * * 6 6 6 f 6 6 f x f f f f f f f g f x g g g g g g g g g g f B M r 6 6 d 6 6 r 6 6 6 6 6 6 6 6 6 r r 6 6 6 6 6 6 6 6 6 6 f c 6 6 6 f 6 6 f x f f f f f f f g f c g g g g g g g g g f f o.c 6 6 d r 6 6 r 6 6 6 6 6 6 6 6 6 r r 6 6 6 6 6 6 6 6 6 6 f x 6 6 6 f 6 6 g g f f f f f f f g g x g g g g g g g g g f v o.f 6 6 f 6 6 6 6 6 6 6 6 6 6 6 6 6 t 6 6 6 6 6 6 6 6 6 6 f x 6 6 6 f 6 6 g g f f f f f f f g g x g g g g g g g g g f B M r 6 6 f 6 6 r 6 6 6 6 6 6 6 6 6 6 t 6 6 6 6 6 6 6 r 6 6 x f ",
"c O.x B @.M v B w.f M v B v 6 6 6 f 6 * x @.M B O.M M M B c M @.x g g g g g g g g f f /.b.6 6 6 f 6 6 v x z c g g g x g f v z 6 6 6 6 6 6 6 6 6 6 M v.r 6 6 f 6 * M +.M o.o.M M M B c B +.f g g g g g g g g f x '.@.6 6 d r 6 6 v x x c f z g x f f v f 6 6 6 6 6 6 6 6 6 6 +.w.6 6 6 f 6 6 o.O.M O.B M M B B x o.o.f g g g g g g g g r c./.f 6 6 f 6 * z v g c x f z z x t x c 6 6 6 6 6 6 6 6 6 6 +.w.6 6 6 f 6 6 o.O.M O.B M M B B x o.o.f g g g g g g g f d ~.b.r 6 6 f 6 6 v c z c z g g x z t c x 6 6 6 6 6 6 6 6 6 6 c.o.",
"r +.c.+.w.c.c.B O.+.v.c.+.o.6 6 6 f 6 6 g c.w.c.c.b.b.+.c.@.b.v.g g g g g g g g g f g b.c.r 6 r f 6 6 v o.o.o.o.+.M M B o.@.g 6 6 6 6 6 6 6 6 6 6 v @.f 6 6 f 6 6 v c.w.c.c.b.c.+.c.@.b.w.f g g g g g g g g f c ~.+.6 6 d r 6 6 M B o.o.O.+.v B M o.+.d 6 6 6 6 6 6 6 6 6 6 o.O.6 6 6 f 6 6 B c.c.c.c.b.c.@.c.w.~.O.f g g g g g g g g d w.b.x 6 6 f 6 * f o.M o.o.+.o.v o.M @.M 6 6 6 6 6 6 6 6 6 6 o.O.6 6 6 f 6 6 B c.c.c.c.b.c.@.c.w.~.O.f g g g g g g g f f b.c.d 6 6 f 6 6 c o.B o.o.@.M M B B @.x 6 6 6 6 6 6 6 6 6 r @.M ",
"d c f c x g f c d g c g f f 6 6 6 f 6 6 x @.M B O.O.o.v M O.w.O.g g g g g g g g g g d b.w.6 6 6 f 6 6 c c f c c c f f x M v f 6 6 6 6 6 6 6 6 6 6 c w.6 6 6 f 6 6 v +.v o.O.+.B v M +.@.B f g g g g g g g g f g /.o.6 6 d r 6 6 v x z c c c f f c M v t 6 6 6 6 6 6 6 6 6 6 o.+.6 6 6 f 6 6 B O.v o.O.O.M v B @.@.M f g g g g g g g g r @.~.f 6 6 f 6 * f v f c c v z f g v M x 6 r 6 6 6 6 6 6 6 6 o.+.6 6 6 f 6 6 B O.v o.O.O.M v B @.@.M f g g g g g g g g r b.c.6 6 6 f 6 6 c c f c c c f f x M v f 6 r 6 6 6 6 6 r 6 6 @.v ",
"6 * 6 * * 6 6 * 6 * * * 6 6 6 6 6 f 6 6 r f f f f f f f f f f f f f f f f f f f f f f d f 6 6 6 d 6 6 6 6 6 6 6 6 6 6 6 6 6 6 6 6 6 6 6 6 6 6 6 6 6 6 6 6 6 f 6 6 d f f f f f f f f f f f f f f f f f f f f f f d f 6 6 d r 6 6 6 6 6 6 6 6 6 6 6 6 6 6 6 6 6 6 6 6 6 6 6 6 6 6 6 6 6 f 6 6 d f f f f f f f f f f f f f f f f f f f f f f d d 6 6 f 6 6 6 6 6 6 6 6 6 6 6 6 6 6 6 6 6 6 6 6 6 6 6 6 6 6 6 6 6 f 6 6 d f f f f f f f f f f f f f f f f f f f f f f f r 6 6 f 6 6 6 6 6 6 6 6 6 6 6 6 6 6 6 6 6 6 6 6 6 6 6 6 6 6 ",
"6 6 6 6 6 6 6 6 6 6 6 6 6 6 6 6 6 f 6 6 6 6 6 6 6 6 6 6 6 6 6 6 6 6 6 6 6 6 6 6 6 6 6 6 6 6 6 6 d 6 6 6 6 6 6 6 6 6 6 6 6 6 6 6 6 6 6 6 6 6 6 6 6 6 6 6 6 6 f 6 6 6 6 6 6 6 6 6 6 6 6 6 6 6 6 6 6 6 6 6 6 6 6 6 6 6 6 6 d r 6 6 6 6 6 6 6 6 6 6 6 6 6 6 6 6 6 6 6 6 6 6 6 6 6 6 6 6 6 f 6 6 6 6 6 6 6 6 6 6 6 6 6 6 6 6 6 6 6 6 6 6 6 6 6 6 6 6 6 f 6 6 6 6 6 6 6 6 6 6 6 6 6 6 6 6 6 6 6 6 6 6 6 6 6 6 6 6 6 f 6 6 6 6 6 6 6 6 6 6 6 6 6 6 6 6 6 6 6 6 6 6 6 6 6 6 6 6 6 f 6 6 6 6 6 6 6 6 6 6 6 6 6 6 6 6 6 6 6 6 6 6 6 6 6 6 ",
"6 6 6 6 6 6 6 6 6 6 6 6 6 6 6 6 6 f 6 6 6 6 6 6 6 6 6 6 6 6 6 6 6 6 6 6 6 6 6 6 6 6 6 6 6 6 6 6 d 6 6 6 6 6 6 6 6 6 6 6 6 6 6 6 6 6 6 6 6 6 6 6 6 6 6 6 6 6 f 6 6 6 6 6 6 6 6 6 6 6 6 6 6 6 6 6 6 6 6 6 6 6 6 6 6 6 6 6 d r 6 6 6 6 6 6 6 6 6 6 6 6 6 6 6 6 6 6 6 6 6 6 6 6 6 6 6 6 6 f 6 6 6 6 6 6 6 6 6 6 6 6 6 6 6 6 6 6 6 6 6 6 6 6 6 6 6 6 6 f 6 6 6 6 6 6 6 6 6 6 6 6 6 6 6 6 6 6 6 6 6 6 6 6 6 6 6 6 6 f 6 6 6 6 6 6 6 6 6 6 6 6 6 6 6 6 6 6 6 6 6 6 6 6 6 6 6 6 6 f 6 6 6 6 6 6 6 6 6 6 6 6 6 6 6 6 6 6 6 6 6 6 6 6 6 6 ",
"6 6 6 6 6 6 6 6 6 6 6 6 6 6 6 6 6 f 6 6 6 6 6 6 5 4 5 6 6 6 6 6 6 6 6 6 6 6 6 5 5 5 6 6 6 6 6 6 d 6 6 6 6 6 5 5 6 6 6 6 6 6 6 6 6 6 6 6 6 5 6 6 6 6 6 6 6 6 f 6 6 6 6 6 7 7 7 6 6 6 6 6 6 6 6 6 6 6 6 7 7 6 6 6 6 6 6 6 d r 6 6 6 6 6 * * 6 6 6 6 6 6 6 6 6 6 6 6 6 * 6 6 6 6 6 6 6 6 f 6 6 6 6 6 % % % 6 6 6 6 6 6 6 6 6 6 6 * % % 6 6 6 6 6 6 6 f 6 6 6 6 6 * * * 6 6 6 6 6 6 6 6 6 6 6 * * 6 6 6 6 6 6 6 6 f 6 6 6 6 6 = = & 6 6 6 6 6 6 6 6 6 6 6 & = = 6 6 6 6 6 6 6 f 6 6 6 6 6 * & 6 6 6 6 6 6 6 6 6 6 6 6 * * 6 6 6 6 6 ",
"6 * 6 6 * 6 6 6 6 6 6 6 6 6 6 6 6 f 6 6 6 6 6 5 k F D 6 5 6 6 6 6 6 6 6 6 5 6 D D 0 5 6 6 6 6 6 d 6 6 6 5 6 h C d 5 6 6 6 6 6 6 6 6 6 5 d h j 6 6 6 6 6 6 6 f 6 6 6 6 7 1 3 3 6 6 6 6 6 6 6 6 6 6 7 6 3 3 1 7 6 6 6 6 6 d r 6 6 6 6 r x c r * 6 6 6 6 6 6 6 6 6 6 f g f 6 6 6 6 6 6 6 f 6 6 6 * 6 { q.p % 6 6 6 6 6 6 6 6 6 % i { p 6 * 6 6 6 6 6 f 6 6 6 6 6 z v x 6 6 6 6 6 6 6 6 6 6 * f c f 6 6 6 6 6 6 6 f 6 6 6 * 6  .;...= 6 6 6 6 6 6 6 6 * &  .$...* * 6 6 6 6 6 f 6 6 6 6 6 c n f * 6 6 6 6 6 6 6 6 6 6 h c d 6 6 6 6 ",
"f x g r v 6 6 6 6 6 6 6 6 6 6 6 6 f 6 6 6 6 6 J #XJ #X#X0 5 6 6 6 6 6 6 5 k #XH K A K 6 6 6 6 6 d 6 6 5 j G V C G n 6 6 6 6 6 6 6 6 6 C G C j C d 6 6 6 6 6 f 6 6 6 6 P L P L P , 6 6 6 6 6 6 6 7 1 L P 3 P 3 6 6 6 6 6 d r 6 6 6 g e.N N e.c 6 6 6 6 6 6 6 6 6 N O.g h N r 6 6 6 6 6 f 6 6 * y u.u.q.s.i.6 6 6 6 6 6 6 6 * 0.s.q.q.0.i * 6 6 6 6 f 6 6 6 6 O.+.M +.+.r 6 6 6 6 6 6 6 6 o.@.c v M r 6 6 6 6 6 f 6 6 * z kXkX-.rX=.6 6 6 6 6 6 6 6 6 kXkX:.rXrX8 * 6 6 6 6 f 6 6 6 f 1.V m 1.V 6 6 6 6 6 6 6 6 d 1.1.n m n 6 6 6 ",
"o.o.6 M c.O.M +.v O.+.@.M O.c * 6 f 6 6 6 5 J J o + o K J 5 6 6 6 6 6 6 9 #Xw . o X A K 5 6 6 6 d 6 6 6 G * . X X V j 6 6 6 6 6 6 5 j G X . . % V 6 6 6 6 6 f 6 6 7 P P o O o 1 P 6 6 6 6 6 6 6 6 L 1 o o X P 3 7 6 6 6 d r 6 6 f e.@     @ N r 6 6 6 6 6 6 6 N N   .   r N 6 6 6 6 6 f 6 6 * u.{ - O - q.q.% 6 6 6 6 6 % } u.O - - y i.r 6 6 6 6 f 6 6 * o.M . X . x M 6 6 6 6 6 6 * M o.  .   r M 6 6 6 6 6 f 6 6 * kX$..   . =.=.= 6 6 6 6 6 & 8.-.. . . >.rX* 6 6 6 6 f 6 6 6 1.d . X   V h 5 6 6 6 6 6 6 1.h . .   n n 5 6 ",
"w.O.6 M c v M c.@.b.O.B O.w.o.6 6 f 6 6 5 0 @XX 6 B 6 . A w 5 6 6 6 6 4 F J o j x t # A 6 6 6 6 d 6 5 n C . d f   @ C 6 6 6 6 6 6 5 G * X 6 d X d h 5 6 6 6 f 6 6 , L X r c r X P 1 7 6 6 6 6 7 3 P o g x d @ P 6 6 6 6 d r 6 * B r   f 6 . 6 N 6 6 6 6 6 6 6 e.X $ 6 r   g f 6 6 6 6 f 6 % { u.- x M $   i.t 6 6 6 6 6 6 s.4 % z c - { { % 6 6 6 f 6 6 f e.  * g $ . M t 6 6 6 6 6 6 e.X $ 6 r   c f 6 6 6 6 f 6 =  .kX. x x r @ rX8 * 6 6 6 * b zX. d z x - rX8 * 6 6 6 f 6 & n V . d f X @ V 6 6 6 6 6 * h 1.. 6 6 6 X V 6 6 ",
"r f f 6 6 6 6 f f f r 6 g B f f * f 6 6 5 k H X c M B + K D 5 6 6 6 6 4 J K + B B v O A 9 6 6 6 d 6 5 V j X g f 6 @ C 6 6 6 6 6 6 6 G @ & g c $ * C 5 6 6 6 f 6 7 1 L X c B B $ 3 3 7 6 6 6 6 7 P 3 O M B v X P , 6 6 6 d r 6 6 B & @ g f & $ N 6 6 6 6 6 6 r B   6 g x X d g 6 6 6 6 f 6 % } q.- M M v O q.i * 6 6 6 6 t u.+ f B O.% s q.% 6 6 6 f 6 * z o.  d f f X x f 6 6 6 6 6 t O.  6 g x X f x * 6 6 6 f 6 = &.-.  M B M X =.8 * 6 6 6 =  .kX  c B o.@ =...= 6 6 6 f 6 & V h   g f 6 X m 6 6 6 6 6 & n m   f g f   n d 6 ",
"6 6 6 6 6 6 d & $ & * & * 6 6 6 6 f 6 6 6 9 @X@ $ c 6 o A w 5 6 6 6 6 5 D H . 9 c + ; A 6 6 6 6 d 6 5 C V . & r X % C 6 6 6 6 6 6 5 G d . 6 6 . j j 5 6 6 6 f 6 6 r L @ $ c 6 X P 1 6 6 6 6 6 7 3 P o r c $ = P 6 6 6 6 d r 6 * N g . 6 6   r h 6 6 6 6 6 6 6 e.@ X 6 &   N d 6 6 6 6 f 6 % p s.- 6 c * @ i.6 6 6 6 6 6 % s.y - x f - q.{ % 6 6 6 f 6 6 r e.X @ r $ X M r 6 6 6 6 6 6 e.$   6 &   M f 6 6 6 6 f 6 & | zX. 6 c & @ rX7 6 6 6 6 * z xXX $ c 6   rX8 * 6 6 6 f 6 * c G . $ r X $ V 6 6 6 6 6 5 j 1.. @ r @ @ V 6 6 ",
"* c O.O.v M O.x B x g B x 6 6 6 6 f 6 6 6 5 F #XX X X K K 5 6 6 6 6 6 6 5 #XK o X @ A k 5 6 6 6 d 6 6 6 G j     @ C d 6 6 6 6 6 6 6 d ^ %     9 C 6 6 6 6 6 f 6 6 7 P L X X X 3 P 7 6 6 6 6 6 6 6 L P o X @ P 1 7 6 6 6 d r 6 6 r e.r     * N 6 6 6 6 6 6 6 6 x e.@     f N 6 6 6 6 6 f 6 6 % u.i.- X X q.{ % 6 6 6 6 6 % p sX& X   p 0.6 6 6 6 6 f 6 6 * M O.X   X c c 6 6 6 6 6 6 * c e.@     z M 6 6 6 6 6 f 6 6 = kX8.. X X rX>.= 6 6 6 6 6 = -.zX  X   =.=.= 6 6 6 6 f 6 6 6 1.n     @ V j 6 6 6 6 6 6 * G V     X m h 5 6 ",
"* x c.c.@.b.b.@.v.@.@.w.O.6 6 6 6 f 6 6 6 6 6 F 9 6 6 k 9 6 6 6 6 6 6 6 5 0 D 5 6 9 k 5 6 6 6 6 d 6 6 6 d h 6 6 d j 6 6 6 6 6 6 6 6 5 j d 6 6 d d 6 6 6 6 6 f 6 6 6 6 3 r 6 6 1 6 6 6 6 6 6 6 6 6 1 3 6 6 r 1 6 6 6 6 6 d r 6 6 6 g f 6 6 d r 6 6 6 6 6 6 6 6 6 g r 6 6 f 6 6 6 6 6 6 f 6 6 * t { 6 6 r p 6 6 6 6 6 6 6 6 * { i 6 6 p y * 6 6 6 6 f 6 6 6 6 c 6 6 6 g 6 6 6 6 6 6 6 6 6 c r 6 6 f 6 6 6 6 6 6 f 6 6 * f &.6 6 6 >.* 6 6 6 6 6 6 6 6 &.6 6 6 >.6 6 6 6 6 6 f 6 6 6 d c 6 6 d j 6 6 6 6 6 6 6 6 6 n 6 6 6 j 6 6 6 ",
"6 r c x v v x x x c M @.f 6 6 6 6 f 6 6 6 6 6 5 6 6 6 5 6 6 6 6 6 6 6 6 6 5 5 6 6 6 5 6 6 6 6 6 d 6 6 6 6 5 6 6 6 6 6 6 6 6 6 6 6 6 6 5 6 6 6 6 6 6 6 6 6 6 f 6 6 6 6 7 6 6 6 7 6 6 6 6 6 6 6 6 6 6 7 6 6 6 7 6 6 6 6 6 d r 6 6 6 6 6 6 6 6 6 6 6 6 6 6 6 6 6 6 6 6 6 6 6 6 6 6 6 6 6 f 6 6 6 6 % 6 6 6 * 6 6 6 6 6 6 6 6 6 % * 6 6 * 6 6 6 6 6 6 f 6 6 6 6 * 6 6 6 6 6 6 6 6 6 6 6 6 6 * 6 6 6 6 6 6 6 6 6 6 f 6 6 6 6 = 6 6 6 = 6 6 6 6 6 6 6 6 6 = 6 6 6 = 6 6 6 6 6 6 f 6 6 6 6 * 6 6 6 6 6 6 6 6 6 6 6 6 6 * 6 6 6 6 6 6 6 ",
"6 6 & * * * * * & * 6 6 & 6 6 6 6 f 6 6 6 6 6 6 6 6 6 6 6 6 6 6 6 6 6 6 6 6 6 6 6 6 6 6 6 6 6 6 d 6 6 6 6 6 6 6 6 6 6 6 6 6 6 6 6 6 6 6 6 6 6 6 6 6 6 6 6 6 f 6 6 6 6 6 6 6 6 6 6 6 6 6 6 6 6 6 6 6 6 6 6 6 6 6 6 6 6 6 d r 6 6 6 6 6 6 6 6 6 6 6 6 6 6 6 6 6 6 6 6 6 6 6 6 6 6 6 6 6 f 6 6 6 6 6 6 6 6 6 6 6 6 6 6 6 6 6 6 6 6 6 6 6 6 6 6 6 6 6 f 6 6 6 6 6 6 6 6 6 6 6 6 6 6 6 6 6 6 6 6 6 6 6 6 6 6 6 6 6 f 6 6 6 6 6 6 6 6 6 6 6 6 6 6 6 6 6 6 6 6 6 6 6 6 6 6 6 6 6 f 6 6 6 6 6 6 6 6 6 6 6 6 6 6 6 6 6 6 6 6 6 6 6 6 6 6 ",
"6 6 c v +.@.g * g +.O.o.x 6 6 6 6 f 6 6 6 6 6 r 6 6 6 6 6 6 6 6 6 6 6 6 6 6 6 6 r 6 6 6 6 6 6 6 d 6 6 6 6 6 6 6 6 6 6 6 6 6 6 6 6 6 6 6 6 6 6 6 6 6 6 6 6 6 f 6 6 6 6 6 6 6 r 6 6 6 6 6 6 6 6 6 6 6 6 6 r 6 6 6 6 6 6 6 d r 6 6 6 6 6 6 6 6 6 6 6 6 6 6 6 6 6 6 6 6 6 6 6 6 6 6 6 6 6 f 6 6 6 6 r 6 6 6 6 6 6 6 6 6 6 6 6 6 6 6 6 6 6 6 6 6 6 6 6 f 6 6 6 6 6 6 6 6 6 6 6 6 6 6 6 6 6 6 6 6 6 6 6 6 6 6 6 6 6 f 6 6 6 6 6 d 6 6 6 6 6 6 6 6 6 6 6 6 r 6 6 6 6 6 6 6 6 6 6 f 6 6 6 6 6 6 6 6 6 6 6 6 6 6 6 6 6 6 6 6 6 6 6 6 6 6 ",
"6 f @.+.w.c.c 6 @.@.c.@.B 6 6 6 6 f 6 6 6 6 f @.f B +.+.f 6 6 6 6 6 6 6 * M O.f +.+.o.6 6 6 6 6 d 6 6 6 c v d M M v 6 6 6 6 6 6 6 6 6 M g g M M x 6 6 6 6 6 f 6 6 6 6 o.B x @.B o.6 6 6 6 6 6 6 * M O.f +.+.o.6 6 6 6 6 d r 6 6 6 v x f M M c 6 6 6 6 6 6 6 6 r B f c M M f 6 6 6 6 6 f 6 6 * c +.f O.+.O.r 6 6 6 6 6 6 6 6 @.x v +.+.c * 6 6 6 6 f 6 6 6 f M d v M M d 6 6 6 6 6 6 6 r B f c M M f 6 6 6 6 6 f 6 6 & v v B x o.o.O.c * 6 6 6 6 * g @.f o.+.+.f 6 6 6 6 6 f 6 6 6 x v d M M v 6 6 6 6 6 6 6 6 g M r v M v 6 6 6 ",
"6 d O.B B O.B 6 B B o.o.M * 6 6 6 f 6 6 6 * x +.B B c.+.c * 6 6 6 6 6 6 6 B O.B O.c.o.f 6 6 6 6 d 6 6 6 c v c v o.v 6 6 6 6 6 6 6 6 r v c c o.B c 6 6 6 6 6 f 6 6 6 x B c.d O.w.o.6 6 6 6 6 6 6 6 B O.B O.c.o.f 6 6 6 6 d r 6 6 6 v v c B o.c 6 6 6 6 6 6 6 6 f M c c o.M x * 6 6 6 6 f 6 6 * v O.B o.c.O.g * 6 6 6 6 6 6 f +.B M w.@.M * 6 6 6 6 f 6 6 6 g M c c o.M f * 6 6 6 6 6 6 f M c c o.M x * 6 6 6 6 f 6 6 x x v B c f c.+.v * 6 6 6 6 * c +.B B c.+.c * 6 6 6 6 f 6 6 6 c v c v o.v r 6 6 6 6 6 6 6 x v c v o.v f 6 6 ",
"6 6 r 6 6 6 r 6 6 6 6 6 6 6 6 6 6 f 6 6 6 6 6 B x v c M r 6 6 6 6 6 6 6 6 g M g M c v 6 6 6 6 6 d 6 6 6 f c f x g x 6 6 6 6 6 6 6 6 6 x g f x x f 6 6 6 6 6 f 6 6 6 6 g c x c v c 6 6 6 6 6 6 6 6 g M g M c v 6 6 6 6 6 d r 6 6 6 g x f x x f 6 6 6 6 6 6 6 6 6 c f x g x r 6 6 6 6 6 f 6 6 6 f B g v c M 6 6 6 6 6 6 6 6 6 M c c v M f 6 6 6 6 6 f 6 6 6 6 c f x g c 6 6 6 6 6 6 6 6 6 c f x g x r 6 6 6 6 6 f 6 6 6 r x o.c c c M f 6 6 6 6 6 6 r B g v c M 6 6 6 6 6 6 f 6 6 6 f c f x g x 6 6 6 6 6 6 6 6 r c f x g x 6 6 6 ",
"6 6 6 6 6 6 6 6 6 6 6 6 6 6 6 6 6 f 6 6 6 6 6 * 6 * * * 6 6 6 6 6 6 6 6 6 6 * 6 * * * 6 6 6 6 6 d 6 6 6 6 * 6 6 6 6 6 6 6 6 6 6 6 6 6 6 6 6 6 6 6 6 6 6 6 6 f 6 6 6 6 6 * 6 6 * * 6 6 6 6 6 6 6 6 6 * 6 * * * 6 6 6 6 6 d r 6 6 6 6 6 6 6 6 6 6 6 6 6 6 6 6 6 6 * 6 6 6 * 6 6 6 6 6 6 f 6 6 6 6 * 6 * * * 6 6 6 6 6 6 6 6 6 * * * * * 6 6 6 6 6 6 f 6 6 6 6 * 6 6 6 * 6 6 6 6 6 6 6 6 6 * 6 6 6 * 6 6 6 6 6 6 f 6 6 6 6 6 * 6 6 * * 6 6 6 6 6 6 6 6 * 6 * * * 6 6 6 6 6 6 f 6 6 6 6 * 6 6 6 6 6 6 6 6 6 6 6 6 6 * 6 6 6 * 6 6 6 ",
"6 6 6 6 6 6 6 6 6 6 6 6 6 6 6 6 6 f 6 6 6 6 6 6 6 6 6 6 6 6 6 6 6 6 6 6 6 6 6 6 6 6 6 6 6 6 6 6 d 6 6 6 6 6 6 6 6 6 6 6 6 6 6 6 6 6 6 6 6 6 6 6 6 6 6 6 6 6 f 6 6 6 6 6 6 6 6 6 6 6 6 6 6 6 6 6 6 6 6 6 6 6 6 6 6 6 6 6 d r 6 6 6 6 6 6 6 6 6 6 6 6 6 6 6 6 6 6 6 6 6 6 6 6 6 6 6 6 6 f 6 6 6 6 6 6 6 6 6 6 6 6 6 6 6 6 6 6 6 6 6 6 6 6 6 6 6 6 6 f 6 6 6 6 6 6 6 6 6 6 6 6 6 6 6 6 6 6 6 6 6 6 6 6 6 6 6 6 6 f 6 6 6 6 6 6 6 6 6 6 6 6 6 6 6 6 6 6 6 6 6 6 6 6 6 6 6 6 6 f 6 6 6 6 6 6 6 6 6 6 6 6 6 6 6 6 6 6 6 6 6 6 6 6 6 6 ",
"6 6 6 6 6 6 6 6 6 6 6 6 6 6 6 6 6 f 6 6 6 6 6 6 6 6 6 6 6 6 6 6 6 6 6 6 6 6 6 6 6 6 6 6 6 6 6 6 d 6 6 6 6 6 6 6 6 6 6 6 6 6 6 6 6 6 6 6 6 6 6 6 6 6 6 6 6 6 f 6 6 6 6 6 6 6 6 6 6 6 6 6 6 6 6 6 6 6 6 6 6 6 6 6 6 6 6 6 d r 6 6 6 6 6 6 6 6 6 6 6 6 6 6 6 6 6 6 6 6 6 6 6 6 6 6 6 6 6 f 6 6 6 6 6 6 6 6 6 6 6 6 6 6 6 6 6 6 6 6 6 6 6 6 6 6 6 6 6 f 6 6 6 6 6 6 6 6 6 6 6 6 6 6 6 6 6 6 6 6 6 6 6 6 6 6 6 6 6 f 6 6 6 6 6 6 6 6 6 6 6 6 6 6 6 6 6 6 6 6 6 6 6 6 6 6 6 6 6 f 6 6 6 6 6 6 6 6 6 6 6 6 6 6 6 6 6 6 6 6 6 6 6 6 6 6 ",
"6 6 6 6 6 6 6 6 6 6 6 6 6 6 6 6 6 f 6 6 6 6 6 6 5 & * 6 6 6 6 6 6 6 6 6 6 6 6 6 6 6 6 6 6 6 6 6 d 6 6 6 6 6 6 6 6 6 6 6 6 6 6 6 6 6 6 6 6 6 6 6 6 6 6 6 6 6 f 6 6 6 6 6 5 & * 6 6 6 6 6 6 6 6 6 6 6 6 6 6 6 6 6 6 6 6 6 d r 6 6 6 6 6 6 6 6 6 6 6 6 6 6 6 6 6 6 6 6 6 6 6 6 6 6 6 6 6 f 6 6 6 6 6 5 & 5 6 6 6 6 6 6 6 6 6 6 6 6 6 6 6 6 6 6 6 6 6 f 6 6 6 6 6 6 6 6 6 6 6 6 6 6 6 6 6 6 6 6 6 6 6 6 6 6 6 6 6 f 6 6 6 6 6 5 & 5 6 6 6 6 6 6 6 6 6 6 6 6 6 6 6 6 6 6 6 6 6 f 6 6 6 6 6 6 6 6 6 6 6 6 6 6 6 6 6 6 6 6 6 6 6 6 6 6 ",
"6 6 6 6 6 6 6 6 6 6 6 6 6 6 6 6 6 f 6 6 6 6 6 & q m l & 6 6 6 6 6 6 6 6 6 6 6 y u r % 6 6 6 6 6 d 6 6 6 6 6 d d 6 6 6 6 6 6 6 6 6 6 6 6 6 d r 6 6 6 6 6 6 6 f 6 6 6 6 & q m l & 6 6 6 6 6 6 6 6 6 6 6 y u r % 6 6 6 6 6 d r 6 6 6 6 6 d d 6 6 6 6 6 6 6 6 6 6 6 6 6 d r 6 6 6 6 6 6 6 f 6 6 6 6 & l m j & 6 6 6 6 6 6 6 6 6 6 r u y 6 6 6 6 6 6 6 f 6 6 6 6 6 9 f 9 6 6 6 6 6 6 6 6 6 6 6 6 d r 6 6 6 6 6 6 6 f 6 6 6 6 & l m q & 6 6 6 6 6 6 6 6 6 * y u y * 6 6 6 6 6 6 f 6 6 6 6 6 d f 6 5 6 6 6 6 6 6 6 6 6 6 r d r 6 6 6 6 ",
"6 6 6 r 6 6 6 * * f 6 6 6 6 6 6 6 f 6 6 6 6 6 4.2X7.2X7.9 6 6 6 6 6 6 6 6 y U U U t.Y 6 6 6 6 6 d 6 6 6 9 m m n m j 6 6 6 6 6 6 6 6 6 f N N N N r 6 6 6 6 6 f 6 6 6 6 4.2X7.2X7.9 6 6 6 6 6 6 6 6 y U U U t.Y 6 6 6 6 6 d r 6 6 6 d m n m m d 6 6 6 6 6 6 6 6 6 g N h N N 6 6 6 6 6 6 f 6 6 6 9 7.7.7.2X3.6 6 6 6 6 6 6 6 6 u t.U t.U y 6 6 6 6 6 f 6 6 6 6 l m n m n 6 6 6 6 6 6 6 6 6 g N h N N 6 6 6 6 6 6 f 6 6 6 9 7.7.7.7.D 6 6 6 6 6 6 6 6 6 Y t.U t.Y 6 6 6 6 6 6 f 6 6 6 6 n m n m j 6 6 6 6 6 6 6 6 6 N N h N g 6 6 6 ",
"6 6 f c.B w.c B v @.M 6 6 6 6 6 6 f 6 6 6 & 4.7.X X X 7.7.& 6 6 6 6 6 6 6 t.u - O @ t.u % 6 6 6 d 6 6 6 m 9   X $ m j 6 6 6 6 6 6 6 r N $     r N 6 6 6 6 6 f 6 6 & 4.7.X X   7.7.& 6 6 6 6 6 6 6 t.u - O @ t.u % 6 6 6 d r 6 6 9 m %   X * V 9 6 6 6 6 6 6 6 g N X   X g N 6 6 6 6 6 f 6 6 & 7.4.  X X 7.2.& 6 6 6 6 6 6 u t.$ O - u t.6 6 6 6 6 f 6 6 6 l l X X X l n 6 6 6 6 6 6 6 g N X   X g N 6 6 6 6 6 f 6 6 & 7.4.  . X 7.G & 6 6 6 6 6 % Y U O O O U U % 6 6 6 6 f 6 6 6 m d   X @ m j 6 6 6 6 6 6 6 N g X X X N g 6 6 ",
"6 * B c.@.O.O.b.+.@.w.6 6 6 6 6 6 f 6 6 6 q 2X@ & B 6 . 7.l 5 6 6 6 6 % Y U - g B % + t.6 6 6 6 d 6 5 j l . 6 f   $ n 6 6 6 6 6 6 6 N *   f d   g g 6 6 6 6 f 6 6 q 2X@ & B x . 7.l & 6 6 6 6 % Y U - g B % + t.6 6 6 6 d r 6 5 n 9 . d d . 9 j 5 6 6 6 6 6 6 N @ @ f 6   N f 6 6 6 6 f 6 & m 7.. d B $ X 7.9 6 6 6 6 6 6 t.4 O M c - Y Y % 6 6 6 f 6 6 9 m X $ g $   l 6 6 6 6 6 6 6 N @ @ f 6   N f 6 6 6 6 f 6 & m 7.. d f 6 @ 7.9 6 6 6 6 6 y t.X 6 B f - t.y 6 6 6 6 f 6 5 j n . 6 f X @ n 6 6 6 6 6 6 d N   & g $ X N 6 6 ",
"6 6 d 6 x g c x x g x v 6 6 6 6 6 f 6 6 & l 7.  c B x X D m & 6 6 6 6 % Y u O B v 6 X Y r 6 6 6 d 6 5 n 9 X g f & X j 6 6 6 6 6 6 6 N @ & x d X & g 6 6 6 6 f 6 & l 7.  c B o.X ,.G & 6 6 6 6 % Y u O B v 6 X Y r 6 6 6 d r 6 6 m % $ x f @ @ j 6 6 6 6 6 6 r N   6 g 6   r f 6 6 6 6 f 6 & G 4.  B M f X G l 5 6 6 6 6 r t.@ f B x O < Y % 6 6 6 f 6 6 d n   d f 6   d d 6 6 6 6 6 r N   6 g 6   r f 6 6 6 6 f 6 & G 4.  B B B X G l 5 6 6 6 6 u U X v B f   Y u 6 6 6 6 f 6 5 h d X g f * X j 6 6 6 6 6 6 g g   f f 5   g r 6 ",
"6 6 6 6 $ 6 & & & $ * & 6 6 6 6 6 f 6 6 6 q 2XX & v f   ,.l & 6 6 6 6 % Y U - f v * + Y 6 6 6 6 d 6 5 h j . 6 f @ $ l 6 6 6 6 6 6 6 N &   r 6   r f 6 6 6 6 f 6 6 q 2XX * g * . 7.m & 6 6 6 6 % Y U - f v * + Y 6 6 6 6 d r 6 5 n 9 . 6 d X * j 6 6 6 6 6 6 6 N @ @ d 6   f r 6 6 6 6 f 6 & m 7.. d v 6 X 7.9 6 6 6 6 6 6 t.& O c x - u u 6 6 6 6 f 6 6 9 m   @ f * X j 9 6 6 6 6 6 6 N @ @ d 6   f r 6 6 6 6 f 6 & m 7.. d v 6 X 7.9 6 6 6 6 6 y t.  6 v d - Y y 6 6 6 6 f 6 5 j l . * f @ @ l 6 6 6 6 6 6 d N   & f $ X g 6 6 ",
"6 6 w.B g o.c g g c g c 6 6 6 6 6 f 6 6 6 & 7.7.  @   D ,.5 6 6 6 6 6 6 6 t.u   X X Y u 6 6 6 6 d 6 6 6 m 9     X j d 6 6 6 6 6 6 6 f N @     & g 6 6 6 6 6 f 6 6 & 7.7.  @ . G 7.* 6 6 6 6 6 6 6 t.u   X X Y u 6 6 6 6 d r 6 6 9 m $     @ l 6 6 6 6 6 6 6 6 g N X     r g 6 6 6 6 6 f 6 6 & 7.,.. @   G G & 6 6 6 6 6 6 u t.@ X X y Y 6 6 6 6 6 f 6 6 6 n l       9 j 6 6 6 6 6 6 6 g N X     r g 6 6 6 6 6 f 6 6 & 7.,.. @ X G G & 6 6 6 6 6 * U U   X X u Y 6 6 6 6 6 f 6 6 6 m 9     X j d 6 6 6 6 6 6 6 N f     X d f 6 6 ",
"6 6 c.w.v.w.v.w.c.c.w.b.x * 6 6 6 f 6 6 6 6 9 7.9 * 6 D q 5 6 6 6 6 6 6 6 u Y 6 * t u 6 6 6 6 6 d 6 6 6 f j 6 6 9 d 6 6 6 6 6 6 6 6 6 g d 6 6 d r 6 6 6 6 6 f 6 6 6 9 7.9 * 5 4.j 5 6 6 6 6 6 6 6 u Y 6 * t u 6 6 6 6 6 d r 6 6 6 j j 5 6 d d 6 6 6 6 6 6 6 6 6 g 6 * 6 d 6 6 6 6 6 6 f 6 6 & j 3.5 * 6 G 6 6 6 6 6 6 6 6 6 Y y * 6 u y 6 6 6 6 6 f 6 6 6 6 l 6 6 6 j 6 6 6 6 6 6 6 6 6 g 6 * 6 d 6 6 6 6 6 6 f 6 6 & j 3.5 * 6 G 6 6 6 6 6 6 6 6 r Y 6 * 6 u r 6 6 6 6 6 f 6 6 6 d h 6 6 6 j 6 6 6 6 6 6 6 6 r g 6 6 6 d 6 6 6 ",
"6 6 x c M c v v o.v B M r 6 6 6 6 f 6 6 6 6 6 & 6 6 6 & 6 6 6 6 6 6 6 6 6 6 * 6 6 6 6 6 6 6 6 6 d 6 6 6 6 6 6 6 6 6 6 6 6 6 6 6 6 6 6 6 6 6 6 6 6 6 6 6 6 6 f 6 6 6 6 & 6 6 6 & 6 6 6 6 6 6 6 6 6 6 * 6 6 6 6 6 6 6 6 6 d r 6 6 6 6 6 6 6 6 6 6 6 6 6 6 6 6 6 6 6 6 6 6 6 6 6 6 6 6 6 f 6 6 6 5 & 6 6 6 & 6 6 6 6 6 6 6 6 6 % 6 6 6 6 6 6 6 6 6 6 f 6 6 6 6 5 6 6 6 6 6 6 6 6 6 6 6 6 6 6 6 6 6 6 6 6 6 6 6 6 f 6 6 6 5 & 6 6 6 & 6 6 6 6 6 6 6 6 6 % 6 6 6 6 6 6 6 6 6 6 f 6 6 6 6 6 6 6 6 6 6 6 6 6 6 6 6 6 6 6 6 6 6 6 6 6 6 ",
"6 6 * & * * * 6 $ & & * * 6 6 6 6 f 6 6 6 6 6 6 6 6 6 6 6 6 6 6 6 6 6 6 6 6 6 6 6 6 6 6 6 6 6 6 d 6 6 6 6 6 6 6 6 6 6 6 6 6 6 6 6 6 6 6 6 6 6 6 6 6 6 6 6 6 f 6 6 6 6 6 6 6 6 6 6 6 6 6 6 6 6 6 6 6 6 6 6 6 6 6 6 6 6 6 d r 6 6 6 6 6 6 6 6 6 6 6 6 6 6 6 6 6 6 6 6 6 6 6 6 6 6 6 6 6 f 6 6 6 6 6 6 6 6 6 6 6 6 6 6 6 6 6 6 6 6 6 6 6 6 6 6 6 6 6 f 6 6 6 6 6 6 6 6 6 6 6 6 6 6 6 6 6 6 6 6 6 6 6 6 6 6 6 6 6 f 6 6 6 6 6 6 6 6 6 6 6 6 6 6 6 6 6 6 6 6 6 6 6 6 6 6 6 6 6 f 6 6 6 6 6 6 6 6 6 6 6 6 6 6 6 6 6 6 6 6 6 6 6 6 6 6 ",
"6 g g f r d r 6 f f r d c 6 6 6 6 f 6 6 6 6 6 6 6 6 6 6 6 6 6 6 6 6 6 6 6 6 6 6 6 6 6 6 6 6 6 6 d 6 6 6 6 6 6 6 6 6 6 6 6 6 6 6 6 6 6 6 6 6 6 6 6 6 6 6 6 6 f 6 6 6 6 6 6 6 6 6 6 6 6 6 6 6 6 6 6 6 6 6 6 6 6 6 6 6 6 6 d r 6 6 6 6 6 6 6 6 6 6 6 6 6 6 6 6 6 6 6 6 6 6 6 6 6 6 6 6 6 f 6 6 6 6 6 6 6 6 6 6 6 6 6 6 6 6 6 6 6 6 6 6 6 6 6 6 6 6 6 f 6 6 6 6 6 6 6 6 6 6 6 6 6 6 6 6 6 6 6 6 6 6 6 6 6 6 6 6 6 f 6 6 6 6 6 6 6 6 6 6 6 6 6 6 6 6 6 6 6 6 6 6 6 6 6 6 6 6 6 f 6 6 6 6 6 6 6 6 6 6 6 6 6 6 6 6 6 6 6 6 6 6 6 6 6 6 ",
"6 B @.w.O.@.g * @.w.O.O.O.f * 6 6 f 6 6 6 6 6 v O.O.r O.c * 6 6 6 6 6 6 6 d o.M O.O.x 6 6 6 6 6 d 6 6 6 6 v v x d M 6 6 6 6 6 6 6 6 * x c c v v 6 6 6 6 6 6 f 6 6 6 f O.o.o.o.O.B 6 6 6 6 6 6 6 6 d o.M O.O.x 6 6 6 6 6 d r 6 6 6 f v M f f v 6 6 6 6 6 6 6 6 6 c x v v c 6 6 6 6 6 6 f 6 6 6 6 B O.B d +.f 6 6 6 6 6 6 6 * g B B o.O.d 6 6 6 6 6 f 6 6 6 6 v v c r M r 6 6 6 6 6 6 6 6 g c c v v 6 6 6 6 6 6 f 6 6 f +.f B B B B +.6 6 6 6 6 6 6 * v M o.o.o.6 6 6 6 6 6 f 6 6 6 f v M f f v 6 6 6 6 6 6 6 6 6 c x v v c 6 6 6 ",
"* B B c v B o.6 M v v B @.f 6 6 6 f 6 6 6 6 6 c @.o.M o.B 6 6 6 6 6 6 6 6 6 O.B w.@.v * 6 6 6 6 d 6 6 6 6 v M c c M f 6 6 6 6 6 6 6 6 f M c O.v f 6 6 6 6 6 f 6 6 6 6 +.o.c.+.c.o.6 6 6 6 6 6 6 6 6 O.B w.@.v * 6 6 6 6 d r 6 6 6 6 M v c c M r 6 6 6 6 6 6 6 * x M v o.c 6 6 6 6 6 6 f 6 6 6 6 B @.o.M O.v * 6 6 6 6 6 6 6 r @.B c.+.c * 6 6 6 6 f 6 6 6 6 v M c x v f * 6 6 6 6 6 6 6 d M c O.v f 6 6 6 6 6 f 6 * c +.v o.@.M c B * 6 6 6 6 6 6 * x +.o.c.o.f 6 6 6 6 6 f 6 6 6 6 M v c c M r 6 6 6 6 6 6 6 * x M v o.c 6 6 6 ",
"6 d r 6 6 6 f 6 6 6 6 6 f 6 6 6 6 f 6 6 6 6 6 +.v o.c B x * 6 6 6 6 6 6 6 6 x v B B f 6 6 6 6 6 d 6 6 6 f v x c g v 6 6 6 6 6 6 6 6 6 6 f c c c 6 6 6 6 6 6 f 6 6 * v o.M M B B M 6 6 6 6 6 6 6 6 6 x v B B f 6 6 6 6 6 d r 6 6 * c c c x x c 6 6 6 6 6 6 6 6 6 d f c c x 6 6 6 6 6 6 f 6 6 6 f +.v B x o.f 6 6 6 6 6 6 6 6 6 x M M o.r 6 6 6 6 6 f 6 6 6 f v x c f v 6 6 6 6 6 6 6 6 6 6 f c c c 6 6 6 6 6 6 f 6 6 r o.c c B O.c f 6 6 6 6 6 6 6 6 f x B M B 6 6 6 6 6 6 f 6 6 * c c c x x c 6 6 6 6 6 6 6 6 6 d f c c x 6 6 6 ",
"6 6 6 6 6 6 6 6 6 6 6 6 6 6 6 6 6 f 6 6 6 6 6 * 6 * 6 * 6 6 6 6 6 6 6 6 6 6 6 6 * * 6 6 6 6 6 6 d 6 6 6 6 6 6 6 6 6 6 6 6 6 6 6 6 6 6 6 6 6 6 6 6 6 6 6 6 6 f 6 6 6 6 6 6 * * * 6 6 6 6 6 6 6 6 6 6 6 6 * * 6 6 6 6 6 6 d r 6 6 6 6 6 6 6 6 6 6 6 6 6 6 6 6 6 6 6 6 6 6 6 6 6 6 6 6 6 f 6 6 6 6 6 6 * 6 * 6 6 6 6 6 6 6 6 6 6 6 6 * * 6 6 6 6 6 6 f 6 6 6 6 6 6 6 6 6 6 6 6 6 6 6 6 6 6 6 6 6 6 6 6 6 6 6 6 6 f 6 6 6 * 6 6 * 6 6 6 6 6 6 6 6 6 6 6 6 6 6 * * 6 6 6 6 6 6 f 6 6 6 6 6 6 6 6 6 6 6 6 6 6 6 6 6 6 6 6 6 6 6 6 6 6 ",
"6 6 6 6 6 6 6 6 6 6 6 6 6 6 6 6 6 f 6 6 6 6 6 6 6 6 6 6 6 6 6 6 6 6 6 6 6 6 6 6 6 6 6 6 6 6 6 6 d 6 6 6 6 6 6 6 6 6 6 6 6 6 6 6 6 6 6 6 6 6 6 6 6 6 6 6 6 6 f 6 6 6 6 6 6 6 6 6 6 6 6 6 6 6 6 6 6 6 6 6 6 6 6 6 6 6 6 6 d r 6 6 6 6 6 6 6 6 6 6 6 6 6 6 6 6 6 6 6 6 6 6 6 6 6 6 6 6 6 f 6 6 6 6 6 6 6 6 6 6 6 6 6 6 6 6 6 6 6 6 6 6 6 6 6 6 6 6 6 f 6 6 6 6 6 6 6 6 6 6 6 6 6 6 6 6 6 6 6 6 6 6 6 6 6 6 6 6 6 f 6 6 6 6 6 6 6 6 6 6 6 6 6 6 6 6 6 6 6 6 6 6 6 6 6 6 6 6 6 f 6 6 6 6 6 6 6 6 6 6 6 6 6 6 6 6 6 6 6 6 6 6 6 6 6 6 ",
"6 6 6 6 6 6 6 6 6 6 6 6 6 6 6 6 6 f 6 6 6 6 6 6 6 6 6 6 6 6 6 6 6 6 6 6 6 6 6 6 6 6 6 6 6 6 6 6 d 6 6 6 6 6 6 6 6 6 6 6 6 6 6 6 6 6 6 6 6 6 6 6 6 6 6 6 6 6 f 6 6 6 6 6 6 6 6 6 6 6 6 6 6 6 6 6 6 6 6 6 6 6 6 6 6 6 6 6 d r 6 6 6 6 6 6 6 6 6 6 6 6 6 6 6 6 6 6 6 6 6 6 6 6 6 6 6 6 6 f 6 6 6 6 6 6 6 6 6 6 6 6 6 6 6 6 6 6 6 6 6 6 6 6 6 6 6 6 6 f 6 6 6 6 6 6 6 6 6 6 6 6 6 6 6 6 6 6 6 6 6 6 6 6 6 6 6 6 6 f 6 6 6 6 6 6 6 6 6 6 6 6 6 6 6 6 6 6 6 6 6 6 6 6 6 6 6 6 6 f 6 6 6 6 6 6 6 6 6 6 6 6 6 6 6 6 6 6 6 6 6 6 6 6 6 6 ",
"6 6 6 6 6 6 6 6 6 6 6 6 6 6 6 6 6 f 6 6 6 6 6 6 6 & 6 6 6 6 6 6 6 6 6 6 6 6 6 6 5 6 6 6 6 6 6 6 d 6 6 6 6 6 6 6 6 6 6 6 6 6 6 6 6 6 6 6 6 6 6 6 6 6 6 6 6 6 f 6 6 6 6 6 6 & 6 6 6 6 6 6 6 6 6 6 6 6 6 6 6 6 6 6 6 6 6 6 d r 6 6 6 6 6 6 6 6 6 6 6 6 6 6 6 6 6 6 6 6 6 6 6 6 6 6 6 6 6 f 6 6 6 6 6 6 & 6 6 6 6 6 6 6 6 6 6 6 6 6 * 6 6 6 6 6 6 6 6 f 6 6 6 6 6 6 6 6 6 6 6 6 6 6 6 6 6 6 6 6 6 6 6 6 6 6 6 6 6 f 6 6 6 6 6 6 & 6 6 6 6 6 6 6 6 6 6 6 6 6 * 6 6 6 6 6 6 6 6 f 6 6 6 6 6 6 6 6 6 6 6 6 6 6 6 6 6 6 6 6 6 6 6 6 6 6 ",
"6 6 * * 6 6 6 6 6 6 6 6 6 6 6 6 6 f 6 6 6 6 6 & 6 b 9 & 6 6 6 6 6 6 6 6 6 6 5 9 0 6 5 6 6 6 6 6 d 6 6 6 6 6 6 9 6 6 6 6 6 6 6 6 6 6 6 6 6 d 6 5 6 6 6 6 6 6 f 6 6 6 6 & 6 b 9 & 6 6 6 6 6 6 6 6 6 6 7 r 1 6 7 6 6 6 6 6 d r 6 6 6 6 6 6 6 6 6 6 6 6 6 6 6 6 6 6 6 6 r 6 6 6 6 6 6 6 6 f 6 6 6 6 & 9 b 6 & 6 6 6 6 6 6 6 6 6 % * i t % 6 6 6 6 6 6 f 6 6 6 6 6 6 9 6 6 6 6 6 6 6 6 6 6 6 * 6 t 6 * 6 6 6 6 6 6 f 6 6 6 6 & 9 b 6 & 6 6 6 6 6 6 6 6 6 = 6 b 6 = 6 6 6 6 6 6 f 6 6 6 6 6 6 9 6 6 6 6 6 6 6 6 6 6 6 * 6 d 6 * 6 6 6 ",
"6 6 v v 6 * 6 6 & f f * 6 6 6 6 6 f 6 6 6 6 & 4.JXyXJX8.6 6 6 6 6 6 6 6 6 6 J #X#X#XD 5 6 6 6 6 d 6 6 6 6 n V V V f 6 6 6 6 6 6 6 6 6 d G G G V 6 6 6 6 6 6 f 6 6 6 & 4.JXyXJX8.6 6 6 6 6 6 6 6 6 6 P L L L 3 7 6 6 6 6 d r 6 6 6 9 m V V m 9 6 6 6 6 6 6 6 6 6 g e.B e.N 6 6 6 6 6 6 f 6 6 6 6 8.JXyXJX4.& 6 6 6 6 6 6 6 % p s.u.s.i.r 6 6 6 6 6 f 6 6 6 6 h V m V h 6 6 6 6 6 6 6 6 6 x e.O.e.M 6 6 6 6 6 6 f 6 6 6 6 8.JXyXJX4.& 6 6 6 6 6 6 6 * &.xXkXxX;.* 6 6 6 6 6 f 6 6 6 6 n V V V f 6 6 6 6 6 6 6 6 6 n 1.1.1.c 6 6 6 ",
"6 6 O.@.+.B B +.o.O.w.f * 6 6 6 6 f 6 6 6 & 4.JX7 X @ 9.9.$ 6 6 6 6 6 6 5 +XJ X X ; $XD 5 6 6 6 d 6 6 6 V h X X * O.f 6 6 6 6 6 6 6 d ^ ; X X j ^ 6 6 6 6 6 f 6 6 & 4.JX7 X @ 9.9.$ 6 6 6 6 6 6 7 L P @ X = ! 3 7 6 6 6 d r 6 6 6 V 9 X X 9 O.6 6 6 6 6 6 6 6 g e.$ X X N B 6 6 6 6 6 f 6 6 & 9.9.@ X 7 JX4.& 6 6 6 6 6 * a sXy X X q.s.* 6 6 6 6 f 6 6 5 h m @ X @ m n 5 6 6 6 6 6 * x e.& X X o.O.* 6 6 6 6 f 6 6 & 9.9.@ X 7 JX4.& 6 6 6 6 6 = ;.zX$ X $ zX-.= 6 6 6 6 f 6 6 6 n c X X * O.f 6 6 6 6 6 6 * V V @ X $ 1.n * 6 ",
"6 * v B B @.v c.o.w.B M 6 6 6 6 6 f 6 6 6 9 JX% @ v r . JXm & 6 6 6 6 5 D #X. r B + ; #X5 6 6 6 d 6 5 h n . * d   6 m 6 6 6 6 6 6 5 G d . r 6 . C C 5 6 6 6 f 6 6 9 JX% @ v r . JXm & 6 6 6 6 7 3 L o r M 5 , L 7 6 6 6 d r 6 * n j . 6 r . f n * 6 6 6 6 6 6 e.$ X f *   o.f 6 6 6 6 f 6 & m yX. 6 v @ % JX6 6 6 6 6 6 % s.s - c x - i.{ % 6 6 6 f 6 6 6 V @ X f $ X V 6 6 6 6 6 6 6 e.&   f *   +.g * 6 6 6 f 6 & m yX. * B & % JX6 6 6 6 6 * f xX@ @ M 6   xXz * 6 6 6 f 6 6 f n . & f X & V 6 6 6 6 6 6 f 1.  @ f @ @ 1.6 6 ",
"6 6 r r 6 d 6 f f g 6 c d 6 6 6 6 f 6 6 & m 9.  c B O.X 8.4.$ 6 6 6 6 4 J K + B B v @ #X0 5 6 6 d 6 * n 9 X g f $ X c 6 6 6 6 6 6 6 G @ & x g @ d V 5 6 6 6 f 6 & m 9.  c B c . 8.4.$ 6 6 6 6 7 P 3 O B B x @ L , 6 6 6 d r 6 6 V % @ x f X $ c 6 6 6 6 6 6 r B   6 g g X g N * 6 6 6 f 6 $ 4.9.. B M d   8.e & 6 6 6 6 r u.+ f B B # { 0.% 6 6 6 f 6 6 f n   d g 6   j d 6 6 6 6 6 t O.  6 g g X c M * 6 6 6 f 6 $ 4.9.. B B B   9.m & 6 6 6 =  .kX  v B M   -.$.= 6 6 6 f 6 * c f   g f $ X h 6 6 6 6 6 & n m   f g f   G f 6 ",
"6 6 6 6 f 6 * & & & * 6 6 6 6 6 6 f 6 6 * z JX  6 c 6 . 9.4.& 6 6 6 6 4 F J . c g $ # #X6 6 6 6 d 6 * c h . 6 f @ @ c 6 6 6 6 6 6 6 G % X f 6 . j V 5 6 6 6 f 6 * z JX  6 M f . 9.X.& 6 6 6 6 7 P P o h c @ @ L 6 6 6 6 d r 6 * m 6   d f X * h 6 6 6 6 6 6 6 e.X @ f & . N g * 6 6 6 f 6 & 4.9.. f M d   9.q * 6 6 6 6 6 s.+ # v t . q.0.% 6 6 6 f 6 6 d V   & f 6   h 9 6 6 6 6 6 6 e.X @ f & . o.c * 6 6 6 f 6 & 4.9.. g x &   JXz * 6 6 6 * b zX. d v 6 . zX| & 6 6 6 f 6 * c c . 6 f $ @ c 6 6 6 6 6 * h G . 6 f X   1.d 6 ",
"6 6 6 6 +.o.c v v c c 6 6 6 6 6 6 f 6 6 6 & 9.9.. $ . ,.yX6 6 6 6 6 6 6 9 @X> X @ . J J 5 6 6 6 d 6 6 6 V *   X X h f 6 6 6 6 6 6 5 h G X X   @ V d 6 6 6 6 f 6 6 & 9.9.. $   e 9.6 6 6 6 6 6 6 r L , X @ X 3 3 7 6 6 6 d r 6 6 f V @     @ c d 6 6 6 6 6 6 6 N N   X   * N 6 6 6 6 6 f 6 6 6 yX4.. $   ,.8.& 6 6 6 6 6 % q.u.X @ O 4 i.y * 6 6 6 f 6 6 6 n h   X   9 h 6 6 6 6 6 6 * o.M   X   6 o.6 6 6 6 6 f 6 6 6 yX4.. $ . 8.9.& 6 6 6 6 6 & kX;.. $   >.rX* 6 6 6 6 f 6 6 6 V 6   X   j f 6 6 6 6 6 6 6 1.j . X   j V 6 6 ",
"6 6 6 r o.o.@.@.O.b.O.* 6 6 6 6 6 f 6 6 6 * q 9.6 $ & 9.m & 6 6 6 6 6 6 5 D J + & 0 J 6 6 6 6 6 d 6 6 5 h c & & 6 h 6 6 6 6 6 6 6 6 6 V j $ & j j 5 6 6 6 6 f 6 6 * q 9.6 $ & 8.e & 6 6 6 6 6 6 7 3 P 7 $ , 3 6 6 6 6 6 d r 6 6 6 n h $ & d f 6 6 6 6 6 6 6 6 6 B 6 $ * g r 6 6 6 6 6 f 6 6 & X.9.& $ 6 8.q 6 6 6 6 6 6 6 6 i.i $ % { p % 6 6 6 6 f 6 6 6 9 n 6 & 6 h 6 6 6 6 6 6 6 6 6 O.6 $ * c t 6 6 6 6 6 f 6 6 & X.9.& $ 6 9.q * 6 6 6 6 6 * b kX6 $ * =.8 * 6 6 6 6 f 6 6 6 h n & & 6 h 6 6 6 6 6 6 6 5 j V * & 6 n 6 6 6 ",
"6 6 6 f o.c v f f c f 6 6 6 6 6 6 f 6 6 6 6 6 & 6 6 6 & * 6 6 6 6 6 6 6 6 5 5 6 6 6 5 6 6 6 6 6 d 6 6 6 6 6 6 6 6 6 6 6 6 6 6 6 6 6 6 5 6 6 6 6 6 6 6 6 6 6 f 6 6 6 6 & 6 6 6 & * 6 6 6 6 6 6 6 6 7 7 6 6 6 7 6 6 6 6 6 d r 6 6 6 6 6 6 6 6 6 6 6 6 6 6 6 6 6 6 6 6 6 6 6 6 6 6 6 6 6 f 6 6 6 & & 6 6 6 & 6 6 6 6 6 6 6 6 6 % 6 6 6 * * 6 6 6 6 6 f 6 6 6 6 6 6 6 6 6 6 6 6 6 6 6 6 6 6 * 6 6 6 6 6 6 6 6 6 6 f 6 6 6 & & 6 6 6 & 6 6 6 6 6 6 6 6 * & 6 6 6 * * 6 6 6 6 6 f 6 6 6 6 6 6 6 6 6 6 6 6 6 6 6 6 6 6 5 6 6 6 6 6 6 6 ",
"6 6 6 * * * & 6 * * 6 6 6 6 6 6 6 f 6 6 6 6 6 6 6 6 6 6 6 6 6 6 6 6 6 6 6 6 6 6 6 6 6 6 6 6 6 6 d 6 6 6 6 6 6 6 6 6 6 6 6 6 6 6 6 6 6 6 6 6 6 6 6 6 6 6 6 6 f 6 6 6 6 6 6 6 6 6 6 6 6 6 6 6 6 6 6 6 6 6 6 6 6 6 6 6 6 6 d r 6 6 6 6 6 6 6 6 6 6 6 6 6 6 6 6 6 6 6 6 6 6 6 6 6 6 6 6 6 f 6 6 6 6 6 6 6 6 6 6 6 6 6 6 6 6 6 6 6 6 6 6 6 6 6 6 6 6 6 f 6 6 6 6 6 6 6 6 6 6 6 6 6 6 6 6 6 6 6 6 6 6 6 6 6 6 6 6 6 f 6 6 6 6 6 6 6 6 6 6 6 6 6 6 6 6 6 6 6 6 6 6 6 6 6 6 6 6 6 f 6 6 6 6 6 6 6 6 6 6 6 6 6 6 6 6 6 6 6 6 6 6 6 6 6 6 ",
"6 6 c v O.+.g * f O.O.o.g 6 6 6 6 f 6 6 6 6 6 6 6 6 d 6 6 6 6 6 6 6 6 6 6 6 6 6 r 6 6 6 6 6 6 6 d 6 6 6 6 6 6 6 6 6 6 6 6 6 6 6 6 6 6 6 6 6 6 6 6 6 6 6 6 6 f 6 6 6 6 6 6 6 6 6 r r 6 6 6 6 6 6 6 6 6 6 6 6 6 6 6 6 6 6 d r 6 6 6 6 6 6 6 6 6 6 6 6 6 6 6 6 6 6 6 6 6 6 6 6 6 6 6 6 6 f 6 6 6 6 6 6 6 6 6 6 6 6 6 6 6 6 6 6 6 6 6 6 6 6 6 6 6 6 6 f 6 6 6 6 6 6 6 6 6 6 6 6 6 6 6 6 6 6 6 6 6 6 6 6 6 6 6 6 6 f 6 6 6 6 r 6 6 6 6 6 6 6 6 6 6 6 6 6 6 6 6 6 6 6 6 6 6 6 6 f 6 6 6 6 6 6 6 6 6 6 6 6 6 6 6 6 6 6 6 6 6 6 6 6 6 6 ",
"6 f @.+.w.c.c 6 @.@.c.@.B 6 6 6 6 f 6 6 6 6 * f O.* B w.O.r 6 6 6 6 6 6 6 * O.d f @.@.f 6 6 6 6 d 6 6 6 f c c f z M M g 6 6 6 6 6 6 * f v 6 v M v 6 6 6 6 6 f 6 6 6 6 O.B B 6 +.M +.6 6 6 6 6 6 6 6 @.d v +.+.c * 6 6 6 d r 6 6 6 x c v d c M M f 6 6 6 6 6 6 * c c 6 M M v 6 6 6 6 6 f 6 6 6 d o.v M g +.+.M 6 6 6 6 6 6 6 d @.6 B +.+.f 6 6 6 6 f 6 6 6 f v c g f M M x 6 6 6 6 6 6 6 f v 6 v M M r 6 6 6 6 f 6 6 6 * B M 6 O.o.M * 6 6 6 6 6 6 * c o.6 +.+.O.6 6 6 6 6 f 6 6 6 x c v d c M M f 6 6 6 6 6 6 * c c 6 M M v 6 6 ",
"6 d O.o.B O.B 6 B o.o.O.M * 6 6 6 f 6 6 6 6 g f o.6 v O.O.g * 6 6 6 6 6 d g B g d O.w.M * 6 6 6 d 6 6 f f v +.v x o.B x 6 6 6 6 6 6 d M B x v o.v f 6 6 6 6 f 6 6 f f B @.@.r O.B v * 6 6 6 6 6 6 M c.B M w.@.M * 6 6 6 d r 6 6 f g v +.c c o.M g * 6 6 6 6 6 f B M x v o.v 6 6 6 6 6 f 6 6 g x B c.@.v @.w.B 6 6 6 6 6 6 d o.c.M B c.+.c * 6 6 6 f 6 6 f f v O.v x o.B c 6 6 6 6 6 6 r v o.x c o.v f 6 6 6 6 f 6 6 6 x v +.f B v O.* 6 6 6 6 6 6 f @.@.v o.c.O.f 6 6 6 6 f 6 6 f g v +.c c o.M g * 6 6 6 6 6 f B M x v o.v 6 6 ",
"6 6 d 6 6 6 d 6 6 6 6 6 6 6 6 6 6 f 6 6 6 6 6 6 x g x f B 6 6 6 6 6 6 6 6 6 f g c d v g 6 6 6 6 d 6 6 6 c c f x g x c f 6 6 6 6 6 6 6 r c f x z c 6 6 6 6 6 f 6 6 6 6 g x M c v c d 6 6 6 6 6 6 6 6 v c c v M f 6 6 6 6 d r 6 6 6 v g f z x x c 6 6 6 6 6 6 6 6 f c f c x x 6 6 6 6 6 f 6 6 6 c o.f v c M v c 6 6 6 6 6 6 6 6 M c v v B r 6 6 6 6 f 6 6 6 x c f x g x x f 6 6 6 6 6 6 6 r c f x z c 6 6 6 6 6 f 6 6 6 6 v v B B v x 6 6 6 6 6 6 6 6 f B x M c M 6 6 6 6 6 f 6 6 6 v g f z x x c 6 6 6 6 6 6 6 6 f c f c x x 6 6 ",
"6 6 6 6 6 6 6 6 6 6 6 6 6 6 6 6 6 f 6 6 6 6 6 6 6 6 6 6 * 6 6 6 6 6 6 6 6 6 6 6 6 6 * 6 6 6 6 6 f 6 6 6 6 6 6 6 6 6 6 6 6 6 6 6 6 6 6 6 6 6 6 6 6 6 6 6 6 6 f 6 6 6 6 6 6 * 6 6 * 6 6 6 6 6 6 6 6 6 * * * * * 6 6 6 6 6 d r 6 6 6 * 6 6 6 6 6 6 6 6 6 6 6 6 6 6 6 6 6 6 6 6 6 6 6 6 6 f 6 6 6 6 * 6 * 6 * * 6 6 6 6 6 6 6 6 6 * 6 * * * 6 6 6 6 6 f 6 6 6 6 6 6 6 6 6 6 6 6 6 6 6 6 6 6 6 6 6 6 6 6 6 6 6 6 6 f 6 6 6 6 6 * * * 6 6 6 6 6 6 6 6 6 6 6 * 6 * * * 6 6 6 6 6 f 6 6 6 * 6 6 6 6 6 6 6 6 6 6 6 6 6 6 6 6 6 6 6 6 6 6 ",
"6 6 6 6 6 6 6 6 6 6 6 6 6 6 6 6 6 f 6 6 6 6 6 6 6 6 6 6 6 6 6 6 6 6 6 6 6 6 6 6 6 6 6 6 6 6 6 6 d 6 6 6 6 6 6 6 6 6 6 6 6 6 6 6 6 6 6 6 6 6 6 6 6 6 6 6 6 6 f 6 6 6 6 6 6 6 6 6 6 6 6 6 6 6 6 6 6 6 6 6 6 6 6 6 6 6 6 6 d 6 6 6 6 6 6 6 6 6 6 6 6 6 6 6 6 6 6 6 6 6 6 6 6 6 6 6 6 6 6 f 6 6 6 6 6 6 6 6 6 6 6 6 6 6 6 6 6 6 6 6 6 6 6 6 6 6 6 6 6 f 6 6 6 6 6 6 6 6 6 6 6 6 6 6 6 6 6 6 6 6 6 6 6 6 6 6 6 6 6 f 6 6 6 6 6 6 6 6 6 6 6 6 6 6 6 6 6 6 6 6 6 6 6 6 6 6 6 6 6 f 6 6 6 6 6 6 6 6 6 6 6 6 6 6 6 6 6 6 6 6 6 6 6 6 6 6 ",
"6 6 6 6 6 6 6 6 6 6 6 6 6 6 6 6 6 f r 6 r r r r r r r r r r r r r r r r r r r r r r r r r r 6 d f 6 r r r r r r r r r r r r r r r r r r r r r r r r r r r r f r r r r r r r r r r r r r r r r r r r r r r r r r r r r 6 d d 6 r r r r r r r r r r r r r r r r r r r r r r r r r r 6 r f 6 r r r r r r r r r r r r r r r r r r r r r r r r r r r r f r r r r r r r r r r r r r r r r r r r r r r r r r r r 6 r f 6 r r r r r r r r r r r r r r r r r r r r r r r r r r 6 d f 6 r r r r r r r r r r r r r r r r r r r r r r r r r ",
"6 6 6 6 6 6 6 6 6 6 6 6 6 6 6 6 6 f d d d d d d d d d d d d d d d d d d d d d d d d d d d d d d d d d d d d d d d d d d d d d d d d d d d d d d d d d d d d d d d d d d d d d d d d d d d d d d d d d d d d d d d d d d d d d d d d d d d d d d d d d d d d d d d d d d d d d d d d d d d d d d d d d d d d d d d d d d d d d d d d d d d d d d d d d d d d d d d d d d d d d d d d d d d d d d d d d d d d d d d d d d d d d d d d d d d d d d d d d d d d d d d d d d d d d d d d d d d d d d d d d d d d d d d d d d d d d d ",
"6 6 6 6 6 6 6 6 6 6 6 6 6 6 6 6 6 f 6 6 6 6 6 6 6 6 6 6 6 6 6 6 6 6 6 6 6 6 6 6 6 6 6 6 6 6 6 6 6 6 6 6 6 6 6 6 6 6 6 6 6 6 6 6 6 6 6 6 6 6 6 6 6 6 6 6 6 6 6 6 6 6 6 6 6 6 6 6 6 6 6 6 6 6 6 6 6 6 6 6 6 6 6 6 6 6 6 6 6 6 6 6 6 6 6 6 6 6 6 6 6 6 6 6 6 6 6 6 6 6 6 6 6 6 6 6 6 6 6 6 6 6 6 6 6 6 6 6 6 6 6 6 6 6 6 6 6 6 6 6 6 6 6 6 6 6 6 6 6 6 6 6 6 6 6 6 6 6 6 6 6 6 6 6 6 6 6 6 6 6 6 6 6 6 6 6 6 6 6 6 6 6 6 6 6 6 6 6 6 6 6 6 6 6 6 6 6 6 6 6 6 6 6 6 6 6 6 6 6 6 6 6 6 6 6 6 6 6 6 6 6 6 6 6 6 6 6 6 6 6 6 6 6 6 6 6 ",
"6 6 6 6 6 6 6 6 6 6 6 6 6 6 6 6 6 f 6 6 6 6 6 6 6 6 6 6 6 6 6 6 6 6 6 6 6 6 6 6 6 6 6 6 6 6 6 6 6 6 6 6 6 6 6 6 6 6 6 6 6 6 6 6 6 6 6 6 6 6 6 6 6 6 6 6 6 6 6 6 6 6 6 6 6 6 6 6 6 6 6 6 6 6 6 6 6 6 6 6 6 6 6 6 6 6 6 6 6 6 6 6 6 6 6 6 6 6 6 6 6 6 6 6 6 6 6 6 6 6 6 6 6 6 6 6 6 6 6 6 6 6 6 6 6 6 6 6 6 6 6 6 6 6 6 6 6 6 6 6 6 6 6 6 6 6 6 6 6 6 6 6 6 6 6 6 6 6 6 6 6 6 6 6 6 6 6 6 6 6 6 6 6 6 6 6 6 6 6 6 6 6 6 6 6 6 6 6 6 6 6 6 6 6 6 6 6 6 6 6 6 6 6 6 6 6 6 6 6 6 6 6 6 6 6 6 6 6 6 6 6 6 6 6 6 6 6 6 6 6 6 6 6 6 6 6 ",
"6 6 6 6 6 6 6 6 6 6 6 6 6 6 6 6 6 f 6 6 6 6 6 6 6 6 6 6 6 6 6 6 6 6 6 6 6 6 6 6 6 6 6 6 6 6 6 6 6 6 6 6 6 6 6 6 6 6 6 6 6 6 6 6 6 6 6 6 6 6 6 6 6 6 6 6 6 6 6 6 6 6 6 6 6 6 6 6 6 6 6 6 6 6 6 6 6 6 6 6 6 6 6 6 6 6 6 6 6 6 6 6 6 6 6 6 6 6 6 6 6 6 6 6 6 6 6 6 6 6 6 6 6 6 6 6 6 6 6 6 6 6 6 6 6 6 6 6 6 6 6 6 6 6 6 6 6 6 6 6 6 6 6 6 6 6 6 6 6 6 6 6 6 6 6 6 6 6 6 6 6 6 6 6 6 6 6 6 6 6 6 6 6 6 6 6 6 6 6 6 6 6 6 6 6 6 6 6 6 6 6 6 6 6 6 6 6 6 6 6 6 6 6 6 6 6 6 6 6 6 6 6 6 6 6 6 6 6 6 6 6 6 6 6 6 6 6 6 6 6 6 6 6 6 6 6 ",
"6 6 6 6 6 6 6 6 6 6 6 6 6 6 6 6 6 f 6 6 6 6 6 6 6 6 6 6 6 6 6 6 6 6 6 6 6 6 6 6 6 6 6 6 6 6 6 6 6 6 6 6 6 6 6 6 6 6 6 6 6 6 6 6 6 6 6 6 6 6 6 6 6 6 6 6 6 6 6 6 6 6 6 6 6 6 6 6 6 6 6 6 6 6 6 6 6 6 6 6 6 6 6 6 6 6 6 6 6 6 6 6 6 6 6 6 6 6 6 6 6 6 6 6 6 6 6 6 6 6 6 6 6 6 6 6 6 6 6 6 6 6 6 6 6 6 6 6 6 6 6 6 6 6 6 6 6 6 6 6 6 6 6 6 6 6 6 6 6 6 6 6 6 6 6 6 6 6 6 6 6 6 6 6 6 6 6 6 6 6 6 6 6 6 6 6 6 6 6 6 6 6 6 6 6 6 6 6 6 6 6 6 6 6 6 6 6 6 6 6 6 6 6 6 6 6 6 6 6 6 6 6 6 6 6 6 6 6 6 6 6 6 6 6 6 6 6 6 6 6 6 6 6 6 6 6 ",
"6 6 6 6 6 6 6 6 6 6 6 6 6 6 6 6 6 f 6 6 6 6 6 6 6 6 6 6 6 6 6 6 6 6 6 6 6 6 6 6 6 6 6 6 6 6 6 6 6 6 6 6 6 6 6 6 6 6 6 6 6 6 6 6 6 6 6 6 6 6 6 6 6 6 6 6 6 6 6 6 6 6 6 6 6 6 6 6 6 6 6 6 6 6 6 6 6 6 6 6 6 6 6 6 6 6 6 6 6 6 6 6 6 6 6 6 6 6 6 6 6 6 6 6 6 6 6 6 6 6 6 6 6 6 6 6 6 6 6 6 6 6 6 6 6 6 6 6 6 6 6 6 6 6 6 6 6 6 6 6 6 6 6 6 6 6 6 6 6 6 6 6 6 6 6 6 6 6 6 6 6 6 6 6 6 6 6 6 6 6 6 6 6 6 6 6 6 6 6 6 6 6 6 6 6 6 6 6 6 6 6 6 6 6 6 6 6 6 6 6 6 6 6 6 6 6 6 6 6 6 6 6 6 6 6 6 6 6 6 6 6 6 6 6 6 6 6 6 6 6 6 6 6 6 6 6 ",
"6 6 6 6 6 6 6 6 6 6 6 6 6 6 6 6 6 f 6 6 6 6 6 6 6 6 6 6 6 6 6 6 6 6 6 6 6 6 6 6 6 6 6 6 6 6 6 6 6 6 6 6 6 6 6 6 6 6 6 6 6 6 6 6 6 6 6 6 6 6 6 6 6 6 6 6 6 6 6 6 6 6 6 6 6 6 6 6 6 6 6 6 6 6 6 6 6 6 6 6 6 6 6 6 6 6 6 6 6 6 6 6 6 6 6 6 6 6 6 6 6 6 6 6 6 6 6 6 6 6 6 6 6 6 6 6 6 6 6 6 6 6 6 6 6 6 6 6 6 6 6 6 6 6 6 6 6 6 6 6 6 6 6 6 6 6 6 6 6 6 6 6 6 6 6 6 6 6 6 6 6 6 6 6 6 6 6 6 6 6 6 6 6 6 6 6 6 6 6 6 6 6 6 6 6 6 6 6 6 6 6 6 6 6 6 6 6 6 6 6 6 6 6 6 6 6 6 6 6 6 6 6 6 6 6 6 6 6 6 6 6 6 6 6 6 6 6 6 6 6 6 6 6 6 6 6 ",
"6 6 6 6 6 6 6 6 6 6 6 6 6 6 6 6 6 f 6 6 6 6 6 6 6 6 6 6 6 6 6 6 6 6 6 6 6 6 6 6 6 6 6 6 6 6 6 6 6 6 6 6 6 6 6 6 6 6 6 6 6 6 6 6 6 6 6 6 6 6 6 6 6 6 6 6 6 6 6 6 6 6 6 6 6 6 6 6 6 6 6 6 6 6 6 6 6 6 6 6 6 6 6 6 6 6 6 6 6 6 6 6 6 6 6 6 6 6 6 6 6 6 6 6 6 6 6 6 6 6 6 6 6 6 6 6 6 6 6 6 6 6 6 6 6 6 6 6 6 6 6 6 6 6 6 6 6 6 6 6 6 6 6 6 6 6 6 6 6 6 6 6 6 6 6 6 6 6 6 6 6 6 6 6 6 6 6 6 6 6 6 6 6 6 6 6 6 6 6 6 6 6 6 6 6 6 6 6 6 6 6 6 6 6 6 6 6 6 6 6 6 6 6 6 6 6 6 6 6 6 6 6 6 6 6 6 6 6 6 6 6 6 6 6 6 6 6 6 6 6 6 6 6 6 6 6 ",
"6 6 6 6 6 6 6 6 6 6 6 6 6 6 6 6 6 f 6 6 6 6 6 6 6 6 6 6 6 6 6 6 6 6 6 6 6 6 6 6 6 6 6 6 6 6 6 6 6 6 6 6 6 6 6 6 6 6 6 6 6 6 6 6 6 6 6 6 6 6 6 6 6 6 6 6 6 6 6 6 6 6 6 6 6 6 6 6 6 6 6 6 6 6 6 6 6 6 6 6 6 6 6 6 6 6 6 6 6 6 6 6 6 6 6 6 6 6 6 6 6 6 6 6 6 6 6 6 6 6 6 6 6 6 6 6 6 6 6 6 6 6 6 6 6 6 6 6 6 6 6 6 6 6 6 6 6 6 6 6 6 6 6 6 6 6 6 6 6 6 6 6 6 6 6 6 6 6 6 6 6 6 6 6 6 6 6 6 6 6 6 6 6 6 6 6 6 6 6 6 6 6 6 6 6 6 6 6 6 6 6 6 6 6 6 6 6 6 6 6 6 6 6 6 6 6 6 6 6 6 6 6 6 6 6 6 6 6 6 6 6 6 6 6 6 6 6 6 6 6 6 6 6 6 6 6 ",
"6 6 6 6 6 6 6 6 6 6 6 6 6 6 6 6 6 f 6 6 6 6 6 6 6 6 6 6 6 6 6 6 6 6 6 6 6 6 6 6 6 6 6 6 6 6 6 6 6 6 6 6 6 6 6 6 6 6 6 6 6 6 6 6 6 6 6 6 6 6 6 6 6 6 6 6 6 6 6 6 6 6 6 6 6 6 6 6 6 6 6 6 6 6 6 6 6 6 6 6 6 6 6 6 6 6 6 6 6 6 6 6 6 6 6 6 6 6 6 6 6 6 6 6 6 6 6 6 6 6 6 6 6 6 6 6 6 6 6 6 6 6 6 6 6 6 6 6 6 6 6 6 6 6 6 6 6 6 6 6 6 6 6 6 6 6 6 6 6 6 6 6 6 6 6 6 6 6 6 6 6 6 6 6 6 6 6 6 6 6 6 6 6 6 6 6 6 6 6 6 6 6 6 6 6 6 6 6 6 6 6 6 6 6 6 6 6 6 6 6 6 6 6 6 6 6 6 6 6 6 6 6 6 6 6 6 6 6 6 6 6 6 6 6 6 6 6 6 6 6 6 6 6 6 6 6 ",
"6 6 6 6 6 6 6 6 6 6 6 6 6 6 6 6 6 f 6 6 6 6 6 6 6 6 6 6 6 6 6 6 6 6 6 6 6 6 6 6 6 6 6 6 6 6 6 6 6 6 6 6 6 6 6 6 6 6 6 6 6 6 6 6 6 6 6 6 6 6 6 6 6 6 6 6 6 6 6 6 6 6 6 6 6 6 6 6 6 6 6 6 6 6 6 6 6 6 6 6 6 6 6 6 6 6 6 6 6 6 6 6 6 6 6 6 6 6 6 6 6 6 6 6 6 6 6 6 6 6 6 6 6 6 6 6 6 6 6 6 6 6 6 6 6 6 6 6 6 6 6 6 6 6 6 6 6 6 6 6 6 6 6 6 6 6 6 6 6 6 6 6 6 6 6 6 6 6 6 6 6 6 6 6 6 6 6 6 6 6 6 6 6 6 6 6 6 6 6 6 6 6 6 6 6 6 6 6 6 6 6 6 6 6 6 6 6 6 6 6 6 6 6 6 6 6 6 6 6 6 6 6 6 6 6 6 6 6 6 6 6 6 6 6 6 6 6 6 6 6 6 6 6 6 6 6 ",
"6 6 6 6 6 6 6 6 6 6 6 6 6 6 6 6 6 f 6 6 6 6 6 6 6 6 6 6 6 6 6 6 6 6 6 6 6 6 6 6 6 6 6 6 6 6 6 6 6 6 6 6 6 6 6 6 6 6 6 6 6 6 6 6 6 6 6 6 6 6 6 6 6 6 6 6 6 6 6 6 6 6 6 6 6 6 6 6 6 6 6 6 6 6 6 6 6 6 6 6 6 6 6 6 6 6 6 6 6 6 6 6 6 6 6 6 6 6 6 6 6 6 6 6 6 6 6 6 6 6 6 6 6 6 6 6 6 6 6 6 6 6 6 6 6 6 6 6 6 6 6 6 6 6 6 6 6 6 6 6 6 6 6 6 6 6 6 6 6 6 6 6 6 6 6 6 6 6 6 6 6 6 6 6 6 6 6 6 6 6 6 6 6 6 6 6 6 6 6 6 6 6 6 6 6 6 6 6 6 6 6 6 6 6 6 6 6 6 6 6 6 6 6 6 6 6 6 6 6 6 6 6 6 6 6 6 6 6 6 6 6 6 6 6 6 6 6 6 6 6 6 6 6 6 6 6 ",
"6 6 6 6 6 6 6 6 6 6 6 6 6 6 6 6 6 f 6 6 6 6 6 6 6 6 6 6 6 6 6 6 6 6 6 6 6 6 6 6 6 6 6 6 6 6 6 6 6 6 6 6 6 6 6 6 6 6 6 6 6 6 6 6 6 6 6 6 6 6 6 6 6 6 6 6 6 6 6 6 6 6 6 6 6 6 6 6 6 6 6 6 6 6 6 6 6 6 6 6 6 6 6 6 6 6 6 6 6 6 6 6 6 6 6 6 6 6 6 6 6 6 6 6 6 6 6 6 6 6 6 6 6 6 6 6 6 6 6 6 6 6 6 6 6 6 6 6 6 6 6 6 6 6 6 6 6 6 6 6 6 6 6 6 6 6 6 6 6 6 6 6 6 6 6 6 6 6 6 6 6 6 6 6 6 6 6 6 6 6 6 6 6 6 6 6 6 6 6 6 6 6 6 6 6 6 6 6 6 6 6 6 6 6 6 6 6 6 6 6 6 6 6 6 6 6 6 6 6 6 6 6 6 6 6 6 6 6 6 6 6 6 6 6 6 6 6 6 6 6 6 6 6 6 6 6 ",
"6 6 6 6 6 6 6 6 6 6 6 6 6 6 6 6 6 f 6 6 6 6 6 6 6 6 6 6 6 6 6 6 6 6 6 6 6 6 6 6 6 6 6 6 6 6 6 6 6 6 6 6 6 6 6 6 6 6 6 6 6 6 6 6 6 6 6 6 6 6 6 6 6 6 6 6 6 6 6 6 6 6 6 6 6 6 6 6 6 6 6 6 6 6 6 6 6 6 6 6 6 6 6 6 6 6 6 6 6 6 6 6 6 6 6 6 6 6 6 6 6 6 6 6 6 6 6 6 6 6 6 6 6 6 6 6 6 6 6 6 6 6 6 6 6 6 6 6 6 6 6 6 6 6 6 6 6 6 6 6 6 6 6 6 6 6 6 6 6 6 6 6 6 6 6 6 6 6 6 6 6 6 6 6 6 6 6 6 6 6 6 6 6 6 6 6 6 6 6 6 6 6 6 6 6 6 6 6 6 6 6 6 6 6 6 6 6 6 6 6 6 6 6 6 6 6 6 6 6 6 6 6 6 6 6 6 6 6 6 6 6 6 6 6 6 6 6 6 6 6 6 6 6 6 6 6 ",
"6 6 6 6 6 6 6 6 6 6 6 6 6 6 6 6 6 f 6 6 6 6 6 6 6 6 6 6 6 6 6 6 6 6 6 6 6 6 6 6 6 6 6 6 6 6 6 6 6 6 6 6 6 6 6 6 6 6 6 6 6 6 6 6 6 6 6 6 6 6 6 6 6 6 6 6 6 6 6 6 6 6 6 6 6 6 6 6 6 6 6 6 6 6 6 6 6 6 6 6 6 6 6 6 6 6 6 6 6 6 6 6 6 6 6 6 6 6 6 6 6 6 6 6 6 6 6 6 6 6 6 6 6 6 6 6 6 6 6 6 6 6 6 6 6 6 6 6 6 6 6 6 6 6 6 6 6 6 6 6 6 6 6 6 6 6 6 6 6 6 6 6 6 6 6 6 6 6 6 6 6 6 6 6 6 6 6 6 6 6 6 6 6 6 6 6 6 6 6 6 6 6 6 6 6 6 6 6 6 6 6 6 6 6 6 6 6 6 6 6 6 6 6 6 6 6 6 6 6 6 6 6 6 6 6 6 6 6 6 6 6 6 6 6 6 6 6 6 6 6 6 6 6 6 6 6 ",
"6 6 6 6 6 6 6 6 6 6 6 6 6 6 6 6 6 f 6 6 6 6 6 6 6 6 6 6 6 6 6 6 6 6 6 6 6 6 6 6 6 6 6 6 6 6 6 6 6 6 6 6 6 6 6 6 6 6 6 6 6 6 6 6 6 6 6 6 6 6 6 6 6 6 6 6 6 6 6 6 6 6 6 6 6 6 6 6 6 6 6 6 6 6 6 6 6 6 6 6 6 6 6 6 6 6 6 6 6 6 6 6 6 6 6 6 6 6 6 6 6 6 6 6 6 6 6 6 6 6 6 6 6 6 6 6 6 6 6 6 6 6 6 6 6 6 6 6 6 6 6 6 6 6 6 6 6 6 6 6 6 6 6 6 6 6 6 6 6 6 6 6 6 6 6 6 6 6 6 6 6 6 6 6 6 6 6 6 6 6 6 6 6 6 6 6 6 6 6 6 6 6 6 6 6 6 6 6 6 6 6 6 6 6 6 6 6 6 6 6 6 6 6 6 6 6 6 6 6 6 6 6 6 6 6 6 6 6 6 6 6 6 6 6 6 6 6 6 6 6 6 6 6 6 6 6 ",
"6 6 6 6 6 6 6 6 6 6 6 6 6 6 6 6 6 f 6 6 6 6 6 6 6 6 6 6 6 6 6 6 6 6 6 6 6 6 6 6 6 6 6 6 6 6 6 6 6 6 6 6 6 6 6 6 6 6 6 6 6 6 6 6 6 6 6 6 6 6 6 6 6 6 6 6 6 6 6 6 6 6 6 6 6 6 6 6 6 6 6 6 6 6 6 6 6 6 6 6 6 6 6 6 6 6 6 6 6 6 6 6 6 6 6 6 6 6 6 6 6 6 6 6 6 6 6 6 6 6 6 6 6 6 6 6 6 6 6 6 6 6 6 6 6 6 6 6 6 6 6 6 6 6 6 6 6 6 6 6 6 6 6 6 6 6 6 6 6 6 6 6 6 6 6 6 6 6 6 6 6 6 6 6 6 6 6 6 6 6 6 6 6 6 6 6 6 6 6 6 6 6 6 6 6 6 6 6 6 6 6 6 6 6 6 6 6 6 6 6 6 6 6 6 6 6 6 6 6 6 6 6 6 6 6 6 6 6 6 6 6 6 6 6 6 6 6 6 6 6 6 6 6 6 6 6 ",
"6 6 6 6 6 6 6 6 6 6 6 6 6 6 6 6 6 6 6 6 6 6 6 6 6 6 6 6 6 6 6 6 6 6 6 6 6 6 6 6 6 6 6 6 6 6 6 6 6 6 6 6 6 6 6 6 6 6 6 6 6 6 6 6 6 6 6 6 6 6 6 6 6 6 6 6 6 6 6 6 6 6 6 6 6 6 6 6 6 6 6 6 6 6 6 6 6 6 6 6 6 6 6 6 6 6 6 6 6 6 6 6 6 6 6 6 6 6 6 6 6 6 6 6 6 6 6 6 6 6 6 6 6 6 6 6 6 6 6 6 6 6 6 6 6 6 6 6 6 6 6 6 6 6 6 6 6 6 6 6 6 6 6 6 6 6 6 6 6 6 6 6 6 6 6 6 6 6 6 6 6 6 6 6 6 6 6 6 6 6 6 6 6 6 6 6 6 6 6 6 6 6 6 6 6 6 6 6 6 6 6 6 6 6 6 6 6 6 6 6 6 6 6 6 6 6 6 6 6 6 6 6 6 6 6 6 6 6 6 6 6 6 6 6 6 6 6 6 6 6 6 6 6 6 6 6 ",
"c c c c c c c c c c c c c c c c c c c c c c c c c c c c c c c c c c c c c c c c c c c c c c c c c c c c c c c c c c c c c c c c c c c c c c c c c c c c c c c c c c c c c c c c c c c c c c c c c c c c c c c c c c c c c c c c c c c c c c c c c c c c c c c c c c c c c c c c c c c c c c c c c c c c c c c c c c c c c c c c c c c c c c c c c c c c c c c c c c c c c c c c c c c c c c c c c c c c c c c c c c c c c c c c c c c c c c c c c c c c c c c c c c c c c c c c c c c c c c c c c c c c c c c c c c c c c c c c ",
"f f f f f f f f f f f f f f f f f f f f f f f f f f f f f f f f f f f f f f f f f f f f f f f f f f f f f f f f f f f f f f f f f f f f f f f f f f f f f f f f f f f f f f f f f f f f f f f f f f f f f f f f f f f f f f f f f f f f f f f f f f f f f f f f f f f f f f f f f f f f f f f f f f f f f f f f f f f f f f f f f f f f f f f f f f f f f f f f f f f f f f f f f f f f f f f f f f f f f f f f f f f f f f f f f f f f f f f f f f f f f f f f f f f f f f f f f f f f f f f f f f f f f f f f f f f f f f f f ",
"c c c c c c c c c c c c c c c c c c c c c c c c c c c c c c c c c c c c c c c c c c c c c c c c c c c c c c c c c c c c c c c c c c c c c c c c c c c c c c c c c c c c c c c c c c c c c c c c c c c c c c c c c c c c c c c c c c c c c c c c c c c c c c c c c c c c c c c c c c c c c c c c c c c c c c c c c c c c c c c c c c c c c c c c c c c c c c c c c c c c c c c c c c c c c c c c c c c c c c c c c c c c c c c c c c c c c c c c c c c c c c c c c c c c c c c c c c c c c c c c c c c c c c c c c c c c c c c c ",
"& & 6 6 6 6 6 6 6 6 6 6 6 6 6 & & & * 6 6 6 6 6 6 6 6 6 6 6 * * * & * 6 6 6 6 6 6 6 6 6 6 6 6 6 6 6 6 6 6 6 6 6 6 6 6 6 6 6 6 6 6 6 6 6 6 6 6 6 6 6 6 6 6 6 6 6 6 6 6 6 6 6 6 6 6 6 6 6 6 6 6 6 6 6 6 6 6 6 6 6 6 6 6 6 6 6 6 6 6 6 6 6 6 6 6 6 6 6 6 6 6 6 6 6 6 6 6 6 6 6 6 6 6 6 6 6 6 6 6 6 6 6 6 6 6 6 6 6 6 6 6 6 6 6 6 6 6 6 6 6 6 6 6 6 6 6 6 6 6 6 6 6 6 6 6 6 6 6 6 6 6 6 6 6 6 6 6 6 6 6 6 6 6 6 6 6 6 6 6 6 6 6 6 6 6 6 6 6 6 6 6 6 6 6 6 6 6 6 6 6 6 6 6 6 6 6 6 6 * * * 6 * * * 6 6 6 6 6 6 6 6 6 6 * % * * 6 % * ",
"v c 6 6 6 * 6 6 6 * 6 6 6 6 6 B B B g 6 6 6 * 6 6 * 6 6 6 6 6 c c v r 6 6 * 6 6 6 * 6 6 6 6 6 6 6 6 6 6 6 6 6 6 6 6 6 6 6 6 6 6 6 6 6 6 6 6 6 6 6 6 6 6 6 6 6 6 6 6 6 6 6 6 6 6 6 6 6 6 6 6 6 6 6 6 6 6 6 6 6 6 6 6 6 6 6 6 6 6 6 6 6 6 6 6 6 6 6 6 6 6 6 6 6 6 6 6 6 6 6 6 6 6 6 6 6 6 6 6 6 6 6 6 6 6 6 6 6 6 6 6 6 6 6 6 6 6 6 6 6 6 6 6 6 6 6 6 6 6 6 6 6 6 6 6 6 6 6 6 6 6 6 6 6 6 6 6 6 6 6 6 6 6 6 6 6 6 6 6 6 6 6 6 6 6 6 6 6 6 6 6 6 6 6 6 6 6 6 6 6 6 6 6 6 6 6 6 6 6 6 6 6 6 f 6 6 6 6 6 , 6 r 6 6 6 6 i [ ] i 6 [ a ",
"o.o.6 6 6 q.t 6 t i r 6 6 6 6 @.O.c.v * 6 a [ 6 6 t t 6 6 6 6 o.c.c.f 6 6 [ a * t i t 6 6 6 6 6 6 6 6 6 6 6 6 6 6 6 6 6 6 6 6 6 6 6 6 6 6 6 6 6 6 6 6 6 6 6 6 6 6 6 6 6 6 6 6 6 6 6 6 6 6 6 6 6 6 6 6 6 6 6 6 6 6 6 6 6 6 6 6 6 6 6 6 6 6 6 6 6 6 6 6 6 6 6 6 6 6 6 6 6 6 6 6 6 6 6 6 6 6 6 6 6 6 6 6 6 6 6 6 6 6 6 6 6 6 6 6 6 6 6 6 6 6 6 6 6 6 6 6 6 6 6 6 6 6 6 6 6 6 6 6 6 6 6 6 6 6 6 6 6 6 6 6 6 6 6 6 6 6 6 6 6 6 6 6 6 6 6 6 6 6 6 6 6 6 6 6 6 6 6 6 6 6 6 6 6 6 6 6 6 f c M c g B c d 6 < < < R < r 6 6 a [ 0.i 6 0.[ ",
"@.b.6 * i d.a % a 0.i * 6 6 6 +.@.c x 6 6 0.y.6 t q.[ 6 6 6 f 6 o.o.6 6 6 y.0.% i 0.a * 6 6 6 6 6 6 6 6 6 6 6 6 6 6 6 6 6 6 6 6 6 6 6 6 6 6 6 6 6 6 6 6 6 6 6 6 6 6 6 6 6 6 6 6 6 6 6 6 6 6 6 6 6 6 6 6 6 6 6 6 6 6 6 6 6 6 6 6 6 6 6 6 6 6 6 6 6 6 6 6 6 6 6 6 6 6 6 6 6 6 6 6 6 6 6 6 6 6 6 6 6 6 6 6 6 6 6 6 6 6 6 6 6 6 6 6 6 6 6 6 6 6 6 6 6 6 6 6 6 6 6 6 6 6 6 6 6 6 6 6 6 6 6 6 6 6 6 6 6 6 6 6 6 6 6 6 6 6 6 6 6 6 6 6 6 6 6 6 6 6 6 6 6 6 6 6 6 6 6 6 6 6 6 6 6 6 6 6 f o.B B 6 o.v r 6 < < < < I 6 6 6 i a [ i 6 [ q.",
"@.w.6 6 * t 6 6 * % 6 6 6 6 6 B o.g f 6 6 6 t * 6 % * 6 6 6 r g B B 6 6 * t 6 6 6 % * 6 6 6 6 6 6 6 6 6 6 6 6 6 6 6 6 6 6 6 6 6 6 6 6 6 6 6 6 6 6 6 6 6 6 6 6 6 6 6 6 6 6 6 6 6 6 6 6 6 6 6 6 6 6 6 6 6 6 6 6 6 6 6 6 6 6 6 6 6 6 6 6 6 6 6 6 6 6 6 6 6 6 6 6 6 6 6 6 6 6 6 6 6 6 6 6 6 6 6 6 6 6 6 6 6 6 6 6 6 6 6 6 6 6 6 6 6 6 6 6 6 6 6 6 6 6 6 6 6 6 6 6 6 6 6 6 6 6 6 6 6 6 6 6 6 6 6 6 6 6 6 6 6 6 6 6 6 6 6 6 6 6 6 6 6 6 6 6 6 6 6 6 6 6 6 6 6 6 6 6 6 6 6 6 6 6 6 6 6 c x 6 f x r f f 6 r < , r < 6 6 6 a [ a i * 0.a ",
"6 * 6 6 6 6 6 6 6 6 6 6 6 6 6 6 6 6 6 6 6 6 6 6 6 6 6 6 6 6 6 6 6 6 6 6 6 6 6 6 6 6 6 6 6 6 6 6 6 6 6 6 6 6 6 6 6 6 6 6 6 6 6 6 6 6 6 6 6 6 6 6 6 6 6 6 6 6 6 6 6 6 6 6 6 6 6 6 6 6 6 6 6 6 6 6 6 6 6 6 6 6 6 6 6 6 6 6 6 6 6 6 6 6 6 6 6 6 6 6 6 6 6 6 6 6 6 6 6 6 6 6 6 6 6 6 6 6 6 6 6 6 6 6 6 6 6 6 6 6 6 6 6 6 6 6 6 6 6 6 6 6 6 6 6 6 6 6 6 6 6 6 6 6 6 6 6 6 6 6 6 6 6 6 6 6 6 6 6 6 6 6 6 6 6 6 6 6 6 6 6 6 6 6 6 6 6 6 6 6 6 6 6 6 6 6 6 6 6 6 6 6 6 6 6 6 6 6 6 6 6 6 r 6 6 6 6 6 6 6 6 6 7 6 6 6 6 6 6 6 6 6 6 6 * 6 ",
"6 6 6 6 6 6 6 6 6 6 6 6 6 6 6 6 6 6 6 6 6 6 6 6 6 6 6 6 6 6 6 6 6 6 6 6 6 6 6 6 6 6 6 6 6 6 6 6 6 6 6 6 6 6 6 6 6 6 6 6 6 6 6 6 6 6 6 6 6 6 6 6 6 6 6 6 6 6 6 6 6 6 6 6 6 6 6 6 6 6 6 6 6 6 6 6 6 6 6 6 6 6 6 6 6 6 6 6 6 6 6 6 6 6 6 6 6 6 6 6 6 6 6 6 6 6 6 6 6 6 6 6 6 6 6 6 6 6 6 6 6 6 6 6 6 6 6 6 6 6 6 6 6 6 6 6 6 6 6 6 6 6 6 6 6 6 6 6 6 6 6 6 6 6 6 6 6 6 6 6 6 6 6 6 6 6 6 6 6 6 6 6 6 6 6 6 6 6 6 6 6 6 6 6 6 6 6 6 6 6 6 6 6 6 6 6 6 6 6 6 6 6 6 6 6 6 6 6 6 6 6 6 6 6 6 6 6 6 6 6 6 6 6 6 6 6 6 6 6 6 6 6 6 6 6 6 "
};
