/* XPM */
static char *mb_gate_stereo[] = {
/* columns rows colors chars-per-pixel */
"256 256 256 2 ",
"   c #0B0B0D",
".  c #070708",
"X  c #0D0D12",
"o  c #070711",
"O  c #0E1519",
"+  c #131416",
"@  c #15161B",
"#  c #1B151B",
"$  c #16191C",
"%  c #191A1F",
"&  c #191616",
"*  c #110D0F",
"=  c #2A1A1F",
"-  c #321A1E",
";  c #33171E",
":  c #1E241B",
">  c #162A18",
",  c #20261F",
"<  c #252B1B",
"1  c #293619",
"2  c #34351C",
"3  c #312C1B",
"4  c #191723",
"5  c #151B21",
"6  c #1B1C22",
"7  c #181826",
"8  c #181D2F",
"9  c #231E24",
"0  c #2C1D21",
"q  c #241D2A",
"w  c #2D1B2D",
"e  c #1E2026",
"r  c #1E2129",
"t  c #162928",
"y  c #1C2735",
"u  c #173433",
"i  c #222225",
"p  c #2C2125",
"a  c #23242C",
"s  c #2B252C",
"d  c #25292D",
"f  c #272A25",
"g  c #34272B",
"h  c #283129",
"j  c #242533",
"k  c #272931",
"l  c #2A2C35",
"z  c #25253A",
"x  c #27283B",
"c  c #2B2C3A",
"v  c #2A2637",
"b  c #362C35",
"n  c #2E313B",
"m  c #2B3736",
"M  c #31333D",
"N  c #3B333B",
"B  c #383837",
"V  c #37332C",
"C  c #5D3800",
"Z  c #5A3600",
"A  c #4A211E",
"S  c #543A12",
"D  c #6D2418",
"F  c #643903",
"G  c #462728",
"H  c #43243B",
"J  c #42343A",
"K  c #473A3B",
"L  c #593B3B",
"P  c #58272A",
"I  c #63322B",
"U  c #703434",
"Y  c #601D24",
"T  c #3D580D",
"R  c #344916",
"E  c #395512",
"W  c #30470F",
"Q  c #004E2D",
"!  c #0E402E",
"~  c #00512E",
"^  c #0C5237",
"/  c #04643B",
"(  c #2E5323",
")  c #425C0C",
"_  c #4F5211",
"`  c #764805",
"'  c #674C08",
"]  c #48670B",
"[  c #557A08",
"{  c #547216",
"}  c #4B443C",
"|  c #5A593D",
" . c #544839",
".. c #6C473A",
"X. c #5C633A",
"o. c #4C652B",
"O. c #61663B",
"+. c #736B10",
"@. c #173C45",
"#. c #19284B",
"$. c #282740",
"%. c #2C2C43",
"&. c #2B2A48",
"*. c #2E3649",
"=. c #333541",
"-. c #363944",
";. c #393A46",
":. c #3B3D4A",
">. c #393445",
",. c #333156",
"<. c #36335A",
"1. c #373D5B",
"2. c #302D4D",
"3. c #13297C",
"4. c #36356C",
"5. c #201D5E",
"6. c #741B53",
"7. c #473B46",
"8. c #493C46",
"9. c #453C4A",
"0. c #4A3E4A",
"q. c #443644",
"w. c #543C4A",
"e. c #563C46",
"r. c #4C3F53",
"t. c #443E54",
"y. c #502C4E",
"u. c #6C374B",
"i. c #493772",
"p. c #6B2D76",
"a. c #19424B",
"s. c #1B4755",
"d. c #0E4F5D",
"f. c #3E414D",
"g. c #354549",
"h. c #334A54",
"j. c #0A6D45",
"k. c #004F61",
"l. c #0F4D60",
"z. c #055665",
"x. c #1E5866",
"c. c #044C77",
"v. c #354767",
"b. c #03657B",
"n. c #146572",
"m. c #2A6C76",
"M. c #306153",
"N. c #4A4145",
"B. c #4D434B",
"V. c #484548",
"C. c #554345",
"Z. c #594446",
"A. c #55454A",
"S. c #5A4649",
"D. c #52494D",
"F. c #5B494C",
"G. c #564B43",
"H. c #5A5543",
"J. c #424552",
"K. c #4E4154",
"L. c #494959",
"P. c #514454",
"I. c #544B53",
"U. c #5B4D53",
"Y. c #514559",
"T. c #554B5B",
"R. c #5A4C5B",
"E. c #5C535C",
"W. c #585157",
"Q. c #46555B",
"!. c #664947",
"~. c #79444B",
"^. c #645444",
"/. c #634D56",
"(. c #635156",
"). c #66545A",
"_. c #68565B",
"`. c #794955",
"'. c #4A4766",
"]. c #584C65",
"[. c #4D5262",
"{. c #5A5468",
"}. c #474C77",
"|. c #485277",
" X c #595376",
".X c #68526D",
"XX c #5B6273",
"oX c #61695B",
"OX c #883835",
"+X c #943536",
"@X c #902E2C",
"#X c #A63B3D",
"$X c #AE392F",
"%X c #8F2A1A",
"&X c #894139",
"*X c #AE4139",
"=X c #825916",
"-X c #96196D",
";X c #94395A",
":X c #87474C",
">X c #964752",
",X c #924C4D",
"<X c #B34547",
"1X c #8C506F",
"2X c #AB526F",
"3X c #C54445",
"4X c #CF4D51",
"5X c #C55060",
"6X c #CC3F28",
"7X c #628A0E",
"8X c #5B9F58",
"9X c #9AAE1C",
"0X c #0E2B94",
"qX c #1E2B9A",
"wX c #703586",
"eX c #004983",
"rX c #004B87",
"tX c #005499",
"yX c #047D88",
"uX c #076A83",
"iX c #227787",
"pX c #266E8C",
"aX c #045DA7",
"sX c #0361B0",
"dX c #31659C",
"fX c #4A4789",
"gX c #534B95",
"hX c #565799",
"jX c #4F5190",
"kX c #6A5791",
"lX c #646A8B",
"zX c #5A58A7",
"xX c #4E5AAD",
"cX c #685DAF",
"vX c #5362B8",
"bX c #6861BB",
"nX c #7561B1",
"mX c #58668D",
"MX c #1238C1",
"NX c #5267D0",
"BX c #6C64C6",
"VX c #6D6AD0",
"CX c #5171EF",
"ZX c #6370E7",
"AX c #036AC1",
"SX c #8C3899",
"DX c #8D5C99",
"FX c #05818C",
"GX c #088493",
"HX c #138C98",
"JX c #138E98",
"KX c #228598",
"LX c #2394AB",
"PX c #139AAC",
"IX c #2AA0C6",
"UX c #7E829D",
/* pixels */
"6 6 6 6 6 6 6 6 6 6 6 6 6 6 6 6 6 6 6 6 6 6 6 6 6 6 6 6 6 6 6 6 6 6 6 6 6 6 6 6 6 6 6 6 6 6 6 6 6 6 6 6 6 6 6 6 6 6 6 6 6 6 6 6 6 6 6 6 6 6 6 6 6 6 6 6 6 6 6 6 6 6 6 6 6 6 6 6 6 6 6 6 6 6 6 6 6 6 6 6 6 6 6 6 6 6 6 6 6 6 6 6 6 6 6 6 6 6 6 6 6 6 6 6 6 6 6 6 6 6 6 6 6 6 6 6 6 6 6 6 6 6 6 6 6 6 6 6 6 6 6 6 6 6 6 6 6 6 6 6 6 6 6 6 6 6 6 6 6 6 6 6 6 6 6 6 6 6 6 6 6 6 6 6 6 6 6 6 6 6 6 6 6 6 6 6 6 6 6 6 6 6 6 6 6 6 6 6 6 6 6 6 6 6 6 6 6 6 6 6 6 6 6 6 6 6 6 6 6 6 6 6 6 6 6 6 6 6 6 6 6 6 6 6 6 6 6 6 6 6 6 6 6 6 6 6 ",
"6 6 6 6 6 6 6 6 6 % # % % 6 6 6 6 6 6 6 6 6 6 6 6 6 6 6 6 6 6 6 6 6 6 6 6 6 6 6 6 6 6 6 6 6 6 6 6 6 6 6 6 6 6 6 6 6 6 6 6 6 6 6 6 6 6 6 6 6 6 6 6 6 6 6 6 6 6 6 6 6 6 6 6 6 6 6 6 6 6 6 6 6 6 6 6 6 6 6 6 6 6 6 6 6 6 6 6 6 6 6 6 6 6 6 6 6 6 6 6 6 6 6 6 6 6 6 6 6 6 6 6 6 6 6 6 6 6 6 6 6 6 6 6 6 6 6 6 6 6 6 6 6 6 6 6 6 6 6 6 6 6 6 6 6 6 6 6 6 6 6 6 6 6 6 6 6 6 6 6 6 6 % 6 6 % 6 6 6 6 6 6 @ $ $ % % $ 6 6 6 6 % 6 6 6 @ 6 6 6 6 @ 6 6 6 6 @ $ % @ 6 6 % $ $ @ % $ $ % $ 6 $ @ 6 $ % 6 6 6 6 6 % 6 6 6 6 6 6 % 6 6 6 % % ",
"& & & % 6 6 6 % 4 y #.y 8 % 6 6 6 6 6 6 6 6 6 6 6 6 6 6 6 6 6 6 6 6 6 6 6 6 6 6 6 6 6 6 6 6 6 6 6 6 6 6 6 6 6 6 6 6 6 6 6 6 6 6 6 6 6 6 6 6 6 6 6 6 6 6 6 6 6 6 6 6 6 6 6 6 6 6 6 6 6 6 6 6 6 6 6 6 6 6 6 6 6 6 6 6 6 6 6 6 6 6 6 6 6 6 6 6 6 6 6 6 6 6 6 6 6 6 6 6 6 6 6 6 6 6 6 6 6 6 6 6 6 6 6 6 6 6 6 6 6 6 6 6 6 6 6 6 6 6 6 6 6 6 6 6 6 6 6 6 6 6 6 6 6 6 6 6 6 6 6 6 6 d 6 6 a a 6 a a e i M M n d d n 6 6 a 6 a 6 a a =.6 6 6 e M i 6 a a =.M k =.a % d c c =.l c l k M % l M % n k @ a i i a l i 6 6 k 6 6 y 6 r r y y ",
"s.s.s.y # 6 % y M.8X8X8XM.s.r % 6 6 6 6 6 6 6 6 6 6 6 6 6 6 6 6 6 6 6 6 6 6 6 6 6 6 6 6 6 6 6 6 6 6 6 6 6 6 6 6 6 6 6 6 6 6 6 6 6 6 6 6 6 6 6 6 6 6 6 6 6 6 6 6 6 6 6 6 6 6 6 6 6 6 6 6 6 6 6 6 6 6 6 6 6 6 6 6 6 6 6 6 6 6 6 6 6 6 6 6 6 6 6 6 6 6 6 6 6 6 6 6 6 6 6 6 6 6 6 6 6 6 6 6 6 6 6 6 6 6 6 6 6 6 6 6 6 6 6 6 6 6 6 6 6 6 6 6 6 6 6 6 6 6 6 6 6 6 6 6 6 6 6 6 6 6 + XXf.J.XXL.l L.J.:.% XX[.[.J.[.lXf.a lXe lX-.J.[.{.[.6 r {.[.k c lXe XXL.[.XXa i lX;.:.lX:.lX;.[.XXJ.XXJ.f.{.{.k a {.L.;.lXL.@ a M % e iXr m.s.n.m.",
"IXIXIXLXu # y M.9X8Xo.o.9X8X@.e 6 6 6 6 6 6 6 6 6 6 6 6 6 6 6 6 6 6 6 6 6 6 6 6 6 6 6 6 6 6 6 6 6 6 6 6 6 6 6 6 6 6 6 6 6 6 6 6 6 6 6 6 6 6 6 6 6 6 6 6 6 6 6 6 6 6 6 6 6 6 6 6 6 6 6 6 6 6 6 6 6 6 6 6 6 6 6 6 6 6 6 6 6 6 6 6 6 6 6 6 6 6 6 6 6 6 6 6 6 6 6 6 6 6 6 6 6 6 6 6 6 6 6 6 6 6 6 6 6 6 6 6 6 6 6 6 6 6 6 6 6 6 6 6 6 6 6 6 6 6 6 6 6 6 6 6 6 6 6 6 6 6 6 6 6 6 @ {.{.XX[.[.a [.J.;.. J.M ;.-.[.XXJ.J.UXf.{.XX[.[.6 {.a M L.-.J.L.UXl f.n L.[.e 6 J.L.e [.a XXl [.lX:.XXM {.6 f.L.. XX{.k lXL.@ i n % r iXx.m.s.x.n.",
"x.x.iXIXn.& h.9Xo.O 4 O 4 M.iX@.% 6 6 6 6 6 6 6 6 6 6 6 6 6 6 6 6 6 6 6 6 6 6 6 6 6 6 6 6 6 6 6 6 6 6 6 6 6 6 6 6 6 6 6 6 6 6 6 6 6 6 6 6 6 6 6 6 6 6 6 6 6 6 6 6 6 6 6 6 6 6 6 6 6 6 6 6 6 6 6 6 6 6 6 6 6 6 6 6 6 6 6 6 6 6 6 6 6 6 6 6 6 6 6 6 6 6 6 6 6 6 6 6 6 6 6 6 6 6 6 6 6 6 6 6 6 6 6 6 6 6 6 6 6 6 6 6 6 6 6 6 6 6 6 6 6 6 6 6 6 6 6 6 6 6 6 6 6 6 6 6 6 6 6 6 6 % J.{.{.J.J.XXJ.:.XXk J.-.L.J.L.XXL.[.f.XXJ.J.XXL.XX[.% i {.{.[.[.J.L.J.M L.{.a 6 J.XXk [.k XX=.L.[.J.XX:.:.{.{.a k [.L.L.XX[.% i M % r x.n.x.s.x.x.",
"* * u IXx.8 m.M.4 e % u s.@ iXs.r 6 6 6 6 6 6 6 6 6 6 6 6 6 6 6 6 6 6 6 6 6 6 6 6 6 6 6 6 6 6 6 6 6 6 6 6 6 6 6 6 6 6 6 6 6 6 6 6 6 6 6 6 6 6 6 6 6 6 6 6 6 6 6 6 6 6 6 6 6 6 6 6 6 6 6 6 6 6 6 6 6 6 6 6 6 6 6 6 6 6 6 6 6 6 6 6 6 6 6 6 6 6 6 6 6 6 6 6 6 6 6 6 6 6 6 6 6 6 6 6 6 6 6 6 6 6 6 6 6 6 6 6 6 6 6 6 6 6 6 6 6 6 6 6 6 6 6 6 6 6 6 6 6 6 6 6 6 6 6 6 6 6 6 6 6 6 r 6 6 e 6 c 6 6 n a 6 6 d a a c 6 e @ a a 6 i a c 6 6 6 e c i 6 @ a i 6 i n i 6 c i 6 a 6 l l e 6 a k c % l a $ a 6 6 e k 6 6 6 a 6 6 r 6 e 6 y y ",
"y y x.IXn.& @.KXiX% 6 r e & n.m.r % 6 6 6 6 6 6 6 6 6 6 6 6 6 6 6 6 6 6 6 6 6 6 6 6 6 6 6 6 6 6 6 6 6 6 6 6 6 6 6 6 6 6 6 6 6 6 6 6 6 6 6 6 6 6 6 6 6 6 6 6 6 6 6 6 6 6 6 6 6 6 6 6 6 6 6 6 6 6 6 6 6 6 6 6 6 6 6 6 6 6 6 6 6 6 6 6 6 6 6 6 6 6 6 6 6 6 6 6 6 6 6 6 6 6 6 6 6 6 6 6 6 6 6 6 6 6 6 6 6 6 6 6 6 6 6 6 6 6 6 6 6 6 6 6 6 6 6 6 6 6 6 6 6 6 6 6 6 6 6 6 6 6 6 6 6 6 6 6 6 6 $ 6 6 $ % 6 6 % 6 6 $ 6 6 6 6 6 6 6 6 $ 6 6 6 6 $ 6 6 6 6 6 6 6 @ 6 6 $ 6 6 6 6 $ % 6 6 6 % $ 6 % 6 6 6 6 6 6 % 6 6 6 6 6 6 6 6 6 6 % % ",
"IXIXIXIXa.6 m.IXLX6 # % 6 # n.x.r % 6 6 6 6 6 6 6 6 6 6 6 6 6 6 6 6 6 6 6 6 6 6 6 6 6 6 6 6 6 6 6 6 6 6 6 6 6 6 6 6 6 6 6 6 6 6 6 6 6 6 6 6 6 6 6 6 6 6 6 6 6 6 6 6 6 6 6 6 6 6 6 6 6 6 6 6 6 6 6 6 6 6 6 6 6 6 6 6 6 6 6 6 6 6 6 6 6 6 6 6 6 6 6 6 6 6 6 6 6 6 6 6 6 6 6 6 6 6 6 6 6 6 6 6 6 6 6 6 6 6 6 6 6 6 $ 6 6 6 6 6 6 6 6 6 6 6 6 6 6 6 6 6 6 6 6 6 6 6 6 6 6 6 6 6 6 6 6 6 6 6 6 6 6 6 6 6 6 6 6 6 6 6 6 6 6 6 6 6 6 6 6 6 6 4 6 6 6 6 6 6 6 6 6 6 6 6 6 6 6 6 6 6 6 6 6 6 6 6 6 % % % 6 % 6 6 % % % % 6 6 6 6 6 6 6 6 ",
"iXiXiXs.# y iXm.IXm.y r # y KXs.6 6 6 6 6 6 6 6 6 6 6 6 6 6 6 6 6 6 6 6 6 6 6 6 6 6 6 6 6 6 6 6 6 6 6 6 6 6 6 6 6 6 6 6 6 6 6 6 6 6 6 6 6 6 6 6 6 6 6 6 6 6 6 6 6 6 6 6 6 6 6 6 6 6 6 6 6 6 6 6 6 6 6 6 6 6 6 6 6 6 6 6 6 6 6 6 6 6 6 6 6 6 6 6 6 6 6 6 6 6 6 6 e 6 6 6 6 6 6 6 6 6 6 6 6 6 6 6 6 6 6 6 6 6 6 6 n a $ 6 c $ % % 6 a 6 6 6 % 6 6 % % 6 6 % a 6 6 6 6 6 6 6 6 6 6 6 6 6 6 6 6 6 6 6 6 6 6 6 r % 6 6 6 6 6 6 6 6 6 6 6 4 Q > 4 6 6 % # # # 6 6 6 r l.d.t 6 6 6 6 6 6 6 6 6 6 y y y 6 k a e k l l l 6 a d 6 a 6 6 6 ",
"* # # # 6 6 & m.IXLXIXn.e m.m.u % 6 6 6 6 6 6 6 6 6 6 6 6 6 6 6 6 6 6 6 6 6 6 6 6 6 6 6 6 6 6 6 6 6 6 6 6 6 6 6 6 6 6 6 6 6 6 6 6 6 6 6 6 6 6 6 6 6 6 6 6 6 6 6 6 6 6 6 6 6 6 6 6 6 6 6 6 6 6 6 6 6 6 6 6 6 6 6 6 6 6 6 6 6 6 6 6 6 6 6 6 6 6 6 6 6 6 6 6 6 e @.r 6 6 6 6 6 6 6 6 6 6 6 6 6 6 6 6 6 6 6 6 6 $ c J.i :.:.;.;.-.M :.J.% -.:.M ;.=.:.:.c M :.L.l % 6 6 6 6 6 6 6 6 6 6 6 6 6 6 6 6 6 6 6 6 % u u % 6 6 6 6 6 6 6 6 6 6 e / ! 4 6 6 y @.@.d.e 6 % t n.n.u # 6 6 6 6 6 6 6 6 e x.x.x.5 :.:.=.J.J.c L.;.=.:.a :.6 6 r ",
"# e 6 6 6 6 e iXa.KXLXiXm.iX@.6 6 6 6 6 6 6 6 6 6 6 6 6 6 6 6 6 6 6 6 6 6 6 6 6 6 6 6 6 6 6 6 6 6 6 6 6 6 6 6 6 6 6 6 6 6 6 6 6 6 6 6 6 6 6 6 6 6 6 6 6 6 6 6 6 6 6 6 6 6 6 6 6 6 6 6 6 6 6 6 6 6 6 6 6 6 6 6 6 6 6 6 6 6 6 6 6 6 6 6 6 6 6 6 6 6 6 6 6 6 % y a.6 6 6 6 6 6 6 6 6 6 6 6 6 6 6 6 6 6 6 6 6 6 6 6 M J.L.;.L.L.J.;.a -.@ :.M L.n L.:.-.:.L.:.J.6 6 6 6 6 6 6 6 6 6 6 6 6 6 6 6 6 6 6 6 6 6 % y a.% 6 6 6 6 6 6 6 6 6 4 ! ~ ~ e 6 % u s.s.z.e 6 % y z.z.@.# 6 6 6 6 6 6 6 6 e x.x.x.6 M J.J.;.f.k =.J.J.;.d :.6 6 r ",
"6 6 6 6 6 6 6 # # iX@.s.x.u 6 6 6 6 6 6 6 6 6 6 6 6 6 6 6 6 6 6 6 6 6 6 6 6 6 6 6 6 6 6 6 6 6 6 6 6 6 6 6 6 6 6 6 6 6 6 6 6 6 6 6 6 6 6 6 6 6 6 6 6 6 6 6 6 6 6 6 6 6 6 6 6 6 6 6 6 6 6 6 6 6 6 6 6 6 6 6 6 6 6 6 6 6 6 6 6 6 6 6 6 6 6 6 6 6 6 6 6 6 6 6 6 % y r 6 6 6 6 6 6 6 6 6 6 6 6 6 6 6 6 6 6 6 6 6 6 a -.M -.c M -.l -.M -.6 J.:.n a M M c ;.=.c M l % 6 6 6 6 6 6 6 6 6 6 6 6 6 6 6 6 6 6 6 6 6 y 6 6 6 6 6 6 6 6 6 6 6 6 > 6 > e 6 6 % # # # 6 6 6 6 a.@.6 6 6 6 6 6 6 6 6 6 6 a.s.a.6 k =.=.l ;.M c d :.l f.l % 6 6 ",
"6 6 6 6 6 6 6 6 6 6 6 6 e % 6 6 6 6 6 6 6 6 6 6 6 6 6 6 6 6 6 6 6 6 6 6 6 6 6 6 6 6 6 6 6 6 6 6 6 6 6 6 6 6 6 6 6 6 6 6 6 6 6 6 6 6 6 6 6 6 6 6 6 6 6 6 6 6 6 6 6 6 6 6 6 6 6 6 6 6 6 6 6 6 6 6 6 6 6 6 6 6 6 6 6 6 6 6 6 6 6 6 6 6 6 6 6 6 6 6 6 6 6 6 6 6 6 6 6 6 6 6 6 6 6 6 6 6 6 6 6 6 6 6 6 6 6 6 6 6 6 6 6 % 6 6 % 6 6 6 6 6 6 -.6 % 6 6 6 6 6 6 6 6 6 6 6 6 6 6 6 6 6 6 6 6 6 6 6 6 6 6 6 6 6 6 6 % 6 6 6 6 6 6 6 6 6 6 6 6 4 6 6 6 6 6 6 6 6 6 6 6 6 6 # # 6 6 6 6 6 6 6 6 6 6 6 % % % 6 6 % % 6 6 6 6 6 % 6 6 6 6 6 6 ",
"% % % % % % % % % % 6 % % 6 % % % % % % % % % % % % % % % % % % % % % % % % % % % % % % % % % % % % % % % % % % % % % % % % % % % % % % % % % % % % % % % % % % % % % % % % % % % % % % % % % % % % % % % % % % % % % % % % % % % % % % % % % % % % % % % % % 6 6 % % % % % % % % % % % % % % % % % % % % % % % % 6 6 % 6 6 % 6 % 6 % 6 6 6 % 6 % % 6 6 % 6 % % % % % % % % % % % % % % % % % % % % % % % 6 % % % % % % % % % % % % % % % % % % % % % % % % % % 6 6 % % % % % % % % % % % 6 6 6 % 6 6 6 6 6 % 6 6 6 6 % 6 % % % ",
"d d d d d d d d d d d d d d d d d d d d d d d d d d d d d d d d d d d d d d d d d d d d d d d d d d d d d d d d d d d d d d d d d d d d d d d d d d d d d d d d d d d d d d d d d d d d d d d d d d d d d d d d d d d d d d d d d d d d d d d d d d d d d d d d d d d d d d d d d d d d d d d d d d d d d d d d d d d d d d d d d d d d d d d d d d d d d d d d d d d d d d d d d d d d d d d d d d d d d d d d d d d d d d d d d d d d d d d d d d d d d d d d d d d d d d d d d d d d k k k k k k k k k k k k k k k k k k k k ",
"k k k k k k k k k k k k k k k k k k k k k k k k k k k k k k k k k k k k k k k k k k k k k k k k k k k k k k k k k k k k k k k k k k k k k k k k k k k k k k k k k k k k k k k k k k k k k k k k k k k k k k k k k k k k k k k k k k k k k k k k k k k k k k k k k k k k k k k k k k k k k k k k k k k k k k k k k k k k k k k k k k k k k k k k k k k k k k k k k k k k k k k k k k k k k k k k k k k k k k k k k k k k k k k k k k k k k k k k k k k k k k k k k k k k k k k k k k k k d d d d d d d d d d d d d d d d d d d d ",
"6 % % 6 % 6 % 6 6 % % % % % % % % % % % % % % % % % % % % % % % % % % % % % % % % % % % % % % % % % % % % % % % % % % % % % % % % % % % % % % % % % % % % % % % % % % % % % % % % % % % % % % % % % % % % % % % % % % % % % % % % % % % % % % % % % % % % % % % % % % % % % % % % % % % % % % % % % % % % % % % % % % % % % % % % % % % % % % % % % % % % % % % % % % % % % % % % % % % % % % % % % % % % % % % % % % % % % % % $ @ @ @ % % % % % % % % 6 % % % % % % % 6 6 % % 6 6 % 6 k k k k k k k k k k k k k k k k k k k k ",
"6 6 6 6 6 6 6 6 % 6 6 6 6 6 6 6 6 6 6 6 6 6 6 6 6 6 6 6 6 6 6 6 6 6 6 6 6 6 6 6 6 6 6 6 6 6 6 6 6 6 6 6 6 6 6 6 6 6 6 6 6 6 6 6 6 6 6 6 6 6 6 6 6 6 6 6 6 6 6 6 6 6 6 6 6 6 6 6 6 6 6 6 6 6 6 6 6 6 6 6 6 6 6 6 6 6 6 6 6 6 6 6 6 6 6 6 6 6 6 6 6 6 6 6 6 6 6 6 6 6 6 6 6 6 6 6 6 6 6 6 6 6 6 6 6 6 6 6 6 6 6 6 6 6 6 6 6 6 6 6 6 6 6 6 6 6 6 6 6 6 6 6 6 6 6 6 6 6 6 6 6 6 6 6 6 6 6 6 6 6 6 6 6 6 6 6 6 6 6 6 6 6 6 6 6 6 6 6 a l l l e 6 6 6 6 6 6 6 6 6 6 6 6 6 6 6 6 6 6 6 6 6 6 a f.:.:.f.f.:.f.:.f.:.f.f.f.f.:.a a a a a ",
"l M l :.a n a ;.M d d a 6 6 6 6 6 6 6 6 6 6 6 6 6 6 6 6 6 6 6 6 6 6 6 6 6 6 6 6 6 6 6 6 6 6 6 6 6 6 6 6 6 6 6 6 6 6 6 6 6 6 6 6 6 6 6 6 6 6 6 6 6 6 6 6 6 6 6 6 6 6 6 6 6 6 6 6 6 6 6 6 6 6 6 6 6 6 6 6 6 6 6 6 6 6 6 6 6 6 6 6 6 6 6 6 6 6 6 6 6 6 6 6 6 6 6 6 6 6 6 6 6 6 6 6 6 6 6 6 6 6 6 6 6 6 6 6 6 6 6 6 6 6 6 6 6 6 6 6 6 6 6 6 6 6 6 6 6 6 6 6 6 6 6 6 6 6 6 6 6 6 6 6 6 6 6 6 6 6 6 6 6 6 6 6 6 6 6 6 6 6 6 6 6 6 6 % =.{.{.J.k % 6 6 6 6 6 a =.e i 6 6 6 6 6 -.M 6 6 k k % a :.J.[.J.:.J.:.J.:.:.L.J.;.:.-.6 % 6 6 6 ",
";.d ;.L.c L.-.J.-.f.J.d % 6 6 6 6 6 6 6 6 6 6 6 6 6 6 6 6 6 6 6 6 6 6 6 6 6 6 6 6 6 6 6 6 6 6 6 6 6 6 6 6 6 6 6 6 6 6 6 6 6 6 6 6 6 6 6 6 6 6 6 6 6 6 6 6 6 6 6 6 6 6 6 6 6 6 6 6 6 6 6 6 6 6 6 6 6 6 6 6 6 6 6 6 6 6 6 6 6 6 6 6 6 6 6 6 6 6 6 6 6 6 6 6 6 6 6 6 6 6 6 6 6 6 6 6 6 6 6 6 6 6 6 6 6 6 6 6 6 6 6 6 6 6 6 6 6 6 6 6 6 6 6 6 6 6 6 6 6 6 6 6 6 6 6 6 6 6 6 6 6 6 6 6 6 6 6 6 6 6 6 6 6 6 6 6 6 6 6 6 6 6 6 6 6 6 @ L.L.6 {.a 6 6 6 6 6 6 a -.:.;.6 6 6 $ n l c f.k J.n @ a :.J.{.[.{.{.{.{.L.{.XXJ.;.:.-.6 6 6 6 6 ",
"=.;.J.-.:.=.J.M 6 =.M d % 6 6 6 6 6 6 6 6 6 6 6 6 6 6 6 6 6 6 6 6 6 6 6 6 6 6 6 6 6 6 6 6 6 6 6 6 6 6 6 6 6 6 6 6 6 6 6 6 6 6 6 6 6 6 6 6 6 6 6 6 6 6 6 6 6 6 6 6 6 6 6 6 6 6 6 6 6 6 6 6 6 6 6 6 6 6 6 6 6 6 6 6 6 6 6 6 6 6 6 6 6 6 6 6 6 6 6 6 6 6 6 6 6 6 6 6 6 6 6 6 6 6 6 6 6 6 6 6 6 6 6 6 6 6 6 6 6 6 6 6 6 6 6 6 6 6 6 6 6 6 6 6 6 6 6 6 6 6 6 6 6 6 6 6 6 6 6 6 6 6 6 6 6 6 6 6 6 6 6 6 6 6 6 6 6 6 6 6 6 6 6 6 6 6 $ ;.[.{.UXl % 6 6 6 6 6 a f.n M r 6 6 % d -.=.-.:.:.l $ a :.:.[.XX[.{.{.L.{.XXXXJ.;.:.M 6 6 6 6 6 ",
"6 d 6 6 a @ 6 6 6 6 6 6 6 6 6 6 6 6 6 6 6 6 6 6 6 6 6 6 6 6 6 6 6 6 6 6 6 6 6 6 6 6 6 6 6 6 6 6 6 6 6 6 6 6 6 6 6 6 6 6 6 6 6 6 6 6 6 6 6 6 6 6 6 6 6 6 6 6 6 6 6 6 6 6 6 6 6 6 6 6 6 6 6 6 6 6 6 6 6 6 6 6 6 6 6 6 6 6 6 6 6 6 6 6 6 6 6 6 6 6 6 6 6 6 6 6 6 6 6 6 6 6 6 6 6 6 6 6 6 6 6 6 6 6 6 6 6 6 6 6 6 6 6 6 6 6 6 6 6 6 6 6 6 6 6 6 6 6 6 6 6 6 6 6 6 6 6 6 6 6 6 6 6 6 6 6 6 6 6 6 6 6 6 6 6 6 6 6 6 6 6 6 6 6 6 6 6 % c -.;.{.k % 6 6 6 6 6 6 a 6 6 6 6 6 6 6 a a 6 d 6 a % a :.J.L.f.J.XXL.f.J.J.J.f.:.:.a 6 6 6 6 6 ",
"a e a a i a i a a a a a a a a a a a a a a a a a a a a a a a a a a a a a a a a a a a a a a a a a a a a a a a a a a a a a a a a a a a a a a a a a a a a a a a a a a a a a a a a a a a a a a a a a a a a a a a a a a a a a a a a a a a a a a a a a a a a a a a a a a a a a a a a a a a a a a a a a a a a a a a a a a a a a a a a a a a a a a a a a a a a a a a a a a a a a a a a a a a a a a a a a a a a a a a a a i 6 6 6 6 6 6 6 6 6 e @ % 6 6 6 6 6 6 6 5 6 6 6 6 6 6 6 5 6 6 % 6 6 6 a =.c c c M M c n c c c n l i 6 6 6 6 6 6 ",
"l l l l l l l l l l l l l l l l l l l l l l l l l l l l l l l l l l l l l l l l l l l l l l l l l l l l l l l l l l l l l l l l l l l l l l l l l l l l l l l l l l l l l l l l l l l l l l l l l l l l l l l l l l l l l l l l l l l l l l l l l l l l l l l l l l l l l l l l l l l l l l l l l l l l l l l l l l l l l l l l l l l l l l l l l l l l l l l l l l l l l l l l l l l l l l l l l l l l l l l l l l 6 6 6 6 6 6 i n l n 6 6 6 6 6 6 6 6 6 6 6 6 6 6 6 6 6 6 6 6 6 6 % a k @ 6 6 % $ 6 % % 6 % % % 6 6 6 6 6 6 6 ",
"% 6 6 % % % % % % % % % % 6 6 % % % % % % 6 6 % % % % 6 6 % % % 6 6 % % 6 6 % % 9 9 < < e % % e % % % % % % % % % % % % % % % % % % 6 6 % % % % % % % % % 6 e % $ l j 6 6 6 6 % % % % % 6 6 % % % 6 6 % % 6 6 % % 6 6 % 6 6 $ 6 6 % % % % % % % % % % % % % % % % % 6 6 % % % % % % % % % % 6 6 % % % % % % 6 6 % % % % 6 6 % % % 6 6 % % % 6 % % 6 6 % % 6 % % e % % % % % % % % % % % % % % % % % % 6 6 6 6 6 j *.k 6 6 6 6 % a l $ n 6 6 6 6 6 6 0 - - = - - = 6 6 0 - - = - - - % a l 6 6 6 6 6 6 6 6 6 6 6 6 6 6 6 6 6 6 6 ",
"6 6 a 6 6 6 6 6 6 6 6 6 6 a 6 6 6 6 6 6 6 a 6 6 6 6 5 e e 6 6 6 e a 5 6 6 a 6 9 s s 2 2 d : e d 6 6 6 6 6 6 6 6 6 6 6 6 6 6 6 6 6 6 a e 6 6 6 6 6 6 6 6 6 6 d i : :.2.a a a a 6 6 6 6 6 a 6 6 6 6 a 6 6 6 a i 6 6 a 6 6 a i % a a 6 6 6 6 6 6 6 6 6 6 6 6 6 6 6 6 6 6 a 6 6 6 6 6 6 6 6 6 6 a 6 6 6 6 6 6 6 a 6 6 6 6 6 e a 6 6 6 6 a 6 6 6 a 6 6 e a 6 6 a 6 6 k 6 6 6 6 6 6 6 6 6 6 6 6 6 6 6 6 6 6 a i 6 a a &.<.l 6 6 6 6 6 a k $ c 6 6 6 6 6 6 0 - - = - - = 6 6 0 - - = - - 0 % a k % 6 6 6 6 6 6 # # # # # # 6 6 6 6 6 6 ",
"6 6 a 6 6 6 6 6 6 6 6 6 6 a 6 6 6 6 6 6 6 a 6 6 6 6 s N N N q.q.q.>.N N q.N 6 9 p s 2 2 f : e d 6 6 6 6 6 6 6 6 6 6 6 6 6 6 6 6 6 6 a 6 6 6 6 6 6 6 6 6 6 6 a e : ;.2.a a a a 6 6 6 6 6 a 6 6 6 6 a 6 6 6 i i 6 6 a 6 6 i e % a a 6 6 6 6 6 6 6 6 6 6 6 6 6 6 6 6 6 6 a 6 6 6 6 6 6 6 6 6 6 a 6 6 6 6 6 6 6 a 6 6 6 6 6 6 a 6 6 6 6 a 6 6 6 a 6 6 6 a 6 6 a 6 6 d 6 6 6 6 6 6 6 6 6 6 6 6 6 6 6 6 6 6 i i 6 a a %.,.l 6 6 6 6 6 a M l M 6 6 6 6 6 6 0 - - = - - = 6 6 0 - - = - - 0 % a k % 6 6 6 6 6 # @.x.m.m.x.u & 6 6 6 6 6 ",
"6 6 a 6 6 6 6 6 6 6 6 6 6 a 6 6 6 6 6 6 6 a 6 6 6 6 N B.B.8.8.8.0.B.8.8.0.7.% 6 p s 2 2 f : e d 6 6 6 6 6 6 6 6 6 6 6 6 6 6 6 6 6 6 a 6 6 6 6 6 6 6 6 6 6 6 d e : :.2.a a a a 6 6 6 6 6 a 6 6 6 6 a 6 6 6 i i 6 6 a 6 6 i i % a a 6 6 6 6 6 6 6 6 6 6 6 6 6 6 6 6 6 6 a 6 6 6 6 6 6 6 6 6 6 a 6 6 6 6 6 6 6 a 6 6 6 6 6 e a 6 6 6 6 a 6 6 6 a 6 6 6 a 6 6 a 6 6 d 6 6 6 6 6 6 6 6 6 6 6 6 6 6 6 6 6 6 i i 6 a a %.,.l 6 6 6 6 6 a c a M 6 6 6 6 6 6 0 - - = - - = 6 6 0 - - = - - 0 % a k % 6 6 6 6 % x.KXLXiXiXLXKXx.6 6 6 6 6 ",
"6 6 a 6 6 6 6 6 6 6 6 6 6 a 6 6 6 6 6 6 6 a 6 6 6 6 N 0.0.7.7.7.8.0.7.7.8.0.l s p s 2 2 f : e d 6 6 6 6 6 6 6 6 6 6 6 6 6 6 6 6 6 6 a 6 6 6 6 6 6 6 6 6 6 6 d e : :.2.a a a a 6 6 6 6 6 a 6 6 6 6 a 6 6 6 i i 6 6 a 6 6 i i % a a 6 6 6 6 6 6 6 6 6 6 6 6 6 6 6 6 6 6 a 6 6 6 6 6 6 6 6 6 6 a 6 6 6 6 6 6 6 a 6 6 6 6 6 e a 6 6 6 6 a 6 6 6 a 6 6 6 a 6 6 a 6 6 d 6 6 6 6 6 6 6 6 6 6 6 6 6 6 6 6 6 6 i i 6 a a %.,.l 6 6 6 6 6 a k $ c 6 6 6 6 6 6 0 - - = - - = 6 6 0 - - = - - 0 % a k % 6 6 6 % n.LXx.$     $ x.IXm.% 6 6 6 ",
"6 6 a 6 6 6 6 6 6 6 6 6 6 a 6 6 6 6 6 6 6 a 6 6 6 6 q.0.0.7.7.7.0.B.7.7.7.B.0.J p s 2 2 f : e d 6 6 6 6 6 6 6 6 6 6 6 6 6 6 6 6 6 6 a 6 6 6 6 6 6 6 6 6 6 6 d e : :.2.a a a a 6 6 6 6 6 a 6 6 6 6 a 6 6 6 i i 6 6 a 6 6 i i % a a 6 6 6 6 6 6 6 6 6 6 6 6 6 6 6 6 6 6 a 6 6 6 6 6 6 6 6 6 6 a 6 6 6 6 6 6 6 a 6 6 6 6 6 e a 6 6 6 6 a 6 6 6 a 6 6 6 a 6 6 a 6 6 d 6 6 6 6 6 6 6 6 6 6 6 6 6 6 6 6 6 6 i i 6 a a %.,.l 6 6 6 6 6 a l % n 6 6 6 6 6 6 0 - - = - - = 6 6 0 - - = - - 0 % a k % 6 6 # a.KXx.. + a d @ . x.KXa.# 6 6 ",
"6 6 a 6 6 6 6 6 6 6 6 6 6 a 6 6 6 6 6 6 6 a s N N N 7.0.0.7.7.7.0.B.7.7.7.B.8.J s s 2 2 f : e d 6 6 6 6 6 6 6 6 6 6 6 6 6 6 6 6 6 6 a 6 6 6 6 6 6 6 6 6 6 6 d e : :.2.a a a a 6 6 6 6 6 a 6 6 6 6 a 6 6 6 i i 6 6 a 6 6 i i % a a 6 6 6 6 6 6 6 6 6 6 6 6 6 6 6 6 6 6 a 6 6 6 6 6 6 6 6 6 6 a 6 6 6 6 6 6 6 a 6 6 6 6 6 e a 6 6 6 6 a 6 6 6 a 6 6 6 a 6 6 a 6 6 d 6 6 6 6 6 6 6 6 6 6 6 6 6 6 6 6 6 6 i i 6 a a %.,.l 6 6 6 6 6 a l % n 6 6 6 6 6 6 0 - - = - - = 6 6 0 - - = - - 0 % a k % 6 6 # iXKX  $ M =.-.:.6   KXiX# 6 6 ",
"6 6 a 6 6 6 6 6 6 6 6 6 6 a 6 6 6 6 6 6 6 r l 0.8.0.7.0.0.7.7.7.0.B.7.7.7.B.8.q.p w 2 2 f : e d 6 6 6 6 6 6 6 6 6 6 6 6 6 6 6 6 6 6 a 6 6 6 6 6 6 6 6 6 6 6 d e : :.2.a a a a 6 6 6 6 6 a 6 6 6 6 a 6 6 6 i i 6 6 a 6 6 i i % a a 6 6 6 6 6 6 6 6 6 6 6 6 6 6 6 6 6 6 a 6 6 6 6 6 6 6 6 6 6 a 6 6 6 6 6 6 6 a 6 6 6 6 6 e a 6 6 6 6 a 6 6 6 a 6 6 6 a 6 6 a 6 6 d 6 6 6 6 6 6 6 6 6 6 6 6 6 6 6 6 6 6 i i 6 a a %.,.l 6 6 6 6 6 a l % n 6 6 6 6 6 6 0 - - = - - = 6 6 0 - - = - - 0 % a k % 6 6 r KXx.. k M M M M l . x.KXr 6 6 ",
"6 6 a 6 6 6 6 6 6 6 6 6 6 a 6 6 6 6 6 6 6 i b 8.7.7.7.0.0.7.7.7.0.B.7.7.7.B.8.8.N b 2 2 f : e d 6 6 6 6 6 6 6 6 6 6 6 6 6 6 6 6 6 6 a e 6 6 6 6 6 6 6 6 6 6 d e : :.2.a a a a 6 6 6 6 6 a 6 6 6 6 a 6 6 6 i i 6 6 a 6 6 i i % a a 6 6 6 6 6 6 6 6 6 6 6 6 6 6 6 6 6 6 a 6 6 6 6 6 6 6 6 6 6 a 6 6 6 6 6 6 6 a 6 6 6 6 6 e a 6 6 6 6 a 6 6 6 a 6 6 6 a 6 6 a 6 6 d 6 6 6 6 6 6 6 6 6 6 6 6 6 6 6 6 6 6 a a 6 a j &.,.l 6 6 6 6 6 a l % n 6 6 6 6 6 6 0 - - = - - = 6 6 0 - - = - - 0 % a k % 6 % r KXs.. k c M l i r . @.m.r 6 6 ",
"6 6 a 6 6 6 6 6 6 6 6 6 % a 6 6 6 6 6 6 6 r b 8.7.7.7.0.0.7.7.7.8.0.7.7.7.B.7.8.A.0.2 1 f : e d 6 6 6 6 6 6 4 4 4 4 4 4 4 4 4 4 4 4 8 7 4 4 4 6 6 6 6 6 6 6 a : : ;.&.8 8 r a % 6 6 6 6 a 6 6 6 6 a 6 6 6 e e 6 6 a 6 % e e % a i % 6 6 6 6 6 6 6 6 6 6 6 6 6 6 6 6 6 a 6 6 6 6 6 6 6 6 6 6 a 6 6 6 6 6 6 % a 6 6 6 6 6 6 i % 6 6 6 a 6 6 6 a 6 6 6 i % 6 a 6 6 a 6 6 6 6 6 6 6 6 6 6 6 $ @ & & & & + % % @ 6 6 z ,.l 6 6 6 6 6 a l % n 6 6 6 6 6 6 0 - - = - - = 6 6 0 - - = - - 0 % a k % 6 6 6 KXiX. a c c n =.k   x.n.6 6 6 ",
"e i d 6 e e e e e e e e 6 d a e e e e e e a N 0.0.0.0.B.B.0.0.0.0.B.0.0.0.B.0.0.A.w.} } d i i d 6 7 7 7 6 i , < < 1 1 1 1 1 1 1 1 1 1 1 < < , i 6 7 7 7 6 i d i , :.2.j j a d 6 e e e e d i e e 6 d a e 6 a a 6 e d i 6 a a 6 d a 6 e e e e e e e e e e e e e e e e i d e e e e e e e e e e d i e e e e e 6 d a e e e 6 a a 6 e e i d 6 e e d e 6 a d 6 e d e e k e e e e e e e i 6 $ 6 x 2.,.<.<.<.<.4.4.4.4.4.i.4.k 6 6 6 6 6 a l % n 6 6 6 6 6 6 0 - - = - - = 6 6 0 - - = - - 0 % a k % 6 6 & n.KX$ . a l c k   $ n.s.# 6 6 ",
"a d l a a a a a a a a a a k d a a a a a a k >.B.B.B.B.B.K.B.B.B.B.K.B.B.B.P.B.B.A.P.!.H.B B 0.;.n 2 E ) ) T T E E E E E E R R R E E E E E E T T ) ) E 2 a q l f f :.,.v v k l a a a a a l a a a a l d a a k k a a l a a k k a k k a a a a a a a a a a a a a a a a a a l a a a a a a a a a a l a a a a a a a k d a a a a d k a a a a l a a a l a a d k a a l a a l a a a a a a a e c fXzXfXfXfXi.i.i.i.}.}.i.fXfXgX4.k 6 6 6 6 6 a l % n 6 6 6 6 6 6 0 - - = - - = 6 6 0 - - = - - 0 % a k % 6 6 % r KXKX5   + +   5 n.n.r 6 6 6 ",
"6 6 a % 6 6 6 6 6 6 6 6 % i 6 % 6 6 % % $ e N 8.7.7.7.0.0.7.7.7.8.0.7.7.7.B.7.8.0.w.Z.G.B.8.N.H.X.E W 1 < , e e e e e e e 6 6 6 e 6 a i e e e : , 1 W E T R f 6 : ;.&.8 8 r a % 6 6 6 6 a 6 6 6 % a 6 6 % e e % 6 a 6 % e e $ i i % 6 6 6 6 6 6 6 6 6 6 6 6 6 6 6 6 6 a % 6 6 6 6 6 6 6 6 6 a 6 6 6 6 6 6 % i 6 % 6 6 % 6 i % 6 6 6 a % 6 6 a 6 % 6 i % 6 a 6 6 a 6 6 6 6 6 6 + 2.zX4.z r 8 8 8 6 6 6 a a q j j 2.,.l 6 6 6 6 6 a l % n 6 6 6 6 6 6 0 - - = - - = 6 6 0 - - = - - 0 % a k % 6 6 6 % @.LXx.& $ $ # a.iXu 6 6 6 6 ",
"6 6 a 6 6 6 6 6 6 6 6 6 6 a 6 6 6 6 s N b >.q.8.7.7.7.0.0.7.7.7.0.B.7.7.8.B.7.8.w.w.G.G.0.| X.H.N.b i e i , , , , , , , , , , , , , f f , , , , i e e 6 , R ] R % :.2.a a a a 6 6 6 6 6 a 6 6 6 6 a 6 6 6 i i 6 6 a 6 6 i i 6 a a 6 6 6 6 6 6 6 6 6 6 6 6 6 6 6 6 6 6 a 6 6 6 6 6 6 6 6 6 6 a 6 6 6 6 6 6 6 a 6 6 6 6 6 e a 6 6 6 6 a 6 6 6 a 6 6 6 a 6 6 a 6 6 d 6 6 6 6 6 & ,.gXx 6 j z z z z z z z x x z $.$.,.<.l 6 6 6 6 6 a l % n 6 6 6 6 6 6 = - - = - - = 6 6 0 - - = - - 0 % a k % 6 6 6 6 # u e % # # % 6 u % 6 6 6 6 ",
"6 6 a 6 6 6 6 6 6 6 6 6 6 a 6 6 6 % b B.8.B.8.7.7.7.7.0.0.7.7.7.0.B.7.7.7.B.7.8.w.w.G.G.| X.N.B.N.A.V : i : : i , , , , , , , , , : f f : , , , , , , , : e h T T ,.2.a a a a 6 6 6 6 6 a 6 6 6 6 a 6 6 6 i i 6 6 a 6 6 i i % a a 6 6 6 6 6 6 6 6 6 6 6 6 6 6 6 6 6 6 a 6 6 6 6 6 6 6 6 6 6 a 6 6 6 6 6 6 6 a 6 6 6 6 6 e a 6 6 6 6 a 6 6 6 a 6 6 6 a 6 6 a 6 6 d 6 6 6 6 $ z zXz j z j j j j j j j j x x z $.x ,.<.l 6 6 6 6 6 a l % n 6 6 6 6 6 6 9 # # # # # # 6 6 0 ; ; = - ; 0 % a k % 6 6 6 6 6 & 6 y @.@.y % # 6 6 6 6 6 ",
"6 6 a 6 6 6 6 6 6 6 6 6 6 a 6 6 6 % b 0.7.B.8.7.7.7.7.0.0.7.7.7.0.B.7.7.7.B.8.8.0.w.Z.O.X.N.N.D.N.N.B h : f f : i , , , , , , , , : f f : , , , , , , , , , h , E o.&.a a a a 6 6 6 6 6 a 6 6 6 6 a 6 6 6 i i 6 6 a 6 6 i i % a a 6 6 6 6 6 6 6 6 6 6 6 6 6 6 6 6 6 6 a 6 6 6 6 6 6 6 6 6 6 a 6 6 6 6 6 6 6 a 6 6 6 6 6 e a 6 6 6 6 a 6 6 6 a 6 6 6 a 6 6 a 6 6 d 6 6 6 6 @ gX,.8 z j j j j j j j j j x x z $.x ,.<.l 6 6 6 6 6 a l % n 6 6 6 6 6 4 _ +.+.+.+.+.' 4 6 p 3 3 < 3 3 p % a k % 6 6 6 6 % u iXLXLXLXLXm.u % 6 6 6 6 ",
"6 6 a 6 6 6 6 6 6 6 6 6 6 a 6 6 6 5 b 0.7.B.8.7.7.7.7.0.0.7.7.7.0.B.7.7.7.B.q.7.A.w.X.X.B.N.N.D.N.N.N.B.B K K f : : i , , , , , , : f f : , , , , , , , , i h < , ) E 8 a a a 6 6 6 6 6 a 6 6 6 6 a 6 6 6 i i 6 6 a 6 6 i i % a a 6 6 6 6 6 6 6 6 6 6 6 6 6 6 6 6 6 6 a 6 6 6 6 6 6 6 6 6 6 a 6 6 6 6 6 6 6 a 6 6 6 6 6 e a 6 6 6 6 a 6 6 6 a 6 6 6 a 6 6 a 6 6 d 6 6 6 & <.fX6 z j j j j j j j j j j x x z $.x ,.<.l 6 6 6 6 6 a l % n 6 6 6 6 6 4 +.9X9X9X9X9X9X4 6 f 2 2 3 2 2 f % a l % 6 6 6 % @.LXiXx.y y x.iXLX@.% 6 6 6 ",
"6 6 a 6 6 6 6 6 6 6 6 6 6 a 6 6 6 5 b 0.7.B.8.7.7.7.7.0.0.7.7.7.0.B.7.7.8.V.u.>X>X,X,XG.V.N.N.D.N.N.N.N.B.N.N.N.B f : : , , , , , : f f : , , , , , , , , f h < < ;.o.R 8 a a 6 6 6 6 6 a 6 6 6 6 a 6 6 6 i i 6 6 a 6 6 i i % a a 6 6 6 6 6 6 6 6 6 6 6 6 6 6 6 6 6 6 a 6 6 6 6 6 6 6 6 6 6 a 6 6 6 6 6 6 6 a 6 6 6 6 6 e a 6 6 6 6 a 6 6 6 a 6 6 6 a 6 6 a 6 6 d 6 6 6 6 gX&.j j j j j j j j j j j j x x z $.x ,.<.l 6 6 6 6 6 a l % n 6 6 6 6 6 6 i f i i i f i 6 6 f 2 2 3 2 2 f % a k % 6 6 % y KXiX$ . + + . $ iXKXr % 6 6 ",
"6 6 a 6 6 6 6 6 6 6 6 6 6 a 6 6 6 6 N 0.7.B.8.7.7.7.7.0.0.7.7.7.0.B.7.7.q.:X>Xu.S.O.~.,X!.N.N.D.N.N.N.N.N.N.N.N.B.7.V f e , , , i i f f : , , , , , , , , f h < < g.=.) h 8 a 6 6 6 6 6 a 6 6 6 6 a 6 6 6 i i 6 6 a 6 6 i i % a a 6 6 6 6 6 6 6 6 6 6 6 6 6 6 6 6 6 6 a 6 6 6 6 6 6 6 6 6 6 a 6 6 6 6 6 6 6 a 6 6 6 6 6 e a 6 6 6 6 a 6 6 6 a 6 6 6 a 6 6 a 6 6 d 6 6 & <.fX6 z j j j j j j j j j j j x x z $.x ,.<.l 6 6 6 6 6 a l % n 6 6 6 6 6 6 < 2 2 3 2 2 3 6 6 f 2 2 3 2 2 f % a k % 6 6 & n.KX$   l =.-.n * $ KXn.& 6 6 ",
"6 6 a 6 6 6 6 6 6 6 6 6 6 a 6 6 6 6 N 0.7.B.8.7.7.7.7.0.0.7.7.7.0.B.7.q.:X:X8.w.O.!.G.^.>X!.N.D.N.N.N.N.N.N.N.N.K K } K f : , i , : < f , , , , , , , , , f h < < g.=.h ] a a 6 6 6 6 6 a 6 6 6 6 a 6 6 6 i i 6 6 a 6 6 i i % a a 6 6 6 6 6 6 6 6 6 6 6 6 6 6 6 6 6 6 a 6 6 6 6 6 6 6 6 6 6 a 6 6 6 6 6 6 6 a 6 6 6 6 6 e a 6 6 6 6 a 6 6 6 a 6 6 6 a 6 6 a 6 6 d 6 6 % gX&.j z j j j j j j j j j j j x x z $.$.,.<.l 6 6 6 6 6 a l % n 6 6 6 6 6 6 f 2 2 3 2 2 < 6 6 f 2 2 3 2 2 f % a k % 6 6 6 KXiX. a M M =.;.c . iXKX6 6 6 ",
"6 6 a 6 6 6 6 6 6 6 6 6 % a 6 6 6 6 N 8.7.B.7.7.7.7.7.0.0.7.7.7.8.0.;.:X:XB.w.| ^.S.^.H.F.,XC.B.N.N.N.N.N.8.K N.|.|.xXxX'.< e : i fXv., : : : : : : : : : , h < < g.=.a R E 8 % 6 6 6 6 a 6 6 6 % a 6 6 % e e 6 6 a 6 % e e % a i % 6 6 6 6 6 6 6 6 6 6 6 6 6 6 6 6 6 a 6 6 6 6 6 6 6 6 6 6 a 6 6 6 6 6 6 % a 6 6 6 6 6 6 i % 6 6 6 a 6 6 6 a 6 6 6 i % 6 a 6 6 a 6 & 2.fX6 z j j j j j j j j j j j j x x z x x ,.<.l 6 6 6 6 6 a l % n 6 6 6 6 6 6 f 2 2 3 2 2 f 6 6 f 2 2 3 2 2 f % a k % 6 % r KXs.. l c M l a r . a.iXr % 6 ",
"a a k a a a a a a a a a a d a e r e q.B.0.K.B.B.B.B.0.B.B.0.B.0.B.J.!.>XA.F.S.O.F.!.^.^.F.!.,XD.B.B.B.B.B.T.jXvXxXhX|.[.NX:.< f *.vXxX*.f f f f f f f f f h h h 1 f.-.h l ] h q a a a a k a a a a k a a a d d a a k a a d d i k k a a a a a a a a a a a a a a a a a a k a a a a a a a a a a k a a a a a a a k a a a a a a k a a a a k a a a k a a a k a a k a a l a % fX<.v c c x x x x x x x x x c x %.%.%.%.%.<.<.l 6 6 6 6 6 a l % n 6 6 6 6 6 6 < 2 2 3 2 2 3 6 6 f 2 2 3 2 2 3 % a k % 6 6 r KXx.. d c c c c k . s.n.e 6 6 ",
"6 e a 6 6 6 6 6 6 6 6 6 6 l b l l l q.0.8.B.0.8.8.8.8.0.B.8.8.8.0.A.>Xe.w.w.O.H.S.!.^.^.F.N.~.:XV.N.N.B.K xXjX'.} K } K '.NX*.& xX'.jXv., f f f f f f f i f h < < g.=.d d 1 T 7 6 6 6 6 a 6 6 6 6 a e 6 6 a a 6 6 a 6 6 a a 6 a a 6 6 6 6 6 6 6 6 6 6 6 6 6 6 6 6 6 6 a 6 6 6 6 6 6 6 6 6 6 a 6 6 6 6 6 6 6 a e 6 6 6 6 i a 6 6 6 e a 6 6 6 a 6 6 i a 6 6 a 6 6 k % x gXj z z z z z z z z z z z z z z c x x $.%.,.<.l 6 6 6 6 6 a l % n 6 6 6 6 6 6 f 2 3 f h 2 f 6 6 f 2 3 f h 2 f % a k % 6 6 # iXKX  @ l c n M %   n.x.# 6 6 ",
"6 6 a 6 6 6 6 6 6 6 6 6 $ N B.8.8.8.7.7.7.B.8.7.7.7.7.0.0.7.7.7.;.,X~.8.w.H.X.e.S.S.!.^.F.Z.C.,XS.V.N.K fXxXK K N.N.N.N.K '.xXdXxXK [.vXl : i , , , , , : , h < < g.=.f f a E 1 4 6 6 6 a 6 6 6 6 a 6 6 6 i e 6 6 a 6 6 i e % a i 6 6 6 6 6 6 6 6 6 6 6 6 6 6 6 6 6 6 a 6 6 6 6 6 6 6 6 6 6 a 6 6 6 6 6 6 6 a 6 6 6 6 6 6 a 6 6 6 6 a 6 6 6 a 6 6 6 a 6 6 a 6 6 k + 4.4.6 z j j j j j j j j j j j j j x x z x x ,.<.l 6 6 6 6 6 a l % n 6 6 6 6 6 6 i p p i j j a 6 6 9 0 0 q y z y % a k % 6 6 # @.KXx.. + 6 e +   a.n.u % 6 6 ",
"6 6 a 6 6 6 6 6 6 6 6 6 % N 0.7.7.7.7.7.7.B.8.7.7.7.7.0.0.7.8.q.u.>X0.w.w.O.G.Z.S.S.!.^.F.Z.C.!.,XK K |.vXL.N.N.N.N.N.N.N.K B.'.B.N.} |.dX: i , , , , , , f h < < g.=.f f f h ) 6 6 6 6 a 6 6 6 6 a 6 6 6 i i 6 6 a 6 6 i i % a a 6 6 6 6 6 6 6 6 6 6 6 6 6 6 6 6 6 6 a 6 6 6 6 6 6 6 6 6 6 a 6 6 6 6 6 6 6 a 6 6 6 6 6 e a 6 6 6 6 a 6 6 6 a 6 6 6 a 6 6 a 6 6 d 6 gX$.j j j j j j j j j j j j j j j x x z $.x ,.<.l 6 6 6 6 6 a l % n 6 6 6 6 6 6 i p p i a k a 6 6 9 p p i j j j % a k % 6 6 6 % m.IXs.* X X * @.iXs.% 6 6 6 ",
"6 6 a 6 6 6 6 6 6 6 6 6 % N 0.7.7.7.7.7.7.B.8.7.7.7.7.0.0.7.7.7.>X!.0.w.H.O.e.Z.S.S.!.^.F.Z.Z.T.1X.XxXvXL.K N.N.N.N.N.N.N.N.N.K N.N.B.N.xXk : i , , , , , f h < < g.=.f f f a W W 4 6 6 a 6 6 6 6 a 6 6 6 i i 6 6 a 6 6 i i % a a 6 6 6 6 6 6 6 6 6 6 6 6 6 6 6 6 6 6 a 6 6 6 6 6 6 6 6 6 6 a 6 6 6 6 6 6 6 a 6 6 6 6 6 e a 6 6 6 6 a 6 6 6 a 6 6 6 a 6 6 a 6 6 i 2.fX8 z j j j j j j j j j j j j j j x x z $.x ,.<.l 6 6 6 6 6 a l % n 6 6 6 6 6 6 i p p i j k a 6 6 9 p 0 i y j j % a k % 6 6 6 6 % n.u % 6 6 6 y s.% 6 6 6 6 ",
"6 6 a 6 6 6 6 6 6 6 6 6 % >.0.7.7.7.7.7.7.B.8.7.7.7.7.0.0.7.;.~.:X0.w.w.O.F.C.Z.S.S.!.^.F.Z.I.vXhXnX|.K N.N.N.N.N.N.N.N.N.N.N.N.N.N.B.N.'.vXv.: i , , , , f h < < g.=.f f f f , ) e 6 6 a 6 6 6 6 a 6 6 6 i i 6 6 a 6 6 i i % a a 6 6 6 6 6 6 6 6 6 6 6 6 6 6 6 6 6 6 a 6 6 6 6 6 6 6 6 6 6 a 6 6 6 6 6 6 6 a 6 6 6 6 6 e a 6 6 6 6 a 6 6 6 a 6 6 6 a 6 6 a 6 6 i fX<.r z j j j j j j j j j j j j j j x x z $.x ,.<.l 6 6 6 6 6 a l % n 6 6 6 6 6 6 i p p i j k a 6 6 9 p 0 i y j j % a k % 6 6 6 6 6 # 4 7 6 6 7 4 # 6 6 6 6 6 ",
"6 6 a 6 6 6 6 6 6 6 6 6 % >.0.7.7.7.7.7.7.B.8.7.7.7.7.0.0.7.8.>Xe.A.w.| | A.C.Z.S.S.!.^.Z.jXvXjXK :X~.V.N.N.N.N.N.N.N.N.N.N.N.N.N.N.B.B.K B.vXv.: i , , , f h < < g.=.f f f h 6 R R 4 6 a 6 6 6 6 a 6 6 6 i i 6 6 a 6 6 i i % a a 6 6 6 6 6 6 6 6 6 6 6 6 6 6 6 6 6 6 a 6 6 6 6 6 6 6 6 6 6 a 6 6 6 6 6 6 6 a 6 6 6 6 6 e a 6 6 6 6 a 6 6 6 a 6 6 6 a 6 6 a 6 % c gXj j j j j j j j j j j j j j j j j x x z $.x ,.<.l 6 6 6 6 6 a l % n 6 6 6 6 6 6 i p p i j k a 6 6 9 p 0 i y j j % a k % 6 6 6 6 6 7 2 _ _ _ _ 2 7 6 6 6 6 6 ",
"6 6 a 6 6 6 6 6 6 6 6 6 6 >.0.7.7.7.7.7.7.B.8.7.7.7.7.0.0.;.~.:X0.A.w.O.C.S.C.Z.S.S.!.^.Z.zX].Z.A.C.,XC.N.N.N.N.N.N.N.N.N.N.N.N.N.N.B.N.N.K K.xX: : i , , f h < < g.;.d f f f : , ) e 6 a 6 6 6 6 a 6 6 6 i i 6 6 a 6 6 i i % a a 6 6 6 6 6 6 6 6 6 6 6 6 6 6 6 6 6 6 a 6 6 6 6 6 6 6 6 6 6 a 6 6 6 6 6 6 6 a 6 6 6 6 6 e a 6 6 6 6 a 6 6 6 a 6 6 6 a 6 6 a 6 + i.i.6 z j j j j j j j j j j j j j j j x x z $.x ,.<.l 6 6 6 6 6 a l % n 6 6 6 6 6 6 i p p i j k a 6 6 9 p 0 i y j j % a k % 6 6 6 6 6 _ ' ' _ _ ' ' _ 6 6 6 6 6 ",
"6 6 a 6 6 6 6 6 6 6 6 6 6 q.0.7.7.7.7.7.7.B.8.7.7.7.7.0.0.8.>Xw.w.w.| | e.F.C.Z.S.S.!.^. .zXT.S.C.N.~.~.V.N.N.N.N.N.N.N.N.N.N.N.N.N.B.V.N.V.K jXNXv.: e , f h < < g.T.h f f f , 6 R R 4 a 6 6 6 6 a 6 6 6 i i 6 6 a 6 6 i i % a a 6 6 6 6 6 6 6 6 6 6 6 6 6 6 6 6 6 6 a 6 6 6 6 6 6 6 6 6 6 a 6 6 6 6 6 6 6 a 6 6 6 6 6 e a 6 6 6 6 a 6 6 6 a 6 6 6 a 6 6 a 6 $ gX2.j j j j j j j j j j j j j j j j j x x z $.x ,.<.l 6 6 6 6 6 a l % n 6 6 6 6 6 6 i p p i j k a 6 6 9 p 0 i y j j % a k % 6 6 6 6 _ +.3 X X X X 3 +._ 6 6 6 6 ",
"6 6 a 6 6 6 6 6 6 6 6 6 6 q.0.7.7.7.7.7.7.B.8.7.7.7.7.0.9.~.~.8.w.A.O.C.C.S.C.Z.S.S.!.(.zXvXC.F.C.C.C.,XC.N.N.N.N.N.N.N.N.N.N.N.8.8.C.8.8.8.K 8.].xXv.< e i h < : f.T.m d f f : i , ) : a 6 6 6 6 a a 6 6 i e 6 6 a 6 6 i e % a a 6 6 6 6 6 6 6 6 6 6 6 6 6 6 6 6 6 6 a 6 6 6 6 6 6 6 6 6 6 a 6 6 6 6 6 6 6 a 6 6 6 6 6 6 a 6 6 6 6 a 6 6 6 a 6 6 6 a 6 6 a $ $.gXr z j j j j j j j j j j j j j j j j x x z x x ,.<.l 6 6 6 6 6 a l % n 6 6 6 6 6 6 i p p a k k a 6 6 9 p 0 i y j j % a k % 6 6 7 2 ' 3 o 6 l l i o 3 _ 2 7 6 6 ",
"6 e a 6 6 6 6 6 6 6 6 6 6 7.0.7.8.8.8.8.8.B.0.8.8.8.8.0.A.>Xw.w.w.^.| C.C.F.C.Z.S.!...XXzXS.Z.F.C.Z.N.~.:XV.N.N.N.V.N.K L K 8.V.J.J.Q.h.h.h.h.h.g.J.NX|.< f B g 3 K /.g , p g , , % R R q 6 6 6 6 l N 6 6 a a 6 6 a 6 6 a a 6 a a 6 6 6 6 6 6 6 6 6 6 6 6 6 6 6 6 6 6 a 6 6 6 6 6 6 6 6 6 6 a 6 6 6 6 6 6 6 a e 6 6 6 6 i a 6 6 6 e a 6 6 6 a 6 6 r a 6 6 k & 4.}.a z z z z z z z z z z z z z z z z z x x x $.$.,.<.l 6 6 6 6 6 a l % n 6 6 6 6 6 6 i p p i e r 6 6 6 9 p 0 i y j j % a k % 6 6 6 _ _ o 6 M M -.;.i o _ _ 4 6 6 ",
"a d l a d d d d d d d d a 0.P.B.B.B.B.B.B.P.B.B.B.B.B.J.:X`.A.S.F.O.F.F.F.F.F.F.!./...lXmX .F.U.F.F.F.F.,XF.B.D.C.C.L.m.iXHXJXJXJXJXJXJXJXJXJXJXJXHXJXPXHXGXJXHXKXiXiXm.x.x.M.a.@.m m ) m k a a a 7.q.i a s s a a k a i s s i k s i a a a a a a a a a a a a a a a a a k a a a a a s s a a a k a a a a a a i k s a a a a s s i a a s k a a a k a a s s i a k s gX,.v c c c c c c c c c c c c c c c c c %.%.%.%.%.<.<.l 6 6 6 6 6 a l % n 6 6 6 6 6 6 9 i 9 c '.'.:.6 6 9 p 0 i y j j % a k % 6 6 e ' 2 o k n M M =.M X 2 ' e 6 6 ",
"6 6 a 6 6 6 6 6 6 6 6 6 6 q.0.7.7.7.7.7.7.B.7.7.7.7.7.0.>Xw.w.w.H.| e.C.C.S.C.Z.S.U. XvX X .C.F.C.C.C.N.~.~.7.L h.KXJXHXm.m.h.J.J.V.B.N.N.N.N.N.V.V.V.|.xXh.M.m.m.iXiXiXb.FXJXHXGXGXGXJXJXGXGXFXFXHXHXyXyXFXFXyXyXFXyXyXFXFXyXFXFXyXyXyXyXyXyXyXyXyXyXyXyXyXyXyXyXyXyXFXyXyXyXyXyXFXFXyXyXyXFXyXyXyXyXyXyXyXFXFXyXyXyXyXFXFXyXyXyXyXFXyXyXyXFXyXyXFXFXyXyXFXFXPXGXGXGXGXGXGXGXGXGXGXGXGXGXGXGXGXGXGXFXGXGXGXGXGXHXv.k 6 6 6 6 6 a l % n 6 6 6 6 6 6 g K G K.lXlX|.% 6 9 p 0 i y j j % a k % 6 6 e _ 2 o k c k M M n X 2 _ i 6 6 ",
"6 6 a 6 6 6 6 6 6 6 6 6 6 7.0.7.7.7.7.7.7.B.8.7.7.8.;.~.~.0.w.w.O.F.C.C.C.S.C.Z. . XvX{.F.Z.Z.F.C.C.C.C.C.>XL.HXJXm.J.K L K 8.8.8.8.B.N.N.N.N.N.N.N.8.B.vXe.C.L L /.S.e.V J C.8.N.V.h u ( u u u h.v.v.s.@.a.a.@.@.a.a.@.s.a.h.h.a.@.@.@.@.@.@.@.@.@.@.@.@.@.@.@.@.@.@.a.@.@.@.@.@.a.a.@.@.@.a.@.@.@.@.@.@.@.a.@.@.@.@.@.a.a.@.@.@.@.a.@.@.@.a.@.@.@.a.@.@.a.dXx.s.s.s.s.s.s.s.s.s.s.s.s.s.s.s.s.s.s.s.s.s.s.s.s.x.1.l 6 6 6 6 6 a l % n 6 6 6 6 6 5 ..,X,X_.mXmX|.% 6 9 p 0 i y j j % a k % 6 6 6 _ _ o e k e n M i o _ _ 6 6 6 ",
"6 6 a 6 6 6 6 6 6 6 6 6 6 7.0.7.7.7.7.7.7.B.8.7.7.7.8.>Xw.w.w.H.| A.C.C.A.F.C.S.{.vX_...F.Z.Z.F.C.C.C.C.L |.PXm.N.K 8.N.N.N.N.N.N.N.B.N.N.N.N.N.N.N.N.K jXhX} V.} {.kXK.B.B.B.N.N.N.V 9 _ 1 @ 9 K 0.8.N & 9 = # # 9 g = N b J N % # # # # # # # # # # # # # # # # # # 9 # # # # # p 0 # # # 9 # # # # # # # 9 # # # # # = 9 # # # # 9 # # # 9 # # = 9 # # v gXj v q q q q q q q q q q q q q q q q q q v v j v v 2.<.l 6 6 6 6 6 a l % n 6 6 6 6 6 5 ..,X,X/.mXlX|.% 6 9 p 0 i y j j % a k % 6 6 7 2 _ , o @ d l i o , _ S 7 6 6 ",
"6 6 a 6 6 6 i J J J J J J 0.0.7.7.7.7.7.7.B.8.7.8.;.~.:X0.w.w.O. .Z. . . .Z.L jXvXjX!.^.F.Z.Z.F.C.C.C.C.KXJX`.L N.V.N.N.N.N.N.N.N.N.B.N.N.N.N.N.N.N.N.N.N.vX[.} } jXNX XN.B.B.N.N.N.N.N } ) 5 l 0.B.0.q.6 k b 6 6 k N N B.0.7.9.j 6 6 6 6 6 6 6 6 6 6 6 6 6 6 6 6 6 6 a 6 6 6 6 5 b s 5 6 6 a 6 6 6 6 6 6 6 a e 6 6 6 6 e a 6 6 6 6 a 6 6 6 a 6 6 e a 6 $ '.fX8 %.z z z z z z z z z z z z z z z z z j x x z $.$.,.<.l 6 6 6 6 6 a l % n 6 6 6 6 6 5 ..,X,X).mXlX|.% 6 9 p 0 i y j j % a k % 6 6 6 6 _ ' <   X X X < ' _ 6 6 6 6 ",
"6 6 a 5 6 % a 0.8.8.8.8.8.B.8.7.7.7.7.7.7.B.8.7.7.8.>XS.A.e. .X. XvXzXhXjXhXzXvXU...!.^.F.Z.Z.F.C.e.D.JXKXL :X~.V.N.N.N.N.N.N.N.N.N.B.N.N.N.N.N.N.N.N.N.K |.hX} N.hXhXhXN.B.B.N.N.N.N.N.B.o.1 b 8.0.0.7.N 9.0.i % >.0.7.0.0.7.B.9.6 6 6 6 6 6 6 6 6 6 6 6 6 6 6 6 6 6 a 6 6 6 6 6 N s 5 6 6 a 6 6 6 6 6 6 6 a 6 6 6 6 6 e a 6 6 6 6 a 6 6 6 a 6 6 6 a 6 % gX2.a %.z j j j j j j j j j j j j j j j j j x x z $.x ,.<.l 6 6 6 6 6 a l % n 6 6 6 6 6 5 ..,X,X).mXlX|.% 6 9 p 0 i y j j % a k % 6 6 6 6 , ' 2 7 % % 7 2 ' , 6 6 6 6 ",
"i a s 9 i 9 l 8.7.7.7.7.7.B.0.7.7.7.7.7.7.B.8.8.;.~.:X0.e.'.mXhXNX{.T. X X XT.F.S.F.!.^.F.Z.Z.F.L L.PXm.L C.Z.,XN.N.N.N.N.N.N.N.N.N.B.N.N.N.N.N.N.N.N.N.N.N.vX[.} vX].xXB.B.B.N.N.N.N.N.B.} ) q.7.B.8.7.7.0.B.b a B.8.7.0.0.7.0.B.s % 6 6 6 6 6 6 6 6 6 6 6 6 6 6 6 6 a 6 6 6 6 6 q.b 5 6 6 a 6 6 6 6 6 6 6 a 6 6 6 6 6 e a 6 6 6 6 a 6 6 6 a 6 6 6 a $ v gXj j *.z j j j j j j j j j j j j j j j j j x x z $.x ,.<.l 6 6 6 6 6 a l % n 6 6 6 6 6 5 ..,X,X).mXlX|.% 6 9 p 0 i y j j % a k % 6 6 6 6 6 i # # % % # # i 6 6 6 6 6 ",
"7.8.0.7.7.7.7.7.7.7.7.7.7.B.0.7.7.7.7.7.7.B.8.7.7.>Xe.e.L zXmX].T.Z. . . .Z. .Z.S.S.!.^.F.Z.A.!.Q.PXm.L C.C.N.:X~.N.N.N.N.N.N.N.N.N.B.N.N.N.N.N.N.N.N.N.N.} ].vXhXvXI.xXY.N.B.N.N.N.N.N.B.7.| G.q.B.8.7.7.0.0.q.N B.7.7.0.0.7.0.B.N s 6 6 6 6 6 6 s s 6 6 6 6 6 6 6 6 a 6 6 6 6 9 q.b 6 6 6 a 6 6 6 6 6 6 6 a 6 6 6 6 6 e a 6 6 6 6 a 6 6 6 a 6 6 6 a + 4.}.j x 1.z j j j j j j j j j j j j j j j j j x x z $.x ,.<.l 6 6 6 6 6 a l % n 6 6 6 6 6 5 ..,X,X).mXlX|.% 6 9 p 0 i y j j % a k % 6 6 6 6 6 # *.x.dXdXm.*.& 6 6 6 6 6 ",
"7.8.B.7.7.7.7.7.7.7.7.7.7.B.0.7.7.7.7.7.7.B.8.;.!.:X}.jXjXvX .L C.S.C.C.C.F.C.Z.S.S.!.^.F.Z.L m.PXQ.L A.C.C.C.Z.,XN.N.N.N.N.N.N.N.N.B.N.N.N.N.N.N.N.N.N.N.V.N.[.|.{.D.hXhX} B.N.N.N.N.N.B.N.G.X.7.B.8.7.7.0.0.7.7.B.8.7.0.0.7.0.0.8.7.9 6 6 a 6 5 b N 6 6 a 6 6 6 6 6 a 6 6 6 6 i u.L 5 6 6 a 6 6 6 6 6 6 6 a 6 6 6 6 6 e a 6 6 6 9 a 6 6 6 a 6 6 6 a % hX1.>.x K.x j j j j j z j j j j j j j j j j j x x z $.$.,.<.l 6 6 6 6 6 a l % n 6 6 6 6 6 5 ..,X,X).mXlX|.% 6 9 p 0 i y j j % a k % 6 6 6 6 6 pXdXIXpXpXIXdXpX6 6 6 6 6 ",
"7.7.0.7.7.7.7.7.7.7.7.7.7.0.8.7.7.7.7.7.7.B.8.7.>XR.vXfXmXoXe.C.C.S.C.C.C.S.C.Z.S.S.!.^.Z.Z.iXPXD.L C.C.C.C.C.N.:X!.7.N.N.N.N.N.N.8.B.N.N.N.N.N.N.N.N.N.N.N.D.} } E.I.L.zXzXhXK N.N.N.N.B.N.7.X.G.0.8.7.7.0.0.7.7.B.7.7.0.0.q.0.0.q.7.l g s N 9 $ N 7.l r c 6 6 6 6 6 a 6 6 6 % a &XOX5 6 6 a 6 6 6 6 6 6 % a 6 6 6 6 6 6 i % 6 6 i a 6 6 6 a 6 6 6 6 &.hX=.>.c Y.x j j j j j j z x j j j j j j j j j x x z x x ,.<.l 6 6 6 6 6 a l % n 6 6 6 6 6 5 ..,X,X).mXlX|.% 6 9 p 0 i y j j % a k % 6 6 6 % pXIXs.+     + s.IXpX% 6 6 6 ",
"0.B.B.0.0.0.0.0.0.0.0.0.0.B.B.0.0.0.0.0.0.B.9.!.:X'.hXL O.| A.S.S.F.S.S.S.F.S.S.F.!.^...Q.JXKXF.Z.A.S.S.S.S.S.A.!.,XV.B.B.B.B.B.B.B.D.B.B.B.B.B.B.B.B.B.B.B.D.D.N.E.R.C.NXvXzXB.B.B.B.B.D.B.B.G.X.0.8.0.0.B.B.0.0.B.0.0.B.B.0.B.B.0.B.7.7.7.0.b k 7.B.B.q.q.a i i i a k i r a i M *XOXr i i k a i i i i a i d a i i i i a d r a a s d i a i k a i a i fX X;.9.>.T.%.%.%.%.x x c %.,.%.x x x x x x x x %.%.x %.%.<.<.l 6 6 6 6 6 a l % n 6 6 6 6 6 5 ..,X,X).mXlX|.% 6 9 p 0 i y j j % a k % 6 6 # s.dXs.. $ k l 6 . s.dXs.# 6 6 ",
"0.0.B.0.0.0.0.0.0.0.0.0.0.B.0.0.0.0.0.0.0.B.9.1X/.jXhX .O.A.Z.Z.S.F.Z.Z.S.F.Z.S.F.!...m.PXm.L F.A.Z.Z.Z.Z.Z.Z.S.B.:X!.V.B.B.B.B.B.N.B.B.N.B.B.B.B.B.B.B.B.B.D.B.N.E.R.B.jXY.zXL.N.B.B.B.D.B.B.B.X.D.'.0.0.B.B.0.0.B.0.0.B.B.0.B.B.0.0.0.0.0.0.9.0.0.0.0.0.0.d 6 i e i a a k l b :.$X&XM p e d i e e e e e 6 d a e e e e a a 6 s s l a i i i d i e i l gXt.t.9.>.T.%.%.=.%.z x c %.1.%.x x x x x x x z c c x %.%.<.<.l 6 6 6 6 6 a l % n 6 6 6 6 6 5 ..,X,X).mXlX|.% 6 9 p 0 i y j j % a k % 6 6 # dXdX. 6 M =.-.:.a . dXdX# 6 6 ",
"7.8.B.7.7.7.7.7.7.7.7.7.7.0.8.7.7.7.K 7.q.8.zXcXxXxX'.| H.e.C.C.C.S.C.C.C.S.C.C.e.W.JXJXW.L C.F.C.C.C.C.C.C.C.C.C.!.,XN.N.N.N.N.N.N.B.N.N.N.N.N.N.N.N.N.N.N.D.N.} E.T.B.N.} hX'.K N.N.N.B.N.N.8. .oXNX7.7.0.0.7.7.B.9.7.0.0.J 0.0.7.7.7.7.7.7.7.7.7.7.7.7.8.N 6 6 6 6 a b q.q.q.q.1X:X9.b $ d 6 6 6 6 6 6 6 a 6 6 6 6 6 6 i % p s l i p p i a 6 6 $ 1.fXq.t.9.>.T.=.>.=.=.j j x %.:.$.%.j j j j j j j x x z x x ,.<.l 6 6 6 6 6 a l % n 6 6 6 6 6 5 ..,X,X).mXlX|.% 6 9 p 0 i y j j % a k % 6 % r dXx.. k n M M c l . x.dXr % 6 ",
"7.8.B.7.7.7.7.7.7.7.7.7.7.0.K.9.0.0.hXxXxXxXnXu.8.e.C.O.S.C.C.C.Z.S.C.C.C.F.C.L m.PXm...S.G.Z.F.C.C.C.C.C.C.C.C.C.N.:X!.N.N.N.N.N.N.B.N.N.N.N.N.N.N.N.N.N.N.D.N.} E.T.B.B.} hX|.K N.N.N.B.N.N.N.K XXCXt.7.0.0.7.7.B.U 8.0.w.}.K.0.7.7.7.7.7.7.7.7.7.7.7.7.8.7.q.s n g N 8.7.8.9.K bX:Xq.q.a M 6 a 6 6 6 s i a 6 6 6 9 6 6 a 5 b b b s g b J k 6 6 % gXt.0.9.9.>.T.>.>.>.>.x x %.=.:.%.*.z j j j j j j x x z $.$.,.<.l 6 6 6 6 6 a l % n 6 6 6 6 6 5 ..,X,X).mXlX|.% 6 9 p 0 i y j j % a k % 6 % r dXs.. k c M l a r . @.pXr 6 6 ",
"7.8.B.7.7.7.7.9.8.9.9.7.9.xXxXxXxXxXjX0.J.R.>X0.w.w.| H.A.C.C.C.C.S.C.C.A.Z.C.KXJXW...^.F.Z.Z.F.C.C.C.C.C.C.C.C.C.C.!.:XN.N.N.N.N.N.B.N.N.N.N.N.N.N.N.N.N.N.D.N.} E.T.B.B.N..XzXK N.N.N.} N.N.N.K jXBX'.K 0.0.7.7.B.>XL }.NXDXhX8.7.7.7.7.7.7.7.7.7.7.7.7.7.7.8.q.7.J q.8.7.7.9.K bX`.J 8.>.9.k >.k 5 6 J b b 6 6 a s i 6 s 6 b N N g b K 8.l i % z gXN '.}.9.>.T.9.fX,.:.$.x %.>.:.%.*.z z j j j j j x x z $.x ,.<.l 6 6 6 6 6 a l % n 6 6 6 6 6 5 ..,X,X/.mXlX|.% 6 9 p 0 i y j j % a k % 6 6 6 dXdX. r c c n =.d . x.m.6 6 6 ",
"7.8.B.7.7.7.7.K K K K J L.xXK 7.7.7.K 7.;.:X~.0.w.C.O.S.S.C.C.C.C.S.C.A.L W.JXiXZ.!.^.^.F.Z.Z.F.C.C.C.C.C.C.C.C.C.C.C.,XZ.N.N.N.N.N.B.N.N.N.N.N.N.N.N.N.N.N.D.N.} E.T.B.B.V...nXjXK 7. XvXA.N.N.N.hXlXfXJ B.0.7.9.L VX'.jXcXOXzXK.7.7.7.7.7.7.7.7.7.7.7.7.7.7.7.7.7.7.0.7.7.7.7.K BX.XK 8.7.B.N 7.N 6 k 8.8.7.6 i l b s 6 b p N 7.J b N 0.8.b l & 4.4.b fXxX7.9.Y.0.xX1.9.%.%.=.>.t.=.*.x z j j j j j x x z $.x ,.<.l 6 6 6 6 6 a l % n 6 6 6 6 6 5 I &XOXw.|.|.v.6 6 9 0 0 q y y y % a k % 6 6 & x.dX7 . a l l a   5 pXs.# 6 6 ",
"7.0.B.7.9.7.'.hXhXhXhXjXvXjXK 7.7.7.8.7.w.>Xw.w.w.H.| A.S.C.C.C.C.S.C.L Q.PXm.L S.F.!.^.F.Z.Z.F.C.C.C.C.C.C.C.C.C.C.N.~.:XN.N.N.N.N.B.N.N.N.N.N.N.N.N.N.N.N.D.N.} E.T.B.B.B.V.:XnX1XL zXzXcXC.K |.hXG.vX'.9.w.e.J jXCXfXhX*XL zX'.K 7.7.7.7.7.7.7.7.7.7.7.7.7.7.7.7.8.B.7.7.7.7.8.VXkXK 9.7.B.7.7.q.k q.8.7.B.i s N J l s 8.b q.8.7.J N 8.0.N b 6 gX2.q.fXxX8.9.Y.r.xX1.9.>.%.>.>.K.>.*.%.z j j j j j x x z $.x ,.<.l 6 6 6 6 6 a l % n 6 6 6 6 6 5 I &XOXe.}.|.v.6 6 6 9 9 6 6 6 6 % a k % 6 6 6 r dXdXt   + +   8 pXpXe 6 6 6 ",
"K K 8.K K J jXjX'.'.'.'.'.K.8.7.7.7.8.;.~.`.0.w.w.O.C.A.S.C.C.C.A.F.L m.PX[.L Z.S.S.!.^.F.Z.Z.F.C.C.C.C.C.C.C.C.C.C.C.C.,XC.N.N.N.N.B.N.N.N.N.N.N.N.N.N.N.N.D.N.} E.T.B.B.B.B.K N.NX.XzX} zXR.K hX].} oXvXOX2XNXxXvXzXNXDX$XJ kX}.K 8.7.7.7.q.7.7.8.8.7.7.7.7.7.7.7.8.B.7.7.7.7.e.VXkXK 9.7.B.8.7.7.7.7.7.7.B.l b 7.q.N N B.7.7.7.0.7.J 8.8.N b ,.fXM 0.}.vX0.9.vX}.xXt.0.>.>.>.:.0.4.fXc x j j j j j x x z $.x ,.<.l 6 6 6 6 6 a l % n 6 6 6 6 6 5 I &XOXw.}.|.v.6 5 G D D H 0X0X3.6 a l % 6 6 6 % %.IXv.& $ $ # @.pXy 6 6 6 6 ",
"}.}.|.}.}.}.vXt.K K K K K 0.0.7.7.7.7.0.>XS.w.w.H.| e.S.S.C.C.C.Z.e.m.PXQ.!.A.Z.S.S.!.^.F.Z.Z.F.C.C.C.C.C.C.C.C.C.C.C.N.~.~.N.N.N.N.B.N.N.N.N.N.N.N.N.N.N.N.D.N.} E.T.B.B.B.B.N.K L.ZXhX} jXhXB.xXD.0.| lX1XBX1XDX$Xu.CX<XL J kXfXJ 9.7.7.K.}.q.8.9.9.7.7.7.7.7.7.7.8.B.7.7.8.;.u.BXkXK 9.7.B.7.7.7.7.7.7.7.B.q.N 8.7.7.0.0.7.7.7.0.8.q.8.8.8.N fX1.q.0.NXvX8.t.CXjXvX}.0.t.>.:.9.8.fXxXc %.j j j j j x x z $.x ,.<.l 6 6 6 6 6 a l % n 6 6 6 6 6 5 I &XOXw.}.|.v.6 5 G D D q.0XqX0X6 a l % 6 6 6 6 # x 7 4 7 7 4 7 y % 6 6 6 6 ",
"jXjXjXjXjXjX}.7.7.7.7.8.7.B.8.7.7.8.;.~.:XB.w.w.O.G.C.S.S.C.A.e.Z.KXJXD.L F.C.Z.S.S.!.^.F.Z.Z.F.C.C.C.C.C.C.C.C.C.C.C.C.C.,XC.N.N.N.B.N.N.N.N.N.N.N.N.N.N.N.D.N.} E.T.B.B.B.B.N.N.K jX}.} '.ZXNXhXN.B.} lXBXxX+X$X*XU vX>X8.J .XjXL +Xe.J }.vXK 9.e.u.9.8.K 7.7.7.7.8.B.7.7.8.;.~.BXzXK 9.7.B.7.7.7.7.7.7.7.B.7.7.7.7.7.0.0.7.9.e.&X9.7.8.7.0.r.kX>.0.r.CXNX'.r.ZXjXvXNX'.q.>.9.9.r.fXNX=.%.j j j j j x x z $.x ,.<.l 6 6 6 6 6 a l % n 6 6 6 6 6 5 I &XOXw.}.|.v.6 6 6 9 9 6 6 6 6 % a k % 6 6 6 6 6 @ 1 R ] ] R < @ 6 6 6 6 6 ",
"K K 8.K K K K 7.7.7.7.7.7.B.8.7.7.7.8.>Xe.A.w.G.X.e.C.A.A.C.L L.JXKXC.C.C.S.C.Z.S.S.!.^.F.Z.C.F.C.C.C.C.C.C.C.C.C.C.C.C.N.~.~.N.N.N.B.N.N.N.N.N.N.N.N.N.N.N.D.N.} E.T.B.B.B.B.N.N.N.K N.B.B.Y.cX}.N.B.K  XCX8.8.8.B.8.t.0.0.J /.vXNXDXU OX1XCX'.;.OX$X;.7.}.t.7.7.7.7.B.7.7.8.J .XzXNX'.K 7.B.7.7.7.7.7.7.7.B.8.7.7.7.7.0.0.7.:.U $X9.7.9.7.8. X X7.K.r.NXCXxXL.VXjXNXCXjX}.:.jX'.hXNXNX>.%.j j j j j x x z x x ,.<.l 6 6 6 6 6 a l % n 6 6 6 6 6 5 I &XOXw.}.|.v.6 6 9 0 0 q y y y % a k % 6 6 6 6 4 _ { 7X{ { 7X{ _ 6 6 6 6 6 ",
"K.K.P.K.K.K.K.B.B.B.B.B.B.P.K.B.B.J.`.:XP.U.P.O.H.F.F.F.!.F.m.PXm.!.S.F.F.U.F.F.!./.^.^.F.F.F.U.F.F.F.F.F.F.F.F.F.F.F.F.F.F.,XD.B.B.D.D.B.D.D.D.D.D.D.D.D.D.D.D.G.E.E.I.I.D.D.B.D.D.D.D.I.D.B.C.A.I.D.B.I.lXK.B.B.P.B.B.P.P.V./.VXCXZXkXnX<XNXjXK :XnXfXB.CX}.0.K.B.B.P.B.B.K.8.hX'.1XjX8.K.P.B.B.B.B.B.B.B.P.B.B.B.B.B.K.P.B.B./.1XA.B.!.A.B.kX].Y.T.Y.NXCXxXhXDXhXNXCXNXNX}.xX}.vXCXNXJ.:.%.%.%.%.%.=.=.%.2.2.1.<.l 6 6 6 6 6 a l % n 6 6 6 6 6 5 I &XOXw.}.|.v.6 6 9 0 0 9 8 y 8 % a k % 6 6 6 4 _ 7XE & X X & R 7X) 4 6 6 % ",
"7.8.B.7.7.7.7.7.7.7.7.7.7.B.8.7.7.7.>Xe.e.w.Z.X.L L C.Q.m.JXHXD.L F.C.C.C.S.C.Z.S.S.!.^.F.Z.Z.F.C.C.C.C.C.C.C.C.C.C.C.C.C.N.:X~.V.N.B.N.N.N.N.N.N.N.N.N.N.N.D.N.} E.T.B.B.B.B.N.N.N.N.N.B.N.N.N.N.B.N.N.8.X.G.7.7.B.8.7.0.0.q.A.'.`.kXCXZXDXDXjXq.`.CXNXr.CX}.K 8.7.8.B.7.8.7.9.zX8.`.jXJ 9.B.8.7.7.7.7.7.7.B.0.7.7.7.7.0.0.7.K ].bXe.9.$XL ].kX0.K.P.K.CXCXzXhX2XzXNXBXNXCXjXxX}.NXCXNX'.>.j j j j j x x z $.$.,.<.l 6 6 6 6 6 a l % n 6 6 6 6 6 5 I &XOXw.}.|.v.6 6 9 0 0 9 8 y 8 % a k % 6 6 4 2 { E o + a d @ o E { 2 4 6 6 ",
"7.8.0.7.7.7.7.7.7.7.7.7.7.0.8.7.9.!.:XJ.K.L.oXM.m.iXJXJXiXQ.L C.A.S.C.C.C.S.C.Z.S.S.!.^.F.Z.Z.F.C.C.C.C.C.C.C.C.C.C.C.C.C.C.Z.,XN.N.B.N.N.N.N.N.N.N.N.N.N.N.D.N.} E.T.B.B.B.B.N.N.N.N.N.B.N.N.N.N.B.N.N.8.G.X.q.7.B.8.7.0.0.7.0.9.I ].xXNXCXkXNXvX.XnXvX'.BX|.K 9.7.8.B.q.7.K '.zXJ /.vXL.7.B.7.7.7.7.7.7.7.B.8.7.7.7.7.0.0.9.K ].bX8.;.1Xe.kX X0.K.P.K.CXVXcXzX<XxXCXDXBXCXxXvXxXvXNXnX}.>.z j j j j x x z $.x ,.<.l 6 6 6 6 6 a l % n 6 6 6 6 6 5 I &XOXw.}.|.v.6 6 9 0 0 9 8 y 8 % a k % 6 6 4 { { X @ M =.-.;.6 o { { 4 6 6 ",
"HXHXHXHXHXHXHXHXHXHXHXHXHXHXHXHXHXJXJXJXHXJXJXHXiXm.Q.A.L e.C.C.Z.S.C.C.C.S.C.Z.S.S.!.^.F.Z.Z.F.C.C.C.C.C.C.C.C.C.C.C.C.C.C.N.:X!.7.B.N.N.N.N.N.N.N.N.N.N.N.D.N.} E.T.B.B.B.B.N.N.N.N.N.B.N.N.N.N.B.N.N.N.B.X.N.7.B.8.7.0.0.7.0.0.9.9.K '.NX.XBXnXNX*X1XhXDXkXq.8.7.7.K.L.L.J }.jXJ w.CXxXK B.7.7.7.7.7.7.7.B.8.9.7.7.8.9.!.U -. XVXU L bX].kXr.r.K.P.Y.CX2XbXDX<XvXCXDX1XCXxXNXvXjXbXDXxXL.x j j j j x x z $.x ,.<.l 6 6 6 6 6 a l % n 6 6 6 6 6 5 I &XOXw.}.|.v.6 6 9 0 0 9 8 y 8 % a k % 6 6 e { ) o d M M M -.M o ) { e 6 6 ",
"h.h.v.h.h.h.h.h.h.h.h.h.h.h.h.h.T.`.J.K.r.H.| L L L L Z.A.C.C.C.C.S.C.C.C.S.C.Z.S.S.!.^.F.Z.Z.F.C.C.C.C.C.C.C.C.C.C.C.C.C.C.C.!.:XN.B.N.N.N.N.N.N.N.N.N.N.N.D.N.} E.T.B.B.B.B.N.N.N.N.N.B.N.N.N.N.B.N.N.N.B.H.| q.B.8.7.0.0.7.0.0.7.7.9.K fX].bX<X~.U 1XZX<XkXt.8.7.J.jXCXNXU vX|.K 8.kXxXJ K.7.7.7.7.7.7.7.V.e.OXOXOXU ;.]..XU  XVX$X*XnXkX X0.r.K.P.Y.CX.XBXDX~.bXCX1X1XCXvXNXvXfXkX2XCXfXc z j j j x x z $.x ,.<.l 6 6 6 6 6 a l % n 6 6 6 6 6 5 I &XOXw.}.|.v.6 6 9 0 0 9 y y 8 % a k % 6 6 i { R o k c n c M M X R { i 6 6 ",
"q.8.0.q.q.q.q.q.q.q.q.7.q.0.8.q.:Xu.8.e.C.O.C.C.C.C.C.S.S.C.C.C.C.S.C.C.C.S.C.Z.S.S.!.^.F.Z.Z.F.C.C.C.C.C.C.C.C.C.C.C.C.C.C.C.N.,X!.V.N.N.N.N.N.N.N.N.N.N.N.D.N.} E.T.B.B.B.B.N.N.N.N.N.B.N.N.N.N.B.N.N.N.B.B.X.N.0.8.7.0.0.7.0.0.7.7.7.7.7.7.'.6XOX;.0.2X+XkX'.;.L zXNXCXZX<XkXK 9.q.&XnXjX8.8.7.7.7.7.7.7.0.K.kX$X*X+X;. XzX$X XCX.XzXCXDX*Xt.r.K.Y.'.CX XbXhX!.bXCX.XkXVXVXDXNX1X$X2XCXfXc z j j j x x z $.x ,.<.l 6 6 6 6 6 a l % n 6 6 6 6 6 5 I &XOXw.}.|.v.6 6 9 0 0 9 8 8 8 % a k % 6 6 6 { { o i c c 6 c k o { { 6 6 6 ",
"7.0.B.7.7.7.7.7.7.7.7.7.7.B.9.e.>X0.w.w.| ^.C.C.C.C.C.S.S.C.C.C.C.S.C.C.C.S.C.Z.S.S.!.^.F.Z.Z.F.C.C.C.C.C.C.C.C.C.C.C.C.C.C.C.C.!.:XV.B.N.N.N.N.N.N.N.N.N.N.D.N.} E.T.B.B.B.B.N.N.N.N.N.B.N.N.N.N.B.N.N.N.B.B.| | 0.8.7.0.0.7.0.0.7.7.7.7.7.8.q.#Xu.9.9.OXU kX XI 1XCXZX2XBXZX`.J 8.:.U DXCXjX7.7.9.7.7.7.7.8.'.BXDXkXkXJ jXcX.XkXCXcXvXCXnXkXe.r.0.fXxXCX XcXjXe.bXZX.XjXBXnXDXNX>X6X2XCXjX=.z j j j x x z $.x ,.<.l 6 6 6 6 6 a l % n 6 6 6 6 6 5 I &XOXw.}.|.v.6 5 P %X%Xy.MXMXqX6 a l % 6 6 4 ) { @ o a c k 6 X @ { ) 4 6 6 ",
"7.8.B.7.7.7.7.7.7.7.7.7.7.B.:.:X~.0.w.w.O.F.C.C.C.C.C.S.S.C.C.C.C.S.C.C.C.S.C.Z.S.S.!.^.F.Z.Z.F.C.C.C.C.C.C.C.C.C.C.C.C.C.C.C.C.C.,XF.V.N.N.N.N.N.N.N.N.N.N.D.N.} E.T.B.B.B.B.N.N.N.N.N.B.N.N.N.N.B.N.N.N.B.B.N.X.B.7.7.0.0.7.0.0.7.7.7.7.7.7.7.8.7.7.7.9.K 1X2XDXCXCXNX$XhXCXw.7.7.9.K '.CXCXxXK K 7.7.7.0.K.K.CXZXBXzXU jXBXvXkXCXBXbXCXbXNX>XS.0.jXNXCX XkXjXe.bXDX`.jXDXDXDXCX<X6X1XCXjX>.z j j j x x z $.x ,.<.l 6 6 6 6 6 a l % n 6 6 6 6 6 5 I &XOXw.}.|.v.6 5 Y @X%Xy.MXMXqX6 a l % 6 6 6 i { { &   + + . & { { i 6 6 6 ",
"7.8.B.7.7.7.7.7.7.7.7.7.7.0.w.>Xw.w.w.H.| A.C.C.C.C.C.S.S.C.C.C.Z.S.C.C.C.S.C.Z.S.S.!.^.F.Z.Z.F.C.C.C.C.C.C.C.C.C.C.C.C.C.C.C.C.N.~.:XV.N.N.N.N.N.N.N.N.N.N.D.N.} E.T.B.B.B.B.N.N.N.N.N.B.N.N.N.N.B.N.N.N.B.B.7.| H.q.7.0.0.7.0.0.7.7.7.7.7.7.7.7.7.7.7.8.q.>XBXCXzX.X:XL Y.K.7.7.7.7.9.J ].VXCXvX}.K 7.r.NXNX'.xXhXZXbXbXkXNXCXNXNXZXvXNXVXNXZXhXfXjXNXCX|.&X~.A.cX2XOX`.6XnX2XnX<X$X.XCXhX9.z j j j x x z $.$.,.<.l 6 6 6 6 6 a l % n 6 6 6 6 6 5 I &XOXw.}.|.v.6 5 Y %X%Xy.MXMXqX6 a l % 6 6 6 4 2 7XR 4 @ @ 4 R 7X1 6 6 6 6 ",
"7.8.B.7.7.7.7.7.7.7.7.7.7.9.~.~.8.w.w.O.C.S.C.C.C.C.C.Z.S.C.C.C.C.S.C.C.C.S.C.Z.S.S.!.^.F.Z.C.F.C.C.C.C.C.C.C.C.C.C.C.C.C.C.C.C.C.C.,XC.N.N.N.N.N.N.N.N.N.N.D.N.} E.T.B.B.B.B.N.N.N.N.N.B.N.N.N.N.B.N.N.N.B.B.8.N.X.7.7.0.0.q.0.0.7.7.7.7.7.7.7.7.7.7.7.8.;.$X.XCX'.K e.;.q.7.7.7.7.7.7.9.L <X>XkXvXL.J jXVXbXCXjX}.CXNXNXkXZXCXNXhXCXBXhXNXNXCXcXzXjXCXNX Xw.r.A.kX2XU ~.6X1X<X$X~.$X.XNXxX9.z j j j x x z x x ,.<.l 6 6 6 6 6 a l % n 6 6 6 6 6 5 I &XOXw.}.|.v.6 5 Y %X%Xy.MXMXqX6 a l % 6 6 6 6 4 1 e 6 6 6 6 e 1 4 6 6 6 6 ",
"0.0.B.0.0.0.0.0.0.0.0.0.8.A.>Xw.w.w.H.O.C.F.S.Z.Z.Z.C.S.S.C.Z.Z.S.F.C.Z.Z.F.Z.S.F.!.^.^.F.S.S.F.Z.Z.Z.Z.Z.Z.Z.Z.Z.Z.Z.Z.Z.Z.Z.Z.Z.C.~.~.V.B.N.N.N.N.N.B.N.B.D.B.N.E.T.B.B.B.D.N.B.N.B.N.D.B.N.B.N.D.B.N.N.B.B.N.0.X.H.9.B.B.8.B.B.8.0.0.0.0.0.0.0.0.0.0.0.:.*XU jX}.8.K.0.0.0.0.0.0.0.0.0.0.!.$X6XxXNXhXhX<X`.CXjX}.NXNXvXnXCXkXS.}.CXVX].NXvXNXVXnXkXZXcX X0.K.L.<X<XP.~.6X6X*X6X!.OX XBXzXK.c z x z c c x %.%.<.<.l 6 6 6 6 6 a l % n 6 6 6 6 6 5 I &XOXw.}.|.v.6 5 Y %X%Xy.MXMXqX6 a l % 6 6 6 6 6 4 6 6 6 6 6 6 4 6 6 6 6 6 ",
"0.B.B.0.0.0.0.0.0.0.0.0.9.~.:X0.A.w.O.G.A.F.S.S.S.S.S.F.F.S.S.S.S.F.S.S.S.F.S.S.F.!.^.^.F.S.S.F.S.S.S.S.S.S.S.S.S.S.S.S.S.S.S.S.S.S.F.,XA.B.B.B.B.B.B.B.B.B.D.D.G.E.R.D.D.D.D.B.B.B.B.B.D.B.B.B.B.D.B.B.B.D.B.B.B.D.X.0.B.B.0.B.B.0.0.0.0.0.0.0.0.0.0.0.0.0.e.w.B.0.B.B.0.0.0.0.0.0.0.0.0.0.f.*X$XDXkX2XZXK.Y.CXjX'.NXvXzXBXCXK.8.K vXxX'.xXzXNXNXbXBX>X,X`.K.P.'.&X:Xv.:X*X*X,X6XU.B.jXDXkX'.n x x x %.%.$.%.%.<.<.l 6 6 6 6 6 a l % n 6 6 6 6 6 5 I &XOXw.}.|.v.6 5 Y %X%Xy.MXMXqX6 a l % 6 6 6 6 6 6 6 6 6 6 6 6 6 6 6 6 6 6 ",
"7.8.0.7.7.7.7.7.7.7.7.7.7.>Xe.w.w.G.X.e.C.S.C.C.C.C.C.Z.Z.C.C.C.C.S.C.C.C.S.C.Z.S.S.!.^.S.C.C.F.C.C.C.C.C.C.C.C.C.C.C.C.C.C.C.C.C.C.A.:X~.7.N.N.N.N.N.N.N.N.B.N.} E.T.B.B.B.B.8.N.N.N.N.B.N.N.N.N.B.N.N.N.B.B.N.N.B.X.} 9.0.q.0.0.7.7.7.7.7.7.7.7.7.7.7.7.7.7.7.7.7.7.B.7.7.7.7.7.7.7.7.7.7.V.U e.<XOX*XNX9.K.CXjXK r.xXjXZXNX7.7.K vXjX0.0.hXNXNXvXnXu.e.U.r.r.Y.r.r.t.u.*X*X&X*Xw.0. XDXDX'.v j j j x x z x x ,.<.l 6 6 6 6 6 a l % n 6 6 6 6 6 5 I &XOXw.}.|.v.6 5 Y %X%Xy.MXMXqX6 a k % 6 6 6 6 6 6 6 6 6 6 6 6 6 6 6 6 6 6 ",
"7.8.B.7.7.7.7.7.7.7.8.q.u.,X0.w.w.X.G.C.C.S.C.C.C.C.C.S.S.C.C.C.Z.S.C.C.C.S.C.Z.S.S.!.^.F.Z.Z.F.C.C.C.C.C.C.C.C.C.C.C.C.C.C.C.C.C.C.A.S.,XN.N.N.N.N.N.N.N.N.D.N.} E.T.B.B.B.B.N.N.N.N.N.B.N.N.N.N.B.N.N.N.B.B.N.N.B.G.X.0.0.7.0.0.7.7.7.7.7.7.7.7.7.7.7.7.7.8.7.7.7.8.B.7.7.7.7.7.7.7.7.7.7.B.7.:.U L +Xw.9.8.jXfXK 7.9.e.kXL.7.7.8.VXjX0.0.jXxXvXjXkX8.J.Y.r.r.Y.r.r.r.r.r.*X~.*XP.0. XDXDX}.v j z j x x z $.$.,.<.l 6 6 6 6 6 a l % n 6 6 6 6 6 5 I &XOXw.}.|.v.6 5 Y %X%Xy.MXMXqX6 e n % 6 6 6 6 6 6 6 6 6 6 6 6 6 6 6 6 6 6 ",
"7.8.B.7.7.7.7.7.7.7.8.7.>X!.w.w.G.O.C.C.C.S.C.C.C.C.C.S.S.C.C.C.C.S.C.C.C.S.C.Z.S.S.!.^.F.Z.Z.F.C.C.C.C.C.C.C.C.C.C.C.C.C.C.C.C.C.C.S.N.:X!.N.N.N.N.N.N.N.N.D.N.} E.T.B.B.B.B.N.N.N.N.N.B.N.N.N.N.B.N.N.N.B.B.N.N.B.8.X.G.0.7.0.0.7.7.7.7.7.7.7.7.7.7.7.7.7.7.7.7.7.8.B.7.7.7.7.7.7.7.7.7.7.B.8.8.9.9.8.7.7.9.:XOX;.8.7.8.8.q.0.K  XkX/.t.r.P.'.vXK.'.r.r.Y.r.r.Y.r.r.r.r.t.~.u.&Xr.0.].2XDX}.v j j j x x z $.x ,.<.l 6 6 6 6 6 a l % n 6 6 6 6 6 5 I &XOXw.}.|.v.6 5 Y %X%Xy.MXMXqX6 6 k c a a a a a a a a a a a a a a a a a a ",
"7.8.B.7.7.7.7.7.7.8.q.u.>X0.w.w.| H.C.C.C.S.C.C.C.C.C.S.S.C.C.C.C.S.C.C.C.S.C.Z.S.S.!.^.F.Z.Z.F.C.C.C.C.C.C.C.C.C.C.C.C.C.C.C.C.C.C.S.C.!.,XN.N.N.N.N.N.N.N.D.N.} E.T.B.B.B.B.N.N.N.N.N.B.N.N.N.N.B.N.N.N.B.B.N.N.B.8. .X.9.7.0.0.7.7.7.7.7.7.7.7.7.7.7.7.7.7.7.7.7.8.B.7.7.7.7.7.7.7.7.7.7.B.7.7.8.7.7.7.7.V.e.e.9.7.7.0.B.7.7.7.kXY.0.r.r.Y.P./.K.P.r.r.Y.r.r.Y.r.r.r.r.r.t.r.r.r.t.~.$XkX}.v j j j x x z $.x ,.<.l 6 6 6 6 6 a l % n 6 6 6 6 6 5 I &XOXw.}.|.v.6 5 Y %X%Xy.MXMXqX6 6 % i k l l l l l l l l l l l l l l l k k ",
"7.8.B.7.7.7.7.7.7.8.q.:Xu.A.w.C.O.C.C.C.C.S.C.C.C.C.C.S.S.C.C.C.C.S.C.C.C.S.C.Z.S.S.!.^.F.Z.Z.F.C.C.C.C.C.C.C.C.C.C.C.C.C.C.C.C.C.C.S.Z.N.:X!.N.N.N.N.N.N.N.D.N.} E.T.B.B.B.B.N.N.N.N.N.B.N.N.N.N.B.N.N.N.B.B.N.N.B.N.8.X.N.q.B.0.7.7.7.7.7.7.7.7.7.7.7.7.7.7.7.7.7.8.B.7.7.7.7.7.7.7.7.7.7.B.7.7.7.7.7.7.7.B.9.7.7.7.7.0.0.7.K ].kXK.r.r.r.Y.r.r.K.Y.r.r.Y.r.r.Y.r.r.r.r.r.r.r.r.r.t.~.$XkXNX%.j z j x x z $.x ,.<.l 6 6 6 6 6 a l % n 6 6 6 6 6 5 I &XOXw.}.|.v.6 5 Y %X%Xy.MXMXqX6 6 d a a a a a a a a a a a a a a a a a a a ",
"7.8.B.7.7.7.7.7.7.7.e.>X0.A.w.| | e.C.C.C.S.C.C.C.C.C.S.S.C.C.C.C.S.C.C.C.S.C.Z.S.S.!.^.F.Z.Z.F.C.C.C.C.C.C.C.C.C.C.C.C.C.C.C.C.C.C.S.Z.C.!.:XN.N.N.N.N.N.N.D.N.} E.T.B.B.B.B.N.N.N.N.N.B.N.N.N.N.B.N.N.N.B.B.N.N.B.N.8.| | q.B.0.7.7.7.7.7.7.7.7.7.7.7.7.7.7.7.7.7.8.B.7.7.7.7.7.7.7.7.7.7.B.7.7.7.7.7.7.7.B.8.7.7.7.7.0.0.7.q.kX].K.r.r.r.Y.r.r.K.Y.r.r.Y.r.r.Y.r.r.r.r.r.r.r.r.r.t.~.#XkXCX<.q z j x x z $.x ,.<.l 6 6 6 6 6 a l % n 6 6 6 6 6 5 I &XOXw.}.|.v.6 5 Y %X%Xy.MXMXqX6 a f.:.:.:.:.:.:.:.:.f.:.:.f.:.:.:.f.:.k k ",
"7.8.B.7.7.7.7.7.8.;.:X~.8.A.A.O.C.C.C.C.C.S.C.C.C.C.C.S.S.C.C.C.C.S.C.C.C.S.C.Z.S.S.!.^.F.Z.Z.F.C.C.C.C.C.C.C.C.C.C.C.C.C.C.C.C.C.C.S.Z.C.C.,XZ.N.N.N.N.N.N.D.N.} E.T.B.B.B.B.N.N.N.N.N.B.N.N.N.N.B.N.N.N.B.B.N.N.B.N.N.B.O.8.0.0.7.7.7.7.7.7.7.7.7.7.7.7.7.7.7.7.7.8.B.7.7.7.7.7.7.7.7.7.7.B.7.7.7.7.7.7.7.B.8.7.7.7.7.0.B.q.Y.kX0.Y.r.r.r.Y.r.r.K.Y.r.r.Y.r.r.Y.r.r.r.r.r.r.r.r.r.t.!.OX.XCX4.q z j x x z $.x ,.<.l 6 6 6 6 6 a l % n 6 6 6 6 6 5 I &XOXw.}.|.v.6 5 Y %X%Xy.MXMXqX6 a :.;.L.f.:.:.:.J.L.-.:.f.f.:.:.:.:.;.6 % ",
"7.8.B.7.7.7.7.8.7.w.>Xw.w.w.H.| e.C.C.C.C.S.C.C.C.C.C.S.S.C.C.C.Z.S.C.C.C.S.C.Z.S.S.!.^.F.Z.Z.F.C.C.C.C.C.C.C.C.C.C.C.C.C.C.C.C.C.C.S.Z.C.N.~.:XN.N.N.N.N.N.D.N.} E.T.B.B.B.B.N.N.N.N.N.B.N.N.N.N.B.N.N.N.B.B.N.N.B.N.N.B.H.| 0.B.7.7.7.7.7.7.7.7.7.7.7.7.7.7.7.7.7.8.B.7.7.7.7.7.7.7.7.7.7.B.8.7.7.7.7.7.7.B.0.7.7.7.7.0.B.J kX X0.Y.r.r.r.Y.r.r.K.Y.r.r.Y.r.r.Y.r.r.r.r.r.r.r.r.r.r.r.t.:XnX4.q z j x x z $.$.,.<.l 6 6 6 6 6 a l % n 6 6 6 6 6 5 I &XOXw.}.|.v.6 5 Y %X%Xy.MXMXqX6 a :.:.XX[.{.L.L.{.{.L.{.[.[.{.J.;.:.;.6 6 ",
"7.7.0.7.7.7.7.7.;.~.~.8.w.A.O.C.C.C.C.C.C.S.C.C.C.C.C.Z.Z.C.C.C.C.S.C.C.C.S.C.Z.S.S.!.^.S.C.C.F.C.C.C.C.C.C.C.C.C.C.C.C.C.C.C.C.C.C.S.C.C.C.C.,XC.N.N.N.N.N.B.N.} E.T.B.B.B.B.8.N.N.N.N.B.N.N.N.N.B.N.N.N.B.N.N.N.B.N.8.B.B.X.B.0.7.7.7.7.7.7.7.7.7.7.7.7.7.7.7.7.7.7.B.7.7.7.7.7.7.7.7.7.7.B.7.7.7.7.7.7.7.0.8.7.7.7.7.8.0.0.kXr.r.Y.r.r.r.Y.r.r.K.K.r.r.Y.r.r.Y.r.r.r.r.r.r.r.r.r.r.r.t.OX5XfX6 z j x x z x x ,.<.l 6 6 6 6 6 a l % n 6 6 6 6 6 5 I &XOXw.}.|.v.6 5 Y %X%Xy.MXMXqX6 a ;.L.{.XX[.{.XXXX[.XXL.XX{.{.L.-.:.-.6 6 ",
"B.B.P.B.B.B.B.B.A.>XS.A.w.H.O.S.F.F.F.F.F.F.F.F.F.F.F.F.F.F.F.F.F.F.F.F.F.F.F.F.!./.^.^.F.F.F.U.F.F.F.F.F.F.F.F.F.F.F.F.F.F.F.F.F.F.F.F.F.F.D.`.`.V.D.B.B.D.D.D.G.E.E.I.I.D.D.B.B.B.B.B.D.D.B.B.B.D.D.B.B.D.D.B.B.D.D.B.D.K.| H.K.B.B.B.B.B.B.B.B.B.B.B.B.B.B.B.B.B.B.P.B.B.B.B.B.B.B.B.B.B.P.B.B.B.B.B.B.B.P.B.B.B.B.B.K.B. XkXK.Y.T.Y.Y.Y.T.Y.Y.Y.T.Y.Y.T.Y.Y.T.Y.Y.Y.Y.Y.Y.Y.Y.Y.Y.Y.L.&X5XfXv %.%.%.%.%.2.2.<.<.l 6 6 6 6 6 a l % n 6 6 6 6 6 5 I &XOXw.}.|.v.6 5 Y %X%Xy.MXMXqX6 a :.J.:.J.J.J.L.J.L.{.J.L.J.L.J.:.:.k 6 6 ",
"8.0.B.8.8.8.0.:.~.:X0.w.w.O.G.C.C.C.C.C.C.F.Z.C.C.C.C.S.S.C.C.C.S.S.C.C.C.F.C.Z.S.!.^.^.F.Z.Z.F.C.C.C.C.C.C.C.C.C.C.C.C.C.C.C.C.C.C.S.S.C.C.C.C.,XA.N.N.N.N.D.N.} E.T.B.B.B.B.N.N.N.N.N.B.N.N.N.N.B.B.N.N.B.B.N.N.B.N.N.B.B.N.O.0.8.8.8.8.8.8.8.8.8.8.8.8.8.8.8.8.8.0.B.8.8.8.8.8.8.8.8.8.8.B.0.8.8.8.8.8.8.B.0.8.8.8.8.0.0.kX].r.K.Y.K.K.K.Y.K.K.K.Y.K.K.Y.K.K.Y.K.K.K.K.K.K.K.K.K.K.K.J.U 5XfXa x z c x x $.%.,.<.l 6 6 6 6 6 a l % n 6 6 6 6 6 5 I &XOXw.}.|.v.6 5 Y %X%Xy.MXMXqX6 a ;.M =.M M M M M ;.-.M M M M M M d 6 6 6 ",
"7.8.B.7.7.7.7.7.>Xe.w.w.G.O.C.C.C.C.C.C.C.S.C.C.C.C.C.Z.S.C.C.C.C.S.C.C.C.S.C.Z.S.S.!.^.F.Z.C.F.C.C.C.C.C.C.C.C.C.C.C.C.C.C.C.C.C.C.S.C.C.C.C.N.~.~.N.N.N.N.D.N.} E.T.B.B.B.B.N.N.N.N.N.B.N.N.N.N.B.N.N.N.B.B.N.N.B.N.N.B.B.7.| G.q.7.7.7.7.7.7.7.7.7.7.7.7.7.7.7.7.7.B.7.7.7.7.7.7.7.7.7.7.B.7.7.7.7.7.7.7.0.8.7.7.7.7.7.].kX0.r.K.Y.r.r.r.Y.r.r.K.K.r.r.Y.r.r.Y.r.r.r.r.r.r.r.r.r.r.r.t.e.>XfX6 z j x x z x x ,.<.l 6 6 6 6 6 a l % n 6 6 6 6 6 5 I &XOXw.|.|.v.6 5 Y @X%Xy.MXMXqX6 a k $ 6 6 6 6 6 6 % 6 6 6 6 6 6 6 6 6 6 6 ",
"7.8.B.7.7.8.;.~.:X8.w.w.O.H.C.C.C.C.C.C.C.S.C.C.C.C.C.S.S.C.C.C.Z.S.C.C.C.S.C.Z.S.S.!.^.F.Z.Z.F.C.C.C.C.C.C.C.C.C.C.C.C.C.C.C.C.C.C.S.Z.C.C.C.C.Z.,XN.N.N.N.D.N.} E.T.B.B.B.B.N.N.N.N.N.B.N.N.N.N.B.N.N.N.B.B.N.N.B.N.N.B.B.8.G.X.q.8.7.7.7.7.7.7.7.7.7.7.7.7.7.7.7.8.B.7.7.7.7.7.7.7.7.7.7.B.7.7.7.7.7.7.7.B.8.7.7.7.7.7.kX].0.r.K.Y.r.r.r.Y.r.r.K.Y.r.r.Y.r.r.Y.r.r.r.r.r.r.r.r.r.r.r.r.9.].jX8 z j x x z $.x ,.<.l 6 6 6 6 6 a l % n 6 6 6 6 6 5 P U I K v.v.,.6 5 A D D y.0X0X0X6 a l % 6 % 6 % % $ 6 6 6 6 6 6 6 6 6 6 6 6 ",
"7.8.B.7.7.7.7.>Xe.w.w.G.X.A.Z.C.C.C.C.C.C.S.C.C.C.C.C.S.S.C.C.C.C.S.C.C.C.S.C.Z.S.S.!.^.F.Z.Z.F.C.C.C.C.C.C.C.C.C.C.C.C.C.C.C.C.C.C.S.Z.C.C.C.C.N.:X!.N.N.N.D.N.} E.T.B.B.B.B.N.N.N.N.N.B.N.N.N.N.B.N.N.N.B.B.N.N.B.N.N.B.B.N.B.X.N.7.7.7.7.7.7.7.7.7.7.7.7.7.7.7.7.8.B.7.7.7.7.7.7.7.7.7.7.B.7.7.7.7.7.7.7.B.8.7.7.7.7.K.kXr.r.r.K.Y.r.r.r.Y.r.r.K.Y.r.r.Y.r.r.Y.r.r.r.r.r.r.r.r.r.r.r.r.0.].jX8 z j x x z $.x ,.<.l 6 6 6 6 6 a l % n 6 6 6 6 6 5 G I I J 1.1.*.6 5 A D D H 0X0X3.6 a l % 6 l d k k c e d 6 $ 6 6 6 6 6 6 6 6 ",
"7.8.B.7.8.q.u.>X0.w.w.| | A.Z.C.C.C.C.C.C.S.C.C.C.C.C.S.S.C.C.C.C.S.C.C.C.S.C.Z.S.S.!.^.F.Z.Z.F.C.C.C.C.C.C.C.C.C.C.C.C.C.C.C.C.C.C.S.Z.C.C.C.C.C.!.,XN.N.N.D.N.} E.T.B.B.B.B.N.N.N.N.N.B.N.N.N.N.B.N.N.N.B.B.N.N.B.N.N.B.B.N.B.H.| q.8.7.7.7.7.7.7.7.7.7.7.7.7.7.7.8.B.7.7.7.7.7.7.7.7.7.7.B.7.7.7.7.7.7.7.B.8.7.7.8.J  X X0.K.r.K.Y.r.r.r.Y.r.r.K.Y.r.r.Y.r.r.Y.r.r.r.r.r.r.r.r.r.r.r.r.0.].jX8 z j x x z $.x ,.<.l 6 6 6 6 6 a l % n 6 6 6 6 6 5 G I I J 1.1.*.6 5 A D D H 0X0X3.6 a l $ i J.M f.l J.6 =.M ;.a 6 6 6 6 6 6 6 ",
"7.8.B.7.8.q.:Xu.0.w.C.O.C.S.C.C.C.C.C.C.C.S.C.C.C.C.C.S.S.C.C.C.C.S.C.C.C.S.C.Z.S.S.!.^.F.Z.Z.F.C.C.C.C.C.C.C.C.C.C.C.C.C.C.C.C.C.C.S.Z.C.C.C.C.C.N.:X!.N.N.D.N.} E.T.B.B.B.B.N.N.N.N.N.B.N.N.N.N.B.N.N.N.B.B.N.N.B.N.N.B.B.8.B.B.X.N.7.7.7.7.7.7.7.7.7.7.7.7.7.7.7.8.B.7.7.7.7.7.7.7.7.7.7.B.7.7.7.7.7.7.7.B.8.7.7.7.8.kXY.r.r.r.K.Y.r.r.r.Y.r.r.K.Y.r.r.Y.r.r.Y.r.r.r.r.r.r.r.r.r.r.r.r.0.].jX8 z j x x z $.x ,.<.l 6 6 6 6 6 a l % n 6 6 6 6 6 5 G I I J 1.1.*.6 5 A D D H 0X0X3.6 a l $ i :.c :.e -.$ M :.-.n $ 6 6 6 6 6 6 ",
"7.8.B.7.7.e.>X0.w.w.| | e.S.C.C.C.C.C.C.C.S.C.C.C.C.C.S.S.C.C.C.C.S.C.C.C.S.C.Z.S.S.!.^.F.Z.Z.F.C.C.C.C.C.C.C.C.C.C.C.C.C.C.C.C.C.C.S.Z.C.C.C.C.C.C.!.:XN.N.D.N.} E.T.B.B.B.B.N.N.N.N.N.B.N.N.N.N.B.N.N.N.B.B.N.N.B.N.N.B.B.8.B.B.| | q.8.7.7.7.7.7.7.7.7.7.7.7.7.7.8.B.7.7.7.7.7.7.7.7.7.7.B.7.7.7.7.7.7.7.B.8.7.8.K ].kXB.r.r.r.K.Y.r.r.r.Y.r.r.K.Y.r.r.Y.r.r.Y.r.r.r.r.r.r.r.r.r.r.r.r.0.].jXr z j x x z $.x ,.<.l 6 6 6 6 6 a l % n 6 6 6 6 6 5 G I I J 1.1.*.6 5 A D D H 0X0X3.6 a l % e d e a 6 l % n l a a 6 6 6 6 6 6 6 ",
"7.8.B.7.;.:X~.0.w.C.O.C.C.S.C.C.C.C.C.C.C.S.C.C.C.C.C.S.S.C.C.C.Z.S.C.C.C.S.C.Z.S.S.!.^.F.Z.Z.F.C.C.C.C.C.C.C.C.C.C.C.C.C.C.C.C.C.C.S.Z.C.C.C.C.C.C.N.,XS.N.D.N.} E.T.B.B.B.B.N.N.N.N.N.B.N.N.N.N.B.N.N.N.B.B.N.N.B.N.N.B.B.8.B.B.N.X.N.7.7.7.7.7.7.7.7.7.7.7.7.7.7.8.B.7.7.7.7.7.7.7.7.7.7.B.7.7.7.7.7.7.7.B.8.7.7.q.kX].K.r.r.r.K.Y.r.r.r.Y.r.r.K.Y.r.r.Y.r.r.Y.r.r.r.r.r.r.r.r.r.r.r.r.0.].jXr z j x x z $.x ,.<.l 6 6 6 6 6 a l % n 6 6 6 6 6 5 G I I J 1.1.*.6 5 A D D H 0X0X3.6 a l % 6 6 6 6 6 6 6 % % 6 6 6 6 6 6 6 6 6 ",
"7.8.B.q.e.>X0.w.w.| | e.C.S.C.C.C.C.C.C.C.S.C.C.C.C.C.Z.S.C.C.C.C.S.C.C.C.S.C.Z.S.S.!.^.F.Z.C.F.C.C.C.C.C.C.C.C.C.C.C.C.C.C.C.C.C.C.S.C.C.C.C.C.C.C.N.!.:XV.D.N.} E.T.B.B.B.B.N.N.N.N.N.B.N.N.N.N.B.N.N.N.B.B.N.N.B.N.N.B.B.8.B.B.7.| | q.7.7.7.7.7.7.7.7.7.7.7.7.7.7.B.7.7.7.7.7.7.7.7.7.7.B.7.7.7.7.7.7.7.B.8.7.q.Y.kX0.Y.r.r.r.K.Y.r.r.r.Y.r.r.K.Y.r.r.Y.r.r.Y.r.r.r.r.r.r.r.r.r.r.r.r.0.].xXy j j x x z x x ,.<.l 6 6 6 6 6 a l % n 6 6 6 6 6 5 G I I J 1.1.*.6 5 A D D H 0X0X3.6 a l % 6 6 6 6 6 6 6 6 6 6 6 6 6 6 6 6 6 6 ",
"8.0.B.;.:X~.0.w.w.O.Z.C.C.S.Z.C.C.C.C.C.C.F.Z.C.C.C.C.S.S.C.C.C.Z.S.C.C.C.F.C.Z.S.!.^.^.F.Z.Z.F.C.C.C.C.C.C.C.C.C.C.C.C.C.C.C.C.C.C.S.S.C.C.C.C.C.C.C.C.,XZ.B.N.} E.T.B.B.B.B.N.N.N.N.N.B.N.N.N.N.B.N.N.N.B.B.N.N.B.N.N.B.B.N.B.B.N.N.X.8.8.8.8.8.8.8.8.8.8.8.8.8.8.8.B.8.8.8.8.8.8.8.8.8.8.B.8.8.8.8.8.8.7.B.0.0.K kX].K.Y.r.K.K.K.Y.r.K.K.Y.K.K.K.Y.r.K.Y.K.K.Y.K.K.K.K.K.K.K.K.K.K.K.K.r.].xXj z z x x z $.$.,.<.l 6 6 6 6 6 a l % n 6 6 6 6 6 5 G I I J 1.1.*.6 5 A D D H 0X0X3.6 a k 6 a a a a a a a a a a a a a a a a a a ",
"B.B.B.A.>XA.A.w.H.X.A.S.S.F.F.S.S.S.S.S.S.F.S.S.S.S.S.F.F.S.S.S.F.F.S.S.S.F.S.S.!.!.^.^.F.F.F.F.S.S.S.S.S.S.S.S.S.S.S.S.S.S.S.S.S.S.F.F.S.S.S.S.S.S.S.A.~.:XV.D.G.E.R.D.D.D.D.B.B.B.B.B.D.B.B.B.B.D.B.B.B.D.D.B.B.D.B.B.D.D.B.D.D.B.B.| H.0.B.B.B.B.B.B.B.B.B.B.B.B.B.K.B.B.B.B.B.B.B.B.B.B.K.B.B.B.B.B.B.B.B.B.0.Y.kXK.Y.Y.Y.Y.Y.Y.Y.Y.Y.Y.T.Y.Y.Y.Y.Y.Y.T.Y.Y.T.Y.Y.Y.Y.Y.Y.Y.Y.Y.Y.Y.Y.K.].xXx c x %.%.%.%.%.<.<.l 6 6 6 6 6 a l % n 6 6 6 6 6 5 G I I J 1.1.*.6 5 A D D H 0X0X3.6 a k 6 6 6 6 6 6 6 6 6 6 6 6 6 6 6 6 6 6 6 ",
"7.8.9.~.~.8.w.w.O.G.C.C.C.S.C.C.C.C.C.C.C.S.C.C.C.C.C.Z.S.C.C.C.C.S.C.C.C.S.C.Z.S.S.!.^.F.Z.C.F.C.C.C.C.C.C.C.C.C.C.C.C.C.C.C.C.C.C.S.C.C.C.C.C.C.C.C.C.C.,XF.N.} E.T.B.B.B.B.N.N.N.N.N.B.N.N.N.N.B.N.N.N.B.B.N.N.B.N.8.B.B.8.B.B.N.8.N.X.7.7.7.7.7.7.7.7.7.7.7.7.7.7.B.7.7.7.7.7.7.7.7.7.7.B.7.7.7.7.7.7.7.0.0.J  X X9.K.K.r.r.r.K.Y.r.r.r.Y.r.r.K.K.r.r.Y.r.r.Y.r.r.r.r.r.r.r.r.r.r.r.r.r.Y.xXy j j x x z x x ,.<.l 6 6 6 6 6 a l % n 6 6 6 6 6 5 G I I J 1.1.*.6 5 A D D H 0X0X3.6 a l % 6 6 6 6 6 6 6 6 6 6 6 6 6 6 6 6 6 6 ",
"7.8.B.>Xe.w.w.G.X.e.C.C.C.S.C.C.C.C.C.C.C.S.C.C.C.C.C.S.S.C.C.C.Z.S.C.C.C.S.C.Z.S.S.!.^.F.Z.Z.F.C.C.C.C.C.C.C.C.C.C.C.C.C.C.C.C.C.C.S.Z.C.C.C.C.C.C.C.C.N.~.~.V.} E.T.B.B.B.B.N.N.N.N.N.B.N.N.N.N.B.N.N.N.B.B.N.N.B.N.N.B.B.N.B.B.N.N.8.X.G.q.8.7.7.7.7.7.7.7.7.7.7.8.B.7.7.7.7.7.7.7.7.7.7.B.8.7.7.7.7.7.7.B.8.0.kXK.r.K.Y.r.r.r.K.Y.r.r.r.Y.r.r.K.K.r.r.Y.r.r.Y.r.r.r.r.r.r.r.r.r.r.r.r.r.Y.xXj j j x x z $.$.,.<.l 6 6 6 6 6 a l % n 6 6 6 6 6 5 G I I J 1.1.*.6 5 A D D H 0X0X3.6 a l % 6 % 6 % 6 $ 6 6 % 6 6 6 % 6 6 6 6 6 ",
"8.9.`.:X0.w.w.O.G.C.C.C.C.S.C.Z.C.C.C.C.C.S.C.C.C.C.C.S.S.C.C.C.Z.S.C.Z.C.S.C.Z.S.S.!.^.F.Z.Z.F.C.C.C.C.C.C.Z.C.C.C.C.C.C.C.C.C.C.C.S.Z.C.C.C.C.C.Z.C.C.C.Z.,XN.} E.T.B.B.B.B.N.N.N.N.N.B.B.N.N.N.B.N.N.N.B.B.N.N.B.N.N.B.B.N.B.D.N.N.8.G.X.7.7.7.7.7.7.7.7.7.7.7.7.7.B.0.0.8.7.7.7.7.7.7.7.B.7.7.7.7.7.7.7.B.8. XkX0.r.K.Y.r.r.r.K.Y.r.r.r.Y.r.r.K.Y.K.K.Y.r.r.Y.r.r.r.r.r.r.r.r.r.r.r.r.r.Y.xXz j j x x z $.x ,.<.l 6 6 6 6 6 a l % n 6 6 6 6 6 5 G I I J 1.1.*.6 5 A D D H 0X0X3.6 a l % 6 =.l M n :.i a ;.a 6 6 k 6 6 6 6 6 ",
"7.7.>Xe.w.w.G.X.e.C.C.C.C.S.U.F./.F.C.C.C.S.C.C.C.C.C.S.S.C.C.C.C.F.U.F./.F.C.Z.S.S.!.^.F.Z.Z.F.C.C.C.C.C.U.F.(.F.C.C.C.C.C.C.C.C.C.S.Z.C.C.C.C.F.U.F./.C.N.:X~.} E.T.B.B.B.B.N.N.N.N.N.W.I.W.N.N.B.N.N.N.B.B.N.N.B.N.N.B.B.8.D.I.I.I.N.8.X.G.7.7.7.7.7.7.7.7.7.7.7.8.T.B.T.B.7.7.7.7.7.7.7.B.7.7.7.7.7.7.7.P.P.kX{.0.r.K.Y.r.r.r.K.Y.r.r.r.Y.r.r.Y.].T.].Y.r.r.Y.r.r.r.r.r.r.r.r.r.r.r.r.r.P.xXz j j x x z $.x ,.<.l 6 6 6 6 6 a l % n 6 6 6 6 6 5 G I I J 1.1.*.6 5 A D D H 0X0X3.6 a l $ i J.M J.a :.6 ;.a f.c n J.e 6 6 6 6 ",
"q.u.:X0.w.w.X.H.C.C.C.C.C.S.(.C.F.F.C.C.C.S.C.C.C.C.C.S.S.C.C.C.C./.F.C./.S.C.Z.S.S.!.^.F.Z.Z.F.C.C.C.C.C.(.C.U.U.C.C.C.C.C.C.C.C.C.S.Z.C.C.C.C./.S.(.).C.C.!.,X} E.T.B.B.B.B.N.N.N.N.B.W.N.W.B.8.B.N.N.N.B.B.N.N.B.N.N.B.B.8.I.D.I.W.N.8.G.X.q.8.7.7.7.7.7.7.7.7.7.0.T.q.I.0.7.7.7.7.7.7.7.B.8.7.7.7.7.7.7.I.].kXT.r.r.K.Y.r.r.r.K.Y.r.r.r.Y.r.r.Y.].K.{.T.r.r.Y.r.r.r.r.r.r.r.r.r.r.r.r.r.P.xXz j j x x z $.x ,.<.l 6 6 6 6 6 a l % n 6 6 6 6 6 5 G I I J 1.1.*.6 5 A D D H 0X0X3.6 a l $ a -.k -.6 -.$ =.M -.;.:.;.6 6 6 6 6 ",
"q.>X!.0.w.C.O.C.C.C.C.C.C.S.F.F.S.S.C.C.C.S.C.C.C.C.C.Z.S.C.C.C.C.S.F.U.U.S.C.Z.S.S.!.^.F.Z.C.F.C.C.C.C.C.F.F.F.S.C.C.C.C.C.C.C.C.C.S.Z.C.C.C.C.Z.U.S.F.C.C.A.:X!.W.T.B.B.B.B.N.N.N.N.N.I.D.D.N.N.B.N.N.N.B.B.N.N.B.N.N.B.B.8.B.I.B.I.N.N.8.X.N.7.7.7.7.7.7.7.7.7.7.7.I.B.B.7.7.7.7.7.7.7.7.B.7.7.7.7.7.7.7.B.kX XP.r.r.K.Y.r.r.r.K.Y.r.r.r.Y.r.r.K.].Y.Y.Y.r.r.Y.r.r.r.r.r.r.r.r.r.r.r.r.r.P.xXz j j x x z $.x ,.<.l 6 6 6 6 6 a l % n 6 6 6 6 6 5 G I I J 1.1.*.6 5 A D D H 0X0X3.6 a l % 6 e 6 6 6 a 6 6 c 6 d d a i 6 6 6 6 ",
"u.>XA.w.w.| | C.C.C.C.C.C.S.C.C.C.C.C.C.C.S.C.C.C.C.C.S.S.C.C.C.C.S.C.C.C.S.C.Z.S.!.!.^.F.Z.Z.F.C.C.C.C.C.C.C.C.C.C.C.C.C.C.C.C.C.C.S.Z.C.C.C.C.C.C.C.C.C.Z.S.!.:XW.R.B.B.B.B.N.N.N.N.N.B.N.N.N.N.B.N.N.N.B.B.N.N.B.N.N.B.B.N.B.B.N.N.N.N.8.| | 9.8.7.7.8.7.7.8.8.7.8.0.7.7.7.8.8.7.8.8.8.7.B.8.8.7.8.8.7.q.Y.kX0.r.K.K.K.Y.r.K.K.K.Y.K.r.r.Y.K.r.K.K.r.r.Y.K.K.Y.K.K.K.K.r.K.K.r.r.r.r.r.r.P.xX$.j j x x z $.x ,.<.l 6 6 6 6 6 a l % n 6 6 6 6 6 5 G I I J 1.1.*.6 5 A D D H 0X0X3.6 a l % 6 6 6 6 6 6 6 6 $ 6 % % 6 6 6 6 6 6 ",
">Xu.R./.).O.C.(.(.C./.).C.F.U.(.(.C.U.).C.F.(.(.(.C.F.).Z.S.).F.C.(.F.).S.C.)./.Z./.^.^.F.Z.).U.C.(.(.C.U.U.(.(.C.U.(.C.F.(.(.(.C.U.).C.S.).S.C.(.F.).Z.S.).F.C.,X_.{.I.B.E.I.8.W.U.8.I.I.W.I.8.U.W.8.I.W.W.U.8.I.E.N.D.E.B.B.U.I.E.N.B.E.B.N.O.I.R.0.0.E.B.7.R.I.q.I.P.R.P.7.R.T.q.I.T.R.P.7.T.R.7.P.E.0.8.kXkX].r.Y.{.K.K.].].{.K.Y.{.Y.K.{.T.r.].T.{.Y.r.{.].r.].].{.T.r.].{.Y.r.r.r.r.r.r.xX$.j j x x z $.$.,.<.l 6 6 6 6 6 a l % n 6 6 6 6 6 5 G I I J 1.1.*.6 5 A D D H 0X0X3.6 a l 6 6 6 6 6 6 6 6 6 6 6 6 6 6 6 6 6 6 6 ",
">X8././.oXH.e.).(.C.(.).C.F./.(.(.C.U._.C.F.(.(.).C.F._.Z.S._.F.C.(.F._.S.C._./.Z.).^.^.F.Z.)./.C.(.).C.U.U.(.(.C./.).C.F.(.(.(.C.U._.C.F._.F.Z.(.U._.Z.S._.F.C.`.1X{.I.B.E.I.8.E.W.8.I.I.E.I.8.W.E.8.I.W.E.W.8.U.E.N.D.E.B.B.W.I.E.N.B.).D.B.O.O.].0.0.{.K.7.E.I.q.T.P.E.P.7.R.T.q.I.T.E.I.q.T.R.7.P.{.8.K.kX].{.r.Y.{.K.K.{.].{.K.Y.{.Y.K.{.].r.].T.{.Y.r.{.].r.].].{.T.r.{.{.Y.r.r.r.r.r.r.xX$.j j x z z x x ,.<.l 6 6 6 6 6 a l % n 6 6 6 6 6 5 G I I J 1.1.*.6 5 A D D H 0X0X3.6 a k 6 a a a a a 9 9 a i 9 a a a a a a a a ",
"`.8././.O.F.C.).(.C./.).C.F./.(.(.C.U._.C.F.(.(.).C.F._.S.S._.F.C.(.F._.S.C._./.Z.).^.^.F.Z.)./.C.(.).C.U.U.(.(.C./.).C.F.(.(.(.C.U._.C.F._.F.Z.(.U._.Z.S._.F.Z.(.,X_.I.B.E.I.N.E.W.8.I.I.E.I.8.W.E.8.I.W.E.W.8.U.E.N.D.E.B.B.U.I.E.N.B.E.D.N.E.O.E.0.0.{.K.7.E.I.q.T.P.E.P.7.R.T.q.I.T.E.I.7.T.R.7.P.{.q. XkXT.{.r.Y.{.K.Y.{.].{.K.Y.{.Y.K.{.T.r.].T.{.Y.r.{.].r.].].{.T.r.{.{.Y.Y.Y.Y.Y.Y.P.zX2.x x %.%.%.&.%.<.<.l 6 6 6 6 6 a l % n 6 6 6 6 6 5 G I I J 1.1.*.6 5 A D D H 0X0X3.6 a l % 6 6 6 6 # @.n.iXiXx.y # 6 6 6 6 6 6 ",
"U.e./.^.O.U.C.).(.C./.).C.F./.(.(.C.U._.C.F.(.(.).C.F._.Z.S._.F.C.(.F._.S.C._./.Z.).^.^.F.Z.)./.C.(.).C.U.U.(.(.C./.).C.F.(.(.(.C.U._.C.S._.S.C.(.U._.Z.S._.F.Z.U.`.1XL.B.E.I.8.E.W.8.I.I.E.I.8.W.E.8.I.W.E.W.8.I.E.N.D.E.B.B.U.I.E.N.B.E.B.N.R.X.oX0.0.{.B.7.E.I.q.T.P.E.P.q.R.T.q.I.T.E.I.q.T.R.q.P.].8.kX{.T.{.r.Y.{.K.K.{.].{.K.Y.{.Y.r.{.T.r.].T.{.Y.r.{.].r.].].{.T.r.{.{.Y.K.K.K.K.K.P.zX2.v x %.c x %.%.<.<.l 6 6 6 6 6 a l % n 6 6 6 6 6 5 G I I J 1.1.*.6 5 A D D H 0X0X3.6 a l % 6 6 6 6 m.KXLXn.iXLXKXa.# 6 6 6 6 6 ",
"R.w./.O._.U.Z.).(.C.(.).A.U.U.(.(.C./._.S.F.(.(.).Z.U._.S.F._.F.S.(.F._.F.S._./.S.).^.^.F.S.)./.C.(.).C./.U.(.(.C.(.).Z.U.(.(.(.C./.).S.F._.F.S.(.U._.S.F._.F.S.(._.2XU.D.E.I.N.E.W.N.U.I.E.U.N.W.E.N.I.W.E.W.N.W.E.B.I.E.B.D.U.I.E.B.D.E.D.B.E.W.O.B.B.{.P.0.E.T.8.T.P.E.P.0.R.T.8.T.T.E.T.8.R.R.0.I.R.].kXT.].{.K.T.{.Y.Y.{.].{.K.T.{.Y.Y.{.].K.].T.{.T.K.{.].K.].].{.].K.{.{.Y.r.r.r.r.r.0.zX&.a j x x z x x ,.<.l 6 6 6 6 6 a l % n 6 6 6 6 6 5 G I I J 1.1.*.6 5 A D D H 0X0X3.6 a l % 6 6 # x.LXs.      @ iXLXu % 6 6 6 i ",
"/./._.O.).(.(._.(.(.).)./._.U.(.).(.).)./.).(.(.)./.).).(.).).(.(.).F._.(.)._.(.(._.^.^.(.(._.(.(.).)./._.U.(.).(.).).(.).(.(.).(.).).(.).).(.).(.F._.(.).).(.(.(._.1X:XE.E.W.W.E.E.U.E.D.W.E.W.E.E.U.E.U.E.E.W.E.E.U.E.E.U.E.U.I.E.I.E.E.W.E.E.T.O.H.].E.T.R.{.R.T.{.P.R.R.T.].R.T.{.T.R.R.T.].R.T.].R.kX XT.].{.].{.{.].{.{.].{.].{.{.].{.{.{.].{.T.{.].{.{.{.].{.].{.].].{.{.Y.r.r.r.r.r.0.zX2.j j x x z $.$.,.<.l 6 6 6 6 6 a l % n 6 6 6 6 6 5 G I I J 1.1.*.6 5 A D D H 0X0X3.6 a l % 6 # u KXs.. % l k * @ iXiX% 6 6 6 i ",
")./.O.(.).(.(._.).(._.).(._.U.(._.(._._.(.).(.(._.(._._.(.)._.(.).).F._.(.)._.(.(._.^.^.(.(._.(.(._.).(._.U.(.).(._.).(._.(.).).(._._.(.)._.(.).(.U._.(.)._.(.).)._..X>XE.E.W.W.E.E.U.).D.E.E.W.E.E.W.E.W.E.E.W.E.E.W.E.E.W.E.W.I.).U.E.E.W.E.E.W.).O.].{.T.R.{.R.T.{.P.E.R.R.{.R.T.{.T.E.R.T.{.E.T.E..XkX{.].].{.].{.{.].{.{.].{.].{.{.].{.{.{.{.{.T.{.{.{.{.{.].{.].{.{.{.{.{.Y.r.r.r.r.r.0.zX,.a j x x z $.x ,.<.l 6 6 6 6 6 a l % n 6 6 6 6 6 5 G I I J 1.1.*.6 5 A D D H 0X0X3.6 a l % 6 # x.LX5 + M =.;.n . x.LXy % 6 6 6 ",
"w.F.O.A.F.S.S.F.S.S.F.F.S.F.S.S.F.S.F.F.S.F.S.S.F.S.S.F.F.S.F.S.F.F.Z.F.S.F.F.S.!./.^.^.F.F.F.F.S.F.F.S.F.S.S.S.S.F.F.S.F.S.S.S.S.S.F.S.S.F.S.F.S.Z.F.S.S.F.F.F.S.).E.:X`.B.D.B.D.B.B.D.D.B.B.B.B.D.B.B.B.D.D.B.B.D.B.B.D.D.B.D.B.B.B.B.D.B.B.B.B.B.X.G.0.B.B.B.B.0.B.B.B.B.B.B.B.0.B.0.B.B.K.B.B.B.8.kX XK.Y.Y.Y.Y.Y.Y.Y.T.Y.Y.Y.Y.T.Y.Y.Y.T.Y.Y.Y.Y.Y.Y.T.Y.Y.T.Y.Y.Y.Y.Y.Y.Y.K.r.r.r.r.K.0.hX,.a j x x z $.$.,.<.l 6 6 6 6 6 a l % n 6 6 6 6 6 5 G I I J 1.1.*.6 5 A D D H 0X0X3.6 a l % 6 # n.iXX 6 n n M =.+ u KXu # 6 6 6 ",
"w.O.H.e.C.C.C.C.C.C.C.C.C.S.C.C.C.C.C.C.C.S.C.C.C.C.C.Z.Z.C.C.C.C.S.C.C.C.S.C.Z.S.S.!.^.S.C.C.F.C.C.C.C.C.C.C.C.C.C.C.C.C.C.C.C.C.C.S.C.C.C.C.C.C.C.C.C.C.C.S.C. .).R.S.,XB.B.8.N.N.N.8.B.N.8.8.8.B.N.N.8.N.N.N.N.B.N.8.B.N.8.B.B.8.N.N.N.N.N.N.N.8.G.| q.7.7.7.7.7.7.B.q.q.7.7.7.7.7.7.7.7.B.7.q.q.r.kXr.r.Y.K.r.r.r.r.K.K.r.r.r.r.K.r.r.r.Y.r.r.K.K.r.r.Y.r.r.Y.r.r.r.r.r.r.r.r.r.r.r.r.K.0.hX,.a j x x z x x ,.<.l 6 6 6 6 6 a l % n 6 6 6 6 6 5 G I I J 1.1.*.6 5 A D D H 0X0X3.6 a l % 6 # x.LX5 + n l a c . s.LXy % 6 6 6 ",
"G.O.S.F.U.U.C.C.C.C.C.C.C.S.F.U.U.A.C.C.C.S.C.C.C.C.C.Z.U.I.U.F.C.S.C.C.C.S.C.Z.S.S.!.^.F.Z.Z.F.U.F.U.U.A.C.C.C.C.C.C.C.C.C.C.C.C.C.S.S.U.U.U.U.C.C.C.C.C.C.F.U.F..X{.D.:X!.V.N.N.N.N.N.B.I.B.I.I.I.N.N.N.B.B.N.N.B.N.N.B.B.N.B.D.D.B.N.N.N.N.N.N.N.8.X.N.7.7.7.7.7.8.B.K.K.0.7.7.7.7.7.7.7.B.B.Y.7. X X0.r.Y.K.r.r.r.r.K.Y.T.Y.K.K.Y.r.r.r.Y.r.r.K.Y.r.r.Y.r.r.Y.Y.Y.T.Y.K.r.r.r.r.r.r.r.K.8.hX<.q j x %.*.:.*.<.<.l 6 6 6 6 6 a l % n 6 6 6 6 6 5 G I I J 1.1.*.6 5 A D D H 0X0X3.6 a l % 6 # @.LX@.. 6 k 6   * m.iX6 6 6 6 % ",
"| H.A.A.E.U.A.C.C.C.C.C.C.S.S.E.U.F.C.C.C.S.C.C.C.C.C.Z.F.W.R.U.C.S.C.C.C.S.C.Z.S.S.!.^.F.Z.Z.F.U.U.E.E.U.C.C.C.C.C.C.C.C.C.C.C.C.C.S.C.U.U.E.U.F.C.C.C.C.C.S.U.E.).{.I.!.,XB.N.N.N.N.N.B.I.T.I.T.I.N.N.N.B.B.N.N.B.N.N.B.B.N.B.D.I.E.B.N.N.N.N.N.N.8.| | q.8.7.7.7.8.B.B.].Y.7.7.7.7.7.7.7.B.0.T.{.kXK.r.r.Y.K.r.r.r.r.K.Y.T.{.Y.r.Y.r.r.r.Y.r.r.K.Y.r.r.Y.r.r.Y.Y.].T.{.Y.r.r.r.r.r.r.r.K.8.hX4.q j x x :.:.L.'.<.l 6 6 6 6 6 a l % n 6 6 6 6 6 5 G I I J 1.1.*.6 5 A D D H 0X0X3.6 a l % 6 6 6 m.LX@.  X X + iXLX@.# 6 6 6 % ",
"X.C.S.U.U.U.C.C.C.C.C.C.C.S.F.U.U.A.C.C.C.S.C.C.C.C.C.C.S.I.R.D.C.S.C.C.C.S.C.Z.S.S.!.^.S.C.C.S.A.I.U.U.A.C.C.C.C.C.C.C.C.C.C.C.C.C.Z.F.R.I.U.U.A.C.C.C.C.C.F.U.U.{.{.U.A.,X!.7.N.N.N.N.B.B.I.I.I.I.N.N.N.B.B.N.N.B.N.N.B.B.8.B.B.B.I.B.N.N.N.N.N.N.N.N.X.8.7.7.7.7.7.B.Y.K.K.7.7.7.7.7.7.7.0.B.B. X X0.r.r.K.K.r.r.r.r.K.Y.Y.].Y.r.Y.r.r.r.Y.r.r.K.K.r.r.Y.r.r.Y.K.Y.T.].Y.r.r.r.r.r.r.r.r.8.kX4.q j z -.:.:.:.'.<.l 6 6 6 6 6 a l % n 6 6 6 6 6 5 G I I J 1.1.*.6 5 A D D H 0X0X3.6 a l % 6 6 6 r iXx.# 6 6 6 KXx.% 6 6 6 6 6 ",
"H.S.F.S.S.S.Z.S.S.S.S.S.Z.F.F.Z.S.Z.S.S.Z.F.S.Z.S.S.Z.F.F.Z.Z.Z.S.F.Z.S.S.F.Z.S.!.!.^.^.F.S.S.F.Z.Z.Z.Z.Z.S.S.S.S.S.S.S.S.S.S.S.S.Z.F.S.S.S.Z.S.Z.S.S.S.Z.S.F.F.G._.).F.F.!.,XV.B.B.B.B.D.B.N.B.N.D.B.B.N.D.D.N.B.D.B.N.D.D.N.D.D.N.N.B.B.B.B.B.B.B.B.0.H.| 9.0.0.0.0.B.0.0.0.0.0.0.0.0.0.0.B.0.0.kX].K.P.K.Y.Y.K.K.K.K.Y.Y.K.K.K.Y.Y.K.P.K.T.P.K.Y.Y.K.K.T.K.K.T.K.K.P.K.K.K.K.K.K.K.K.K.Y.0.kX4.q z x x x $.$.,.<.l 6 6 6 6 6 a l % c 6 6 6 6 6 5 G I I J 1.1.*.6 5 A D D H 0X0X3.6 a l % 6 6 6 % e # # 6 6 & 6 6 6 6 6 6 6 6 ",
"J J J N J J J J J J J J N J J N J J J J N J J J J J N J J N J N J J N J J J J J J J K K J J J J J J J J J J J J J J J J J J J J J N J J N J J J J J J J J J J J J K J J J N L J N N N N N N N N N N N N N N N N N N N N N N N N N N N N N N N N N N N N B } b b N b N N b N N b N N N N N b N b >.'.N >.>.>.>.>.>.>.>.>.>.>.>.>.>.>.>.>.>.>.>.>.>.>.>.>.>.>.>.>.>.>.>.>.>.>.>.>.>.>.>.>.>.>.N '.2.6 a j j a j j z >.d 6 6 6 6 6 a l % n 6 6 6 6 6 5 G I I J 1.1.*.6 5 A D D H 0X0X3.6 a l % 6 6 6 6 % s.iXiXiXm.u # 6 6 6 6 6 6 ",
"l l l l l l l l l l l l l l l l l l l l l l l l l l l l l l l l l l l l l l l l l l l l l l l l l l l l l l l l l l l l l l l l l l l l l l l l l l l l l l l l l l l l l l l l l l l l l l l l l l l l l l l l l l l l l l l l l l l l l l l l l l l l l l l l l l l l l l l l l l l l l l l l l k l l l l l l l l l l l l l l l l l l l l l l l l l l l l l l l l l l l l l l l l l l l l l k l c c l c c l l l d 6 6 6 6 6 6 6 c n l 6 6 6 6 6 5 G I I J 1.1.*.6 5 A D D H 0X0X3.6 a l % 6 6 6 r iXKXKXx.m.KXKXs.# 6 6 6 6 6 ",
"6 6 6 6 6 6 6 6 6 6 6 6 6 6 6 6 6 6 6 6 6 6 6 6 6 6 6 6 6 6 6 6 6 6 6 6 6 6 6 6 6 6 6 6 6 6 6 6 6 6 6 6 6 6 6 6 6 6 6 6 6 6 6 6 6 6 6 6 6 6 6 6 6 6 6 6 6 6 6 6 6 6 6 e e e e e e e e e e e e e e 6 6 6 6 6 6 6 6 6 6 6 6 6 6 6 6 6 6 6 6 6 6 6 6 6 6 6 6 6 6 6 6 6 6 6 6 6 6 6 6 6 6 6 6 6 6 6 6 6 6 6 6 6 6 6 6 6 6 6 6 6 6 6 6 6 6 6 6 6 6 6 6 6 6 6 6 6 6 6 6 6 6 6 6 6 6 6 6 6 6 6 6 6 6 6 6 6 6 6 6 6 6 6 6 6 6 6 6 6 6 % % 6 6 % $ 6 6 6 6 5 G I I J 1.v.*.6 5 A D D H 0X0X0X6 a l % 6 6 % n.LXa..     + iXiXy % 6 6 6 6 ",
"6 6 6 6 6 6 6 6 6 6 6 6 6 6 6 6 6 6 6 6 6 6 6 6 6 6 6 6 6 6 6 6 6 6 6 6 6 6 6 6 6 6 6 6 6 6 6 6 6 6 6 6 6 6 6 6 6 6 6 6 6 6 6 6 6 % % % % % % % % % % % % % % % 6 6 6 # & & & & & & & & & & & & # 6 e 6 6 6 % % % % % % % % % % % % % % % % % % % % % 6 6 i 6 6 6 6 6 6 6 6 6 6 6 6 6 6 6 6 6 6 6 6 6 6 6 6 6 e 6 6 6 6 6 6 6 6 6 6 6 6 6 6 6 6 6 6 6 6 6 6 6 6 6 6 6 6 6 6 6 6 6 6 6 6 6 6 6 6 6 6 6 6 6 6 6 6 6 6 6 6 6 6 6 l k % c a c 6 6 6 6 5 G I I J 1.1.*.6 5 A D D b 0X0X3.6 a l % 6 # @.KX@.. 6 n c     x.x.6 6 6 6 6 ",
"6 6 6 6 6 6 6 6 6 6 6 6 6 6 6 6 6 6 6 6 6 6 6 6 6 6 6 6 6 6 6 6 6 6 6 6 6 6 6 6 6 6 6 6 6 6 6 6 6 6 6 6 6 6 6 6 6 6 6 6 6 6 6 6 6 l l l l l l l l l l l l l l k 6 6 6 d.z.z.z.z.z.z.z.z.z.z.z.z.d.6 i i % a l l l l l l l l l l l l l l l l l l l l k 6 6 a 6 6 6 6 6 6 6 6 6 6 6 6 6 6 6 6 6 6 6 6 6 6 6 6 i a % a M n n n n n n n n n n n n n n n n n n n n M n n M n n n n n n n n n n n n n n n n n n n n n M a 6 6 6 6 e ;.=.k -.J.;.c % 6 6 6 6 4 4 4 4 4 4 6 6 6 6 6 6 6 6 6 6 a k % 6 # x.LX5 @ M M d a   a.iXr % 6 6 6 ",
"d a d d d d d d d d d d d d d a a a a 6 6 6 6 % 6 6 6 6 6 6 6 6 6 6 6 6 % 6 6 6 a a d d d a d d a a a a d d d d a a a a a 6 6 6 a =.l l l l l l l l l l l l l =.e % t GXyXyXyXyXyXyXyXyXyXyXyXyXGXt 9 i $ l M l l k l l l l l l l l l l l l l l k l =.i 6 a 6 6 6 6 6 6 6 6 6 6 6 6 6 6 6 6 6 6 6 6 6 6 6 6 e a $ k n d k k k k k k k k k k k k k k k k d d d a d d d d k k k k k k k k k k k k k k k k k k k d M a % 6 6 6 e -.-.M =.J.-.c % 6 6 6 4 2 2 2 3 _ 2 4 6 5 9 p 0 0 0 0 $ d k % 6 # n.iXX 6 n n l =.+ t n.y % 6 6 6 ",
"k M a a a a a d d d d d d d d i M XXl 6 6 6 % l M k ;.6 M a 6 a 6 a 6 a l a 6 6 =.M l a a M d d =.M -.=.a d d d a i [.L.e 6 6 6 a n d M l M n n d l l M n l d n e % t yXz.b.b.b.z.b.b.b.b.b.b.z.yXt 9 i % l k l M =.M n M c M l M d n n M l k M -.d n i 6 a 6 6 6 6 6 6 6 6 6 6 6 6 6 6 6 6 6 6 6 6 6 6 6 6 e a $ k c a d d d d d d d d d d d d d d a k M l :.:.l M M M a d d d d d d d d d d d d d d d d d d a n a 6 6 6 6 6 l l a n d n 6 6 6 6 6 f _ _ +._ { _ 4 6 9 0 G P g 0 g 5 d k % 6 # x.LX5 + c n M l . a.iXr % 6 6 6 ",
"f.J.:.f.:.:.J.k a d d d d d d i ;.[.=.6 6 6 % n =.:.6 $ ;.;.-.-.-.-.;.;.J.l 6 6 L.L.-.f.:.J.-.d L.J.f.;.a d d d a d L.L.a 6 6 6 a n l L.J.J.J.-.c L.J.f.f.J.a M e % t FXb.yXb.yXb.yXyXyXyXyXyXz.FXt 9 i % l k ;.;.;.J.:.J.J.J.:.-.-.:.:.L.:.l :.f.d M i 6 a 6 6 6 6 6 6 6 6 6 6 6 6 6 6 6 6 6 6 6 6 6 6 6 6 e a $ k c a d d d d d d d d d d d d d d a l :.k :.L.J.:.{.l a a a d d d d d d d d d d d d d d d d a n a 6 6 6 6 6 % % % @ @ @ 6 6 6 6 6 i f 2 _ 2 _ 2 4 6 6 0 g g p G 0 5 a k % 6 # @.KXa.. $ a a * + x.x.6 6 6 6 6 ",
"f.J.L.L.-.;.f.n a d d d d d d e :.XXM 6 6 6 6 a :.:.n 6 -.:.:.-.;.-.M :.:.l 6 6 J.l J.J.;.[.J.a L.J.;.M a d d d a d {.[.a 6 6 6 a c n ;.M J.f.-.M J.J.:.f.f.d M e % t FXb.yXb.yXb.b.yXb.yXb.yXb.FXt 9 i % l l c f.=.:.;.J.f.:.;.:.M =.L.M ;.:.;.-.a M i 6 a 6 6 6 6 6 6 6 6 6 6 6 6 6 6 6 6 6 6 6 6 6 6 6 6 e a $ k c a d d d d d d d d d d d d d d d k J.-.J.=.L.f.J.;.M =.l a d d d d d d d d d d d d d d d a n a 6 6 6 6 6 6 6 c M =.a 6 6 6 6 6 4 6 6 4 4 i 6 6 6 6 6 7 5 6 7 6 % a k % 6 6 % n.LXs.  X   @ x.iXy % 6 6 6 6 ",
"-.M M M l l n l d d d d d d d a l [.k e 6 6 6 a a 6 k 6 i a 6 d 6 d 6 a i d 6 6 n a n n c M M k -.=.l l a d d d a i J.f.i 6 6 6 a n a a a d l l a k d l l d a n e % t yXz.z.z.b.b.z.z.b.z.z.b.z.yXt 9 i % l l k k d k l a k l k l a l k a k n l d a n i 6 a 6 6 6 6 6 6 6 6 6 6 6 6 6 6 6 6 6 6 6 6 6 6 6 6 e a $ k l a a a a a a a a a a a a a a a a a n n l d d k a l l l k a a a a a a a a a a a a a a a a a n a 6 6 6 6 6 6 n f.:.J.l % 6 6 6 6 4 2 _ _ 2 _ _ 4 6 % 8 5.#.#.#.#.$ a k % 6 6 6 6 iXs.# 6 6 6 x.@.% 6 6 6 6 6 ",
"a a a a a a a a a a a a a a a a a i a 6 6 6 6 6 6 6 % 6 6 % 6 % 6 % 6 6 6 % 6 6 a d a a a a a a a a a a a a a a a a a a i 6 6 6 a -.c n n n c c n n n c c n n =.e % r GXFXFXFXyXyXFXFXyXFXyXyXFXGXt 9 i $ l =.l n n n c n n c n c n c n n n l c n n =.e 6 a 6 6 6 6 6 6 6 6 6 6 6 6 6 6 6 6 6 6 6 6 6 6 6 6 e a $ k M k l l l l l l l l l l l l l l l l k k k l l l l l l k l l l l l l l l l l l l l l l l l k M a % 6 6 6 6 6 -.;.:.J.c % 6 6 6 4 3 _ _ _ _ _ 2 4 % 8 #.5.3.#.5.#.% e n 6 % 6 6 % 6 % % 6 6 % % % % 6 6 6 6 6 ",
"6 6 6 6 6 6 6 6 6 6 6 6 6 6 6 6 6 6 6 6 6 6 6 6 6 6 6 6 6 6 6 6 6 6 6 6 6 6 6 6 6 6 6 6 6 6 6 6 6 6 6 6 6 6 6 6 6 6 6 6 6 6 6 6 6 a a a a a d a a a a a a a a a 6 6 6 @.a.a.a.a.a.a.a.a.a.a.a.a.@.6 a a 6 e a a a a a d a a d a d a d a a a d a a a a 6 6 a 6 6 6 6 6 6 6 6 6 6 6 6 6 6 6 6 6 6 6 6 6 6 6 6 i a 6 a c l l l l l l l l l l l l l l l l l c l l l l l l l l l l l l l l l l l l l l l l l l l l l c i 6 6 6 6 6 6 a l a l 6 6 6 6 6 6 6 e f 2 f f 6 6 6 6 8 y 8 8 y 8 6 6 k n a a a a a a a a a a a a a a a a a a ",
"% % % % % % % % % % % % % % % % % % % % % % % % % % % % % % % % % % % % % % % % % % % % % % % % % % % % % % % % % % % % % % % % % $ $ $ $ $ $ $ $ $ $ $ $ $ $ $ % % % & & & & & & & & & & & & & & % 6 6 % % $ $ $ $ $ $ $ $ $ $ $ $ $ $ $ $ $ $ $ $ $ % % 6 6 % % % % % % % % % % % % % % % % % % % % % % % 6 6 % % @ $ @ @ @ @ @ @ @ @ @ @ @ @ @ @ @ @ @ @ @ @ @ @ @ @ @ @ @ @ @ @ @ @ @ @ @ @ @ @ @ @ @ @ @ @ @ % % % % % % % $ @ $ @ % % % % % % % % $ 5 $ $ % % % 5 % $ $ $ $ % 5 % $ 6 k k k k k k k k k k k k k k k k k k ",
"k k k k k k k k k k k k k k k k k k k k k k k k k k k k k k k k k k k k k k k k k k k k k k k k k k k k k k k k k k k k k k k k k k k k k k k k k k k k k k k k k k k l l l l l l l l l l l l l l k k k k k k k k k k k k k k k k k k k k k k k k k k k k k k k k k k k k k k k k k k k k k k k k k k k k k k k k k k k k k k k k k k k k k k k k k k k k k k k k k k k k k k k k k k k k k k k k k k k k k k k k k k k k k k k k k k k k k k k k k k k k k k k k k k k k k k k k k k k k k d d d d d d d d d d d d d d d d d d ",
"d d d d d d d d d d d d d d d d d d d d d d d d d d d d d d d d d d d d d d d d d d d d d d d d d d d d d d d d d d d d d d d d d d d d d d d d d d d d d d d d d d d d d d d d d d d d d d d d d d d d d d d d d d d d d d d d d d d d d d d d d d d d d d d d d d d d d d d d d d d d d d d d d d d d d d d d d d d d d d d d d d d d d d d d d d d d d d d d d d d d d d d d d d d d d d d d d d d d d d d d d d d d d d d d d d d d d d d d d d d d d d d d d d d d d d d d d d d d d d d d d d d d d d d d d d d d d d d d ",
"% % % % % % % % % % % % % % % % % % % % % % % % % % % % % % % % % % % % % % % % % % % % % % % % % % % % % % % % % % % % % % % % % % % % % % % % % % % % % % % % % % % % % % % % % % % % % % % % % % % % % % % % % % % % % % % % % % % % % % % % % % % % % % % % % % % % % % % % % % % % % % % % % % % % % % % % % % % % % % % % % % % % % % % % % % % % % % % % % % % % % % % % % % % % % % % % % % % % % % % % % % % % % % % % % % % % % % % % % % % % % % % % % % % % % % % % % % % % % % % % % % % % % % % % % % % % % % % % ",
"6 6 6 6 6 6 6 6 6 6 6 6 6 6 6 6 6 6 6 6 6 6 6 6 6 6 6 6 6 6 6 6 6 6 6 6 6 6 6 6 6 6 6 6 6 6 6 6 6 6 6 6 6 6 6 6 6 6 6 6 6 6 6 6 6 6 6 6 6 6 6 6 6 6 6 6 6 6 6 6 6 6 6 6 6 6 6 6 6 6 6 6 6 6 6 6 6 6 6 6 6 6 6 6 6 6 6 6 6 6 6 6 6 6 6 6 6 6 6 6 6 6 6 6 6 6 6 6 6 6 6 6 6 6 6 6 6 6 6 6 6 6 6 6 6 6 6 6 6 6 6 6 6 6 6 6 6 6 6 6 6 6 6 6 6 6 6 6 6 6 6 6 6 6 6 6 6 6 6 6 6 6 6 6 6 6 6 6 6 6 6 6 6 6 6 6 6 6 6 6 6 6 6 6 6 6 6 6 6 6 6 6 6 6 6 6 6 6 6 6 6 6 6 6 6 6 6 6 6 6 6 6 6 6 6 6 6 6 6 6 6 6 6 6 6 6 6 6 6 6 6 6 6 6 6 6 ",
"6 6 6 6 6 6 6 6 6 6 6 6 6 6 6 6 6 6 6 6 6 6 6 6 6 6 6 6 6 6 6 6 6 6 6 6 6 6 6 6 6 6 6 6 6 6 6 6 6 6 6 6 6 6 6 6 6 6 6 6 6 6 6 6 6 6 6 6 6 6 6 6 6 6 6 6 6 6 6 6 6 6 6 6 6 6 6 6 6 6 6 6 6 6 6 6 6 6 6 6 6 6 6 6 6 6 6 6 6 6 6 6 6 6 6 6 6 6 6 6 6 6 6 6 6 6 6 6 6 6 6 6 6 6 6 6 6 6 6 6 6 6 6 6 6 6 6 6 6 6 6 6 6 6 6 6 6 6 6 6 6 6 6 6 6 6 6 6 6 6 6 6 6 6 6 6 6 6 6 6 6 6 6 6 6 6 6 6 6 6 6 6 6 6 6 6 6 6 6 6 6 6 6 6 6 6 6 6 6 6 6 6 6 6 6 6 6 6 6 6 6 6 6 6 6 6 6 6 6 6 6 6 6 6 6 6 6 6 6 6 6 6 6 6 6 6 6 6 6 6 6 6 6 6 6 6 ",
"6 6 6 6 6 6 6 6 6 6 6 6 6 6 6 6 6 6 6 6 6 6 6 6 6 6 6 6 6 6 6 6 6 6 6 6 6 6 6 6 6 6 6 6 6 6 6 6 6 6 6 6 6 6 6 6 6 6 6 6 6 6 6 6 6 6 6 6 6 6 6 6 6 6 6 6 6 6 6 6 6 6 6 6 6 6 6 6 6 6 6 6 6 6 6 6 6 6 6 6 6 6 6 6 6 6 6 6 6 6 6 6 6 6 6 6 6 6 6 6 6 6 6 6 6 6 6 6 6 6 6 6 6 6 6 6 6 6 6 6 6 6 6 6 6 6 6 6 6 6 6 6 6 6 6 6 6 6 6 6 6 6 6 6 6 6 6 6 6 6 6 6 6 6 6 6 6 6 6 6 6 6 6 6 6 6 6 6 6 6 6 6 6 6 6 6 6 6 6 6 6 6 6 6 6 6 6 6 6 6 6 6 6 6 6 6 6 6 6 6 6 6 6 6 6 6 6 6 6 6 6 6 6 6 6 6 6 6 6 6 6 6 6 6 6 6 6 6 6 6 6 6 6 6 6 6 ",
"6 6 6 6 6 6 6 5 5 5 5 5 5 5 5 5 5 5 5 5 5 5 5 5 5 5 5 5 5 5 5 5 5 5 5 5 6 6 6 6 6 6 6 6 6 6 6 6 6 6 6 6 6 6 6 6 6 6 6 6 6 6 6 6 6 6 6 6 6 6 6 6 6 6 6 6 4 4 4 4 4 4 4 4 4 4 4 4 4 4 4 4 4 4 4 4 4 4 4 4 4 4 4 4 4 6 6 6 6 6 6 6 6 6 6 6 6 6 6 6 6 6 6 6 6 6 6 6 6 6 6 6 6 6 6 6 6 6 6 6 6 6 6 6 6 6 6 6 6 6 6 6 6 6 6 6 6 6 6 6 6 6 6 6 6 6 6 6 6 6 6 6 6 6 6 6 6 6 6 6 6 6 6 6 6 6 6 6 6 6 6 6 6 6 6 6 6 6 6 6 6 6 6 6 6 6 6 6 6 6 6 % @ @ @ @ @ @ @ @ @ @ @ @ @ @ @ @ @ @ @ @ @ @ @ @ @ @ @ % 6 6 6 6 6 6 6 6 6 6 6 6 6 6 6 6 ",
"6 6 6 6 a 6 6 p g g G G G G G G G G G G G G G G G G G G G G G G G G G g 9 6 e 6 6 6 e e e e e e e e e e e e e e e e e e e e e e e e e e e e 6 6 6 a 6 e < 1 1 1 1 1 1 1 1 1 1 1 1 1 1 1 1 1 1 1 1 1 1 1 1 1 1 1 < 6 6 i 6 6 6 e e e e e e e e e e e e e e e e e e e e e e e e e e e 6 6 6 i 6 6 6 e e e e e e e e e e e e e e e e e e e e e e e e e e e 6 6 6 6 6 6 e e e e e e e e e e e e e e e e e e e e e e e e e e e 6 6 6 a 6 6 z %.%.%.%.%.%.%.%.%.%.%.%.&.&.&.%.%.%.%.%.%.%.%.%.%.%.%.z 6 6 i 6 6 6 e e e e e e e e e e ",
"6 6 6 6 a 6 $ <X4X3X3X3X3X3X3X3X3X3X3X3X3X3X3X3X3X3X3X3X3X3X3X3X3X3X3X4XU O i 6 % a k d k k k k k k k k k k d a d d k k k k k k k k k k d k k 6 6 a 4 2 7X[ [ [ [ [ [ [ [ [ [ [ [ [ [ [ [ [ [ [ [ [ [ [ [ [ [ 7X7X6 6 i 6 6 l k k k k k k k k k k k k a a a k k k k k k k k k k k k k 6 6 r 6 6 l d k k k k k k k k k k k a a k k k k k k k k k k k d k a % 6 6 % a l d k k k k k k k k k k d a d k k k k k k k k k k k d l 6 6 a 6 $ bXVXBXBXBXBXBXBXBXBXBXBXBXBXBXBXBXBXBXBXBXBXBXBXBXBXBXVXbX@ 6 r 6 e l d k k k k k k k k k ",
"6 6 6 6 a 6 5 <X+XOX+X+X+X+X+X+X+X+X+X+X+X#X#X+X+X+X+X+X+X+X+X+X+X+XOX<XU O i 6 % a a 6 6 6 6 6 6 6 6 6 6 6 e k k a 6 6 6 6 6 6 6 6 6 6 6 e d 6 6 a 4 R [ E ) T T T T T T T T T T ] ] ] T T T T T T T T T T T ) [ 6 6 i 6 6 k 6 6 6 6 6 6 6 6 6 6 6 6 a a d 6 6 6 6 6 6 6 6 6 6 6 6 k 6 6 i 6 6 k 6 6 6 6 6 6 6 6 6 6 6 6 k l r 6 6 6 6 6 6 6 6 6 6 6 a a % 6 6 % a a 6 6 6 6 6 6 6 6 6 6 6 a k k 6 6 6 6 6 6 6 6 6 6 6 6 d e 6 a 6 % bXgXfXfXfXfXfXfXfXfXfXfXfXhXzXzXfXfXfXfXfXfXfXfXfXfXfXgXcX$ 6 r 6 e d 6 6 6 6 6 6 6 6 6 6 ",
"6 6 6 6 a 6 5 <X#X+X+X+X+X+X+X+X+X+X+X+X<X3X#X+X+X+X+X+X+X+X+X+X+X+X+X<XU O i 6 % a a 6 6 6 6 6 6 6 6 6 e 6 l :.l a 6 e 6 6 6 6 6 6 6 6 6 r k 6 6 a 4 R [ T ) ) ) ) ) ) ) ) ) ) ] 7X] ] ) ) ) ) ) ) ) ) ) ) ) ] [ 6 6 i 6 6 k 6 6 6 6 6 6 6 6 6 6 6 6 ;.=.=.6 6 6 6 6 6 6 6 6 6 6 e k 6 6 i 6 6 k 6 6 6 6 6 6 6 6 6 e 6 k :.n k 6 e 6 6 6 6 6 6 6 6 6 a a % 6 6 % a a 6 6 6 6 6 6 6 6 6 e 6 n :.=.r 6 6 6 6 6 6 6 6 6 e 6 k e 6 a 6 $ bXhXgXgXgXgXgXgXgXgXgXgXgXVXcXzXgXgXgXgXgXgXgXgXgXgXgXzXcX@ 6 r 6 e k 6 e 6 6 6 6 6 6 6 e ",
"6 6 6 6 a 6 5 <X+X+X+X+X+X+X+X+X+X+X+X+X#X+X+X+X+X+X+X+X+X+X+X+X+X+XOX<XU O i 6 % a a 6 6 6 6 6 6 6 6 6 6 6 a k l a 6 6 6 6 6 6 6 6 6 6 6 r d 6 6 a 4 R [ T ) ) ) ) ) ) ) ) ) ) ) ] ] ] T ) ) ) ) ) ) ) ) ) ) ) [ 6 6 i 6 6 k 6 6 6 6 6 6 6 6 6 6 6 6 k a k 6 6 6 6 6 6 6 6 6 6 6 6 k 6 6 i 6 6 k 6 6 6 6 6 6 6 6 6 6 6 a k d a 6 6 6 6 6 6 6 6 6 6 6 a a % 6 6 % a a 6 6 6 6 6 6 6 6 6 6 6 a a l r 6 6 6 6 6 6 6 6 6 6 6 k e 6 a 6 % cXgXfXgXgXgXgXgXgXgXgXgXgXzXgXgXfXgXgXgXgXgXgXgXgXgXfXgXcX$ 6 r 6 e d 6 6 6 6 6 6 6 6 6 6 ",
"6 6 6 6 a 6 5 <X<X#X#X#X#X#X#X#X#X#X#X#X#X#X#X#X#X#X#X#X#X#X#X#X#X#X+X3XU O i 6 % a a e r r r r r r r r r r e 6 6 r r r r r r r r r r r e a k 6 6 a 4 R 7X] ] ] ] ] ] ] ] ] ] ] ] ] ] ] ] ] ] ] ] ] ] ] ] ] ] ] 7X6 6 i 6 6 k e r r r r r r r r r r r 6 6 6 r r r r r r r r r r r r k 6 6 i 6 6 k e r r r r r r r r r r r 6 e e r r r r r r r r r r e a a % 6 6 % a a e r r r r r r r r r r e e 6 r r r r r r r r r r r e k e 6 a 6 $ BXcXzXzXzXzXzXzXzXzXzXzXzXzXzXzXzXzXzXzXzXzXzXzXzXzXzXcXbX@ 6 r 6 e k e r r r r r r r r r ",
"6 6 6 6 a 6 5 OX<X#X#X#X#X#X#X#X#X#X#X#X#X#X#X#X#X#X#X#X#X#X#X#X#X#X#X<XP $ i 6 6 a k d k k k k k k k k k k k k k k k k k k k k k k k k k k a 6 6 a 4 1 [ ] ] ] ] ] ] ] ] ] ] ] ] ] ] ] ] ] ] ] ] ] ] ] ] ] ] ] ] 6 6 i 6 6 k k k k k k k k k k k k k k k k k k k k k k k k k k k k a 6 6 i 6 6 k k k k k k k k k k k k k k k k k k k k k k k k k k d k a 6 6 6 6 i k d k k k k k k k k k k k k k k k k k k k k k k k k k k 6 6 a 6 $ jXcXzXzXzXzXzXzXzXzXzXzXzXzXzXzXzXzXzXzXzXzXzXzXzXzXzXcXfX$ 6 r 6 6 k k k k k k k k k k k ",
"6 6 6 6 a 6 6 5 O $ O O O O O O O O O O O 5 5 O O O O O O O O O O O $ O 5 6 6 6 6 6 6 6 6 6 6 6 6 6 6 6 6 6 6 6 6 6 6 6 6 6 6 6 6 6 6 6 6 6 6 6 6 a 6 6 4 4 4 4 4 4 4 4 4 4 4 4 4 4 4 4 4 4 4 7 7 4 4 7 4 4 4 4 4 6 6 i 6 6 6 6 6 6 6 6 6 6 6 6 6 6 6 6 6 6 6 6 6 6 6 6 6 6 6 6 6 6 6 6 6 r 6 6 6 6 6 6 6 6 6 6 6 6 6 6 6 6 6 6 6 6 6 6 6 6 6 6 6 6 6 6 6 6 6 6 6 6 6 6 6 6 6 6 6 6 6 6 6 6 6 6 6 6 6 6 6 6 6 6 6 6 6 6 6 6 6 6 a 6 6 @ + + & @ @ @ + + + + + + + + + + + + & & & & & + + & + @ 6 6 r 6 6 6 6 6 6 6 6 6 6 6 6 6 ",
"6 6 6 6 a 6 6 6 6 6 6 6 6 6 6 6 6 6 6 6 6 % 6 6 6 6 6 6 6 6 6 6 6 6 6 6 6 6 6 6 6 6 6 6 6 6 6 6 6 6 6 6 6 6 6 6 6 6 6 6 6 6 6 6 6 % 6 6 6 6 6 6 6 a 6 6 6 6 6 6 6 4 6 6 6 6 6 6 6 6 6 6 6 6 6 % % % 6 % 6 6 6 6 6 6 6 i 6 6 6 6 6 6 6 6 6 6 6 6 6 6 6 6 6 6 6 6 6 6 6 6 6 % 6 6 6 6 6 6 6 r 6 6 6 6 6 6 % % 6 6 6 6 6 6 6 6 6 6 6 6 6 6 6 6 6 6 6 6 6 6 6 6 6 6 6 6 6 6 6 6 % % 6 6 6 6 6 6 6 6 6 6 6 6 6 6 6 6 6 % 6 6 6 6 6 6 a 6 6 6 6 6 6 % % % 6 6 6 6 6 6 6 6 6 6 6 6 6 6 6 6 6 6 6 6 6 6 6 6 r 6 6 6 6 6 6 % % 6 6 6 6 6 ",
"6 6 6 6 a 6 6 6 6 6 6 6 6 6 6 6 6 6 6 6 6 l d 6 6 6 6 6 6 6 6 6 6 6 6 6 6 6 6 6 6 6 6 6 6 6 f f 6 6 6 6 6 6 6 6 6 6 6 6 6 a d i 6 k 6 6 6 6 6 6 6 a 6 6 6 6 4 6 < < : 4 6 6 6 6 6 6 6 6 6 6 a l l k 6 c a 6 6 6 6 6 6 i 6 6 6 6 6 6 r a e 6 6 6 6 6 6 6 6 6 6 6 6 k a k a k 6 6 6 6 6 6 6 r 6 6 6 6 % 6 k k e 6 6 6 6 6 6 6 6 6 6 6 6 a a a a a 6 6 6 6 6 6 6 6 6 6 6 6 % a l k 6 % 6 6 6 6 6 6 6 6 6 i a a a a a l a 6 6 6 6 6 a 6 6 6 6 $ 6 $.5.z % % 6 6 6 6 6 6 6 6 6 6 c e a d k 6 6 6 6 6 6 6 r 6 6 6 6 % 9 l l i % 6 6 6 ",
"6 6 6 6 a 6 6 6 6 6 6 6 6 6 6 6 6 6 6 6 i ;.=.6 6 6 6 6 6 6 6 6 6 6 6 6 6 6 6 6 6 6 6 6 s V V V V f 6 6 6 6 6 6 6 6 6 6 k -.c l a M k % 6 6 6 6 6 a 6 6 6 4 < W W W E 1 6 6 6 6 6 6 6 6 6 $ =.J.f.M @ l =.% 6 6 6 6 6 i 6 6 6 6 i B m d m m e 6 6 6 6 6 6 6 6 6 6 a =.=.r c a 6 6 6 6 6 6 r 6 6 6 6 k g.g.*.m k 6 6 6 6 6 6 6 6 6 % k =.a =.a n 6 6 6 6 6 6 6 6 6 6 6 6 =.h.*.g.g.k 6 6 6 6 6 6 6 6 % k c n l -.l l l % 6 6 6 6 a 6 6 6 $ $.gXgX3.qX3.8 % 6 6 6 6 6 6 6 6 6 -.M :.M :.% 6 6 6 6 6 6 r 6 6 6 6 b 0.q.q.B.b 6 6 6 ",
"6 6 6 6 a 6 6 6 6 6 6 6 6 6 6 6 6 6 6 6 a -.-.6 6 6 6 6 6 6 6 6 6 6 6 6 6 6 6 6 6 6 6 f V +     @ V f 6 6 6 6 6 6 6 6 6 =.:.c c k n k % 6 6 6 6 6 a 6 6 6 : E : X X X W W 4 6 6 6 6 6 6 6 % =.J.k :.a -.k % 6 6 6 6 6 i 6 6 6 6 g.d     X d m 6 6 6 6 6 6 6 6 6 6 n a k n c 6 6 6 6 6 6 6 r 6 6 % k g.%   . + m k 6 6 6 6 6 6 6 6 % l =.l n c l 6 6 6 6 6 6 6 6 6 6 % -.-.X     r h.e 6 6 6 6 6 6 6 6 e l 6 =.-.l l 6 6 6 6 6 6 a 6 6 % a zX2..   * 5.qX% 6 6 6 6 6 6 6 6 6 M J.L.n M 6 6 6 6 6 6 6 r 6 6 % b B.@     @ A.b % 6 ",
"6 6 6 6 a 6 6 6 6 6 6 6 6 6 6 6 6 6 6 6 6 c k 6 6 6 6 6 6 6 6 6 6 6 6 6 6 6 6 6 6 6 6 V @   6 i X @ V 6 6 6 6 6 6 6 6 6 6 a k d a l 6 6 6 6 6 6 6 a 6 6 4 T < o a c % X W , 4 6 6 6 6 6 6 6 k c l l k -.k 6 6 6 6 6 6 i 6 6 % m m . X 6 % . h d 4 6 6 6 6 6 6 6 6 c k k k c 6 6 6 6 6 6 6 r 6 6 6 g.6 . 6 @ X + m e 6 6 6 6 6 6 6 6 6 k d k l k 6 6 6 6 6 6 6 6 6 % k g.  X i $ . r n % 6 6 6 6 6 6 6 6 a k a k a a 6 6 6 6 6 6 a 6 6 & fX4.. 4 r e . qX5.& 6 6 6 6 6 6 6 6 n a a a a 6 6 6 6 6 6 6 r 6 6 6 B.% . 6 i   @ B.6 6 ",
"6 6 6 6 a 6 6 6 6 6 6 6 6 6 6 6 6 6 6 6 6 $ % 6 6 6 6 6 6 6 6 6 6 6 6 6 6 6 6 6 6 6 i V   @ a l 6   V i 6 6 6 6 6 6 6 6 6 % % 6 % % 6 6 6 6 6 6 6 a 6 6 e ) + + a =.M X 1 1 4 6 6 6 6 6 6 6 6 $ % % % $ 6 6 6 6 6 6 6 i 6 6 4 -.e   i i l X e m 6 6 6 6 6 6 6 6 6 % % 6 % $ 6 6 6 6 6 6 6 r 6 6 r g.X @ a a a   l a 6 6 6 6 6 6 6 6 6 % % 6 $ % 6 6 6 6 6 6 6 6 6 % n n . i a 6 + + n 6 6 6 6 6 6 6 6 6 6 % 6 % % % 6 6 6 6 6 6 a 6 6 % gXj + c l -.* 5.3.& 6 6 6 6 6 6 6 6 % 6 % 6 % 6 6 6 6 6 6 6 r 6 5 s 7.  % d k i   q.s % ",
"6 6 6 6 a 6 6 6 6 6 6 6 6 6 6 6 6 6 6 6 6 e 6 6 6 6 6 6 6 6 6 6 6 6 6 6 6 6 6 6 6 5 f K . + i k % X V i 6 6 6 6 6 6 6 6 6 6 6 6 a i 6 6 6 6 6 6 6 a 6 6 e ] + @ l M l X 1 1 4 6 6 6 6 6 6 6 6 e 6 6 6 6 6 6 6 6 6 6 6 i 6 6 4 -.e   a d a   e m 6 6 6 6 6 6 6 6 6 6 6 6 e a 6 6 6 6 6 6 6 r 6 6 r g.X + a k 6   m a 6 6 6 6 6 6 6 6 6 6 6 6 a i 6 6 6 6 6 6 6 6 6 % n =.. 6 a k + + =.6 6 6 6 6 6 6 6 6 6 6 6 6 a e 6 6 6 6 6 6 a 6 6 % gXz   c M n   5.3.& 6 6 6 6 6 6 e 6 6 6 6 6 6 6 6 6 6 6 6 6 r 6 5 s 8.  @ a 6 +   8.s 5 ",
"6 6 6 6 a 6 6 6 6 6 6 6 6 6 6 6 6 % k :.:.-.% c ;.6 6 6 6 6 6 6 6 6 6 6 6 6 6 6 6 6 6 } % . @ @ . % V 6 6 6 6 6 6 6 6 6 e n l c -.n 6 6 6 6 6 6 6 a 6 6 4 E 1 o % i X + W : 6 6 6 6 6 6 6 6 6 -.c n M ;.6 6 6 6 6 6 6 i 6 6 % m m . X % X   m d 6 6 6 6 6 6 6 6 6 k n l =.-.a 6 6 6 6 6 6 r 6 6 6 g.r . @ $   @ m 6 6 6 6 6 6 6 6 6 6 c c l -.=.6 6 6 6 6 6 6 6 6 6 a g.+   $ + . a n % 6 6 6 6 6 6 6 6 a n l n ;.l % 6 6 6 6 6 a 6 6 & i.4.. @ i +   qX5.$ 6 6 6 6 6 6 M M c ;.;.-.;.-.;.6 6 6 6 6 r 6 6 6 0.9 . @ @ . % 8.6 6 ",
"6 6 6 6 a 6 6 6 6 6 6 6 6 6 6 6 6 % l L.n -.a i M 6 6 6 6 6 6 6 6 6 6 6 6 6 6 6 6 6 5 g  .% X X % V i 6 6 6 6 6 6 6 6 % l d d =.n l % 6 6 6 6 6 6 a 6 6 4 , ] < X X + W 1 4 6 6 6 6 6 6 6 6 % l J.L.M =.6 6 6 6 6 6 6 i 6 6 6 6 g.m X X X d m 6 6 6 6 6 6 6 6 6 6 n 6 =.n M 6 6 6 6 6 6 6 r 6 6 6 a h.e   X @ m d 6 6 6 6 6 6 6 6 % a l a -.c c 6 6 6 6 6 6 6 6 6 6 % =.g.+ X X r *.6 6 6 6 6 6 6 6 6 % n e c M n a % 6 6 6 6 6 a 6 6 6 6 zX4.  X * 3.qX% 6 6 6 6 6 6 % a -.J.L.c L.M J.M d % 6 6 6 r 6 6 % s A.6 X X $ J s 6 6 ",
"6 6 6 6 a 6 6 6 6 6 6 6 6 6 6 6 6 % k :.n -.n f.M 6 6 6 6 6 6 6 6 6 6 6 6 6 6 6 6 6 6 6 s i 6 6 i i 6 6 6 6 6 6 6 6 6 6 e n c k k a 6 6 6 6 6 6 6 a 6 6 6 4 < < 6 6 6 < 6 6 6 6 6 6 6 6 6 6 6 M -.-.n c 6 6 6 6 6 6 6 i 6 6 6 6 e d 6 6 6 a 6 6 6 6 6 6 6 6 6 6 6 k n k k k 6 6 6 6 6 6 6 r 6 6 6 6 d r 6 6 6 r 6 6 6 6 6 6 6 6 6 6 6 c c k k d 6 6 6 6 6 6 6 6 6 6 6 6 k 6 6 6 r r 6 6 6 6 6 6 6 6 6 6 a M l k k i 6 6 6 6 6 6 a 6 6 6 $ z &.% 6 6 #.7 % 6 6 6 6 6 6 6 J.M =.:.;.-.;.-.;.6 6 6 6 6 r 6 6 6 6 s i 6 6 6 a 6 6 6 ",
"6 6 6 6 a 6 6 6 6 6 6 6 6 6 6 6 6 6 6 6 6 6 6 6 e 6 6 6 6 6 6 6 6 6 6 6 6 6 6 6 6 6 6 6 5 6 6 6 6 6 6 6 6 6 6 6 6 6 6 6 6 6 6 6 6 6 6 6 6 6 6 6 6 a 6 6 6 6 4 4 6 6 6 4 6 6 6 6 6 6 6 6 6 6 6 i % $ 6 6 6 6 6 6 6 6 6 i 6 6 6 6 6 6 6 6 6 6 6 6 6 6 6 6 6 6 6 6 6 6 6 6 6 6 6 6 6 6 6 6 6 r 6 6 6 6 6 6 6 6 6 6 6 6 6 6 6 6 6 6 6 6 6 6 6 6 6 6 6 6 6 6 6 6 6 6 6 6 6 6 % 6 6 6 6 6 6 6 6 6 6 6 6 6 6 6 6 6 6 6 6 6 6 6 6 6 6 6 a 6 6 6 6 % $ 6 6 6 % 6 6 6 6 6 6 6 6 6 6 6 $ 6 6 6 6 6 6 6 6 6 6 6 r 6 6 6 6 5 6 6 6 6 6 6 6 6 ",
"6 6 6 6 a 6 6 6 6 6 6 6 6 6 6 6 6 6 6 6 6 6 6 6 6 6 6 6 6 6 6 6 6 6 6 6 6 6 6 6 6 6 6 6 6 6 6 6 6 6 6 6 6 6 6 6 6 6 6 6 6 6 6 6 6 6 6 6 6 6 6 6 6 a 6 6 6 6 6 6 6 6 6 6 6 6 6 6 6 6 6 6 6 6 6 6 6 6 6 6 6 6 6 6 6 6 6 i 6 6 6 6 6 6 6 6 6 6 6 6 6 6 6 6 6 6 6 6 6 6 6 6 6 6 6 6 6 6 6 6 6 r 6 6 6 6 6 6 6 6 6 6 6 6 6 6 6 6 6 6 6 6 6 6 6 6 6 6 6 6 6 6 6 6 6 6 6 6 6 6 6 6 6 6 6 6 6 6 6 6 6 6 6 6 6 6 6 6 6 6 6 6 6 6 6 6 6 6 a 6 6 6 6 6 6 6 6 6 6 6 6 6 6 6 6 6 6 6 6 6 6 6 6 6 6 6 6 6 6 6 6 6 r 6 6 6 6 6 6 6 6 6 6 6 6 6 ",
"6 6 6 6 a 6 6 5 6 6 6 6 6 6 6 6 6 6 6 6 6 6 6 6 6 6 6 6 6 6 6 6 6 6 6 6 6 6 6 6 6 6 6 6 6 6 6 6 6 6 6 6 6 6 6 6 6 6 6 6 6 6 6 6 6 6 6 6 6 6 6 6 6 a 6 6 6 6 6 6 6 6 6 6 6 6 6 6 6 6 6 6 6 6 6 6 6 6 6 6 6 6 6 6 6 6 6 i 6 6 6 6 6 6 6 6 6 6 6 6 6 6 6 6 6 6 6 6 6 6 6 6 6 6 6 6 6 6 6 6 6 r 6 6 6 6 6 6 6 6 6 6 6 6 6 6 6 6 6 6 6 6 6 6 6 6 6 6 6 6 6 6 6 6 6 6 6 6 6 6 6 6 6 6 6 6 6 6 6 6 6 6 6 6 6 6 6 6 6 6 6 6 6 6 6 6 6 6 a 6 6 % 6 6 6 6 6 6 6 6 6 6 6 6 6 6 6 6 6 6 6 6 6 6 6 6 6 6 6 % 6 6 r 6 6 6 6 6 6 6 6 6 6 6 6 6 ",
"6 6 6 6 a 6 5 +X<X<X<X<X<X<X<X<X<X<X<X<X<X<X<X<X<X<X<X<X<X<X<X<X<X<X<X3XI O i 6 5 S ` ` ` ` ` ` ` ` ` ` ` ` ` ` ` ` ` ` ` ` ` ` ` ` ` ` ` ` S 5 i a 4 1 7X[ [ [ [ [ [ [ [ [ [ [ [ [ [ [ [ [ [ [ [ [ [ [ [ [ [ [ [ 6 6 i 6 e / / / / / / / / / / / / / / / / / / / / / / / / / / / / ^ 6 6 r % t uXb.b.b.b.b.b.b.b.b.b.b.b.b.b.b.b.b.b.b.b.b.b.b.b.b.b.uXa.# e r & @.sXaXaXaXaXaXaXaXaXaXaXaXaXaXaXaXaXaXaXaXaXaXaXaXaXaXaXsXy % a 6 $ zXbXbXbXbXbXbXbXbXbXbXbXbXbXbXbXbXbXbXbXbXbXbXbXbXbXbXbXhX@ 6 i $ w -X-X-X-X-X-X-X-X-X-X-X",
"6 6 6 6 a 6 5 <X#X+X+X+X+X+X+X+X+X+X+X+X#X#X#X+X+X+X+X+X+X+X+X+X+X+X+X3XU O i i 5 S ` C C C C C C C C C C C F F F F C C C C C C C C C C C ` ' 5 i a 4 R 7X) ] ] ] ] ] ] ] ] ] ] ] ] ] ] ] ] ] ] ] ] ] ] ] ] ] ] [ 6 6 i 6 t / Q ~ ~ ~ ~ ~ ~ ~ ~ ~ ~ ~ ~ ~ ~ ~ ~ ~ ~ ~ ~ ~ ~ ~ ~ ~ ~ / 6 6 r % y uXk.k.k.k.k.k.k.k.k.k.k.z.z.z.z.k.k.k.k.k.k.k.k.k.k.k.b.l.& r r & c.sXeXrXrXrXrXrXrXrXrXrXrXtXtXtXrXrXrXrXrXrXrXrXrXrXrXeXsX#.# a 6 $ bXzXgXgXgXgXgXgXgXgXgXgXgXzXzXzXgXgXgXgXgXgXgXgXgXgXgXzXbX@ 6 i $ b -X6.6.6.6.6.6.6.6.6.6.",
"6 6 6 6 a 6 5 <X+X+X+X+X+X+X+X+X+X+X+X+X#X#X3X#XOX+X+X+X+X+X+X+X+X+XOX*XU O i i 5 S ` Z C C C C C C C C C C ' ` ` ` Z C C C C C C C C C Z F ' 5 i a 4 R [ T ) ) ) ) ) ) ) ) ) ) ] ] [ [ ) ) ) ) ) ) ) ) ) ) ) ) [ 6 6 i 6 t / Q Q Q Q Q Q Q Q Q Q Q ~ ~ / / Q Q Q Q Q Q Q Q Q Q Q ~ / 6 6 r % y uXk.k.k.k.k.k.k.k.k.k.k.z.b.uXb.k.k.k.k.k.k.k.k.k.k.k.b.l.# r r & c.aXc.eXeXeXeXeXeXeXeXeXrXtXtXsXtXc.eXeXeXeXeXeXeXeXeXc.sX#.# a 6 % cXgXgXgXgXgXgXgXgXgXgXgXzXcXbXBXgXgXgXgXgXgXgXgXgXgXgXhXcX@ 6 i $ w -X6.6.6.6.6.6.6.6.6.6.",
"6 6 6 6 a 6 5 <X#X+X+X+X+X+X+X+X+X+X+X+X#X#X#X#X+X+X+X+X+X+X+X+X+X+XOX*XU O i i 5 S ` Z C C C C C C C C C C F ` ' ` Z C C C C C C C C C Z F ' 5 i a 4 R [ T ) ) ) ) ) ) ) ) ) ) ] ] ] [ ) ) ) ) ) ) ) ) ) ) ) ) [ 6 6 i 6 t / Q Q Q Q Q Q Q Q Q Q Q ~ / ~ / Q Q Q Q Q Q Q Q Q Q Q ~ / 6 6 r % y uXk.k.k.k.k.k.k.k.k.k.k.z.b.z.b.k.k.k.k.k.k.k.k.k.k.k.b.l.& r r & c.aXc.eXeXeXeXeXeXeXeXeXeXtXtXtXtXc.eXeXeXeXeXeXeXeXeXc.sX#.# a 6 $ bXhXgXgXgXgXgXgXgXgXgXgXhXcXzXbXhXgXgXgXgXgXgXgXgXgXgXzXcX@ 6 i $ b -X6.6.6.6.6.6.6.6.6.6.",
"6 6 6 6 a 6 5 <X#X+X+X+X+X+X+X+X+X+X+X+X+X+X+X+X+X+X+X+X+X+X+X+X+X+XOX*XU O i i 5 S ` Z C C C C C C C C C C C C Z Z C C C C C C C C C C Z F ' 5 i a 4 R [ T ) ) ) ) ) ) ) ) ) ) ) ) ) ) ) ) ) ) ) ) ) ) ) ) ) ) [ 6 6 i 6 t / Q Q Q Q Q Q Q Q Q Q Q Q Q Q Q Q Q Q Q Q Q Q Q Q Q Q ~ / 6 6 r % y uXk.k.k.k.k.k.k.k.k.k.k.k.k.k.k.k.k.k.k.k.k.k.k.k.k.k.b.l.& r r & c.aXc.eXeXeXeXeXeXeXeXeXeXeXeXeXeXeXeXeXeXeXeXeXeXeXeXc.sX#.# a 6 $ bXhXgXgXgXgXgXgXgXgXgXgXgXgXgXgXgXgXgXgXgXgXgXgXgXgXgXzXcX@ 6 i $ b -X6.6.6.6.6.6.6.6.6.6.",
"6 6 6 6 a 6 $ #X3X<X3X3X3X3X3X3X3X3X3X3X3X3X3X3X3X3X3X3X3X3X3X3X3X3X<X4XI O i e 5 S =X` ` ` ` ` ` ` ` ` ` ` ` ` ` ` ` ` ` ` ` ` ` ` ` ` ` =XS 5 i a 4 1 7X[ [ [ [ [ [ [ [ [ [ [ [ [ [ [ [ [ [ [ [ [ [ [ [ [ [ [ [ 6 6 i 6 e / / / / / / / / / / / / / / / / / / / / / / / / / / / / / 6 6 r % t uXuXuXuXuXuXuXuXuXuXuXuXuXuXuXuXuXuXuXuXuXuXuXuXuXuXb.yXd.# e r & 3.AXaXsXsXsXsXsXsXsXsXsXsXsXsXsXsXsXsXsXsXsXsXsXsXsXsXsXsXy # a 6 $ cXBXBXBXBXBXBXBXBXBXBXBXBXBXBXBXBXBXBXBXBXBXBXBXBXBXBXBXzX@ 6 i $ w -X-X-X-X-X-X-X-X-X-X-X",
"% 6 6 6 a 6 6 9 p p p p p p p p p p p p 9 9 9 p p p p p p p p p p p p i 6 6 6 6 6 6 i i i i i i i i i i i i i i i i i i i i i i i i i i i i 6 6 6 a 6 6 e i i i i i i i i i i i i i i i i i i i i i i i i i i i e 6 6 i 6 6 e e e e e e e e e e e e e e e e e e e e e e e e e e e e 6 6 6 r 6 6 e r r r r r r r r r r r r r r r r r r r r r r r r r r r 6 6 6 6 6 6 r r r r r r r r r r r r r r r r r r r r r r r r r r r r 6 6 a 6 6 6 a a a j j j a j j a a a a a a a a a j j a j j j a a a 6 6 6 r 6 6 9 q q q q q q q q q q ",
"6 6 6 6 a 6 6 c n n n c c c n c c n n n n 6 n n n n c c n n c c n n n M d % e 6 6 a k j k j j a j j a j k j k 6 a k j k j j a j a a j k j k a 6 6 a % a =.c n c c c c c c n n c =.a a =.c n c c c c c c c n n M n 6 6 i 6 6 k k k d a a a k a a k k k 9 i k k k a a a k a a a k k k k 6 6 i 6 6 k d d a a a a d a a d d k 6 i k d d a a a a a a a d d k a 6 6 6 6 a k d d a a a a a a d d d d 6 d d d d a a a a a a d d d k 6 6 a 6 6 c M n n l l l n l l n n M d 6 M n n l l l n l l l n n M c 6 6 r 6 6 k d k d a a a d a d k ",
"6 6 6 6 a 6 6 M k d k M M M k n M a d d M 6 M d d d c n c l =.=.l d a c k % e 6 % a a 6 6 a a k a a k 6 6 6 k e d i 6 6 a a a a k l a 6 6 i k 6 6 a % d n a d c n M l k =.k d a c k d n a d l l n l M -.M d d d M 6 6 i 6 6 k 6 6 a a k a r k a 6 6 a a a a 6 6 a a d a k l d 6 6 e k 6 6 i 6 6 k 6 6 a a k a r k a 6 6 a a a a 6 e a a a a l l a 6 6 a a % 6 6 % a a 6 6 a a k a a k 6 6 6 k 6 k 6 6 r a d a a l k r 6 6 k e 6 a 6 6 M k d k n M M k n n a d l l a M a d c c n l M -.n d d k M 6 6 r 6 e k 6 6 a a k a r k a 6 ",
"6 6 6 6 a 6 6 n k a k f.:.:.-.-.;.k d d M 6 M d d d J.L.:.-.;.J.c a a c k % e 6 % a a 6 6 c n c c k c a 6 6 k e a r 6 6 n -.n l c =.l 6 6 r d 6 6 a % a n a a M J.;.f.M :.M a a c k d c a a =.L.J.=.-.f.:.a d d M 6 6 i 6 6 k 6 6 a =.l n l c l 6 6 a a a a 6 6 l -.=.l l M c 6 6 6 k 6 6 i 6 6 k 6 6 a =.l n k c l 6 6 a i a a 6 6 M -.n l c =.d 6 6 a a % 6 6 % a a 6 6 l n c n k c a 6 6 k 6 k 6 6 a -.-.l l n M e 6 6 k e 6 a 6 6 n k a k f.;.:.-.-.;.k a l l a n a a ;.L.J.=.;.J.-.a d k n 6 6 r 6 e k 6 6 k =.l n k c k 6 ",
"6 6 6 6 a 6 6 n k d d ;.:.-.;.-.-.d d d M 6 M d d d ;.:.-.=.l :.c a a c k % e 6 % a a 6 6 k n l c l c r 6 6 k e a r 6 6 k n l c a c k 6 6 r d 6 6 a % a n a a n :.;.;.-.;.l a a c k d c a a l f.=.;.c =.;.d d d M 6 6 i 6 6 k 6 6 a c c c l c k 6 6 a a a a 6 6 a n l c a l l 6 6 6 k 6 6 i 6 6 k 6 6 a n c c l c k 6 6 a i a a 6 6 l n l l a c d 6 6 a a % 6 6 % a a 6 6 k n l c l c a 6 6 k 6 k 6 6 r n l c k k c r 6 6 k e 6 a 6 6 n k d d ;.:.-.;.-.-.d a l l a n a a n f.=.;.l -.-.a d k n 6 6 r 6 e k 6 6 a n c c l c a 6 ",
"6 6 6 6 a 6 6 M k a d d a d d d d d d d M 6 M d d d a a d d a d d d a c k % e 6 % a a 6 6 6 6 6 6 6 6 6 6 6 k e d r 6 6 6 6 6 6 6 6 6 6 6 r k 6 6 a % d n a d d a d a d d a d a c k d c a d d a a d a a d d d d M 6 6 i 6 6 k 6 6 6 6 6 6 6 6 6 6 6 a a a a 6 6 6 6 6 6 6 6 6 6 6 6 k 6 6 i 6 6 k 6 6 e 6 6 6 6 6 6 6 6 a i a a 6 6 6 6 6 6 6 6 6 6 6 a a % 6 6 % a a 6 6 6 6 6 6 6 6 6 6 6 k 6 k 6 6 6 6 6 6 6 6 6 6 6 6 k e 6 a 6 6 M d d d d a d d d d d a l l a M a d a a a d a d d d d k n 6 6 r 6 e k 6 6 e 6 6 6 6 6 6 6 ",
"6 6 6 6 a 6 6 n M M M M M M M M M M M M M 6 M M M M M M M M M M M M M =.d % e 6 6 a k k k k k k k k k k k k l 6 a k k k k k k k k k k k k k a 6 6 a % a =.M M M M M M M M M M M =.a a =.M M M M M M M M M M M M M 6 6 i 6 6 k k k k k k k k k k k k l r a l k k k k k k k k k k k k k 6 6 i 6 6 k k k k k k k k k k k k l e a l k k k k k k k k k k k k a 6 6 6 6 a l k k k k k k k k k k k k 6 k k k k k k k k k k k k k l 6 6 a 6 6 n M M M M M M M M M M M =.l i =.M M M M M M M M M M M M n 6 6 r 6 6 l k k k k k k k k k k ",
"6 6 6 6 a 6 6 6 6 6 6 6 6 6 6 6 6 6 6 6 6 6 6 6 6 6 6 6 6 6 6 6 6 6 6 6 6 6 6 6 6 6 6 6 6 6 6 6 6 6 6 6 6 6 6 6 6 6 6 6 6 6 6 6 6 6 6 6 6 6 6 6 6 a 6 6 6 6 6 6 6 6 6 6 6 6 6 6 6 6 6 6 6 6 6 6 6 6 6 6 6 6 6 6 6 6 6 i 6 6 6 6 6 6 6 6 6 6 6 6 6 6 6 6 6 6 6 6 6 6 6 6 6 6 6 6 6 6 6 6 6 r 6 6 6 6 6 6 6 6 6 6 6 6 6 6 6 6 6 6 6 6 6 6 6 6 6 6 6 6 6 6 6 6 6 6 6 6 6 6 6 6 6 6 6 6 6 6 6 6 6 6 6 6 6 6 6 6 6 6 6 6 6 6 6 6 6 6 a 6 6 6 6 6 6 6 6 6 6 6 6 6 6 6 6 6 6 6 6 6 6 6 6 6 6 6 6 6 6 6 6 6 r 6 6 6 6 6 6 6 6 6 6 6 6 6 ",
"6 6 6 6 a 6 6 6 6 6 6 6 6 6 6 6 6 6 6 6 6 6 6 6 6 6 6 6 6 6 6 6 6 6 6 6 6 6 6 6 6 6 6 6 6 6 6 6 6 6 6 6 6 6 6 6 6 6 6 6 6 6 6 6 6 6 6 6 6 6 6 6 6 a 6 6 6 6 6 6 6 6 6 6 6 6 6 6 6 6 6 6 6 6 6 6 6 6 6 6 6 6 6 6 6 6 6 i 6 6 6 6 6 6 6 6 6 6 6 6 6 6 6 6 6 6 6 6 6 6 6 6 6 6 6 6 6 6 6 6 6 r 6 6 6 6 6 6 6 6 6 6 6 6 6 6 6 6 6 6 6 6 6 6 6 6 6 6 6 6 6 6 6 6 6 6 6 6 6 6 6 6 6 6 6 6 6 6 6 6 6 6 6 6 6 6 6 6 6 6 6 6 6 6 6 6 6 6 a 6 6 6 6 6 6 6 6 6 6 6 6 6 6 6 6 6 6 6 6 6 6 6 6 6 6 6 6 6 6 6 6 6 r 6 6 6 6 6 6 6 6 6 6 6 6 6 ",
"6 6 6 6 a 6 6 6 a d d d d d d d d d d d d d d d d d d d d d d a a d d a 6 6 6 6 6 6 6 6 6 6 6 6 6 6 6 6 6 6 6 6 6 6 6 6 6 6 6 6 6 6 6 6 e 6 6 6 6 a 6 6 a a d d a d d d d d d d d d d d d d d d d d d d a a k d e 6 6 i 6 6 6 6 6 6 6 6 6 6 6 6 6 6 6 6 6 6 6 6 6 6 6 6 6 6 6 6 e 6 6 6 6 r 6 6 6 6 6 6 6 6 6 6 6 6 6 6 6 6 6 6 6 6 6 6 6 6 6 6 6 6 e 6 6 6 6 6 6 6 6 6 6 6 6 6 6 6 6 6 6 6 6 6 6 6 6 6 6 6 6 6 6 6 6 6 6 6 6 6 a 6 6 6 a d d d d d d d d d d d d d d d d d d d d d d a d k a 6 6 6 r 6 6 6 6 6 6 6 6 6 6 6 6 6 ",
"6 6 6 6 a 6 6 6 -.l d l l d a k k d d k -.a d d d d d d d d d a e L.{.a 6 6 6 6 6 % k k 6 r a 6 6 e e r e 6 l a 6 6 6 6 6 6 6 6 6 6 6 c [.a 6 6 6 a 6 6 l -.d k c d d d k k d d M n a d d d d d d d d d i l XX-.6 6 6 i 6 6 6 c r 6 a r 6 6 r r e 6 a k 6 6 6 6 6 6 6 6 6 6 6 a [.k 6 6 6 r 6 6 6 c e 6 a r 6 6 r r 6 6 a k 6 6 6 6 6 6 6 6 6 6 5 -.L.6 6 6 6 6 6 % k k 6 r a 6 6 6 e r e 6 l a 6 6 6 6 6 6 6 6 6 6 6 L.-.5 6 6 a 6 6 e ;.l d l l d a k k d d k -.a d d d d d d d d d e M XXn 6 6 6 r 6 6 r c 6 e a e 6 6 r r 6 ",
"a % 6 6 a 6 6 6 ;.f.J.J.J.J.J.:.f.f.M J.f.a d d d d d d d d d a a J.J.l 6 6 6 6 6 % k n =.M =.n =.n c =.k n =.r 6 6 6 6 6 6 6 6 6 6 6 c -.k 6 6 6 a 6 6 l f.J.f.J.f.J.J.;.L.M ;.L.n a d d d d d d d d d i M L.;.e 6 6 i 6 6 6 n n n =.n =.=.c =.c l -.l 6 e 6 6 6 6 6 6 6 6 6 k -.l 6 6 6 r 6 6 6 n n n =.n =.=.c =.l l -.l 6 e 6 6 6 6 6 6 6 6 6 n -.a 6 6 6 6 6 % k n =.n =.n =.M c =.k n =.a 6 6 6 6 6 6 6 6 e 6 a -.n 6 6 6 a 6 6 6 :.f.J.J.J.J.J.:.f.f.M J.f.a d d d d d d d d d i -.L.=.6 6 6 r 6 6 r n n n =.n =.=.c =.l ",
"d % 6 6 a 6 6 6 :.J.-.J.f.L.J.M ;.:.L.[.J.a d d d d d d d d d a i [.{.d 6 6 6 6 6 % k =.l M n -.=.l l c =.;.-.r 6 6 6 6 6 6 6 6 6 6 6 M L.a 6 6 6 a 6 6 l J.;.:.f.J.L.f.M ;.J.L.L.n a d d d d d d d d d e M XX:.6 6 6 i 6 6 6 =.n c =.M -.=.k c n -.:.l 6 6 6 6 6 6 6 6 6 6 6 l [.l 5 6 6 r 6 6 6 =.n c M =.-.=.k c n -.:.l 6 6 6 6 6 6 6 6 6 6 6 ;.L.e 6 6 6 6 6 % k =.l n n -.=.c l c =.;.;.a 6 6 6 6 6 6 6 6 6 6 r L.-.6 6 6 a 6 6 6 :.f.-.J.f.L.J.M ;.:.L.[.f.a d d d d d d d d d e ;.XX=.6 6 6 r 6 6 r =.c c M =.-.M k c n ",
"6 6 6 6 a 6 6 6 M n l l n n n k l l M M l d d d d d d d d d d a a =.:.a 6 6 6 6 6 6 a k a a d a a a a a a k a e 6 6 6 6 6 6 6 6 e 6 6 a M 6 6 6 6 a 6 6 k M l l n n n l l l c M n k d d d d d d d d d d a d J.l e 6 6 i 6 6 6 k a a a a d a r a a k d a 6 e 6 6 6 6 6 6 6 6 6 e =.r 6 6 6 r 6 6 6 k a a a a d a r a a k d a 6 e 6 6 6 6 6 6 e 6 6 k n 6 6 6 6 6 6 6 a k a a d a d a a a a k a e 6 6 6 6 6 6 6 6 e 6 6 n k 6 6 6 a 6 6 e M n l c n n n k l l M M l d d d d d d d d d d a k J.k e 6 6 r 6 6 6 k a a a a d a r a a ",
"6 6 6 6 a 6 6 6 e a a a a a a a a a i i a a a a a a a a a a a a a a i i 6 6 6 6 6 6 6 6 6 6 6 6 6 6 6 6 6 6 6 6 6 6 6 6 6 6 6 6 6 6 6 6 6 6 6 6 6 a 6 6 6 i a a a a i a a a a i a a a a a a a a a a a a i a e a 6 6 6 i 6 6 6 6 6 6 6 6 6 6 6 6 6 6 6 6 6 6 6 6 6 6 6 6 6 6 6 6 6 6 6 6 6 r 6 6 6 6 6 6 6 6 6 6 6 6 6 6 6 6 6 6 6 6 6 6 6 6 6 6 6 6 6 6 6 6 6 6 6 6 6 6 6 6 6 6 6 6 6 6 6 6 6 6 6 6 6 6 6 6 6 6 6 6 6 6 6 6 6 6 a 6 6 6 e a a a a a a a a a i i a a a a a a a a a a a i a e a 6 6 6 r 6 6 6 6 6 6 6 6 6 6 6 6 6 ",
"6 6 6 6 a 6 6 6 6 6 6 6 6 5 5 6 6 6 6 6 6 6 6 6 6 6 6 6 6 5 5 6 6 6 6 6 6 6 6 6 6 6 6 6 6 6 5 6 6 6 6 6 6 6 6 6 6 6 6 6 6 6 6 5 6 6 6 6 6 6 6 6 6 a 6 6 6 6 6 6 6 4 6 6 6 6 6 6 6 6 6 6 6 6 6 6 6 4 6 6 6 6 6 6 6 6 6 i 6 6 6 6 6 6 6 4 6 6 6 6 6 6 6 6 6 6 6 6 6 6 6 4 6 6 6 6 6 6 6 6 6 r 6 6 6 6 6 6 6 6 6 6 6 6 6 6 6 6 6 6 6 6 6 6 6 6 6 6 6 6 6 6 6 6 6 6 6 6 6 6 6 6 % 6 6 6 6 6 6 6 6 6 6 6 6 6 6 6 % 6 6 6 6 6 6 6 6 6 a 6 6 6 6 6 6 % $ 6 6 6 6 6 6 6 6 6 6 6 6 6 6 % $ % 6 6 6 6 6 6 6 6 r 6 6 6 6 6 6 5 5 6 6 6 6 6 ",
"6 6 6 6 a 6 6 6 6 6 6 5 9 g 0 5 5 6 6 6 6 6 6 6 6 6 6 5 5 p 0 6 5 6 6 6 6 6 6 6 6 6 6 6 6 6 i i 6 6 6 6 6 6 6 6 6 6 6 6 6 5 i i 6 6 6 6 6 6 6 6 6 a 6 6 6 6 6 4 , < 6 4 6 6 6 6 6 6 6 6 6 6 6 4 e , : 4 6 6 6 6 6 6 6 i 6 6 6 6 6 4 6 a 6 4 6 6 6 6 6 6 6 6 6 6 6 4 6 r 6 6 6 6 6 6 6 6 6 r 6 6 6 6 6 6 r r 6 6 6 6 6 6 6 6 6 6 6 6 6 6 r r 6 6 6 6 6 6 6 6 6 6 6 6 6 6 % 6 a r 6 6 6 6 6 6 6 6 6 6 6 6 % 6 a 6 6 6 6 6 6 6 6 6 a 6 6 6 6 % $ a x 6 @ 6 6 6 6 6 6 6 6 6 6 6 @ a z 7 % 6 6 6 6 6 6 6 r 6 6 6 6 6 6 i a 6 5 6 6 6 ",
"6 6 6 6 a 6 6 6 6 6 6 P #X@X$XU 9 5 6 6 6 6 6 6 6 6 5 G +X+XD D - 5 6 6 6 6 6 6 6 6 6 5 s } K } } s 6 6 6 6 6 6 6 6 6 6 6 B } V V s 6 6 6 6 6 6 6 a 6 6 6 4 , E ] T ] 1 6 6 6 6 6 6 6 6 6 6 6 W ] E W 1 6 6 6 6 6 6 6 i 6 6 6 6 6 m g.-.g.m 6 6 6 6 6 6 6 6 6 6 6 m g.m m d 6 6 6 6 6 6 6 r 6 6 6 6 a g.g.g.g.k 6 6 6 6 6 6 6 6 6 6 r g.g.m m a 6 6 6 6 6 6 6 6 6 6 6 6 c h.:.h.-.r 6 6 6 6 6 6 6 6 6 6 l h.:.=.n e 6 6 6 6 6 6 a 6 6 6 % r fXzXgXzX4.6 6 6 6 6 6 6 6 6 % 6 i.zXqXqX5.6 6 6 6 6 6 6 r 6 6 6 5 s 8.8.0.0.s 6 6 6 ",
":.e 6 6 a 6 6 6 6 5 U @X# X & I @X6 6 6 6 6 6 6 6 5 G $X- X X ; %XA 5 6 6 6 6 6 6 6 5 s } 9 X X i } i 6 6 6 6 6 6 6 6 6 } V +   @ V V 6 6 6 6 6 6 a 6 6 6 : ] 1 + X : ) W 4 6 6 6 6 6 6 6 4 E E +   + 1 W 6 6 6 6 6 6 i 6 6 6 6 g.m + X @ m m 4 6 6 6 6 6 6 6 6 -.m +   + d m 6 6 6 6 6 6 r 6 6 6 a h.r X X 6 g.k 6 6 6 6 6 6 6 6 r h.d X   $ m k 6 6 6 6 6 6 6 6 6 % n g.$ X + l h.6 6 6 6 6 6 6 6 % n h.6   X r *.e 6 6 6 6 6 a 6 6 6 6 zX4.+ X 4 fXfX@ 6 6 6 6 6 6 6 6 gX4.@   @ qXqX% 6 6 6 6 6 r 6 6 5 s A.i X X i A.s 5 6 ",
":.k 6 6 a 6 6 6 5 G @XX O d @ . Y Y 5 6 6 6 6 6 6 6 +X- o $ % X = D 6 6 6 6 6 6 6 6 6 } % . % % . % V 6 6 6 6 6 6 6 5 B V . X + X X V i 6 6 6 6 6 a 6 6 4 E 1 o 6 a o + W : 6 6 6 6 6 6 4 1 T X + $ % o 1 1 4 6 6 6 6 i 6 6 % m m . X 6   . m d 6 6 6 6 6 6 % l B   X + +   l d 4 6 6 6 6 r 6 6 6 g.r . @ 6 . @ m 6 6 6 6 6 6 6 6 g.d . + +   + m 6 6 6 6 6 6 6 6 6 a g.+   6 + . k n % 6 6 6 6 6 6 a g.@   + + . a n 6 6 6 6 6 a 6 6 & 4.i.. $ k   . qX#.$ 6 6 6 6 6 & 4.fX. + $ @   qX5.& 6 6 6 6 r 6 6 6 8.9 . $ % . % N 6 6 ",
"k c 6 6 a 6 6 6 5 U Y o l M a + = D 5 6 6 6 6 6 5 g +X  i l n k X D - 5 6 6 6 6 6 5 s K   $ k 6 @ X V i 6 6 6 6 6 6 6 } % X a i d   f g 5 6 6 6 6 a 6 6 e ] + @ M l e X 1 1 4 6 6 6 6 6 4 E 1 o l k =.@ : W 4 6 6 6 6 i 6 6 4 -.r   a a 6   e m 4 6 6 6 6 6 % B d   a e k X 6 m 6 6 6 6 6 r 6 6 r g.X + k e $   m a 6 6 6 6 6 6 e g.+ + a a a   l d 6 6 6 6 6 6 6 % n =.. 6 d 6 + @ =.6 6 6 6 6 6 % n -.. 6 r k $ + =.6 6 6 6 6 a 6 6 % gXz * M l a * 5.3.& 6 6 6 6 6 @ gX&.  c k =.* 5.qX& 6 6 6 6 r 6 5 s 0.  @ k 6 @   N a 6 ",
"% 6 6 6 a 6 6 6 5 U Y o l n M 5 = D 6 6 6 6 6 6 5 G @X  i M =.k X D - 5 6 6 6 6 6 5 s K   % a d 6   V i 6 6 6 6 6 6 6 K # X a d a   p g 5 6 6 6 6 a 6 6 e T + % n n n X 1 1 4 6 6 6 6 6 4 E 1 X l M =.@ & W 6 6 6 6 6 i 6 6 4 -.e   a a d X e m 6 6 6 6 6 6 % B r   a a k X % m 6 6 6 6 6 r 6 6 r g.X @ a a i   l a 6 6 6 6 6 6 e g.X + a d a   k d 6 6 6 6 6 6 6 % n n . e a d @ + n 6 6 6 6 6 6 % n =.. 6 a k $ + n 6 6 6 6 6 a 6 6 % gXj + n n M * 5.3.& 6 6 6 6 6 $ gXz * n M =.+ #.qX$ 6 6 6 6 r 6 5 s 7.  % a d 6   b a 6 ",
"6 6 6 6 a 6 6 6 5 P @Xo @ d i o A Y 5 6 6 6 6 6 6 9 +X#   a a X & %X9 6 6 6 6 6 6 6 i } +   6 6   @ V 6 6 6 6 6 6 6 5 K g . @ 6 +   V f 5 6 6 6 6 a 6 6 4 T < o e k @ X W < 4 6 6 6 6 6 4 W E o $ d 6 o 1 W 4 6 6 6 6 i 6 6 % m m . + 6 @ . d d 4 6 6 6 6 6 % m m . + 6 @ . d d 4 6 6 6 6 r 6 6 6 g.6 . % 6 X + m e 6 6 6 6 6 6 6 g.e . % 6 X X m r 6 6 6 6 6 6 6 % k g.  X 6 % . r n 6 6 6 6 6 6 % a g.    6 % . 6 n 6 6 6 6 6 a 6 6 & fX4.. 6 k 4 . qX5.& 6 6 6 6 6 & fX4.. 6 d 6 . 3.5.& 6 6 6 6 r 6 6 6 B.$ . 6 6   + N 6 6 ",
"6 6 6 6 a 6 6 6 6 5 @XU o X   ; %X0 5 6 6 6 6 6 6 5 P $X&     + %XA 5 6 6 6 6 6 6 6 5 V } +     + V f 6 6 6 6 6 6 6 6 i  .i     X g V 6 6 6 6 6 6 a 6 6 4 < ] : X   X W W 4 6 6 6 6 6 6 6 6 ) W X   X < E : 6 6 6 6 6 i 6 6 6 6 g.d       a m 6 6 6 6 6 6 6 6 6 g.l       r m 6 6 6 6 6 6 r 6 6 % k h.$     + m k 6 6 6 6 6 6 6 6 d h.6     X m l 6 6 6 6 6 6 6 6 6 % -.-.X     6 *.r 6 6 6 6 6 6 6 % -.g.X     % =.a 6 6 6 6 6 a 6 6 % j vX2.. X   5.qX6 6 6 6 6 6 6 % 8 zX,.. X   5.qX6 6 6 6 6 6 r 6 6 % b A.@     + N s 5 6 ",
"6 6 6 6 a 6 6 6 6 5 p I 5 6 5 A - 5 6 6 6 6 6 6 6 6 6 I p 5 6 0 Y 5 6 6 6 6 6 6 6 6 6 6 V i 6 6 i s 6 6 6 6 6 6 6 6 6 5 g g 6 6 6 s 6 6 6 6 6 6 6 a 6 6 6 4 1 1 7 6 6 1 6 6 6 6 6 6 6 6 6 4 < R 7 6 7 1 < 4 6 6 6 6 6 i 6 6 6 4 d l 6 6 6 d e 6 6 6 6 6 6 6 6 6 a m 6 6 6 d e 6 6 6 6 6 6 r 6 6 6 6 m a 6 6 e k 6 6 6 6 6 6 6 6 6 6 m d 6 6 6 k 6 6 6 6 6 6 6 6 6 6 6 e n 6 6 6 a a 6 6 6 6 6 6 6 6 6 6 n 6 6 6 a k 6 6 6 6 6 6 a 6 6 6 @ ,.<.$ 6 % 5.8 % 6 6 6 6 6 6 6 $ 2.<.$ 6 % 5.z % 6 6 6 6 6 r 6 6 6 6 N a 6 6 i s 6 6 6 ",
"6 6 6 6 a 6 6 6 6 6 5 O 6 6 6 $ 5 6 6 6 6 6 6 6 6 6 6 O 5 6 % 5 $ 6 6 6 6 6 6 6 6 6 6 6 $ 6 6 6 6 % 6 6 6 6 6 6 6 6 6 6 % % 6 6 6 % 6 6 6 6 6 6 6 a 6 6 6 6 4 4 6 % 6 4 6 6 6 6 6 6 6 6 6 6 4 4 6 6 6 4 4 6 6 6 6 6 6 i 6 6 6 6 4 % 6 6 6 % 6 6 6 6 6 6 6 6 6 6 6 % 6 6 6 % 6 6 6 6 6 6 6 r 6 6 6 6 $ 6 6 6 6 % 6 6 6 6 6 6 6 6 6 6 % % 6 6 6 % 6 6 6 6 6 6 6 6 6 6 6 6 @ 6 6 6 % % 6 6 6 6 6 6 6 6 6 6 @ 6 6 6 % % 6 6 6 6 6 6 a 6 6 6 6 @ @ 6 % 6 & % 6 6 6 6 6 6 6 6 6 $ & 6 % 6 & % 6 6 6 6 6 6 r 6 6 6 6 $ 6 6 6 6 % 6 6 6 ",
"6 6 6 6 a 6 6 6 6 6 6 d % a a a i 6 6 6 6 6 6 6 6 6 6 k 6 6 d e d 6 6 6 6 6 6 6 6 6 6 6 a 6 6 a 6 a 6 6 6 6 6 6 6 6 6 6 i i 6 a 6 a 6 6 6 6 6 6 6 a 6 6 6 6 d i 6 k 6 d 6 6 6 6 6 6 6 6 6 6 e d % a i a e 6 6 6 6 6 6 i 6 6 6 6 e a % a 6 a 6 6 6 6 6 6 6 6 6 6 e a % a 6 a 6 6 6 6 6 6 6 r 6 6 6 6 a 6 6 a 6 a 6 6 6 6 6 6 6 6 6 6 a 6 6 a 6 a 6 6 6 6 6 6 6 6 6 6 6 6 a 6 e r r r 6 6 6 6 6 6 6 6 6 6 a 6 6 i e i 6 6 6 6 6 6 a 6 6 6 6 a a % d 6 k 6 6 6 6 6 6 6 6 6 6 a a % d e k 6 6 6 6 6 6 6 r 6 6 6 6 a 6 6 a 6 a 6 6 6 ",
"6 6 6 6 a 6 6 6 6 % M :.a =.:.:.M 6 6 6 6 6 6 6 6 % d f.l l :.:.;.i 6 6 6 6 6 6 6 6 6 a =.a k M M n 6 6 6 6 6 6 6 6 6 6 n c a n M M d 6 6 6 6 6 6 a 6 6 6 e :.M d :.:.:.k % 6 6 6 6 6 6 6 6 M :.a -.:.:.M 6 6 6 6 6 6 i 6 6 6 6 c n i n M M k 6 6 6 6 6 6 6 6 6 c n r c M M l 6 6 6 6 6 6 r 6 6 6 r =.k a M M n a 6 6 6 6 6 6 6 6 6 M k a M M n a 6 6 6 6 6 6 6 6 6 6 k =.a l M M c 6 6 6 6 6 6 6 6 6 k =.a l M M c 6 6 6 6 6 6 a 6 6 6 6 ;.-.a ;.:.:.l % 6 6 6 6 6 6 6 6 -.;.a ;.:.:.c % 6 6 6 6 6 r 6 6 6 a =.d d M M n e 6 6 ",
"6 6 6 6 a 6 6 6 6 6 M =.M n f.;.=.6 6 6 6 6 6 6 6 % l =.M M -.J.M d % 6 6 6 6 6 6 6 % d c l l c =.l a 6 6 6 6 6 6 6 6 6 c l k l -.l l % 6 6 6 6 6 a 6 6 6 a =.=.n M J.M c $ 6 6 6 6 6 6 6 6 M =.M n J.;.=.6 6 6 6 6 6 i 6 6 6 6 l c l l -.c l 6 6 6 6 6 6 6 6 6 l c l l =.c l 6 6 6 6 6 6 r 6 6 6 a c l l l -.l a % 6 6 6 6 6 6 6 a c l l l -.l k % 6 6 6 6 6 6 6 6 6 l c l k M M l 6 6 6 6 6 6 6 6 % k c l k n =.l 6 6 6 6 6 6 a 6 6 6 e =.=.n M J.=.M % 6 6 6 6 6 6 6 6 =.=.n M J.=.M % 6 6 6 6 6 r 6 6 % a c l l c -.l a 6 6 ",
"6 6 6 6 a 6 6 6 6 % k -.k M n M l % 6 6 6 6 6 6 6 6 6 -.c l =.c =.6 6 6 6 6 6 6 6 6 6 6 c k k l k l 6 6 6 6 6 6 6 6 6 6 l l a c k c r 6 6 6 6 6 6 a 6 6 6 6 M M k =.l -.e 6 6 6 6 6 6 6 6 % k -.k M n =.l % 6 6 6 6 6 i 6 6 6 6 k c a l k c a 6 6 6 6 6 6 6 6 6 d c a l k c a 6 6 6 6 6 6 r 6 6 6 6 c k a c k c 6 6 6 6 6 6 6 6 6 6 l l a c k c 6 6 6 6 6 6 6 6 6 6 6 a c a k l l k 6 6 6 6 6 6 6 6 6 r c a k l l l 6 6 6 6 6 6 a 6 6 6 % n =.k =.l -.a 6 6 6 6 6 6 6 6 % c =.k =.c -.d 6 6 6 6 6 6 r 6 6 6 6 c k d c k c 6 6 6 ",
"6 6 6 6 a 6 6 6 6 6 6 % 6 % % % 6 6 6 6 6 6 6 6 6 6 6 % % 6 % % % 6 6 6 6 6 6 6 6 6 6 6 6 6 6 6 6 6 6 6 6 6 6 6 6 6 6 6 6 6 6 6 6 6 6 6 6 6 6 6 6 a 6 6 6 6 % % 6 % % % 6 6 6 6 6 6 6 6 6 6 6 % 6 % % % 6 6 6 6 6 6 6 i 6 6 6 6 6 6 6 6 6 6 6 6 6 6 6 6 6 6 6 6 6 6 6 6 6 6 6 6 6 6 6 6 6 r 6 6 6 6 6 6 6 6 6 6 6 6 6 6 6 6 6 6 6 6 6 6 6 6 6 6 6 6 6 6 6 6 6 6 6 6 6 6 % 6 6 6 6 6 6 6 6 6 6 6 6 6 6 6 % 6 6 6 6 6 6 6 6 6 6 6 a 6 6 6 6 % % 6 % % % 6 6 6 6 6 6 6 6 6 6 6 % 6 % % % 6 6 6 6 6 6 6 r 6 6 6 6 6 6 6 6 6 6 6 6 6 ",
"6 6 6 6 a 6 6 6 6 6 6 6 6 6 6 6 6 6 6 6 6 6 6 6 6 6 6 6 6 6 6 6 6 6 6 6 6 6 6 6 6 6 6 6 6 6 6 6 6 6 6 6 6 6 6 6 6 6 6 6 6 6 6 6 6 6 6 6 6 6 6 6 6 a 6 6 6 6 6 6 6 6 6 6 6 6 6 6 6 6 6 6 6 6 6 6 6 6 6 6 6 6 6 6 6 6 6 i 6 6 6 6 6 6 6 6 6 6 6 6 6 6 6 6 6 6 6 6 6 6 6 6 6 6 6 6 6 6 6 6 6 r 6 6 6 6 6 6 6 6 6 6 6 6 6 6 6 6 6 6 6 6 6 6 6 6 6 6 6 6 6 6 6 6 6 6 6 6 6 6 6 6 6 6 6 6 6 6 6 6 6 6 6 6 6 6 6 6 6 6 6 6 6 6 6 6 6 6 a 6 6 6 6 6 6 6 6 6 6 6 6 6 6 6 6 6 6 6 6 6 6 6 6 6 6 6 6 6 6 6 6 6 r 6 6 6 6 6 6 6 6 6 6 6 6 6 ",
"6 6 6 6 a 6 6 6 6 6 6 6 6 $ 5 6 6 6 6 6 6 6 6 6 6 6 6 6 6 4 4 6 6 6 6 6 6 6 6 6 6 6 6 6 6 6 6 6 6 6 6 6 6 6 6 6 6 6 6 6 6 6 6 6 6 6 6 6 6 6 6 6 6 a 6 6 6 6 6 6 % $ 6 6 6 6 6 6 6 6 6 6 6 6 6 6 6 4 6 6 6 6 6 6 6 6 6 i 6 6 6 6 6 6 6 6 6 6 6 6 6 6 6 6 6 6 6 6 6 6 6 6 6 6 6 6 6 6 6 6 6 r 6 6 6 6 6 6 6 6 6 6 6 6 6 6 6 6 6 6 6 6 6 6 6 6 6 6 6 6 6 6 6 6 6 6 6 6 6 6 6 6 6 6 6 6 6 6 6 6 6 6 6 6 6 6 6 6 6 6 6 6 6 6 6 6 6 6 a 6 6 6 6 6 6 5 $ 5 6 6 6 6 6 6 6 6 6 6 6 6 6 6 4 6 6 6 6 6 6 6 6 6 r 6 6 6 6 6 6 6 6 6 6 6 6 6 ",
"6 6 6 6 a 6 6 6 6 6 6 $ q b s $ 5 6 6 6 6 6 6 6 6 6 6 4 6 t t 6 4 6 6 6 6 6 6 6 6 6 6 6 6 6 i i 6 6 6 6 6 6 6 6 6 6 6 6 6 6 e i 6 6 6 6 6 6 6 6 6 a 6 6 6 6 5 5 s g 9 $ 6 6 6 6 6 6 6 6 6 6 6 4 t u t 4 6 6 6 6 6 6 6 i 6 6 6 6 6 6 6 i 6 6 6 6 6 6 6 6 6 6 6 6 6 6 6 i e 6 6 6 6 6 6 6 6 r 6 6 6 6 6 6 i i 6 6 6 6 6 6 6 6 6 6 6 6 6 6 e e 6 6 6 6 6 6 6 6 6 6 6 6 6 6 6 6 i 9 6 6 6 6 6 6 6 6 6 6 6 6 6 6 e e 6 6 6 6 6 6 6 6 a 6 6 6 6 5 $ s b q $ 6 6 6 6 6 6 6 6 6 6 6 4 t u t 4 6 6 6 6 6 6 6 r 6 6 6 6 6 6 i i 6 6 6 6 6 ",
"6 6 6 6 a 6 6 6 6 6 6 u.;Xu.;Xu.s 5 6 6 6 6 6 6 6 6 4 u j.j.j.j.u 4 6 6 6 6 6 6 6 6 6 6 s N b N N a 6 6 6 6 6 6 6 6 6 6 e m m m m d 6 6 6 6 6 6 6 a 6 6 6 $ g u.;Xu.;Xy.5 6 6 6 6 6 6 6 6 6 6 ^ j./ j.^ e 6 6 6 6 6 6 i 6 6 6 6 6 b J b J g 6 6 6 6 6 6 6 6 6 6 6 h m m m h 6 6 6 6 6 6 6 r 6 6 6 6 i b N b J s 6 6 6 6 6 6 6 6 6 6 e m m m m d 6 6 6 6 6 6 6 6 6 6 6 6 s J b J b 9 6 6 6 6 6 6 6 6 6 6 d m m m m e 6 6 6 6 6 6 a 6 6 6 5 q u.;Xu.;Xu.6 6 6 6 6 6 6 6 6 6 e ^ j./ j.^ 6 6 6 6 6 6 6 r 6 6 6 6 a N b N N s 6 6 6 ",
"6 6 6 6 a 6 6 6 6 $ u.u.+ X + H u.6 6 6 6 6 6 6 6 4 u j.t X X t j.u 4 6 6 6 6 6 6 6 6 s J % X X 6 J s 6 6 6 6 6 6 6 6 6 m a X   + m m 6 6 6 6 6 6 a 6 6 5 s ;XH X X # ;Xu.$ 6 6 6 6 6 6 6 4 / ^ + X X ^ j.6 6 6 6 6 6 i 6 6 6 6 b g +   + g N 6 6 6 6 6 6 6 6 6 m h +   + d m 6 6 6 6 6 6 r 6 6 6 i J 9 X X # J s 5 6 6 6 6 6 6 6 e m e X   @ m d 4 6 6 6 6 6 6 6 6 5 g b @   X p J 9 6 6 6 6 6 6 6 6 d m @   X e m e 6 6 6 6 6 a 6 6 6 6 ;Xy.X   + u.;X$ 6 6 6 6 6 6 6 6 j.^ + X + ^ j.4 6 6 6 6 6 r 6 6 6 a J 6 X X % J s 6 6 ",
"6 6 6 6 a 6 6 6 $ H u.  + k + . H H $ 6 6 6 6 6 6 6 j.t   a k * t j.6 6 6 6 6 6 6 6 6 N % . 6 6 . % b 6 6 6 6 6 6 6 4 h d . + 6 + X m a 6 6 6 6 6 a 6 6 $ u.H . 6 l O X ;Xs 5 6 6 6 6 6 # ! j.  @ k i   ^ ^ # 6 6 6 6 i 6 6 5 s b   + 6 +   b s 5 6 6 6 6 6 4 d m   + 6 @   h d 4 6 6 6 6 r 6 6 6 b 9 . % 6   + b 6 6 6 6 6 6 6 6 m e . $ 6 X + m e 6 6 6 6 6 6 6 6 i N X   6 % . p g 5 6 6 6 6 6 6 e m +   6 6   e m 6 6 6 6 6 a 6 6 $ u.u.. 6 l $ . u.H $ 6 6 6 6 6 # ^ ^ . % k 6 * / ! # 6 6 6 6 r 6 6 6 N % . % 6   # b 6 6 ",
"6 6 6 6 a 6 6 6 $ u.y.. c n d $ 0 u.6 6 6 6 6 6 4 u j.  e =.n 6   / t 4 6 6 6 6 6 6 i b   % k a +   g 9 6 6 6 6 6 6 6 m $ X d d 6 . f d 4 6 6 6 6 a 6 6 9 ;X# $ M c 6 . H H $ 6 6 6 6 6 # ^ ! * c =.l   t / 4 6 6 6 6 i 6 6 6 b 9   a d 6 . 6 s 6 6 6 6 6 6 4 m e   a k r . % m 6 6 6 6 6 r 6 6 9 N X @ k a @ . s i 6 6 6 6 6 6 6 m + + k d % . h a 6 6 6 6 6 6 6 5 s g . 6 k 6 X + g 6 6 6 6 6 6 4 d h   6 k a X X m 6 6 6 6 6 a 6 6 5 ;Xw X M M i . H H $ 6 6 6 6 6 4 j.t * n M k   u ^ # 6 6 6 6 r 6 6 i N   @ k a +   s 9 6 ",
"6 6 6 6 a 6 6 6 $ u.H . l n =.$ = u.6 6 6 6 6 6 4 u j.  e M l 6   ^ t 4 6 6 6 6 6 6 i b   % a a 6 X s 9 6 6 6 6 6 6 6 m @ X a a 6   e d 6 6 6 6 6 a 6 6 9 ;X& $ M n l   H H $ 6 6 6 6 6 # ^ u * l n k + 5 ^ 6 6 6 6 6 i 6 6 6 b 9   a a a X % s 6 6 6 6 6 6 4 m e   a a e   $ d 6 6 6 6 6 r 6 6 9 N X @ a a 6   s i 6 6 6 6 6 6 6 m X + a a 5   a r 6 6 6 6 6 6 6 5 g g . 6 a a @ + g 6 6 6 6 6 6 4 d h . 6 a a + X d 6 6 6 6 6 a 6 6 5 ;X0 + n n l X g y.$ 6 6 6 6 6 4 j.t * n c k X t ! 4 6 6 6 6 r 6 6 i b   $ a a 6   s 9 6 ",
"6 6 6 6 a 6 6 6 $ H u.. @ a 6 . H y.$ 6 6 6 6 6 6 e j.$   i a * $ ^ 6 6 6 6 6 6 6 6 6 N @ . % 6   @ g 6 6 6 6 6 6 6 4 m d . + 6 + X d e 6 6 6 6 6 a 6 6 $ ;Xb . 6 d + X u.g 5 6 6 6 6 6 # ! / . @ a e   u ! 4 6 6 6 6 i 6 6 5 g g . + 6 +   s p 6 6 6 6 6 6 4 d h . + 6 @   a a 6 6 6 6 6 r 6 6 6 N % . $ 6   + g 6 6 6 6 6 6 6 6 m e . @ 6 X + h e 6 6 6 6 6 6 6 6 i N X   6 $ . 9 s 6 6 6 6 6 6 6 e m X   6 %   6 d 6 6 6 6 6 a 6 6 $ u.y.. 6 d % . u.H $ 6 6 6 6 6 # ^ ^ . % d 6 * ! u 4 6 6 6 6 r 6 6 6 N # . % 6   @ g 6 6 ",
"6 6 6 6 a 6 6 6 6 % ;Xu.  X   w u.9 6 6 6 6 6 6 6 # ! j.@     + ^ u 4 6 6 6 6 6 6 6 5 s J @     @ g i 6 6 6 6 6 6 6 6 e m e     X a d 6 6 6 6 6 6 a 6 6 $ g ;Xw   X X y.L $ 6 6 6 6 6 6 6 6 j.^ * X   t ^ e 6 6 6 6 6 i 6 6 6 6 J s     X i g 6 6 6 6 6 6 6 6 6 m d X     e h 6 6 6 6 6 6 r 6 6 6 s J %     + g p 6 6 6 6 6 6 6 6 i B %     + d a 6 6 6 6 6 6 6 6 6 6 b b X     % g 6 6 6 6 6 6 6 6 6 h m +     $ h e 6 6 6 6 6 a 6 6 6 9 ;XH   X   H u.6 6 6 6 6 6 6 6 6 j.!   X X u ^ 6 6 6 6 6 6 r 6 6 6 s J @     + g i 6 6 ",
"6 6 6 6 a 6 6 6 6 5 s y.6 6 5 g g $ 6 6 6 6 6 6 6 6 6 ! t 6 6 r u 6 6 6 6 6 6 6 6 6 6 6 s i 6 6 9 i 6 6 6 6 6 6 6 6 6 6 a a 6 6 6 i 6 6 6 6 6 6 6 a 6 6 6 $ H b 5 6 6 H 6 6 6 6 6 6 6 6 6 4 t ! 6 6 6 u t 4 6 6 6 6 6 i 6 6 6 6 i s 6 6 6 i 6 6 6 6 6 6 6 6 6 6 e d 6 6 6 i e 6 6 6 6 6 6 r 6 6 6 6 s i 6 6 6 p 6 6 6 6 6 6 6 6 6 6 d a 6 6 6 i 6 6 6 6 6 6 6 6 6 6 6 6 s 6 6 6 i i 6 6 6 6 6 6 6 6 6 6 d 6 6 6 e e 6 6 6 6 6 6 a 6 6 6 $ H H 5 6 6 H q 5 6 6 6 6 6 6 6 4 u ! 6 6 6 u t 6 6 6 6 6 6 r 6 6 6 6 s i 6 6 6 i 6 6 6 ",
"6 6 6 6 a 6 6 6 6 6 6 $ 6 6 % 5 $ 6 6 6 6 6 6 6 6 6 6 # % 6 6 % % 6 6 6 6 6 6 6 6 6 6 6 $ 6 % 6 6 % 6 6 6 6 6 6 6 6 6 6 6 % 6 6 6 4 6 6 6 6 6 6 6 a 6 6 6 6 @ $ % 6 6 @ 6 6 6 6 6 6 6 6 6 6 6 # 6 % 6 # 6 6 6 6 6 6 6 i 6 6 6 6 % % 6 6 6 % 6 6 6 6 6 6 6 6 6 6 6 % 6 6 6 % 6 6 6 6 6 6 6 r 6 6 6 6 % 5 6 6 6 % 6 6 6 6 6 6 6 6 6 6 6 % 6 6 6 4 6 6 6 6 6 6 6 6 6 6 6 6 $ 6 % 6 6 % 6 6 6 6 6 6 6 6 6 6 % 6 6 6 % 6 6 6 6 6 6 6 a 6 6 6 6 $ @ 6 % 6 $ 5 6 6 6 6 6 6 6 6 6 6 # 6 % 6 # 6 6 6 6 6 6 6 r 6 6 6 6 $ 6 6 6 6 % 6 6 6 ",
"6 6 6 6 a 6 6 6 6 6 6 a e 6 k 6 a 6 6 6 6 6 6 6 6 6 6 r a a a a a 6 6 6 6 6 6 6 6 6 6 6 a 6 a 6 e a 6 6 6 6 6 6 6 6 6 6 6 r r a a i 6 6 6 6 6 6 6 a 6 6 6 6 l i k 6 6 l 6 6 6 6 6 6 6 6 6 6 6 a 6 k i k 6 6 6 6 6 6 6 i 6 6 6 6 a a a i 6 a 6 6 6 6 6 6 6 6 6 6 6 a 6 a 6 a 6 6 6 6 6 6 6 r 6 6 6 6 a i a r 6 a 6 6 6 6 6 6 6 6 6 6 6 i 6 a r a 6 6 6 6 6 6 6 6 6 6 6 6 a 6 a 6 6 a 6 6 6 6 6 6 6 6 6 6 r 6 a e a 6 6 6 6 6 6 6 a 6 6 6 6 a k a k % k a 6 6 6 6 6 6 6 6 6 6 a 6 k e k 6 6 6 6 6 6 6 r 6 6 6 6 a e a 6 6 a 6 6 6 ",
"% 6 6 6 a 6 6 6 6 6 % f.k n :.n f.6 6 6 6 6 6 6 6 6 % l :.M :.:.=.6 6 6 6 6 6 6 6 6 6 6 l =.n a l n 6 6 6 6 6 6 6 6 6 6 a M l M M c 6 6 6 6 6 6 6 a 6 6 6 6 l J.:.l l f.k % 6 6 6 6 6 6 6 6 e :.M :.f.;.i 6 6 6 6 6 6 i 6 6 6 6 i =.M l a M k 6 6 6 6 6 6 6 6 6 6 n l c =.n a 6 6 6 6 6 6 r 6 6 6 6 a =.M l a =.k 6 6 6 6 6 6 6 6 6 i M l M =.c 6 6 6 6 6 6 6 6 6 6 6 6 k =.n a k M r 6 6 6 6 6 6 6 6 % l n l =.M l 6 6 6 6 6 6 a 6 6 6 6 e ;.f.-.a ;.=.6 6 6 6 6 6 6 6 6 6 :.M ;.f.;.d % 6 6 6 6 6 r 6 6 6 6 a =.n k a =.d 6 6 ",
"% 6 6 6 a 6 6 6 6 % k L.M k J.L.J.6 6 6 6 6 6 6 6 6 6 6 ;.M f.:.=.6 6 6 6 6 6 6 6 6 6 6 l c c l l c a 6 6 6 6 6 6 6 6 6 6 c l M M c 6 6 6 6 6 6 6 a 6 6 6 6 c ;.=.M n -.l % 6 6 6 6 6 6 6 6 % M =.-.J.=.a % 6 6 6 6 6 i 6 6 6 6 a n l c k c l 6 6 6 6 6 6 6 6 6 % k c l -.l k % 6 6 6 6 6 r 6 6 6 6 a n l c k c l % 6 6 6 6 6 6 6 6 6 c l n =.l e 6 6 6 6 6 6 6 6 6 6 6 l c c l l c a 6 6 6 6 6 6 6 6 6 a n k -.c l 6 6 6 6 6 6 a 6 6 6 6 a -.=.=.n M -.6 6 6 6 6 6 6 6 6 % n -.M J.=.l % 6 6 6 6 6 r 6 6 6 6 k n l l k c k % 6 ",
"% 6 6 6 a 6 6 6 6 6 6 l n k n i n 6 6 6 6 6 6 6 6 6 6 6 k l n n l % 6 6 6 6 6 6 6 6 6 a n a c a k l 6 6 6 6 6 6 6 6 6 6 6 a d l k k 6 6 6 6 6 6 6 a 6 6 6 6 :.l M l k =.6 6 6 6 6 6 6 6 6 6 6 k d M l M 6 6 6 6 6 6 6 i 6 6 6 6 c l k l a c a 6 6 6 6 6 6 6 6 6 6 a a l a c 6 6 6 6 6 6 6 r 6 6 6 6 c k l k a c i 6 6 6 6 6 6 6 6 6 6 a a l k l 6 6 6 6 6 6 6 6 6 6 6 e M a l a k l 6 6 6 6 6 6 6 6 6 6 e a k k l a 6 6 6 6 6 6 a 6 6 6 % c -.l M k M l % 6 6 6 6 6 6 6 6 6 k a =.l =.6 6 6 6 6 6 6 r 6 6 6 6 n k l k a c e 6 6 ",
"6 6 6 6 a 6 6 6 6 6 6 % % 6 % 6 % 6 6 6 6 6 6 6 6 6 6 6 6 % % % % 6 6 6 6 6 6 6 6 6 6 6 % 6 % 6 6 % 6 6 6 6 6 6 6 6 6 6 6 6 6 6 6 6 6 6 6 6 6 6 6 a 6 6 6 6 $ 6 % % 6 % 6 6 6 6 6 6 6 6 6 6 6 6 6 % % % 6 6 6 6 6 6 6 i 6 6 6 6 % 6 6 6 6 % 6 6 6 6 6 6 6 6 6 6 6 6 6 % 6 % 6 6 6 6 6 6 6 r 6 6 6 6 % 6 6 6 6 % 6 6 6 6 6 6 6 6 6 6 6 6 6 % 6 6 6 6 6 6 6 6 6 6 6 6 6 6 % 6 % 6 6 % 6 6 6 6 6 6 6 6 6 6 6 6 6 6 % 6 6 6 6 6 6 6 a 6 6 6 6 % % 6 % 6 % % 6 6 6 6 6 6 6 6 6 6 6 6 % % % 6 6 6 6 6 6 6 r 6 6 6 6 % 6 6 6 6 % 6 6 6 ",
"6 6 6 6 a 6 6 6 6 6 6 6 6 6 6 6 6 6 6 6 6 6 6 6 6 6 6 6 6 6 6 6 6 6 6 6 6 6 6 6 6 6 6 6 6 6 6 6 6 6 6 6 6 6 6 6 6 6 6 6 6 6 6 6 6 6 6 6 6 6 6 6 6 a 6 6 6 6 6 6 6 6 6 6 6 6 6 6 6 6 6 6 6 6 6 6 6 6 6 6 6 6 6 6 6 6 6 i 6 6 6 6 6 6 6 6 6 6 6 6 6 6 6 6 6 6 6 6 6 6 6 6 6 6 6 6 6 6 6 6 6 r 6 6 6 6 6 6 6 6 6 6 6 6 6 6 6 6 6 6 6 6 6 6 6 6 6 6 6 6 6 6 6 6 6 6 6 6 6 6 6 6 6 6 6 6 6 6 6 6 6 6 6 6 6 6 6 6 6 6 6 6 6 6 6 6 6 6 a 6 6 6 6 6 6 6 6 6 6 6 6 6 6 6 6 6 6 6 6 6 6 6 6 6 6 6 6 6 6 6 6 6 r 6 6 6 6 6 6 6 6 6 6 6 6 6 ",
"6 6 6 6 a 6 6 6 6 6 6 6 % $ $ 6 6 6 6 6 6 6 6 6 6 6 6 6 6 5 5 6 6 6 6 6 6 6 6 6 6 6 6 6 6 6 6 6 6 6 6 6 6 6 6 6 6 6 6 6 6 6 6 5 6 6 6 6 6 6 6 6 6 a 6 6 6 6 6 6 $ $ % 6 6 6 6 6 6 6 6 6 6 6 6 6 4 4 4 6 6 6 6 6 6 6 6 i 6 6 6 6 6 6 6 6 6 6 6 6 6 6 6 6 6 6 6 6 6 6 6 4 6 6 6 6 6 6 6 6 6 r 6 6 6 6 6 6 6 6 6 6 6 6 6 6 6 6 6 6 6 6 6 6 6 % 6 6 6 6 6 6 6 6 6 6 6 6 6 6 6 6 6 6 6 6 6 6 6 6 6 6 6 6 6 6 6 6 % % 6 6 6 6 6 6 6 6 a 6 6 6 6 6 6 $ $ % 6 6 6 6 6 6 6 6 6 6 6 6 6 % @ % 6 6 6 6 6 6 6 6 r 6 6 6 6 6 6 6 6 6 6 6 6 6 ",
"6 6 6 6 a 6 6 6 6 6 6 $ w y.v % $ 6 6 6 6 6 6 6 6 6 6 5 9 G G 9 5 6 6 6 6 6 6 6 6 6 6 6 6 6 a a 6 6 6 6 6 6 6 6 6 6 6 6 6 6 i s i 5 6 6 6 6 6 6 6 a 6 6 6 6 $ 6 b >.q $ 6 6 6 6 6 6 6 6 6 6 6 4 , 1 < 4 4 6 6 6 6 6 6 i 6 6 6 6 6 6 i a i 6 6 6 6 6 6 6 6 6 6 6 6 6 e d i 6 6 6 6 6 6 6 6 r 6 6 6 6 6 6 a a 6 6 6 6 6 6 6 6 6 6 6 6 6 6 a d e % 6 6 6 6 6 6 6 6 6 6 6 6 6 6 a i 6 6 6 6 6 6 6 6 6 6 6 6 % 6 k a 6 % 6 6 6 6 6 6 a 6 6 6 6 % % v y.v $ 6 6 6 6 6 6 6 6 6 6 % % z 2.z $ % 6 6 6 6 6 6 r 6 6 6 6 6 6 a a 6 6 6 6 6 ",
"6 6 6 6 a 6 6 6 6 6 6 p.SXwXSXwXv $ 6 6 6 6 6 6 6 6 5 P +X@X@X+XP 5 6 6 6 6 6 6 6 6 6 6 s >.N N >.s 6 6 6 6 6 6 6 6 6 6 i K } J } V 6 6 6 6 6 6 6 a 6 6 6 $ %.SXSXwXSXp.6 6 6 6 6 6 6 6 6 6 e R ] E ] E , 4 6 6 6 6 6 i 6 6 6 6 6 b >.b >.b 6 6 6 6 6 6 6 6 6 6 6 m g.m g.m e 6 6 6 6 6 6 r 6 6 6 6 a N N N >.s 6 6 6 6 6 6 6 6 6 6 d g.g.g.h.m 6 6 6 6 6 6 6 6 6 6 6 6 l >.b >.N i 6 6 6 6 6 6 6 6 6 6 n h.-.h.g.d 6 6 6 6 6 6 a 6 6 6 $ v wXSXwXSXp.9 6 6 6 6 6 6 6 6 % j fXzXfXzXfX8 % 6 6 6 6 6 r 6 6 6 6 s >.N N >.s 6 6 6 ",
"6 6 6 6 a 6 6 6 6 $ wXp.X     y.SXq % 6 6 6 6 6 6 5 P $X=   X = $XP 5 6 6 6 6 6 6 6 6 s >.$     % q.s 6 6 6 6 6 6 6 6 6 } s X   + J K 5 6 6 6 6 6 a 6 6 $ v SX%.    @ SXp.$ 6 6 6 6 6 6 6 4 T R X X X 1 ] 6 6 6 6 6 6 i 6 6 6 6 N s X   X l N 6 6 6 6 6 6 6 6 6 g.m X   X m g.6 6 6 6 6 6 r 6 6 6 a q.6     @ >.l 5 6 6 6 6 6 6 6 a h.e     @ g.m % 6 6 6 6 6 6 6 6 6 b N +   X i q.i 6 6 6 6 6 6 6 % n g.+     r h.a 6 6 6 6 6 a 6 6 6 q SXy.    X p.SX$ 6 6 6 6 6 6 6 6 zX4.    X i.zX% 6 6 6 6 6 r 6 6 6 s >.%     $ q.s 5 6 ",
"6 6 6 6 a 6 6 6 $ y.wX. @ l a . p.p.O 6 6 6 6 6 6 9 +X= o a l X = +X9 6 6 6 6 6 6 6 6 >.$ . 6 6   % >.6 6 6 6 6 6 6 5 B V . @ i +   K s 5 6 6 6 6 a 6 6 $ wXy.. i l +   SXb $ 6 6 6 6 6 4 1 E o @ l i o W R 4 6 6 6 6 i 6 6 % l b . + i @ . b l % 6 6 6 6 6 % m m . + e @ . m m % 6 6 6 6 r 6 6 6 N 6 . % e X + >.6 6 6 6 6 6 6 6 g.r . % e X + g.r 6 6 6 6 6 6 6 6 a N X X 6 6 . a N 5 6 6 6 6 6 6 a g.+   6 6 . a g.% 6 6 6 6 a 6 6 O p.p.. 6 l % . wXy.@ 6 6 6 6 6 & 4.i.. 6 l 6 . fX4.& 6 6 6 6 r 6 6 6 >.% . 6 e   @ >.6 6 ",
"6 6 6 6 a 6 6 6 O p.y.. c =.;.$ w SX6 6 6 6 6 6 5 G @XX i M =.l   @XG 5 6 6 6 6 6 6 a N   % k a +   b 9 6 6 6 6 6 6 6 } % X d k d   g B 5 6 6 6 6 a 6 6 q SX# $ =.n 6 . y.y.$ 6 6 6 6 6 4 E 1 X l M -.@ > T 4 6 6 6 6 i 6 6 6 N 9   a d 6 . 6 l 6 6 6 6 6 6 % B a   a k k X e -.4 6 6 6 6 r 6 6 i N X @ k a @ . s i 6 6 6 6 6 6 e g.+ + d k a   m l % 6 6 6 6 6 6 % l l . e k i X + b 6 6 6 6 6 6 % n =.. 6 k l % + g.e 6 6 6 6 a 6 6 % SXw X M =.-.  y.p.O 6 6 6 6 6 $ gX$.  M =.=.* 2.fX& 6 6 6 6 r 6 6 a N   $ k a +   l i 6 ",
"6 6 6 6 a 6 6 6 O p.y.. l l k @ w SX6 6 6 6 6 6 5 G @X  i M d % X @XG 5 6 6 6 6 6 6 a N   % a a %   l 9 6 6 6 6 6 6 6 } % X a i 5 . V B 5 6 6 6 6 a 6 6 q SX# @ n c k . y.y.$ 6 6 6 6 6 4 E 1 o l c a X : T 4 6 6 6 6 i 6 6 6 N 9   a a i   6 s 6 6 6 6 6 6 % B a   a a 6   e -.4 6 6 6 6 r 6 6 i N X @ a a 6   s i 6 6 6 6 6 6 e g.+ + a e $ . M l % 6 6 6 6 6 6 % l l . 6 a a + + l 6 6 6 6 6 6 % n =.. 6 a 6 X + g.e 6 6 6 6 a 6 6 % SXw X M k k   y.p.O 6 6 6 6 6 $ gX$.  n l a   ,.fX& 6 6 6 6 r 6 6 a N   @ a a %   s i 6 ",
"6 6 6 6 a 6 6 6 @ y.wX. + a + . p.p.O 6 6 6 6 6 6 9 +X= o i i . = +X9 6 6 6 6 6 6 6 6 >.@ . $ %   $ b 6 6 6 6 6 6 6 5 B V . + 6 X o K s 5 6 6 6 6 a 6 6 $ wXy.. 6 a + X p.v $ 6 6 6 6 6 4 1 E o + a $ o W R 4 6 6 6 6 i 6 6 % l b . + 6 +   s a 6 6 6 6 6 6 % m m . X 6 + . m m % 6 6 6 6 r 6 6 6 N 6 . @ 6   + b 6 6 6 6 6 6 6 6 g.r . @ 6 . X g.r 6 6 6 6 6 6 6 6 a N X   % @ . 9 s 6 6 6 6 6 6 6 a g.+   % @ . a :.% 6 6 6 6 a 6 6 O p.p.. 6 i X . wXy.@ 6 6 6 6 6 & 4.i.. % a @ . fX4.& 6 6 6 6 r 6 6 6 >.% . $ %   @ b 6 6 ",
"6 6 6 6 a 6 6 6 6 $ SXp.  X . y.SXq % 6 6 6 6 6 6 5 P $X#   X # %XA 5 6 6 6 6 6 6 6 5 s q.@     @ b i 6 6 6 6 6 6 6 6 6  .f     X g V 6 6 6 6 6 6 a 6 6 $ v SXv   X X p.y.$ 6 6 6 6 6 6 6 4 T R X   X < W 6 6 6 6 6 6 i 6 6 6 6 >.s X   X a l 6 6 6 6 6 6 6 6 6 g.m X   X d m 6 6 6 6 6 6 r 6 6 6 a q.6     + l a 6 6 6 6 6 6 6 6 a h.e     + m k 6 6 6 6 6 6 6 6 6 5 b N +     6 b 6 6 6 6 6 6 6 6 % =.g.+     6 *.r 6 6 6 6 6 a 6 6 6 q SXy.. X   p.wX$ 6 6 6 6 6 6 6 6 zX4.. X * 5.qX6 6 6 6 6 6 r 6 6 6 s q.$     @ b a 6 6 ",
"6 6 6 6 a 6 6 6 6 % q y.6 6 % 2.b $ 6 6 6 6 6 6 6 6 5 P p 6 6 0 A 5 6 6 6 6 6 6 6 6 6 6 s i 6 6 6 a 6 6 6 6 6 6 6 6 6 5 s s 6 6 6 f 6 6 6 6 6 6 6 a 6 6 6 $ y.%.% 6 6 y.6 6 6 6 6 6 6 6 6 4 , 1 6 6 6 < , 4 6 6 6 6 6 i 6 6 6 6 i s 6 6 6 a 6 6 6 6 6 6 6 6 6 6 i k 6 6 6 a e 6 6 6 6 6 6 r 6 6 6 6 s i 6 6 6 a 6 6 6 6 6 6 6 6 6 6 k a 6 6 6 d 6 6 6 6 6 6 6 6 6 6 6 6 k 6 6 6 i i 6 6 6 6 6 6 6 6 6 6 c 6 6 6 a a 6 6 6 6 6 6 a 6 6 6 $ %.y.$ 6 6 y.q % 6 6 6 6 6 6 6 $ $.,.% 6 % 5.8 % 6 6 6 6 6 r 6 6 6 6 s i 6 6 6 a 6 6 6 ",
"6 6 6 6 a 6 6 6 6 6 6 + 6 6 % $ $ 6 6 6 6 6 6 6 6 6 6 5 $ 6 6 $ 5 % 6 6 6 6 6 6 6 6 6 6 $ 6 6 6 % 6 6 6 6 6 6 6 6 6 6 6 6 % 6 6 % 5 6 6 6 6 6 6 6 a 6 6 6 6 + $ 6 6 % @ % 6 6 6 6 6 6 6 6 6 6 4 6 6 % 4 % 6 6 6 6 6 6 i 6 6 6 6 % % 6 6 6 % 6 6 6 6 6 6 6 6 6 6 6 % 6 6 % % % 6 6 6 6 6 6 r 6 6 6 6 $ 6 6 6 6 % 6 6 6 6 6 6 6 6 6 6 6 % 6 6 % % 6 6 6 6 6 6 6 6 6 6 6 6 $ 6 6 6 % 6 6 6 6 6 6 6 6 6 6 6 % % 6 6 % % 6 6 6 6 6 6 a 6 6 6 6 $ + 6 6 % $ % 6 6 6 6 6 6 6 6 6 % @ 6 6 % & $ 6 6 6 6 6 6 r 6 6 6 6 $ 6 6 6 6 % 6 6 6 ",
"6 6 6 6 a 6 6 6 6 6 6 a a 6 l a i a 6 6 6 6 6 6 6 6 6 6 k 6 i k a k 6 6 6 6 6 6 6 6 6 i d 6 a 6 a i a 6 6 6 6 6 6 6 6 6 6 a 6 6 a i a 6 6 6 6 6 6 a 6 6 6 6 c 6 a 6 a k d a 6 6 6 6 6 6 6 6 6 a a 6 l i l 6 6 6 6 6 6 i 6 6 6 6 k 6 e e 6 a r a 6 6 6 6 6 6 6 6 6 6 a 6 a r a 6 6 6 6 6 6 r 6 6 6 6 k 6 e 6 6 a i a 6 6 6 6 6 6 6 6 6 a 6 6 d e a 6 6 6 6 6 6 6 6 6 6 e k 6 a 6 a i a e 6 6 6 6 6 6 6 6 6 a 6 a a a a 6 6 6 6 6 a 6 6 6 6 6 l a 6 k a d 6 6 6 6 6 6 6 6 6 6 a a 6 l a l 6 6 6 6 6 6 r 6 6 6 6 k 6 i 6 e a a a 6 ",
"6 6 6 6 a 6 6 6 6 6 6 l ;.@ J.k -.M $ 6 6 6 6 6 6 6 6 k J.6 M :.f.-.e 6 6 6 6 6 6 6 6 6 n l =.6 n =.n l 6 6 6 6 6 6 6 6 a -.6 k M =.c e 6 6 6 6 6 a 6 6 6 6 =.M J.i M :.:.=.6 6 6 6 6 6 6 6 e J.k k ;.f.;.k % 6 6 6 6 i 6 6 6 6 k l M a k M =.c e 6 6 6 6 6 6 6 6 M l 6 n =.n k 6 6 6 6 6 r 6 6 6 6 k l M a k M =.c 6 6 6 6 6 6 6 6 r -.r d n =.n a 6 6 6 6 6 6 6 6 6 6 c k =.6 c =.M l 6 6 6 6 6 6 6 6 l =.6 c M M c 6 6 6 6 6 a 6 6 6 6 6 k -.6 L.M :.6 6 6 6 6 6 6 6 6 6 f.n a ;.f.;.c % 6 6 6 6 r 6 6 6 6 l l =.a l M =.c 6 ",
"6 6 6 6 a 6 6 6 6 6 l a =.6 d J.L.-.$ 6 6 6 6 6 6 6 d -.f.M M ;.J.=.a 6 6 6 6 6 6 6 d a c M ;.k l =.c l 6 6 6 6 6 6 6 a c =.l l n =.c i 6 6 6 6 6 a 6 6 k k =.-.L.c M :.:.=.6 6 6 6 6 6 6 i M f.-.n =.J.=.l % 6 6 6 6 i 6 6 i a l c :.c k n =.c a 6 6 6 6 6 6 6 k M n k l -.c l % 6 6 6 6 r 6 6 a a l c :.l l n =.c i 6 6 6 6 6 6 i l =.c l c -.c a 6 6 6 6 6 6 6 6 d a c n :.k l =.n l 6 6 6 6 6 6 6 a n =.l l =.M c 6 6 6 6 6 a 6 6 6 i l M c d J.n M 6 6 6 6 6 6 6 6 6 n :.;.n M J.-.n % 6 6 6 6 r 6 6 a a l c :.l l n =.c 6 ",
"6 6 6 6 a 6 6 6 6 6 6 6 k k n k a k % 6 6 6 6 6 6 6 6 6 M l l n l n 6 6 6 6 6 6 6 6 % k c 6 k a k a l a 6 6 6 6 6 6 6 6 6 l d a l a l 6 6 6 6 6 6 a 6 6 % a ;.a l l l c c l % 6 6 6 6 6 6 6 6 c c k M k M 6 6 6 6 6 6 i 6 6 6 6 n a a k a l a l 6 6 6 6 6 6 6 6 % a l a l a l i 6 6 6 6 6 r 6 6 6 6 n a a k a l d l 6 6 6 6 6 6 6 6 6 k k a l a l 6 6 6 6 6 6 6 6 6 % d c e k a k d l a 6 6 6 6 6 6 6 6 e l a k k k d 6 6 6 6 6 a 6 6 6 6 6 -.n l M d k 6 6 6 6 6 6 6 6 6 % l n d M k M i 6 6 6 6 6 r 6 6 6 e n a a k d k k k 6 ",
"6 6 6 6 a 6 6 6 6 6 6 6 6 6 % % 6 % 6 6 6 6 6 6 6 6 6 6 % % % % % % 6 6 6 6 6 6 6 6 6 6 % 6 % 6 6 6 % 6 6 6 6 6 6 6 6 6 6 % 6 6 % 6 % 6 6 6 6 6 6 a 6 6 6 6 $ 6 % % % % % % 6 6 6 6 6 6 6 6 6 % % 6 % % % 6 6 6 6 6 6 i 6 6 6 6 % 6 6 % 6 % 6 % 6 6 6 6 6 6 6 6 6 6 % 6 % 6 % 6 6 6 6 6 6 r 6 6 6 6 % 6 6 6 6 % 6 % 6 6 6 6 6 6 6 6 6 6 6 6 % 6 % 6 6 6 6 6 6 6 6 6 6 6 % 6 % 6 6 6 % 6 6 6 6 6 6 6 6 6 6 % 6 6 6 6 6 6 6 6 6 6 a 6 6 6 6 6 $ % % % 6 6 6 6 6 6 6 6 6 6 6 6 % % 6 % % % 6 6 6 6 6 6 r 6 6 6 6 % 6 6 6 6 6 6 6 6 ",
"6 6 6 6 a 6 6 6 6 6 6 6 6 6 6 6 6 6 6 6 6 6 6 6 6 6 6 6 6 6 6 6 6 6 6 6 6 6 6 6 6 6 6 6 6 6 6 6 6 6 6 6 6 6 6 6 6 6 6 6 6 6 6 6 6 6 6 6 6 6 6 6 6 a 6 6 6 6 6 6 6 6 6 6 6 6 6 6 6 6 6 6 6 6 6 6 6 6 6 6 6 6 6 6 6 6 6 r 6 6 6 6 6 6 6 6 6 6 6 6 6 6 6 6 6 6 6 6 6 6 6 6 6 6 6 6 6 6 6 6 6 e 6 6 6 6 6 6 6 6 6 6 6 6 6 6 6 6 6 6 6 6 6 6 6 6 6 6 6 6 6 6 6 6 6 6 6 6 6 6 6 6 6 6 6 6 6 6 6 6 6 6 6 6 6 6 6 6 6 6 6 6 6 6 6 6 6 6 a 6 6 6 6 6 6 6 6 6 6 6 6 6 6 6 6 6 6 6 6 6 6 6 6 6 6 6 6 6 6 6 6 6 e 6 6 6 6 6 6 6 6 6 6 6 6 6 ",
"6 6 6 6 e 6 6 6 6 6 6 6 6 6 6 6 6 6 6 6 6 6 6 6 6 6 6 6 6 6 6 6 6 6 6 6 6 6 6 6 6 6 6 6 6 6 6 6 6 6 6 6 6 6 6 6 6 6 6 6 6 6 6 6 6 6 6 6 6 6 6 6 6 e 6 6 6 6 6 6 6 6 6 6 6 6 6 6 6 6 6 6 6 6 6 6 6 6 6 6 6 6 6 6 6 6 6 6 6 6 6 6 6 6 6 6 6 6 6 6 6 6 6 6 6 6 6 6 6 6 6 6 6 6 6 6 6 6 6 6 6 6 6 6 6 6 6 6 6 6 6 6 6 6 6 6 6 6 6 6 6 6 6 6 6 6 6 6 6 6 6 6 6 6 6 6 6 6 6 6 6 6 6 6 6 6 6 6 6 6 6 6 6 6 6 6 6 6 6 6 6 6 6 6 6 6 6 6 e 6 6 6 6 6 6 6 6 6 6 6 6 6 6 6 6 6 6 6 6 6 6 6 6 6 6 6 6 6 6 6 6 6 6 6 6 6 6 6 6 6 6 6 6 6 6 6 ",
"l l l l l l l l l l l l l l l l l l l l l l l l l l l l l l l l l l l l l l l l l l l l l l l l l l l l l l l l l l l l l l l l l l l l l l l l l l l l l l l l l l l l l l l l l l l l l l l l l l l l l l l l l l l l l l l l l l l l l l l l l l l l l l l l l l l l l l l l l l l l l l l l l l l l l l l l l l l l l l l l l l l l l l l l l l l l l l l l l l l l l l l l l l l l l l l l l l l l l l l l l l l l l l l l l l l l l l l l l l l l l l l l l l l l l l l l l l l l l l l l l l l l l l l l l l l l l l l l ",
"i i i i i i i i i i i i i i i i i i i i i i i i i i i i i i i i i i i i i i i i i i i i i i i i i i i i i i i i i i i i i i i i i i i i i i i i i i i i i i i i i i i i i i i i i i i i i i i i i i i i i i i i i i i i i i i i i i i i i i i i i i i i i i i i i i i i i i i i i i i i i i i i i i i i i i i i i i i i i i i i i i i i i i i i i i i i i i i i i i i i i i i i i i i i i i i i i i i i i i i i i i i i i i i i i i i i i i i i i i i i i i i i i i i i i i i i i i i i i i i i i i i i i i i i i i i i i i i i ",
"l l l l l l l l l l l l l l l l l l l l l l l l l l l l l l l l l l l l l l l l l l l l l l l l l l l l l l l l l l l l l l l l l l l l l l l l l l l l l l l l l l l l l l l l l l l l l l l l l l l l l l l l l l l l l l l l l l l l l l l l l l l l l l l l l l l l l l l l l l l l l l l l l l l l l l l l l l l l l l l l l l l l l l l l l l l l l l l l l l l l l l l l l l l l l l l l l l l l l l l l l l l l l l l l l l l l l l l l l l l l l l l l l l l l l l l l l l l l l l l l l l l l l l l l l l l l l l l l ",
"% % @ @ @ $ 6 % % 6 % % % % % % % % % % $ % % % % % % 6 % % % % % % % % % % % % % % % % % % % % % % % % % % % % % % % % % % % % % % % % % % % % % % % % % % % % % % % % % % % % % % % % % % % % % % % % % % % % % % % % % % % % % % % % % % % % % % % % % % % % % % % % % % % % % % % % % % % % % % % % % % % % % % % % % % % % % % % % % % % % % % % % % % % % % % % % % % % % % % % % % % % % % % % % % % % % % % % % % % % % % % % % % % % % % % % % % % % % % % % % % % % % % % % % % % % % % % % % % % % 6 6 % % 6 % % % % ",
"6 6 l l l a 6 6 6 6 6 6 6 6 6 6 6 6 6 e a a a e 6 6 6 6 6 6 6 6 6 6 6 6 6 6 6 6 6 6 6 6 6 6 6 6 6 6 6 6 6 6 6 6 6 6 6 6 6 6 6 6 6 6 6 6 6 6 6 6 6 6 6 6 6 6 6 6 6 6 6 6 6 6 6 6 6 6 6 6 6 6 6 6 6 6 6 6 6 6 6 6 6 6 6 6 6 6 6 6 6 6 6 6 6 6 6 6 6 6 6 6 6 6 6 6 6 6 6 6 6 6 6 6 6 6 6 6 6 6 6 6 6 6 6 6 6 6 6 6 6 6 6 6 6 6 6 6 6 6 6 6 6 6 6 6 6 6 6 6 6 6 6 6 6 6 6 6 6 6 6 6 6 6 6 6 6 6 6 6 6 6 6 6 6 6 6 6 6 6 6 6 6 6 6 6 6 6 6 6 6 6 6 6 6 6 6 6 6 6 6 6 6 6 6 6 6 6 6 6 6 6 6 6 6 6 6 6 6 6 6 6 6 6 6 6 6 6 6 6 6 6 6 6 ",
"% k J.-.J.n % 6 # y 6 6 6 # # 6 6 6 6 a :.f.J.l % 6 % y 6 6 6 # # 6 6 6 6 6 6 6 6 6 6 6 6 6 6 6 6 6 6 6 6 6 6 6 6 6 6 6 6 6 6 6 6 6 6 6 6 6 6 6 6 6 6 6 6 6 6 6 6 6 6 6 6 6 6 6 6 6 6 6 6 6 6 6 6 6 6 6 6 6 6 6 6 6 6 6 6 6 6 6 6 6 6 6 6 6 6 6 6 6 6 6 6 6 6 6 6 6 6 6 6 6 6 6 6 6 6 6 6 6 6 6 6 6 6 6 6 6 6 6 6 6 6 6 6 6 6 6 6 6 6 6 6 6 6 6 6 6 6 6 6 6 6 6 6 6 6 6 6 6 6 6 6 6 6 6 6 6 6 6 6 6 6 6 6 6 6 6 6 6 6 6 6 6 6 6 6 6 6 6 6 6 6 6 6 6 6 6 6 6 6 6 6 6 6 6 6 6 6 6 6 6 6 6 6 6 6 6 6 6 6 6 6 e d l a l l k k a 6 6 ",
"% l -.:.;.c 5 6 y n.s.% r s.a.r 6 6 6 a d ;.:.a 6 6 u n.@.# y s.a.6 6 6 6 6 6 6 6 6 6 6 6 6 6 6 6 6 6 6 6 6 6 6 6 6 6 6 6 6 6 6 6 6 6 6 6 6 6 6 6 6 6 6 6 6 6 6 6 6 6 6 6 6 6 6 6 6 6 6 6 6 6 6 6 6 6 6 6 6 6 6 6 6 6 6 6 6 6 6 6 6 6 6 6 6 6 6 6 6 6 6 6 6 6 6 6 6 6 6 6 6 6 6 6 6 6 6 6 6 6 6 6 6 6 6 6 6 6 6 6 6 6 6 6 6 6 6 6 6 6 6 6 6 6 6 6 6 6 6 6 6 6 6 6 6 6 6 6 6 6 6 6 6 6 6 6 6 6 6 6 6 6 6 6 6 6 6 6 6 6 6 6 6 6 6 6 6 6 6 6 6 6 6 6 6 6 6 6 6 6 6 6 6 6 6 6 6 6 6 6 6 6 6 6 6 6 6 6 6 6 6 6 i c -.=.l @ :.l e 6 > ",
"% k f.;.6 k 6 6 6 s.u % e y y 6 6 6 6 d 6 -.;.i 6 6 r s.y % r y y 6 6 6 6 6 6 6 6 6 6 6 6 6 6 6 6 6 6 6 6 6 6 6 6 6 6 6 6 6 6 6 6 6 6 6 6 6 6 6 6 6 6 6 6 6 6 6 6 6 6 6 6 6 6 6 6 6 6 6 6 6 6 6 6 6 6 6 6 6 6 6 6 6 6 6 6 6 6 6 6 6 6 6 6 6 6 6 6 6 6 6 6 6 6 6 6 6 6 6 6 6 6 6 6 6 6 6 6 6 6 6 6 6 6 6 6 6 6 6 6 6 6 6 6 6 6 6 6 6 6 6 6 6 6 6 6 6 6 6 6 6 6 6 6 6 6 6 6 6 6 6 6 6 6 6 6 6 6 6 6 6 6 6 6 6 6 6 6 6 6 6 6 6 6 6 6 6 6 6 6 6 6 6 6 6 6 6 6 6 6 6 6 6 6 6 6 6 6 6 6 6 6 6 6 6 6 6 6 6 6 6 6 6 =.k c n d l l d 6 e ",
"6 i c l k a 6 6 6 6 6 6 6 % % 6 6 6 6 i k l l i 6 6 6 6 6 6 6 % % 6 6 6 6 6 6 6 6 6 6 6 6 6 6 6 6 6 6 6 6 6 6 6 6 6 6 6 6 6 6 6 6 6 6 6 6 6 6 6 6 6 6 6 6 6 6 6 6 6 6 6 6 6 6 6 6 6 6 6 6 6 6 6 6 6 6 6 6 6 6 6 6 6 6 6 6 6 6 6 6 6 6 6 6 6 6 6 6 6 6 6 6 6 6 6 6 6 6 6 6 6 6 6 6 6 6 6 6 6 6 6 6 6 6 6 6 6 6 6 6 6 6 6 6 6 6 6 6 6 6 6 6 6 6 6 6 6 6 6 6 6 6 6 6 6 6 6 6 6 6 6 6 6 6 6 6 6 6 6 6 6 6 6 6 6 6 6 6 6 6 6 6 6 6 6 6 6 6 6 6 6 6 6 6 6 6 6 6 6 6 6 6 6 6 6 6 6 6 6 6 6 6 6 6 6 6 6 6 6 6 6 6 d l % 6 6 i 6 6 6 6 6 ",
"6 6 % % 6 6 6 6 6 6 6 6 6 6 6 6 6 6 6 6 6 % % 6 6 6 6 6 6 6 6 6 6 6 6 6 6 6 6 6 6 6 6 6 6 6 6 6 6 6 6 6 6 6 6 6 6 6 6 6 6 6 6 6 6 6 6 6 6 6 6 6 6 6 6 6 6 6 6 6 6 6 6 6 6 6 6 6 6 6 6 6 6 6 6 6 6 6 6 6 6 6 6 6 6 6 6 6 6 6 6 6 6 6 6 6 6 6 6 6 6 6 6 6 6 6 6 6 6 6 6 6 6 6 6 6 6 6 6 6 6 6 6 6 6 6 6 6 6 6 6 6 6 6 6 6 6 6 6 6 6 6 6 6 6 6 6 6 6 6 6 6 6 6 6 6 6 6 6 6 6 6 6 6 6 6 6 6 6 6 6 6 6 6 6 6 6 6 6 6 6 6 6 6 6 6 6 6 6 6 6 6 6 6 6 6 6 6 6 6 6 6 6 6 6 6 6 6 6 6 6 6 6 6 6 6 6 6 6 6 6 6 6 6 6 6 6 6 6 6 6 6 6 6 6 6 ",
"6 6 6 6 6 6 6 6 6 6 6 6 6 6 6 6 6 6 6 6 6 6 6 6 6 6 6 6 6 6 6 6 6 6 6 6 6 6 6 6 6 6 6 6 6 6 6 6 6 6 6 6 6 6 6 6 6 6 6 6 6 6 6 6 6 6 6 6 6 6 6 6 6 6 6 6 6 6 6 6 6 6 6 6 6 6 6 6 6 6 6 6 6 6 6 6 6 6 6 6 6 6 6 6 6 6 6 6 6 6 6 6 6 6 6 6 6 6 6 6 6 6 6 6 6 6 6 6 6 6 6 6 6 6 6 6 6 6 6 6 6 6 6 6 6 6 6 6 6 6 6 6 6 6 6 6 6 6 6 6 6 6 6 6 6 6 6 6 6 6 6 6 6 6 6 6 6 6 6 6 6 6 6 6 6 6 6 6 6 6 6 6 6 6 6 6 6 6 6 6 6 6 6 6 6 6 6 6 6 6 6 6 6 6 6 6 6 6 6 6 6 6 6 6 6 6 6 6 6 6 6 6 6 6 6 6 6 6 6 6 6 6 6 6 6 6 6 6 6 6 6 6 6 6 6 6 "
};
