/* XPM */
static char *sc_mb_gate_lr[] = {
/* columns rows colors chars-per-pixel */
"256 256 256 2 ",
"   c #090A0C",
".  c #0C0D12",
"X  c #050D12",
"o  c #150D13",
"O  c #0A1418",
"+  c #141314",
"@  c #191515",
"#  c #15161B",
"$  c #1A161B",
"%  c #16191E",
"&  c #19191F",
"*  c #1A1B16",
"=  c #130C0C",
"-  c #2C1B1C",
";  c #271718",
":  c #321A1E",
">  c #38191A",
",  c #2A140C",
"<  c #35361D",
"1  c #2D2C1C",
"2  c #0D1A21",
"3  c #141B21",
"4  c #1B1C22",
"5  c #191C2C",
"6  c #171622",
"7  c #191E30",
"8  c #221E24",
"9  c #2D1E24",
"0  c #2B1E28",
"q  c #341E24",
"w  c #290F20",
"e  c #1F2027",
"r  c #1D222A",
"t  c #15222A",
"y  c #1F2331",
"u  c #1B2935",
"i  c #1B333B",
"p  c #0F3629",
"a  c #212126",
"s  c #23242B",
"d  c #2B242C",
"f  c #26282F",
"g  c #2B2524",
"h  c #322125",
"j  c #3B2224",
"k  c #33232B",
"l  c #39282C",
"z  c #232533",
"x  c #272931",
"c  c #2A2B34",
"v  c #22293A",
"b  c #2D2E39",
"n  c #252639",
"m  c #332436",
"M  c #322D35",
"N  c #342539",
"B  c #312D39",
"V  c #3B2A3E",
"C  c #3B2935",
"Z  c #2E303A",
"A  c #27313D",
"S  c #31333D",
"D  c #3B3236",
"F  c #313720",
"G  c #15321C",
"H  c #4B181D",
"J  c #4C211E",
"K  c #522B1D",
"L  c #6B2419",
"P  c #75281C",
"I  c #581D23",
"U  c #4A1C22",
"Y  c #691D23",
"T  c #761E24",
"R  c #472729",
"E  c #5A2A27",
"W  c #462736",
"Q  c #46383B",
"!  c #583335",
"~  c #652726",
"^  c #793934",
"/  c #6F3130",
"(  c #0F5138",
")  c #184D1A",
"_  c #4D4F14",
"`  c #567218",
"'  c #686614",
"]  c #1C3A45",
"[  c #1B2D4C",
"{  c #272D47",
"}  c #382C44",
"|  c #2B334D",
" . c #343641",
".. c #363944",
"X. c #393B46",
"o. c #3B3D4A",
"O. c #39344A",
"+. c #293554",
"@. c #373958",
"#. c #1F276F",
"$. c #3A3662",
"%. c #3B3A66",
"&. c #363C72",
"*. c #432C44",
"=. c #4C3C4B",
"-. c #463748",
";. c #5C3C46",
":. c #533D4A",
">. c #5D3E49",
",. c #533A44",
"<. c #4B3E53",
"1. c #473656",
"2. c #573D53",
"3. c #5B2A42",
"4. c #623E49",
"5. c #693B47",
"6. c #753A46",
"7. c #723351",
"8. c #7B3755",
"9. c #6A2F4A",
"0. c #453B69",
"q. c #1C4955",
"w. c #1C4955",
"e. c #3E414E",
"r. c #2B4855",
"t. c #1D5967",
"y. c #105B68",
"u. c #384579",
"i. c #2E496D",
"p. c #1E6474",
"a. c #206879",
"s. c #0C6441",
"d. c #42424E",
"f. c #56404D",
"g. c #5D404C",
"h. c #59494A",
"j. c #424552",
"k. c #4A4C5B",
"l. c #494558",
"z. c #574155",
"x. c #5A4255",
"c. c #5B4559",
"v. c #5E495D",
"b. c #54445A",
"n. c #4D505F",
"m. c #61424D",
"M. c #6A414C",
"N. c #78424B",
"B. c #624355",
"V. c #64455A",
"C. c #64495D",
"Z. c #6B4C5C",
"A. c #694656",
"S. c #764657",
"D. c #6F505F",
"F. c #484466",
"G. c #574867",
"H. c #4E5161",
"J. c #555769",
"K. c #464976",
"L. c #554C78",
"P. c #4F5477",
"I. c #634C63",
"U. c #6C4D63",
"Y. c #6A4A6A",
"T. c #734B67",
"R. c #685268",
"E. c #72516A",
"W. c #715162",
"Q. c #6E5077",
"!. c #636779",
"~. c #5D6470",
"^. c #892C1A",
"/. c #882C33",
"(. c #883B3B",
"). c #96393A",
"_. c #922F29",
"`. c #A43B3B",
"'. c #B23F33",
"]. c #AA3829",
"[. c #972A20",
"{. c #9A413C",
"}. c #864238",
"|. c #A8413A",
" X c #B64136",
".X c #BB402F",
"XX c #A46B3B",
"oX c #CC412E",
"OX c #E84125",
"+X c #87374D",
"@X c #AC3B40",
"#X c #B53D42",
"$X c #A93E53",
"%X c #8E3B60",
"&X c #894445",
"*X c #974545",
"=X c #89485B",
"-X c #914652",
";X c #944959",
":X c #9C564D",
">X c #B94244",
",X c #B54753",
"<X c #A8464A",
"1X c #8A4D6B",
"2X c #A54E64",
"3X c #CB4648",
"4X c #CA3E25",
"5X c #619A34",
"6X c #A0A10E",
"7X c #C9C907",
"8X c #0F2A92",
"9X c #1736B3",
"0X c #28328E",
"qX c #385090",
"wX c #217689",
"eX c #257590",
"rX c #175AA9",
"tX c #195EB1",
"yX c #3B52A4",
"uX c #3058A8",
"iX c #1E63BA",
"pX c #3166AF",
"aX c #125898",
"sX c #474B87",
"dX c #575289",
"fX c #4A5398",
"gX c #555698",
"hX c #4D4E8D",
"jX c #6B5589",
"kX c #705891",
"lX c #5A658B",
"zX c #4957A7",
"xX c #555BA7",
"cX c #475BB7",
"vX c #555EB7",
"bX c #6D5DA8",
"nX c #4B67BC",
"mX c #6D62B7",
"MX c #6E7188",
"NX c #1139C7",
"BX c #2D6ECA",
"VX c #3656C7",
"CX c #455DC2",
"ZX c #575BC1",
"AX c #4A62C9",
"SX c #5565C7",
"DX c #4F6DD5",
"FX c #6668CC",
"GX c #516FEA",
"HX c #6370E8",
"JX c #8A588E",
"KX c #835FAA",
"LX c #228499",
"PX c #2393AA",
"IX c #239FB9",
"UX c #2AA0C6",
/* pixels */
"4 4 4 4 4 4 4 4 4 4 4 4 4 4 4 4 4 4 4 4 4 4 4 4 4 4 4 4 4 4 4 4 4 4 4 4 4 4 4 4 4 4 4 4 4 4 4 4 4 4 4 4 4 4 4 4 4 4 4 4 4 4 4 4 4 4 4 4 4 4 4 4 4 4 4 4 4 4 4 4 4 4 4 4 4 4 4 4 4 4 4 4 4 4 4 4 4 4 4 4 4 4 4 4 4 4 4 4 4 4 4 4 4 4 4 4 4 4 4 4 4 4 4 4 4 4 4 4 4 4 4 4 4 4 4 4 4 4 4 4 4 4 4 4 4 4 4 4 4 4 4 4 4 4 4 4 4 4 4 4 4 4 4 4 4 4 4 4 4 4 4 4 4 4 4 4 4 4 4 4 4 4 4 4 4 4 4 4 4 4 4 4 4 4 4 4 4 4 4 4 4 4 4 4 4 4 4 4 4 4 4 4 4 4 4 4 4 4 4 4 4 4 4 4 4 4 4 4 4 4 4 4 4 4 4 4 4 4 4 4 4 4 4 4 4 4 4 4 4 4 4 4 4 4 4 4 ",
"4 4 4 4 4 4 4 4 4 4 4 4 4 4 4 4 4 4 4 4 4 & & % & & 4 4 4 4 4 4 4 4 4 4 4 4 4 4 4 4 4 4 4 4 4 4 4 4 4 4 4 4 4 4 4 4 4 4 4 4 4 4 4 4 4 4 4 4 4 4 4 4 4 4 4 4 4 4 4 4 4 4 4 4 4 4 4 4 4 4 4 4 4 4 4 4 4 4 4 4 4 4 4 4 4 4 4 4 4 4 4 4 4 4 4 4 4 4 4 4 4 4 4 4 4 4 4 4 4 4 4 4 4 4 4 4 4 4 4 & # % % % # 4 % % 4 # % 4 & 4 % 4 % & % & 4 & % 4 # & 4 & & 4 # # # & % # 4 # 4 # 4 & # # 4 4 % # 4 % & % # % % 4 & 4 4 # & # & # # % % % & & # 4 & 4 & # # 4 % & & # 4 4 4 4 4 $ $ 4 $ $ $ 4 $ & $ 4 $ $ 4 $ & & 4 & $ 4 4 4 4 4 4 4 ",
"4 4 4 4 & $ $ $ $ & 4 & $ $ $ $ $ 4 4 & 4 [ r.r.[ 5 & 4 4 4 4 4 4 4 4 4 4 4 4 4 4 4 4 4 4 4 4 4 4 4 4 4 4 4 4 4 4 4 4 4 4 4 4 4 4 4 4 4 4 4 4 4 4 4 4 4 4 4 4 4 4 4 4 4 4 4 4 4 4 4 4 4 4 4 4 4 4 4 4 4 4 4 4 4 4 4 4 4 4 4 4 4 4 4 4 4 4 4 4 4 4 4 4 4 4 4 4 4 4 4 4 4 4 4 4 4 4 4 4 4 & c e..... .k.e X.o.f l...s c a  .f e.S S c a c  .s X.b x Z Z 4 j.l.j.b e.o.4 ..s X.s Z j.e.4 &  .j.4 S c e.k.X.j.4 c x s l.Z j...k.e.o.X...S x j.x b a S k.j.e S b S e.f % c e & ] ] r q.] ] r ] ] q.e i w.r w.i i 4 i q.r 4 4 4 e ) ) ",
"] $ 4 & r wXLXLXPXwX@ t.LXLXLXLXa.r & 5 r.5X5X5X5X~.u & 4 4 4 4 4 4 4 4 4 4 4 4 4 4 4 4 4 4 4 4 4 4 4 4 4 4 4 4 4 4 4 4 4 4 4 4 4 4 4 4 4 4 4 4 4 4 4 4 4 4 4 4 4 4 4 4 4 4 4 4 4 4 4 4 4 4 4 4 4 4 4 4 4 4 4 4 4 4 4 4 4 4 4 4 4 4 4 4 4 4 4 4 4 4 4 4 4 4 4 4 4 4 4 4 4 4 4 4 4 4 4 4 # j.H...j.l.e.k.J.j.H.Z ..J.J.c MXo.k.e.!.H.f ..!.l.!.j.Z k.k.+ j.j.j.o.~.~.f MX..!.H.k.l.l...s J.j.s !.k. .k.k.J.# e.S c !. .MXZ k.o.J.J.k.e.k.j...J.J.e.k.e.+ H.J. .MX .# Z a $ t.w.t.] i wXw.a.t.wXw.t.w.] wXq.q.4 q.a.] $ 4 4 G ) ) ",
"] $ 4 $ a.UXPXLXPXwXo p.UXLXLXPXUXt.o r.5X` 4 # < 5Xp.r 4 4 4 4 4 4 4 4 4 4 4 4 4 4 4 4 4 4 4 4 4 4 4 4 4 4 4 4 4 4 4 4 4 4 4 4 4 4 4 4 4 4 4 4 4 4 4 4 4 4 4 4 4 4 4 4 4 4 4 4 4 4 4 4 4 4 4 4 4 4 4 4 4 4 4 4 4 4 4 4 4 4 4 4 4 4 4 4 4 4 4 4 4 4 4 4 4 4 4 4 4 4 4 4 4 4 4 4 4 4 4 4 4 f J.J.j.k.k.l.J.o.H...X.k.k.H.!.J.H.o.l.MXs S !.!.k.k.k.j.J.x ..X.j.e.J.J.k.!.~.j.~.J.k.k. .s H.H.H.~.J.X.o.l.H.# e.k...J. .J.# j.S J.J.k.j.k.H.H.k.k.o.o. .+ H.J.e.!.o.# Z a & i p.t.] i p.a.q.t.p.q.q.t.t.a.q.t.] q.a.i $ 4 4 G ) ) ",
"] $ 4 $ LXPX4 @ $ $ @ p.IXr o e IXa.7 ~.` . 4 r [ u wX] & 4 4 4 4 4 4 4 4 4 4 4 4 4 4 4 4 4 4 4 4 4 4 4 4 4 4 4 4 4 4 4 4 4 4 4 4 4 4 4 4 4 4 4 4 4 4 4 4 4 4 4 4 4 4 4 4 4 4 4 4 4 4 4 4 4 4 4 4 4 4 4 4 4 4 4 4 4 4 4 4 4 4 4 4 4 4 4 4 4 4 4 4 4 4 4 4 4 4 4 4 4 4 4 4 4 4 4 4 4 4 4 & b ..Z S Z j.4  ...s e.Z s s  .4 Z o.c s Z a s b b x c e.4 X.X.s x  .c X.S b 4 S c x b o...4 & Z o.Z e f b f c e.4 s j.b o.Z x # c f x f o.b s j.c x a f x s 4 b x Z X.s & x 4 4 ] i e w.i u i u i w.4 i w.r ] u i w.u r u & 4 4 e G ) ",
"] $ e $ t.UXPXPXPXq.o p.IXi r ] IXa.$ t.LX] $ r u $ a.t.& 4 4 4 4 4 4 4 4 4 4 4 4 4 4 4 4 4 4 4 4 4 4 4 4 4 4 4 4 4 4 4 4 4 4 4 4 4 4 4 4 4 4 4 4 4 4 4 4 4 4 4 4 4 4 4 4 4 4 4 4 4 4 4 4 4 4 4 4 4 4 4 4 4 4 4 4 4 4 4 4 4 4 4 4 4 4 4 4 4 4 4 4 4 4 4 4 4 4 4 4 4 4 4 4 4 4 4 4 4 4 4 4 & # % % % # 4 % # 4 # % 4 4 % 4 % # & 4 % 4 4 % % 4 & # 4 # # 4 & % & # % % 4 % & & % # # 4 4 % # % 4 4 & 4 & # 4 4 # % # % & 4 & 4 & & # & 4 # & & 4 & & 4 4 & & % # 4 4 4 4 4 $ $ 4 $ & & & 4 $ $ 4 & $ 4 $ & $ $ & 4 & 4 4 4 4 4 4 ",
"] $ 4 4 4 t.LXeXPXIX4 t.UXIXIXIXUXq.4 wXUXt.o & 4 & a.q.4 4 4 4 4 4 4 4 4 4 4 4 4 4 4 4 4 4 4 4 4 4 4 4 4 4 4 4 4 4 4 4 4 4 4 4 4 4 4 4 4 4 4 4 4 4 4 4 4 4 4 4 4 4 4 4 4 4 4 4 4 4 4 4 4 4 4 4 4 4 4 4 4 4 4 4 4 4 4 4 4 4 4 4 4 4 4 4 4 4 4 4 4 4 4 4 4 4 4 4 4 4 4 4 4 4 4 4 4 4 4 4 4 4 4 4 4 4 4 4 4 4 & 4 4 4 4 4 4 4 4 4 4 4 4 4 4 4 4 4 4 & 4 4 4 4 4 4 4 4 4 4 4 4 4 4 4 4 4 4 4 4 4 4 4 4 4 4 4 4 4 4 4 4 4 4 4 4 4 4 4 4 4 4 4 4 4 4 4 4 4 4 4 4 4 4 4 $ $ 4 4 4 4 & 4 4 & 4 4 4 4 4 4 4 & 4 4 4 4 4 & 4 4 % & 4 4 & ",
"] $ 4 4 4 $ $ o q.UXr t.IXp.p.p.w.$ u p.wXIXq.i @ ] eXi & 4 4 4 4 4 4 4 4 4 4 4 4 4 4 4 4 4 4 4 4 4 4 4 4 4 4 4 4 4 4 4 4 4 4 4 4 4 4 4 4 4 4 4 4 4 4 4 4 4 4 4 4 4 4 4 4 4 4 4 4 4 4 4 4 4 4 4 4 4 4 4 4 4 4 4 4 4 4 4 4 4 4 4 4 4 4 4 4 4 4 4 4 4 4 4 4 4 4 & r e 4 4 4 4 4 4 4 4 4 4 4 4 4 4 4 4 4 4 4 a S e 4 c s 4 4 f x 4 e 4 4 4 4 4 4 4 s x 4 4 4 4 4 4 4 4 4 4 4 4 4 4 4 4 4 4 4 r r & 4 4 4 4 4 4 4 4 4 4 ) e 4 4 4 $ $ & 4 4 $ w.y.u & 4 4 4 4 4 4 4 r ] ] r s c s Z Z b c a c a x 4 4 r i i r & c s S c s  .x s s b ",
"PXPXIXw.u IXPXPXIXPX& p.UXe o @ $ 4 $ r PXLXUXLX] wXt.r 4 4 4 4 4 4 4 4 4 4 4 4 4 4 4 4 4 4 4 4 4 4 4 4 4 4 4 4 4 4 4 4 4 4 4 4 4 4 4 4 4 4 4 4 4 4 4 4 4 4 4 4 4 4 4 4 4 4 4 4 4 4 4 4 4 4 4 4 4 4 4 4 4 4 4 4 4 4 4 4 4 4 4 4 4 4 4 4 4 4 4 4 4 4 4 4 4 4 4 r ] 4 4 4 4 4 4 4 4 4 4 4 4 4 4 4 4 4 4 4 & x o.b j.e.e.j...X.X.e e...o.o.j.o.S e.l. .% 4 4 4 4 4 4 4 4 4 4 4 4 4 4 4 4 4 4 4 ] r 4 4 4 4 4 4 4 4 6 G ) G 6 & t w.w.y.4 4 & q.y.] $ 4 4 4 4 4 4 & u t.t.i c j...j.o.Z k. .o.s ..4 4 r ] ] r 4 k. .j.o.X.s j.S b Z ",
"wXwXeX] u wXwXwXwX] @ q.wXr 4 4 4 4 4 u ] q.LXt.wXt.r & 4 4 4 4 4 4 4 4 4 4 4 4 4 4 4 4 4 4 4 4 4 4 4 4 4 4 4 4 4 4 4 4 4 4 4 4 4 4 4 4 4 4 4 4 4 4 4 4 4 4 4 4 4 4 4 4 4 4 4 4 4 4 4 4 4 4 4 4 4 4 4 4 4 4 4 4 4 4 4 4 4 4 4 4 4 4 4 4 4 4 4 4 4 4 4 4 4 4 4 r ] 4 4 4 4 4 4 4 4 4 4 4 4 4 4 4 4 4 4 4 4 4  .k.o.X.k.X.o.b S s e.e. .X.o.S j.j...S & 4 4 4 4 4 4 4 4 4 4 4 4 4 4 4 4 4 4 e ] 4 4 4 4 4 4 4 4 4 6 ) ) ) 4 4 e u i i 4 4 & w.y.i $ 4 4 4 4 4 4 & u t.t.i s j.j...o.b S j... .S & 4 u ] ] t c j.j.e.X.X.Z X. .X.f ",
"$ $ @ & 4 @ $ $ $ $ 4 & $ 4 4 4 4 4 4 4 @ i ] r ] 4 4 4 4 4 4 4 4 4 4 4 4 4 4 4 4 4 4 4 4 4 4 4 4 4 4 4 4 4 4 4 4 4 4 4 4 4 4 4 4 4 4 4 4 4 4 4 4 4 4 4 4 4 4 4 4 4 4 4 4 4 4 4 4 4 4 4 4 4 4 4 4 4 4 4 4 4 4 4 4 4 4 4 4 4 4 4 4 4 4 4 4 4 4 4 4 4 4 4 4 4 4 4 4 4 4 4 4 4 4 4 4 4 4 4 4 4 4 4 4 4 4 4 4 e c 4 x s s s s x s s e.a e e x x s f s f 4 4 4 4 4 4 4 4 4 4 4 4 4 4 4 4 4 4 4 4 4 4 4 4 4 4 4 4 4 4 4 4 6 4 4 4 4 & $ $ 4 4 4 e r 4 4 4 4 4 4 4 4 4 e u u r 4 s s a c x 4 s e c e 4 4 r u u 4 a 4 s b s 4 b 4 s x 4 ",
"4 4 4 4 4 4 4 4 4 4 4 4 4 4 4 4 4 4 4 4 4 $ $ & $ 4 4 4 4 4 4 4 4 4 4 4 4 4 4 4 4 4 4 4 4 4 4 4 4 4 4 4 4 4 4 4 4 4 4 4 4 4 4 4 4 4 4 4 4 4 4 4 4 4 4 4 4 4 4 4 4 4 4 4 4 4 4 4 4 4 4 4 4 4 4 4 4 4 4 4 4 4 4 4 4 4 4 4 4 4 4 4 4 4 4 4 4 4 4 4 4 4 4 4 4 4 4 4 4 & 4 4 4 4 4 4 4 4 4 4 4 4 4 4 4 4 4 4 4 & # & % & & % % % % 4 4 % & & % % & % & % 4 4 4 4 4 4 4 4 4 4 4 4 4 4 4 4 4 4 4 & 4 4 4 4 4 4 4 4 4 4 4 4 4 4 4 4 4 4 4 4 4 4 4 & & 4 4 4 4 4 4 4 4 4 & & $ & 4 & & & # % 4 & & # & 4 4 & & & & & 4 & # & & # 4 % % 4 ",
"s s s s s s s s s s s s s s s s s s s s s s s s s s s s s s s s s s s s s s s s s s s s s s s s s s s s s s s s s s s s s s s s s s s s s s s s s s s s s s s s s s s s s s s s s s s s s s s s s s s s s s s s s s s s s s s s s s s s s s s s s s s s s s s s s s s s s s s s s s s s s s s s s s s s s s s s s s s s s s s s a s s s s s s s s s s s s s s s s s s s s s s s s s s s s s s s s s s s s s s s s s s s s s s s s s s s s s s s s s s s s s s s s s s s s s s s s s s s s s s s s s s s s s s s s s s s s s s s ",
"c c c c c c c c c c c c c x c c c c c c c c c c x x x x x x x x x x x x x x x x x x x x x x x x x x x x x x x x x x x x x x x x x x x x x x x x x x x x x x x x x x x x x x x x x x x x x x x x x x x x x x x x x x x x x x x x x x x x x x x x x x x x x x x x x x x x x x x x x x x x x x x x x x x x x x x x x x x x x x x c c x x x x x x x x x x x x x x x x x x x x x x x x x x x x x x x x x x x x x x c c c c c x x x x x c c x x x x x x c c x x x c x f f f f f f f f f f f f f x x x x x x x x x x x x x x x x x x x ",
"& & & & % % & & & & & & & 4 & & & & & & & & & & & & & & & & & & & & & & & & & & & & & & & & & & & & & & & & & & & & & & & & & & & & & & & & & & & & & & & & & & & & & & & & & & & & & & & & & & & & & & & & & & & & & & & & & & & & & & & & & & & & & & & & & & & & & & & & & & & & & & & & & & & & & & & & & & & & & & & & & & & & & & & & & & & & & & & & & & & & & & & & & & & & & & & & & & & & & & & & & & # # % & & & & & & & & 4 4 & & & 4 % & 4 4 4 & 4 c c c c c c c c c c c c c x x x x x x x x x x x x x x x x x x x ",
"4 4 4 4 s a e 4 4 4 4 4 4 4 e e e 4 4 4 e 4 4 4 4 4 4 4 4 4 4 4 4 4 4 4 4 4 4 4 4 4 4 4 4 4 4 4 4 4 4 4 4 4 4 4 4 4 4 4 4 4 4 4 4 4 4 4 4 4 4 4 4 4 4 4 4 4 4 4 4 4 4 4 4 4 4 4 4 4 4 4 4 4 4 4 4 4 4 4 4 4 4 4 4 4 4 4 4 4 4 4 4 4 4 4 4 4 4 4 4 4 4 4 4 4 4 4 4 4 4 4 4 4 4 4 4 4 4 4 4 4 4 4 4 4 4 4 4 4 4 4 4 4 4 4 4 4 4 4 4 4 4 4 4 4 4 4 4 4 4 4 4 4 4 4 4 4 4 4 4 4 4 4 4 4 4 4 4 4 4 4 4 4 4 4 4 4 4 s  .X.b 4 4 4 4 4 4 4 4 % 4 4 4 4 4 a 4 4 4 4 4 f e.o.j.e.o.o.o.o.o.j.e.e.o.s e a a a a a a a a a a a a a a a a a ",
"o.X.Z S b o.X.o.b x j.c X.a ..c d.b  .Z d. .b c & 4 4 4 4 4 4 4 4 4 4 4 4 4 4 4 4 4 4 4 4 4 4 4 4 4 4 4 4 4 4 4 4 4 4 4 4 4 4 4 4 4 4 4 4 4 4 4 4 4 4 4 4 4 4 4 4 4 4 4 4 4 4 4 4 4 4 4 4 4 4 4 4 4 4 4 4 4 4 4 4 4 4 4 4 4 4 4 4 4 4 4 4 4 4 4 4 4 4 4 4 4 4 4 4 4 4 4 4 4 4 4 4 4 4 4 4 4 4 4 4 4 4 4 4 4 4 4 4 4 4 4 4 4 4 4 4 4 4 4 4 4 4 4 4 4 4 4 4 4 4 4 4 4 4 4 4 4 4 4 4 4 4 4 4 4 4 4 4 4 4 4 4 4 % Z J.l.j.e 4 4 4 4 & x S b a 4 4 & f ..S a c  .% s X.n.H.j.k.l.k.d.k.H.X.o.X.4 & 4 4 4 4 4 4 4 4 4 4 4 4 4 4 4 4 4 ",
"b o...b 4 S X.j.S S j.j...c S X.j.X.j.j.S  .j.Z % 4 4 4 4 4 4 4 4 4 4 4 4 4 4 4 4 4 4 4 4 4 4 4 4 4 4 4 4 4 4 4 4 4 4 4 4 4 4 4 4 4 4 4 4 4 4 4 4 4 4 4 4 4 4 4 4 4 4 4 4 4 4 4 4 4 4 4 4 4 4 4 4 4 4 4 4 4 4 4 4 4 4 4 4 4 4 4 4 4 4 4 4 4 4 4 4 4 4 4 4 4 4 4 4 4 4 4 4 4 4 4 4 4 4 4 4 4 4 4 4 4 4 4 4 4 4 4 4 4 4 4 4 4 4 4 4 4 4 4 4 4 4 4 4 4 4 4 4 4 4 4 4 4 4 4 4 4 4 4 4 4 4 4 4 4 4 4 4 4 4 4 4 4 % S k. .~.4 4 4 4 4 & f o.o.b & 4 % Z c X.X.e...% f o.j.J.J.J.J.J.J.!.J.X.o.X.4 4 4 4 4 4 4 4 4 4 4 4 4 4 4 4 4 4 4 ",
"% b x Z f f s f b b f b f 4 S Z s Z e b 4 s a s & 4 4 4 4 4 4 4 4 4 4 4 4 4 4 4 4 4 4 4 4 4 4 4 4 4 4 4 4 4 4 4 4 4 4 4 4 4 4 4 4 4 4 4 4 4 4 4 4 4 4 4 4 4 4 4 4 4 4 4 4 4 4 4 4 4 4 4 4 4 4 4 4 4 4 4 4 4 4 4 4 4 4 4 4 4 4 4 4 4 4 4 4 4 4 4 4 4 4 4 4 4 4 4 4 4 4 4 4 4 4 4 4 4 4 4 4 4 4 4 4 4 4 4 4 4 4 4 4 4 4 4 4 4 4 4 4 4 4 4 4 4 4 4 4 4 4 4 4 4 4 4 4 4 4 4 4 4 4 4 4 4 4 4 4 4 4 4 4 4 4 4 4 4 & c j.J.MX4 4 4 4 4 4 s Z s s 4 4 4 4 S f b b c 4 s o.j.H.l.J.J.j.k.H.k.o.e.Z 4 4 4 4 4 4 4 4 4 4 4 4 4 4 4 4 4 4 4 ",
"e 4 4 4 4 4 4 4 4 4 4 4 4 4 4 4 4 4 4 4 4 4 4 4 4 4 4 4 4 4 4 4 4 4 4 4 4 4 4 4 4 4 4 4 4 4 4 4 4 4 4 4 4 4 4 4 4 4 4 4 4 4 4 4 4 4 4 4 4 4 4 4 4 4 4 4 4 4 4 4 4 4 4 4 4 4 4 4 4 4 4 4 4 4 4 4 4 4 4 4 4 4 4 4 4 4 4 4 4 4 4 4 4 4 4 4 4 4 4 4 4 4 4 4 4 4 4 4 4 4 4 4 4 4 4 4 4 4 4 4 4 4 4 4 4 4 4 4 4 4 4 4 4 4 4 4 4 4 4 4 4 4 4 4 4 4 4 4 4 4 4 4 4 4 4 4 4 4 4 4 4 4 4 4 4 4 4 4 4 4 4 4 4 4 4 4 4 4 4 4 e 4 4 4 4 4 4 4 4 4 & 4 4 4 4 4 4 % 4 & & 4 4 s X. .S  .j...S S S S  .b 4 4 4 4 4 4 4 4 4 4 4 4 4 4 4 4 4 4 4 4 ",
"c b c b c c c b b b b b c c b c c b c b c c c c c c c c c c c c c c c c c c c c c c c c c c c c c c c c c c b b c c c c c c c c c c c c c c c c c c c c c c c c c c c c c c c c c c c c c c c c c c c c c c c c c c c c c c c c c c c c c c c c c c c c c c c c c c c c c c c c c c c c c c c c c c c c c c c c c c c c c c c c c c c c c c c c c c c c c c c c c c c c c c c c c c c c c c c c c x 4 4 4 4 4 4 c b x 4 4 4 4 4 4 4 4 4 4 4 4 4 4 4 4 4 4 4 & f f & 4 4 & 4 4 4 4 4 4 4 4 4 4 4 4 4 4 4 4 4 4 4 4 4 4 4 4 4 4 4 ",
"8 ; 4 4 4 4 4 4 4 4 4 4 4 4 4 4 4 4 4 4 4 4 4 4 4 4 4 4 4 4 4 4 4 4 4 4 4 4 4 4 4 4 4 4 4 4 4 4 4 4 4 4 4 4 # @ 4 4 4 4 4 4 4 4 4 4 4 4 4 4 4 4 4 4 4 4 4 4 4 4 4 4 4 4 4 4 4 4 4 4 4 4 4 4 4 4 4 4 4 4 8 8 m n a 4 4 4 4 & 4 4 & e 4 4 4 4 4 4 4 4 4 4 4 4 4 4 4 4 4 4 4 4 4 4 4 4 4 4 4 4 4 4 4 4 4 4 4 4 4 4 4 4 4 4 4 4 4 4 4 4 4 4 4 4 4 4 4 4 4 e 4 4 4 4 4 4 4 4 4 4 4 4 4 4 4 4 4 4 8 8 d O.f 4 4 4 4 a c 4 b 4 4 4 4 4 9 : : - : : 4 4 9 : : - : : & f f 4 4 4 4 4 4 4 4 4 4 4 4 4 4 4 4 4 4 4 4 4 4 4 4 4 4 4 4 4 4 4 ",
"l M 8 4 4 4 4 4 4 4 4 4 4 4 4 s e 4 4 4 4 4 4 4 4 a a 4 4 4 4 4 4 s 4 4 4 4 s 4 4 4 4 s 4 4 e a 4 4 s 4 4 a v &.z & 4 4 4 4 4 4 4 4 4 4 4 4 4 4 4 s 4 4 4 4 4 4 4 4 4 s 4 4 4 4 4 4 s 4 4 4 4 4 s 4 4 4 d g *.O.x s 4 e s 4 e a 4 s 4 4 4 4 4 4 4 4 4 4 4 4 4 4 4 4 e a 4 4 4 4 4 4 4 4 4 s 4 4 4 4 4 4 s 4 4 4 4 a a 4 4 4 s 4 4 4 s 4 4 s 4 4 s 4 4 f 4 4 4 4 4 4 4 4 4 4 4 4 4 4 4 4 s 8 d d } 1.x 4 4 4 4 e c 4 b 4 4 4 4 4 9 : - - : : 4 4 9 : - - : : & f f & 4 4 4 4 4 $ & 4 4 @ 4 4 4 4 4 4 4 4 4 4 4 4 4 4 4 4 4 4 4 4 ",
"-.-.a 4 4 4 4 4 4 4 4 4 4 4 4 a 4 4 4 4 4 4 4 4 4 e e 4 4 4 4 4 4 a 4 4 4 & a & 4 4 4 s 4 4 e a 4 4 s 4 4 4 qXcX+.@ 4 4 4 4 4 4 4 4 4 4 4 4 4 4 4 s 4 4 4 4 4 4 4 4 4 s 4 4 4 4 4 4 a 4 4 4 4 4 s 4 4 4 d g } } z s 4 4 a 4 e a & s 4 4 4 4 4 4 4 4 4 4 4 4 4 4 4 4 e a 4 4 4 4 4 4 4 4 4 a 4 4 4 4 4 4 s 4 4 4 4 e e 4 4 4 s 4 4 4 s 4 4 s 4 4 s 4 4 s 4 4 4 4 4 4 4 4 4 4 4 4 4 4 4 4 s 8 s d V @.x 4 4 4 4 4 S b Z 4 4 4 4 4 9 : - - : : 4 4 9 : - - : : & f f & 4 4 4 & 4 t.eXeXLXp.r & 4 4 4 4 4 4 4 4 4 4 4 4 4 4 4 4 4 4 ",
"Q X.a 4 4 4 4 4 4 4 4 4 4 4 4 a 4 4 4 4 4 4 4 4 4 e e 4 4 4 4 4 4 a 4 4 4 r { v 4 & & a 4 4 e a 4 4 s 4 4 s qXu.u.@ 4 4 4 4 4 4 4 4 4 4 4 4 4 4 4 s 4 4 4 4 4 4 4 4 4 s 4 4 4 4 4 4 a 4 4 4 4 4 s 4 4 4 d g *.| z s 4 4 a 4 e a & s 4 4 4 4 4 4 4 4 4 4 4 4 4 4 4 4 e a 4 4 4 4 4 4 4 4 4 a 4 4 4 4 4 4 s 4 4 4 4 e e 4 4 4 s 4 4 4 s 4 4 s 4 4 s 4 4 s 4 4 4 4 4 4 4 4 4 4 4 4 4 4 4 4 s 8 s d } 1.x 4 4 4 4 e c 4 b 4 4 4 4 4 9 : - - : : 4 4 9 : - - : : & f f & 4 4 & u eXLXp.] t.eXLX] $ 4 4 4 4 4 s % & & & 4 4 4 4 4 4 4 ",
"h g 4 4 4 4 4 4 4 4 4 4 4 4 4 a 4 4 4 4 4 4 4 4 4 e e 4 4 4 4 4 4 a 4 4 r yXqXqXqXqXqXv & 4 e a 4 4 s 4 4 4 qX@.zXqX& 4 4 4 4 4 4 4 4 4 4 4 4 4 4 s 4 4 4 4 4 4 4 4 4 s 4 4 4 4 4 4 a 4 4 4 4 4 s 4 4 4 d g *.| z s 4 4 a 4 e a & s 4 4 4 4 4 4 4 4 4 4 4 4 4 4 4 4 e a 4 4 4 4 4 4 4 4 4 a 4 4 4 4 4 4 s 4 4 4 4 e e 4 4 4 s 4 4 4 s 4 4 s 4 4 s 4 4 s 4 4 4 4 4 4 4 4 4 4 4 4 4 4 4 4 s 8 s d } 1.x 4 4 4 4 a c 4 b 4 4 4 4 4 9 : - - : : 4 4 9 : - - : : & f f & 4 4 4 wXLX%   + = = wXLXr 4 4 4 4 s ..S b S b s o.c & 4 4 4 ",
"h 9 8 4 4 4 4 4 4 4 4 4 4 4 4 a 4 4 4 4 4 4 4 4 4 e e 4 4 4 4 4 4 a 4 & v qXD S  . .qX+.@ 4 e a 4 4 s 4 5 qXzX-...qX4 4 4 4 4 4 4 4 4 4 4 4 4 4 4 s 4 4 4 4 4 4 4 4 4 s 4 4 4 4 4 4 a 4 4 4 4 4 s 4 4 4 d g *.| z s 4 4 a 4 e a & s 4 4 4 4 4 4 4 4 4 4 4 4 4 4 4 4 e a 4 4 4 4 4 4 4 4 4 a 4 4 4 4 4 4 s 4 4 4 4 e e 4 4 4 s 4 4 4 s 4 4 s 4 4 s 4 4 s 4 4 4 4 4 4 4 4 4 4 4 4 4 4 4 4 s 8 s d } 1.x 4 4 4 4 a c 4 b 4 4 4 4 4 9 : - - : : 4 4 9 : - - : : & f f & 4 $ w.PX3 o Z  .X.4 = eXt.@ 4 4 4 s o. .o.o.e.X.j.f & 4 4 4 ",
"l 9 8 4 4 4 4 4 4 4 4 4 4 4 4 a 4 4 4 4 4 4 4 4 4 e e 4 4 4 4 4 4 a 4 $ { hX=.=.-.Q sX$.@ 4 e a 4 4 s $ { zX..=.-.qX5 4 4 4 4 4 4 4 4 4 4 4 4 4 4 s 4 4 4 4 4 4 4 4 4 s 4 4 4 4 4 4 a 4 4 4 4 4 s 4 4 4 d g *.| z s 4 4 a 4 e a & s 4 4 4 4 4 4 4 4 4 4 4 4 4 4 4 4 e a 4 4 4 4 4 4 4 4 4 a 4 4 4 4 4 4 s 4 4 4 4 e e 4 4 4 s 4 4 4 s 4 4 s 4 4 s 4 4 s 4 4 4 4 4 4 4 4 4 4 4 4 4 4 4 4 s 8 s d } 1.x 4 4 4 4 a c 4 b 4 4 4 4 4 9 : - - : : 4 4 9 : - - : : & f f & 4 $ a.wX  x S S S S = t.LX& 4 4 4 e c 4 b ..e b f s 4 4 4 4 ",
"C 9 8 4 4 4 4 4 4 4 4 4 4 4 4 s e 4 4 4 4 4 4 4 4 a a 4 4 4 4 4 e s 4 & { hX-.=.=.Q sX%.+ 4 e s 4 4 s $ +.qXM d.f.fXr 4 4 4 4 4 4 4 4 4 4 4 4 4 4 s 4 4 4 4 4 4 4 4 4 s 4 4 4 4 4 4 s 4 4 4 4 4 s 4 4 4 d g *.| z s 4 4 a 4 e a 4 s 4 4 4 4 4 4 4 4 4 4 4 4 4 4 4 4 e a 4 4 4 4 4 4 4 4 4 s 4 4 4 4 4 4 s 4 4 4 4 e e 4 4 4 s 4 4 4 s 4 4 s 4 4 s 4 4 s 4 4 4 4 4 4 4 4 4 4 4 4 4 4 4 4 s 8 s d } 1.x 4 4 4 4 a c 4 b 4 4 4 4 4 9 : - - : : 4 4 9 : - - : : & f f & 4 $ a.t.  c b S f s = ] a.4 4 4 4 4 % 4 4 4 & # 4 4 4 4 4 4 ",
": ; @ @ @ @ @ @ @ @ @ @ @ @ @ * * @ @ @ @ @ @ @ @ * * @ @ @ @ @ * & @ = { sXQ Q Q Q F.u.5 & * * @ @ ; = { sXl -.Q hX5 @ @ @ @ @ @ @ @ @ @ @ @ @ @ & @ @ @ @ @ @ @ @ @ * @ + + @ @ + & % % 3 3 3 a 4 4 4 d 9 } } z s 4 4 e & 4 e % s 4 4 4 4 4 4 4 4 4 4 4 4 4 4 4 & 4 e & 4 4 4 4 4 4 4 4 a & 4 4 4 4 4 a 4 4 4 & 4 4 & 4 4 a 4 4 4 a 4 4 a 4 & a 4 4 s & 4 4 4 4 4 4 4 4 4 4 4 4 4 4 4 a 4 0 d V 1.x 4 4 4 4 a c 4 b 4 4 4 4 4 9 : - - : : 4 4 9 : - - : : & f f & 4 $ p.LX  a Z b S b = t.t.& 4 4 s o.s S ..X.s s o.o.S 4 4 4 ",
"zXzXyXyXyXyXyXyXyXyXyXyXyXyXyXyXyXyXyXyXyXyXyXyXyXyXyXyXyXyXyXyXyXyXyXyXCXAXzXcXcXcXnXGXGXyXyXyXyXyXyXyXcXSXzXcXvXDXyXyXyXyXyXyXyXyXyXyXyXyXyXyXyXyXyXyXyXyXyXyXyXyXyXyXyXqXqXqXqX&.0.-.R J j d z t r d M k -.O.b x s s f a f f a c s s s s s s s s s s s s s s s a f f a s s s s s s s s x a s s s s s x s s s a f f a s s x s s s x s s x s a x s s c a s s s s s s s s s s s s s s s x f c M } 1.x 4 4 4 4 a c 4 b 4 4 4 4 4 9 : - - : : 4 4 9 : - - : : & f f & 4 $ ] LXi   a x f o % p.w.$ 4 & c X.S S j.X.b ..o.j.o.4 4 4 ",
"0.0.$.$.$.$.$.$.$.$.$.$.$.$.$.%.$.$.$.$.$.$.$.$.$.%.%.$.$.$.$.$.@.fXAXzXzXdXL.L.L.L.L.G.fXfXO.@.O.@.%.@.qXxXL.L.L.xXDX%.@.$.@.@.$.$.$.$.$.$.$.$.$.%.$.$.$.$.$.$.$.$.%.%.%.&.&.u.sXfXzXvXFXKX1X/././ l 4 f h *.O.c z a s s 4 s s 4 x s e e e e e e e e e e e s e e e s s 4 e e e e e e e s f 4 e e e e a f e e e e s s e e e f a e a f e e f a 4 f a a x e e e e e e e e e e e e e e e e f s d m } 1.x 4 4 4 4 a c 4 b 4 4 4 4 4 9 : - - : : 4 4 9 : - - : : & f f & 4 4 $ p.IXi   . . 3 a.t.4 4 4 4 e  .c Z b S e b S S b 4 4 4 ",
"H > : - - - - - - - - - - - ; : - ; - - - - - - ; : : ; - - - - , %.F.l C Q ,.,.! ! ,.! b.fXO.&.u.O.- , $.L.! ,.;.Q sXm ; , &.qX, - - - - - - - - h - - - - - - - ; , h ; ; ; ; ; ; : 9 n $.yXCX0.I /./ l & *.} z s 4 4 a & 4 e & s 4 4 4 4 4 4 4 4 4 4 4 4 4 4 4 4 4 e 4 4 4 4 4 4 4 4 4 a 4 4 4 4 4 4 a 4 4 4 4 e e 4 4 4 s 4 4 4 a 4 4 a 4 & a 4 4 s 4 4 4 4 4 4 4 4 4 4 4 4 4 4 4 4 a 4 0 d V 1.x 4 4 4 4 a c 4 b 4 4 4 4 4 9 : - - : : 4 4 9 : - - : : & f f & 4 4 4 4 a.] $ 4 & r t.r 4 4 4 4 4 & 4 & & & 4 4 & 4 & 4 4 4 ",
"R j h 0 0 0 0 0 0 0 0 0 0 0 9 k k 9 0 0 0 0 0 0 9 k k 9 0 0 0 0 - u.L.,.:.:.f.:.:.:.:.f.:.K.sXK.0.zXzX} $.dX,.:.z.Q hXO.- $.zXzXO.- 9 0 0 0 0 0 0 k 0 0 0 0 0 0 9 m } k d 0 0 0 0 0 k h 9 - - O.cXyX8 E ).~ } } z s 4 4 s 4 e a 4 s 4 4 4 4 4 4 4 4 4 4 4 4 s 4 4 4 e a 4 4 4 4 4 4 4 4 4 a 4 4 4 4 4 4 s 4 4 4 4 e e 4 4 4 s 4 4 4 s 4 4 s 4 4 s 4 4 s 4 4 4 4 4 4 4 4 4 4 4 4 4 4 4 4 s 8 s d } 1.x 4 4 4 4 a c 4 b 4 4 4 4 4 9 : : w w w 4 4 9 : - - : : & f f & 4 4 4 4 $ @ 4 r 4 @ $ 4 4 4 4 4 4 4 4 4 4 4 4 4 4 4 4 4 4 4 ",
"R j q 9 9 9 9 9 9 9 9 9 9 9 9 k h 9 9 9 9 9 9 9 9 k k 9 9 9 9 0 - K.L.,.:.:.f.:.:.:.:.f.:.Q Q ,.Q Q F.zXzXL.,.:.z.! dX} , fX@.@.cXN k 9 9 9 9 9 9 k 9 9 9 9 9 0 ; qXcXh 0 9 9 9 9 ; h h 9 0 0 - : sXAXd j /.+X{ x s 4 4 s a 4 a & s 4 4 4 4 4 4 4 4 4 a 4 4 s 4 4 4 e a 4 4 4 4 4 4 4 4 4 a 4 4 4 4 4 4 s 4 4 4 4 e e 4 4 4 s 4 4 4 s 4 4 s 4 4 s 4 4 s 4 4 4 4 4 4 4 4 4 4 4 4 4 4 4 4 s 8 s d } 1.x 4 4 4 4 a c 4 b 4 4 4 4 4 9 : - K _ _ a 4 9 : - - : : & f f & 4 4 4 & r t.LXLXLXa.u & 4 4 4 4 4 & 4 4 4 4 4 4 4 4 4 4 4 4 ",
"R j q 9 9 9 9 9 9 9 9 9 9 9 9 k h 9 9 9 9 9 9 9 9 k k 9 9 9 9 0 - sXL.,.:.:.f.:.:.:.:.f.:.:.f.f.:.:.,.1.0.f.:.:.z.! dXu.} zX} C K.cXcXd 9 9 9 9 9 k 9 9 9 9 9 0 - sXzXk 9 9 9 9 9 &.O.h 0 9 9 d k , &.AXC l @X/ u s 4 4 s f 4 a & s 4 4 4 4 4 4 4 4 4 a 4 4 d 4 4 4 e a 4 4 a 4 a 4 4 4 4 a 4 4 4 4 4 4 s 4 4 4 4 e e 4 4 4 s 4 4 4 s 4 4 s 4 4 s 4 4 s 4 4 4 4 4 4 4 4 4 4 4 4 4 4 4 4 s 8 s d } 1.x 4 4 4 4 a c 4 b 4 4 4 4 4 g < g 6X7X6Xg 6 g < F g 1 F & f f & 4 4 & u LXeXt.i t.wXPX] $ 4 4 4 4 x s & 4 4 4 & 4 4 4 4 4 4 ",
"W W k 9 9 9 9 9 9 9 9 9 9 9 9 k h 9 9 9 9 9 9 9 9 k k 9 9 9 9 0 - sXG.,.:.:.f.:.:.:.:.f.:.:.:.:.:.:.f.Q V f.:.:.f.,.b.sXsXF.*.*.O.F.fX} - 9 9 9 9 h d 9 9 9 9 9 0 fXfXN 9 - 9 9 m cXsXzXu.; 0 9 k 0 , &.AXR -.$X! t 4 4 f c 4 a & s 4 4 4 4 4 4 4 4 4 s 4 4 c 4 4 4 e s 4 4 s 4 s 4 4 4 4 a 4 4 4 4 4 4 s 4 4 4 4 e e 4 4 4 s 4 4 4 s 4 4 s 4 4 s 4 4 s 4 4 4 4 4 4 4 4 4 4 4 4 4 4 4 4 s 8 s d } 1.x 4 4 4 4 a c 4 b 4 4 4 4 4 < _ _ g g g 4 4 g < 1 < _ _ & f f & 4 4 4 wXeX# = @ =   a.LXu & 4 & x S  .c b o.S S f S ..& 4 4 ",
"Q W C 9 9 9 9 9 9 9 9 9 9 9 9 k h 9 9 9 9 9 9 9 9 k k 9 9 9 9 0 - sXG.,.:.:.f.:.:.:.:.f.:.:.:.:.:.:.f.:.=.f.:.:.f.:.,.C C Q :.=.V C L.fX- 9 9 - O.fXcX} - 9 9 - @.hXhXV m } 9 - O.hXsXnXsX; 0 9 k 9 d , sXnX,.*.).d 4 4 f M 4 a & s 4 4 4 4 4 4 4 4 4 d 4 4 c 4 4 a e s a 4 f 4 f 4 a 4 e s 4 4 4 4 4 4 s 4 4 4 4 e e 4 4 4 s 4 4 4 s 4 4 s 4 4 s 4 4 s 4 4 4 4 4 4 4 4 4 4 4 4 4 4 4 4 s 8 s d } 1.x 4 4 4 4 a c 4 b 4 4 4 4 6 6X7X7X_ < < 4 4 g < g 6X7X6X1 s f & 4 $ w.PX% + Z  .X.a = eXp.@ 4 & x S  .o.o.X.o.o.o.e.S & 4 4 ",
"W -.k 9 9 9 9 9 9 9 9 9 9 9 9 k h 9 9 9 9 9 9 9 9 k k 9 9 9 0 0 - sXG.,.:.:.f.:.:.:.:.f.:.:.:.:.:.:.f.:.:.f.:.:.f.:.:.-.-.=.:.:.-.=.,.fXm 9 0 , u.K.F.sX- 9 0 ; %.K.hX$.u.CX- - $.dXzXvXsX- 9 9 k 9 9 q > fXvXN ! /.3 4 f M 4 a & s 4 4 4 4 4 4 4 4 4 d 4 4 M 4 4 d 4 s s 4 d 4 f 4 a 4 a s 4 4 4 4 4 4 s 4 4 4 4 e e 4 4 4 s 4 4 4 a 4 4 a 4 4 s 4 4 s 4 4 4 4 4 4 4 4 4 4 4 4 4 4 4 4 s 4 s d V 1.x 4 4 4 4 a c 4 b 4 4 4 4 4 1 < 1 6X7X7X1 6 g < 1 < < < & f f & 4 $ a.wX  x S S S S = t.LX& 4 4 4 c s s x f o.s f s s 4 4 4 ",
"R j k h h h h h h h h h h h 9 k k 9 h h h h h h 9 k k 9 h h - - , sXG.,.:.:.f.:.:.:.:.f.:.:.:.f.:.:.f.:.:.f.:.f.f.:.:.:.:.:.:.:.:.:.,.fXm ; 9 m zXb.,.fXd h 9 N cX<.G.K.u.cXk - &.G.gXxXsX9 h h k h h k j -.GXK.d /.E 3 c D e s 4 s f a 4 4 4 a 4 4 a c 4 4 B a 4 c e x f 4 c 4 c a f a s s 4 4 4 4 4 4 s 4 4 4 4 a a 4 4 4 s 4 4 e s 4 4 s e 4 s 4 4 f 4 4 4 4 4 4 4 4 4 4 4 4 4 4 4 4 s a d d } 1.x 4 4 4 4 a c 4 b 4 4 4 4 4 g 1 g 6X7X7X1 6 g < 1 g < 1 & f f & 4 $ a.t.  c b S f s = ] a.4 4 4 4 4 & 4 & 4 4 % 4 4 4 4 4 4 ",
"R R l k k k k k k k k k k k k C l k k k k k k k k l l k k k %.K.K.cXb.:.f.f.x.f.f.f.f.x.f.f.f.f.f.f.x.f.f.x.:.z.x.:.f.f.f.f.f.f.f.f.,.gX&.&.zXcXK.g.f.fXN k k zXF.Q G.sXK.zXN : fXG.f.b.fXh k k C k k l j sXgXDX1.j ).d c X.s f a x b f a s s x a a f B a a D f a B s c b e S a B f c f c x a s s s a s x a s s a f f a s a x s a s f a a f s a f s s x a s s s s s s s s s s s s s s a f s x M } 1.x 4 4 4 4 a c 4 b 4 4 4 4 6 ' 7X6X6X7X7X1 6 g < F 1 < < & f f & 4 $ t.LX  e Z Z S b   t.t.& 4 4 s o.s S X.X.s f o.o. .4 4 4 ",
"R j q 9 9 9 9 9 9 9 9 9 9 9 9 k h 9 9 9 9 9 9 9 9 h h 9 - m zXu.K.F.,.:.:.:.:.:.:.:.:.f.:.:.:.:.:.:.f.:.:.f.:.>.f.:.:.:.:.:.:.:.:.:.,.l.sXsXO.O.Q f.! gX@., @.fXC :.:.zXfXfXN 9 fX:.:.,.zXO.- 9 k 9 9 q > sXgX0.DXn E / r D 4 e & a c a & 4 4 f 4 4 4 c 4 4 M 8 4 M 4 f d & M 4 c 4 f 8 f s 4 4 4 4 4 4 s 4 4 4 & a a & 4 4 s 4 4 4 a 4 4 a 4 & a 4 4 s 4 4 4 4 4 4 4 4 4 4 4 4 4 4 4 4 a 4 0 d V 1.x 4 4 4 4 a c 4 b 4 4 4 4 3 ^ XXXX~.!.!.s 3 g h g s v z 4 f f & 4 $ i LX]   e x s o 3 p.] $ 4 & x X.S S j.X.b ..o.j.o.4 4 4 ",
"R j q 9 9 9 9 9 9 9 9 9 9 9 9 k h 9 9 9 9 9 9 9 9 k k 9 - } hXW Q ,.:.:.:.=.f.:.=.=.=.f.:.:.:.:.:.:.f.:.:.f.(. X5.=.:.:.:.:.:.:.:.:.:.,.C C V V :.f.,.b.fX, fX@.Q :.,.hXsXhX} d fX,.z.! xXcX- h k 9 9 h > fXvXW u.AX0 /.W S a a 4 s M s 4 4 4 c 4 4 a M 4 4 D a 4 M 4 c c 4 M 4 M a c s x s s 4 4 4 4 4 s 4 4 4 4 s s 4 4 4 s 4 4 4 s 4 4 s 4 4 s 4 4 s 4 4 4 4 4 4 4 4 4 4 4 4 4 4 4 4 s 8 d d } 1.x 4 4 4 4 a c 4 b 4 4 4 4 3 / :X&XP.lXdXs & 8 9 9 5 r r 4 f f & 4 4 $ p.IXi   . . 3 a.t.4 4 4 4 4 S x b b S 4 c Z S b 4 4 4 ",
"R j 9 9 9 9 9 9 9 9 9 9 9 9 9 d d 9 9 9 9 9 9 9 9 d d 9 - { fX,.:.f.:.=.:.).{.).).(.(.g.=.:.:.:.:.:.f.:.:.f.(.^ ).:.:.:.:.:.:.:.:.:.:.:.=.-.-.=.:.f.:.Q fXyXsXV =.:.:.-.l hX+.d fX,.f.:.,.fXd 9 k 9 9 0 > zXSX-.h sXCXR /...e r 3 r B s 3 3 4 b 3 3 e B 3 3 S e 4 B 5 c b 3 S 3 B r c s x z x s s 3 4 5 z r r 4 3 r r 3 4 3 r 4 3 4 r 3 3 r 4 3 r 4 4 s 3 4 4 4 4 4 4 4 4 4 4 4 4 4 4 3 r 5 s d } @.x 4 4 4 4 a c 4 b 4 4 4 4 3 ^ :X*XJ.lXlXs & 8 h - &.yXqX5 s f & 4 4 4 4 p.i & 4 4 r q.e 4 4 4 4 4 & 4 & & & 4 & & & & 4 4 4 ",
"R R R j j j j j j j j j j j j R j j j j j j j j j R R j > *.dX! >.m.;.;.5.).m.5.6.6.|.&X;.4.4.4.;.;.m.;.;.m.).4.{.`.;.;.;.;.;.;.;.;.;.;.;.4.4.>.;.m.>.;.b.sXQ ;.;.;.4.:.! L.1.V dX! m.4.! dX-.> R j j R J gXmX;.W > hXAX+X/ d h - g W h ; ; - l ; ; - W ; ; -.h ; W - l l ; W - R h l h l k l l h ; - h l h h - ; h h ; - ; g - ; - g ; ; g - ; g - - h ; - ; ; ; ; ; ; ; ; ; ; ; ; ; ; g - h j W 1.x 4 4 4 4 a c 4 b 4 4 4 4 3 ^ :X*XJ.lXlXs & 8 h - qXDXcXy s x & 4 4 4 4 $ 6 4 8 4 6 $ 4 4 4 4 4 4 4 4 4 4 4 4 4 4 4 4 4 4 4 ",
"].].].].].].].].].].].].].].].].].].].].].].].].].].].].].].>X'. X X'.'..XoX X X'.`..X.X`.'. X X'.'. X'. X.X'. X|.oX'.'.'.'.'.'.'.'.'.'.'.'.'.'.'. X'. X'.].'. X'.'.'.'.'. X<X<X X'. X X'. X<X].].].].].].<X,X'.].].].1XSX2X].].@X,X,X,X,X,X,X,X,X,X,X,X,X,X,X,X,X,X,X,X,X,X>X,X,X,X,X,X,X,X,X,X,X,X,X,X,X,X,X,X,X,X,X,X,X,X,X,X,X,X,X,X,X,X,X,X,X,X,X,X,X,X,X,X,X,X,X,X,X,X,X,X,X,X,X,X,X,X,X,X,X2.z 4 4 4 4 a c 4 b 4 4 4 4 3 ^ :X*XJ.lXlXs & 8 h - qXAXcXr s f & 4 4 4 4 a _ ' _ ' _ g 4 4 4 4 4 4 4 4 & & 4 4 4 4 4 4 4 4 4 ",
"Q ,.C 9 q q q q q q q q q q q k k q q q q q q q q k O.} V &.dX! :.g.;.:.6.(.f.>.;.:.6.|.(.;.=.:.;.:.f.=.6.&X=.>.f.).;.:.:.:.:.:.:.:.:.:.:.:.:.:.:.g.:.:.:.-.:.:.:.:.:.:.:.,.1.1.,.:.f.:.:.! gXO.j q q h j fXmX2.C k - j fXGXSXZXsX0.L.0.$.$.%.G.$.@.&.zX@.$.vX0.@.G.%.F.G.$.L.$.F.0.F.0.F.F.F.F.F.%.0.F.L.K.F.$.$.0.0.$.0.%.%.$.$.$.%.$.$.%.$.$.%.$.$.0.$.$.$.$.$.$.$.$.$.$.$.$.$.$.$.$.%.%.0.0.L.0.f 4 4 4 4 a c 4 b 4 4 4 4 3 ^ :X*XJ.lXlXs & 8 h - qXAXcXy s f & 4 4 4 1 ' _ < * < _ ' < 6 4 4 4 4 4 4 x x & 4 & 4 4 4 4 4 4 ",
"-.=.C 9 9 9 9 9 9 9 9 9 9 9 9 k h 9 9 9 9 9 9 0 - u.zXsXsXfXb.,.:.f.=.-.6.(.f.:.:.:.:.M.(.`.6.{.).(.g.=.6.&X=.:.f.).;.=.:.:.:.:.:.:.:.:.:.:.:.:.:.f.:.:.:.:.:.:.:.:.:.f.:.:.V ,.:.:.f.:.:.,.L.sXl k 9 q j fXmXc.k N 0.hXfXvX1XpXcXyXfXu.+.{ { @.v r +.zX5 z cX{ 8 sX{ S O.y zXz %.{ ..B  . .O.O. .b b O.o.O.O.{ z b b y B n n y z z n r r n z 5 n y z n r y y y y y y y y y y y y y y r n z n N O.1.x 4 4 4 4 a c 4 b 4 4 4 4 3 ^ :X*XJ.lXlXs & 8 h - qXAXcXy s f & 4 4 4 _ _ + . 6 # . _ ' 8 4 4 4 4 4 4  . .X.S b a 4 4 4 4 4 ",
"W j h 9 9 9 9 9 9 9 9 9 9 9 9 k h 9 9 9 9 9 9 9 - sX1.C C D ,.:.:.M.).).`.^ =.:.:.:.:.f.=.6.6.5.=.(.|.5.6.&X=.>.f.).6.=.:.:.:.:.:.:.:.:.:.:.:.:.:.f.:.:.:.:.:.:.:.:.:.f.:.:.-.:.:.:.f.:.:.:.:.cXF.W B C -.xXmXx.0.gX0.k F.DX/.W [ u.fXzXcXcXcXAXCXCXAXGXCXCXGXAXcXGXCXAXAXCXGXCXGXAXAXAXAXAXAXAXAXAXAXAXAXAXAXAXCXCXAXCXAXCXCXCXCXCXCXCXCXCXCXCXCXCXCXCXCXCXCXCXCXCXCXCXCXCXCXCXCXCXCXCXCXCXCXCXAXK.f 4 4 4 4 a c 4 b 4 4 4 4 3 ^ :X*XJ.lXlXs & 8 h - qXAXcXy s f & 4 6 < ' + # S  .X.a . _ _ 6 4 4 4 4 4  . .o.f j.4 4 4 4 4 4 ",
"R R l l l l l l l l l l l l k C C k l l C C C C k fXG.f.z.z.z.f.z.&X&Xg.m.f.x.x.f.f.x.x.f.z.z.z.f.l.M.|.{.N.z.x.x.M.|.m.z.f.f.f.f.f.f.f.f.f.f.f.f.x.f.f.f.f.f.f.f.f.f.x.f.f.f.f.f.f.x.x.f.x.f.G.SXK.Q -.<.xXxXkXgX*.V V sXDX,.+Xv b -.-.b n  .l.O.O.u.cX{ | DXu.O.SX%.hXzXO.SX1.cXF.zXK.F.F.F.F.F.F.F.F.F.F.F.F.i.F.F.e.F.@.@.| @.+.@.| | @.| | @.| | @.| | | | | | | | | | | | | | | | @.| @.@.0.0.f 4 4 4 4 a c 4 b 4 4 4 4 3 ^ :X*XJ.lXlXs & 8 h - qXAXcXy s f & 4 6 _ _ . x S S  ...O < _ 4 4 4 4 4 4 x x 4 x Z % 4 4 4 4 4 ",
"R j h 9 9 9 9 9 9 9 9 9 9 9 9 k k 9 9 9 - - - - - fXx.,.:.:.:.:.=.&X6.=.:.:.f.:.:.:.:.f.:.:.:.f.:.:.f.6.(.g.:.:.f.-.(.5.=.:.:.:.:.:.:.:.:.:.:.:.:.f.:.:.:.:.:.:.:.:.:.f.:.:.:.:.:.:.f.:.:.:.:.! z.AXdXQ b.gXvXDX-.} V m sXSXO.6.W { <.<.O.z } <.{  .u.cX8 } DXu.M AX1.hXfXB SXO.cXF.fXK.-.<.=.<.<.-.-.<.l.<.<.-.O.O.1.O.-. . .n b b b z z n z z n z z b z z z z z z z z z z z z z z z z n n N N 1.1.x 4 4 4 4 a c 4 b 4 4 4 4 3 ^ :X*XJ.lXlXs & 8 h - qXAXcXy s f & 4 6 _ _ . c b b S S # 1 _ 4 4 4 4 4 4 # & s 4 4 a e 4 4 4 4 ",
"J > q 9 9 9 9 9 9 9 9 9 9 0 9 k k 9 0 9 } } } } } zXz.,.:.:.:.:.=.&X6.=.:.:.f.:.:.:.:.f.:.:.:.:.:.:.f.=.=.f.:.:.f.=.(.5.=.=.=.=.=.6.'.:.:.:.:.:.:.f.:.:.:.:.:.:.:.:.:.f.:.:.:.:.:.:.f.:.=.:.:.:.:.gXGXb.f.bXFXGX<.} N m dXmXF.! 6.v <.<.O.z O.<.O.O.u.AXz O.DXK.O.AXb.hXzX-.AX<.AXK.zXK.K.l.<.<.<.<.1.l.b.<.<.<.O.1.1.1.<.O.O.| O.O. .n z n n z n n n { z z z z z z z z z z z z z z z z n n b } O.1.x 4 4 4 4 a c 4 b 4 4 4 4 3 ^ :X*XJ.lXlXs & 8 h - qXAXcXy s f & 4 6 _ ' . a s x S c X _ _ 6 4 4 4 4 c b S X.4 ..o.e.s 4 4 4 ",
"*.*.N 9 0 0 0 0 0 0 0 0 9 - ; : - - , @.zXsXsXsXfXsX:.:.:.:.:.:.=.&X5.=.:.:.f.:.:.:.:.f.:.:.:.:.:.:.f.:.:.f.:.:.f.=.6.`.5.5.).(.:.`.'.;.:.:.:.:.:.f.:.:.:.:.:.:.:.:.=.f.:.:.:.:.:.=.f.5.6.=.:.:.z.! L.DXzXJXKXGXG.<.} V dXKXG.V 6.-.o.z.O.n O.=.o.-.K.AX .-.GXL.-.DXb.gXcX=.DXl.SXK.cXK.zXG.=.<.<.<.<.l.b.<.<.<.<.l.<.<.<.<.@.O.o.O.O.n z n { n n n n b z z z z z z z z z z z z z z z z n n N } O.1.x 4 4 4 4 a c 4 b 4 4 4 4 3 ^ :X*XJ.lXlXs & 8 h - qXAXcXy s f & 4 6 1 ' 1   # f s . * _ < 6 4 4 4 c o.X.e.c c e.o.j.x & 4 4 ",
"hXhXzX0 ; - ; ; ; ; - ; d $.$.%.%.$.@.zX@.l C C C Q f.:.:.:.:.;.:.{.5.=.:.:.f.:.:.:.:.f.:.:.:.:.:.:.f.:.:.f.:.:.f.:.:.5.`.`.5.(.'.6.(.(.=.:.:.:.:.f.:.:.:.:.:.:.=.6.).f.:.:.:.:.:.).m.{.`.=.:.:.f.:.:.L.SX;XJXDXL.<.O.-.jXKXL.-.,.+XfXL.-.n %.sX=.=.L.DX-.<.DXL.=.DXF.gXvX<.DXl.DXL.vXhXxXG.=.<.<.<.<.l.b.<.<.<.<.l.<.<.<.<.<.o.<.1.@.} z b O.n n n n b z z z z z z z z z z z z z z z z n n N } O.1.x 4 4 4 4 a c 4 b 4 4 4 4 3 ^ :X*XJ.lXlXs & 8 h - qXAXcXy s f & 4 4 6 _ ' 1 . + . * ' _ 4 4 4 4 4 4 c s x s e S c S e 4 4 4 ",
"! ! sXqX&.u.u.u.u.u.u.&.fXhXK.sXsXK.sXK.-.-.-.-.-.=.:.:.:.;.).).).{.:.:.:.:.f.:.:.:.:.f.:.:.:.:.:.:.f.:.:.f.:.:.f.:.:.=.:.:.=.:.:.=.;.`.:.:.:.:.:.f.=.:.:.:.:.:.=.).'.f.:.:.:.=.5.`.{.|.).:.:.:.f.:.,.Y.jX`.2XvXL.x.<.:.jXJXL.:.O.6.FXfX-.O.u.SX<.=.sXDX=.l.FXL.<.GXF.gXAX<.DXl.DXsXnXhXvXG.=.<.<.<.<.l.b.=.<.l.=.sXP.=.<.<.l.<.<.<.<.O.{ O.@.{ n n n b z z z z z z z z z z z z z z z z n n N } O.1.x 4 4 4 4 a c 4 b 4 4 4 4 3 ^ :X*XJ.lXlXs & 8 h - qXAXcXy s f & 4 4 4 4 _ 1 & $ $ ; _ 4 4 4 4 4 4 4 & 4 & 4 4 & & & 4 4 4 4 ",
"V.V.:.%.F.F.F.F.F.F.F.F.@.C C D D C C C :.:.:.:.:.:.:.:.=.5.).=.:.f.:.:.:.:.f.:.:.:.:.f.:.:.:.:.:.:.f.:.:.f.:.:.f.:.:.:.:.:.:.:.:.:.=.).;.:.:.:.;.N.(.;.:.:.:.:.=.).).g.:.:.:.=.6.6.).`.(.;.:.:.f.,.z.kXb.|.>XxXdXx.c.z.gXJXL.x.<.M.FXfX=.=.F.DXl.=.sXDX<.l.FXL.l.GXF.gXSXl.GXF.SXhXSXfXnXL.l.<.<.<.<.<.b.hX=.l.=.hXhX=.l.<.b.<.<.l.l.o.O.@.@.} { n n b z z z z z z z z z z z z z z z z n n N } O.1.x 4 4 4 4 a c 4 b 4 4 4 4 3 ^ :X*XJ.lXlXs & 9 h - qXAXcXy s f & 4 4 4 4 # 5 { r.+.r # 4 4 4 4 4 4 4 4 4 4 4 4 4 4 4 4 4 4 4 ",
"C.I.f.Q Q Q Q Q Q Q Q Q Q -.-.=.=.-.-.=.:.:.:.:.:.:.:.:.=.5.(.=.:.f.:.:.:.:.f.:.:.:.:.f.:.:.:.:.:.:.f.:.:.f.:.:.f.:.:.:.:.:.:.:.:.:.=.).5.=.:.=.(.{.).6.=.:.:.:.:.).).M.:.:.:.=.^ 6.5.5.(.(.=.:.f.,.jXY.z.|.>XgXdXx.b.z.gXJXdXx.z.x.SXfX=.=.K.DXl.=.sXDX<.l.FXL.l.FXF.gXvXl.GXF.SXhXvXgXAXdXvX<.<.<.<.F.dXvXF.l.=.fXhX=.l.<.b.<.<.l.b.1.O.@.<.O.| { n b z z z z z z z z z z z z z z z z n n b } 1.1.x 4 4 4 4 a c 4 b 4 4 4 4 3 ^ :X*XJ.lXlXs & 8 9 ; qXAXcXy s f & 4 4 4 $ +.pXUXpXUXpXr.4 4 4 4 4 4 4 4 & & 4 4 & 4 4 4 4 4 4 ",
"B.x.f.:.:.:.:.:.:.:.:.:.:.:.:.f.:.:.:.:.:.:.:.:.:.:.:.:.=.6.(.=.:.:.:.:.:.:.:.:.:.:.:.f.:.:.:.:.:.:.f.:.:.f.:.:.f.:.:.:.:.:.:.:.:.:.=.6.`.=.;.=.).m.5.(.=.:.:.=.5.(.^ &X=.:.:.=.).5.=.:.:.).;.:.:.G.jX:.c.|.>XgXgXx.z.z.gXJXdXf.z.x.SXgX=.=.K.DXl.=.sXSX<.l.FXL.l.FXF.gXvXF.FXK.mXhXbXgXAXgXAXfXhX=.-.L.AXvXvXF.,.fXfX,.<.<.b.<.<.<.b.<.O.l.l.o.O.| { { z z z z z z z z z z z z z z z z n n N } 1.1.x 4 4 4 4 a c 4 b 4 4 4 4 3 ^ :X*XJ.lXlXs % ~ ].[.hXAXcXy s f & 4 4 $ r.UXi.t + 3 +.UXqX$ 4 4 4 4 4 a c c f 4 x a 4 4 4 4 4 ",
"g.g.:.:.:.:.:.:.:.:.:.:.:.:.:.f.f.:.:.:.:.:.:.:.=.N.{.).(.|.N.=.f.f.:.:.:.:.f.f.:.:.:.f.:.:.f.f.:.:.z.:.:.z.:.f.z.:.:.:.:.:.:.:.:.:.:.=.{.(.<.5.|.g.>.{.:.:.:.=.(.6.4.*X:.4.:.:.{.:.f.f.=.N.(.<.f.jXG.x.v.|.<XdXgXx.b.z.gXjXdXx.b.c.mXKXf.d.L.FXF.=.hXSXl.F.SXdXF.FXK.gXmXF.FXK.mXgXbXgXDXxXSXSXxXQ hXvXDXSXDXK.=.zXfXl.F.l.b.l.l.l.b.<.@.l.l.<.@.@.@.O.{ v v v v v v v v v v v v v v v { n { } @.1.x 4 4 4 4 a c 4 b 4 4 4 4 3 ^ :X*XJ.lXlXs % j E J qXAXcXy s f & 4 & u pXi.  $ f 8   ] pX+.$ 4 4 4 4 a j.j.X.e.l.f & 4 4 4 4 ",
"-X-X-X-X-X-X-X-X-X-X-X-X-X-X-X-X-X-X-X-X-X-X-X-X-X X<X-X*X-X-X-X-X-X-X-X-X-X-X-X-X-X-X-X-X-X-X-X-X-X-X-X-X-X-X-X-X-X-X-X-X-X-X-X-X-X-X-X-X X<X X*X-X-X X-X-X-X-X X-X*X<X<XoX-X-X X-X-X-X-X-X>X-X1XJX-X;X;X>X3X2XmX1X;X=XkXJXkX;X=X1XmXKX;X=XjXFX1X-XkXFX1X1XmXkXQ.mXQ.kXmXQ.FXjXbXbXKXbXSXbXmXFXbXQ.mXGXDXGXGX1X*XbXbXQ.mX=X=X=X=X=X=X=X=X=X=X=X=X=X=X=X+X+X+X+X+X+X+X+X+X+X+X+X+X+X+X+X+X+X+X+X%X9.x 4 4 4 4 a c 4 b 4 4 4 4 3 ^ :X*XJ.lXlXs & 8 8 ; qXAXcXy s f & 4 @ i.pX= 4  . .o.Z   eXeX@ 4 4 4 4 4 .. .S X. .f 4 4 4 4 4 ",
"M.M.4.4.4.4.4.4.4.4.4.4.4.4.4.M.m.4.4.4.>.>.>.>.>.{.M.>.4.4.4.4.m.M.4.4.4.4.M.m.4.4.4.M.4.4.m.M.4.4.M.4.4.M.4.m.M.4.4.4.4.4.4.4.4.4.4.4.4.4.(.6.>.M.>.|.6.4.>.6.{.>.5.{.). X5.6.{.>.M.m.4.4.{.5.kXV.B.A.A.<X XoXGXjX5.V.kX1XkXM.B.I.mXkX-XB.dXmXG.>.dXFXc.G.mXdXL.bXjXkXbXL.mXdXbXxXkXbXmXmXKXmXmXDXxXDXFXbXvXvXL.xXxXL.GXxXI.x.c.x.V.2.x.V.x.x.c.2.B.2.1.<.W *.V C C C C C C C C C C C W W W *.2.1.x 4 4 4 4 a c 4 b 4 4 4 4 3 / :X&XJ.lXlXs & 9 h - qXAXcXy s f & 4 $ qXqX  c Z S c c = q.pX4 4 4 4 & 4 & & % 4 4 4 & 4 4 4 4 ",
"M.M.>.>.>.>.>.>.>.>.>.>.>.>.>.m.g.>.>.5.).).).).).|.g.>.>.>.>.>.>.g.>.>.>.>.g.>.>.>.>.g.>.>.g.g.>.>.g.>.>.m.>.g.g.>.>.>.>.>.>.>.>.>.>.>.>.>.:.:.>.m.:.(.(.:.>.|.6.:.4.).(.|.5.5.).:.m.>.>.:.(.1XjX>.B.B.A.*X X4XjXgX4.G.kX=XbXB.B.I.bXxXQ.N.dXKXL.:.dXmXG.L.bXdXL.kXdXkXbXdXbXhXkXmXkXbXmXmXJXKXmXDXxXmX2X{.N.SXgXxXxXL.GXDXdXb.xXz.c.z.z.c.z.z.b.<.x.l.O.1.} O.} m m m m m m m m m N m V N V *.1.1.x 4 4 4 4 a c 4 b 4 4 4 4 3 ^ :X*XJ.lXlXs & 9 h - qXAXcXy s f & 4 $ qXqX  x b Z c c = ] p.4 4 4 4 c 4 f s c 4 4 x c s 4 4 4 ",
"M.M.4.>.>.>.>.>.>.>.>.>.>.:.:.f.f.:.=.(.).5.6.6.6.M.g.>.>.>.>.>.>.m.>.>.>.>.m.>.>.>.>.m.>.>.g.m.>.>.m.>.>.m.>.g.m.>.>.>.>.>.>.>.>.>.>.>.>.>.>.>.>.m.>.4.|.>.|.|.>.>.>.`.|.).6.6.(.:.m.>.>.>.^ 2XI.B.B.B.S.*X|.oXQ.xX4.G.kX&XHXL.4.Y.kXSXvX*XjXJXAXdXdXbXG.L.bXdXdXJXjXjXjXxXkXSXkXmXkXbXbXmX2X,XmXnXmX*X X|.|.M.vXSXDXGXHXGXgXz.SXz.c.z.z.c.x.z.c.2.x.c.<.1.-.-.-.N N N N N N N N N N m V V V *.1.1.x 4 4 4 4 a c 4 b 4 4 4 4 3 ! *X}.G.dXP.s 4 8 8 ; 0XVXuX7 s f & 4 @ i.pX. # b Z S s   i.i.$ 4 & x o.c S d.X.x Z e.d.X.4 4 4 ",
"5.4.4.>.>.>.>.>.>.>.>.>.4.(.(.&X&X(.+X|.5.:.>.:.:.g.m.>.>.>.>.>.>.m.>.>.>.>.m.>.>.>.>.m.>.>.g.m.>.>.m.>.>.m.>.g.m.>.>.>.>.>.>.>.>.>.>.>.>.>.>.>.>.m.>.:.).).).:.>.>.>.&X6.+X(.|.5.>.m.>.>.;.Y.2XM.c.B.B.S.*X*X XS.xXL.L.JX).kXdX4.L.kXFXAX&XJXJXSXAXbXkXG.L.kXSXxX1XmXAX=XSX=XmX1XbX1XmXJX;X X'.;X1XmX'. X X X5.sXHXFXAX;XHXxXdXSXdXL.:.z.c.x.z.c.z.z.c.2.<.1.1.-.N } V m N N N N N N m V V V *.1.1.x 4 4 4 4 a c 4 b 4 4 4 4 3 ! }.^ l.K.K.a 3 j E J 0XNX9X5 s f & 4 & r pXa.. + 4 %   ] qXu & 4 & f o.S S o.X.c  .o.e.X.4 4 4 ",
"M.A.g.:.:.:.:.:.:.:.:.=.(.).6.&X&X(.(.6.>.>.>.>.>.m.g.>.>.>.>.>.>.m.>.>.>.>.m.>.>.>.>.m.>.>.g.m.>.>.m.>.>.m.>.g.m.>.>.>.>.>.>.>.>.>.>.>.>.>.>.>.>.m.>.:.6. X5.>.>.>.>.g.:.6..X(.:.>.m.>.>.>.kX*XN.B.B.B.S.|.Y.;X&XG.DXDX;X(.1XdX5.L.kXbXSXm.kX1XSXL.1X1XL.gX=XbXAX&XbXbX&XHXS.KX;X;X-XbX,X). X X`.<XbX4X X.XoXN.<.=X<X>.|.HXnXDXGXDXSXG.2.c.z.z.c.z.z.c.z.2.1.<.-.V O.V m N N N N N N m V V V *.1.1.x 4 4 4 4 a c 4 b 4 4 4 4 3 ! }.^ F.K.K.s 3 ~ [.^.0XNX9X5 s f & 4 4 $ +.UXr.o + + y eX+.& 4 4 4 4 f e s a s 4 s s s s 4 4 4 ",
"=X=X*X(.(.(.(.(.(.(.(.+X|.5.:.f.f.:.:.:.>.>.>.>.>.g.g.>.>.>.>.>.>.m.>.>.>.>.m.>.>.>.>.m.>.>.g.m.>.>.m.>.>.m.>.g.m.>.>.>.>.>.>.>.>.>.>.>.>.>.>.>.>.m.>.>.>.>.>.>.>.>.>.m.>.4.(.4.>.>.m.g.;.Y.jX6.oX|.x.c.S.{.Y.;X&Xv.xXY.*X6.1XgX4.L.kX*XbXL.kX;XDXz.).1XfXkX).=XGXS.*X&X&XKXS.;X*X`.{.*X X{.|.|.|.oX1XoX XoXoXN.l.)..X{. XmXGXGXGXDXGXL.2.x.L.G.x.z.z.c.z.z.<.<.<.O.1.} N N N N N N N m V V V *.1.1.x 4 4 4 4 a c 4 b 4 4 4 4 3 ! }.^ F.K.K.s 3 ~ _.^.0XNX9X5 s f & 4 4 4 $ { 5 6 6 6 6 i & 4 4 4 4 4 & 4 4 4 4 4 4 4 & 4 4 4 4 ",
"A.C.M.(.+X(.(.(.(.(.(.(.6.>.>.m.4.>.>.>.>.>.>.>.>.g.g.>.>.>.>.>.>.m.>.>.>.>.m.>.>.>.>.m.>.>.g.m.>.>.m.>.>.m.>.g.m.>.>.>.>.>.>.>.>.>.>.>.>.>.>.>.>.m.>.>.>.>.>.>.>.>.>.m.>.>.:.>.>.>.m.>.;.kXV.B.&X*X|.N.&X*XY.;X&Xv.m.N.*XM.-XnXgXQ.jX4XJXzX1X3XSXl.(.1XGXJX(.*X1XN. XN.M.>XM.'.{.|.&X|.|. X|.|.|.oX'. X X|.|. XB.*X.X.XOXJXDXdX&XI.GXvX,.v.DXdXx.z.z.c.z.z.<.2.z.-.1.1.V m N m m m N m V V V *.1.1.x 4 4 4 4 a c 4 b 4 4 4 4 3 ! }.^ F.K.K.s 3 ~ _.^.0XNX9X5 s f & 4 4 4 4 # F _ ` _ < $ 4 4 4 4 4 4 4 4 4 4 4 4 4 4 4 4 4 4 4 ",
"M.M.>.:.:.:.:.:.:.:.:.:.>.>.>.m.m.>.>.>.>.>.>.>.>.m.m.>.>.>.>.>.g.m.>.>.>.>.m.g.>.>.g.m.>.>.m.m.>.>.m.>.>.m.>.m.m.>.>.>.>.>.>.>.>.>.>.>.>.>.>.>.>.m.>.>.>.>.>.>.>.>.>.m.g.>.4.>.>.>.m.;.Y.jXm.V.G.*XoX|.*XA.Y.=X*XA.c.&X&Xc.|.FXDXjXQ.'.JXAX&X>X2X|. X&XZXJX5.oX4XM. XB.M.oXx.*XN. X&X|.&X|.{.N.*X.X|.{. XN.B.oX&X|.oXoXoXoX=XM.|.&XmXGXdXdXxXxXx.c.c.c.z.x.z.x.z.1.<.<.} N N N N N N N } V *.*.1.1.x 4 4 4 4 a c 4 b 4 4 4 4 3 ! }.^ F.K.K.s 3 ~ _.^.0XNX9X5 s f & 4 4 4 4 _ ` ` _ ` ` ` a 4 4 4 4 e 4 % 4 4 4 4 4 4 & & 4 4 4 ",
"M.M.m.m.m.m.m.m.m.m.m.m.m.m.m.B.B.m.m.m.m.m.m.m.m.B.B.m.m.m.m.m.B.B.m.m.m.m.B.B.m.m.m.B.m.m.B.B.m.m.B.m.m.B.m.B.B.m.m.m.m.m.m.m.m.m.m.m.m.m.m.m.m.B.m.m.m.m.m.m.m.m.m.B.m.m.m.m.m.m.B.m.kXI.V.V.C.S.S.A.C.A.T.T.oX*XF.&X&XG.&XJXAXmX-XM.1XSX&X*XoX|. X&XS.1Xx.N..Xc.V.v.B.&Xc.c.b. X&X|.&X&XN.b.A.*X XB.N.B.c.N.oX X.XoXoXoX&X<X X*X&XSXGXSXG.xXL.x.c.G.c.c.c.c.c.<.b.b.O.V } } } } } } } } *.-.2.1.x 4 4 4 4 a c 4 b 4 4 4 4 3 ! }.^ F.K.K.s 3 ~ _.^.0XNX9X5 s f & 4 4 6 _ ` 1 . . . * ` ` 4 4 & f o.b c f a .. . .c x  .s 4 4 ",
"5.4.4.>.>.>.>.>.>.>.>.>.>.>.;.m.>.>.>.>.>.>.>.>.>.g.g.>.>.>.>.>.>.m.;.>.>.;.m.>.>.>.>.m.>.>.g.g.;.>.m.>.>.m.;.g.m.;.>.>.>.>.>.>.>.>.>.>.>.>.>.>.>.m.>.>.>.>.>.>.>.>.>.m.>.>.>.>.>.>.>.I.jX>.B.B.V.x.x.B.A.A.T.Y.*X|.&X|.S.z.N.{.dXKX).l.{.A.&X*XoXc.z.N.oX).l.z.M.z.z.x.z.b.z.z.z.N.B.N.M.b.z.x.l.N. Xl.c.z.z.z.{.B..X&X|.oX|.oXoXoX{.=XxXgXm.xXDXgXG.x.2.z.z.z.z.<.z.<.-.N m m m m m m V N V *.1.1.x 4 4 4 4 a c 4 b 4 4 4 4 3 ! }.^ F.K.K.s 3 ~ _.^.0XNX9X5 s f & 4 6 F ` 1 . f S Z # * ` _ 6 & c b j. ...o.S j.j.X.j.j.s 4 4 ",
"M.M.4.>.>.>.>.>.>.>.>.>.>.>.>.m.g.>.>.>.>.>.>.>.>.m.m.>.>.>.>.>.>.m.>.>.>.>.m.>.>.>.>.m.>.>.g.m.>.>.m.>.>.m.>.g.m.>.>.>.>.>.>.>.>.>.>.>.>.>.>.>.>.m.>.>.>.>.>.>.>.>.>.m.>.>.>.>.>.>.g.kXI.B.B.B.V.B.B.B.A.A.T.Y.G.&X.X|.c.B.B. X|.|.&Xb.*X&X*X&X>X=Xz.x. X*Xl.x.z.z.x.c.z.x.z.z.z.z.z.z.b.c.z.z.z.B.N.z.c.z.z.x.b.c.|.z.B.|.oXoXoXoXoX.X:.z.{.mXDXGXvXG.G.z.z.z.z.z.z.z.<.} m N N N N N V V V *.1.1.x 4 4 4 4 a c 4 b 4 4 4 4 3 ! }.^ F.K.K.s 3 ~ _.^.0XNX9X5 s f & 4 6 _ ` . s S S X.S . _ ` 6 4 s ..c e  .S a c c x b b s 4 4 ",
"M.M.4.>.>.>.>.>.>.>.>.>.>.>.>.m.g.>.>.>.>.>.>.>.>.g.g.>.>.>.>.>.>.m.>.>.>.>.m.>.>.>.>.m.>.>.g.m.>.>.m.>.>.m.>.g.m.>.>.>.>.>.>.>.>.>.>.>.>.>.>.>.>.m.>.>.>.>.>.>.>.>.>.m.>.>.>.>.>.;.I.jX>.B.B.B.V.B.B.B.A.A.T.Y.V.v.B.A.V.B.c.*XOX*Xc.x.N.oX XA.M.=XB.z.x.B.z.z.z.z.x.c.z.z.z.z.z.z.z.z.x.c.z.z.z.z.z.z.c.z.z.z.z.c.B.z.x.N.|.M.N.N.OXoX&XV.oX1XfXvXDXxXgX;.b.z.z.z.z.z.<.} m N N N N m V V V *.1.1.x 4 4 4 4 a c 4 b 4 4 4 4 3 ! }.^ F.K.K.s 3 ~ _.^.0XNX9X5 s f & 4 6 ` _ . c Z S S  .# < ` 4 4 4 & & & f % % % % % & 4 4 4 4 ",
"M.4.4.>.>.>.>.>.>.>.>.>.>.>.>.m.g.>.>.>.>.>.>.>.>.g.g.>.>.>.>.>.>.m.>.>.>.>.m.>.>.>.>.m.>.>.g.m.>.>.m.>.>.m.>.g.m.>.>.>.>.>.>.>.>.>.>.>.>.>.>.>.>.m.>.>.>.>.>.>.>.>.>.m.>.>.>.>.>.;.jXY.B.B.B.B.V.B.B.B.A.A.T.Y.C.V.B.B.V.B.V.A.&XS.c.B.B.|.A.x.x.S.=Xz.z.z.z.z.z.z.x.c.z.z.z.z.z.z.z.z.x.c.z.z.z.z.z.z.c.z.z.z.z.c.c.z.z.z.c.z.z.x. XoX|.N.OX Xb.g.dXGXSXG.:.z.z.z.z.z.<.} m N N N N m V V V *.1.1.x 4 4 4 4 a c 4 b 4 4 4 4 3 ! }.^ F.K.K.s 3 ~ _.^.0XNX9X5 s f & 4 6 _ ` . s Z x f S . _ ` 4 4 4 4 4 Z x S S f x Z a 4 4 4 4 ",
"M.M.4.>.>.>.>.>.>.>.>.>.>.>.>.m.g.>.>.>.>.>.>.>.>.g.g.>.>.>.>.>.>.m.>.>.>.>.m.>.>.>.>.m.>.>.g.m.>.>.m.>.>.m.>.g.m.>.>.>.>.>.>.>.>.>.>.>.>.>.>.>.>.m.>.>.>.>.>.>.>.>.>.m.>.>.>.>.;.V.kXB.B.B.B.B.V.B.B.B.A.A.T.Y.C.V.B.B.V.B.V.V.x.V.B.B.B.x.B.B.B.x.;Xx.z.z.z.z.z.z.x.c.z.z.z.z.z.z.z.z.x.c.z.z.z.z.z.z.c.z.z.z.z.c.c.z.z.z.c.z.x.b.N.OX X|.oX|.b.z.2.SXdXvXb.gXb.2.z.z.<.} m N N N N m V V V *.1.1.x 4 4 4 4 a c 4 b 4 4 4 4 3 ! }.^ F.K.K.s 3 ~ _.^.0XNX9X5 s f & 4 6 < ` * . x b e # . ` _ 6 4 4 4 4 .. .o.e.b S H. .4 4 4 4 ",
"C.C.B.>.>.>.>.>.>.>.>.>.>.>.>.m.g.>.>.>.>.>.>.>.>.g.g.>.>.>.>.>.>.m.>.>.>.>.m.>.>.>.>.m.>.>.g.m.>.>.m.>.>.m.>.g.m.>.>.>.>.>.>.>.>.>.>.>.>.>.>.>.>.m.>.>.>.>.>.>.>.>.>.m.>.>.>.>.;.jXY.B.B.B.B.B.V.B.B.B.A.A.T.Y.C.V.B.B.V.B.V.V.B.V.B.B.B.B.B.B.B.x.S.S.z.x.z.z.z.z.x.c.z.z.z.z.z.z.z.z.x.c.z.z.z.z.z.z.c.z.z.z.z.c.c.z.z.z.c.z.z.x.c. XOX|.b.|.{.M.B.L.:.dXDXGXxXz.z.z.x.-.m N N N N m V V V *.1.1.x 4 4 4 4 a c 4 b 4 4 4 4 3 ! }.^ F.K.K.s 3 ~ _.^.0XNX9X5 s f & 4 4 4 ` ` * . + . . ` ` a 4 4 4 4 4 c Z ....c 4  . .4 4 4 4 ",
"I.C.B.>.>.>.>.>.>.>.>.>.>.>.>.m.g.>.>.>.>.>.>.>.>.m.m.>.>.>.>.>.>.m.>.>.>.>.m.>.>.>.>.m.>.>.g.m.>.>.m.>.>.m.>.g.m.>.>.>.>.>.>.>.>.>.>.>.>.>.>.>.>.m.>.>.>.>.>.>.>.>.>.m.>.>.>.;.B.kXB.B.B.B.B.B.V.B.B.B.A.A.T.Y.C.V.B.B.V.B.V.V.B.V.B.B.B.B.B.B.B.B.B.;Xx.z.z.z.z.z.x.c.z.z.z.z.z.z.z.z.x.c.z.z.z.z.z.z.c.z.z.z.z.c.c.z.z.z.c.z.z.x.b.{.oXA.l. XOXoX Xc.z.b.GXDXGXG.G.G.x.-.m N N N N m V V V *.1.1.x 4 4 4 4 a c 4 b 4 4 4 4 3 ! }.^ F.K.K.s 3 ~ _.^.0XNX9X5 s f & 4 4 4 a ` F 6 % % g ` 1 6 4 4 4 4 4 4 4 4 4 4 4 4 4 4 4 4 4 ",
"M.M.4.>.>.>.>.>.>.>.>.>.>.>.>.m.>.>.>.>.>.>.>.>.>.g.g.>.>.>.>.>.>.m.>.>.>.>.m.>.>.>.>.m.>.>.g.m.>.>.m.>.>.m.>.g.m.>.>.>.>.>.>.>.>.>.>.>.>.>.>.>.>.m.>.>.>.>.>.>.>.>.>.m.>.>.>.;.jXY.B.B.B.B.B.B.V.B.B.B.A.A.T.Y.C.V.B.B.V.B.B.V.B.V.B.B.B.B.B.B.B.B.x.=XS.z.z.z.z.z.x.c.z.z.z.z.z.z.z.z.x.c.z.z.z.z.z.z.c.z.z.z.z.x.x.z.z.z.c.z.z.x.b.{.&Xb.z.{. X|.*XS.l.6.xXgXdXgXSXgX>.-.m N m m N m V V V *.1.1.x 4 4 4 4 a c 4 b 4 4 4 4 3 ! }.^ F.K.K.s 3 ~ _.^.0XNX9X5 s f & 4 4 4 6 4 4 4 4 4 4 e 4 4 4 4 4 4 4 4 4 4 4 4 4 4 4 4 4 4 4 ",
"M.M.m.m.m.m.m.m.m.m.m.m.m.m.m.B.m.m.m.m.m.m.m.m.m.m.m.m.m.m.m.m.m.B.m.m.m.m.B.m.m.m.m.B.m.m.m.B.m.m.B.m.m.B.m.m.B.m.m.m.m.m.m.m.m.m.m.m.m.m.m.m.m.B.m.m.m.m.m.m.m.m.m.B.m.m.m.V.kXB.C.V.V.V.V.V.C.V.V.V.Z.A.T.Y.U.C.V.V.C.V.V.C.V.C.V.V.V.V.V.V.V.V.V.A.;Xc.c.c.c.c.c.v.c.c.c.c.c.c.c.c.c.v.c.c.c.c.c.c.v.c.c.c.c.c.c.c.c.c.v.c.c.c.b.N.N.b.c.A.&X|.A.|.b.{.N.b.dXSXGXgXg.<.V V V V V V } } *.*.2.1.x 4 4 4 4 a c 4 b 4 4 4 4 3 ! }.^ F.K.K.s 3 ~ _.^.0XNX9X5 s x & 4 4 4 4 4 4 4 4 4 4 4 4 4 4 4 4 4 4 4 4 4 4 4 4 4 4 4 4 4 4 ",
"M.M.4.>.>.>.>.>.>.>.>.>.>.>.>.m.g.>.>.>.>.>.>.>.>.m.m.>.>.>.>.>.g.m.>.>.>.>.m.g.>.>.>.m.>.>.g.m.>.>.m.>.>.m.>.m.m.>.>.>.>.>.>.>.>.>.>.>.>.>.>.>.>.m.>.>.>.>.>.>.>.>.>.m.>.>.;.Q.Q.>.V.B.B.B.B.B.V.B.B.B.A.A.T.Y.C.V.B.V.V.B.V.V.B.V.B.B.B.B.B.B.B.B.B.x.=XS.z.x.z.z.c.c.z.z.z.z.z.z.z.z.x.c.z.z.z.z.z.z.c.z.z.z.z.c.c.z.z.z.c.z.z.x.c.z.z.c.x.l.N.|.z.oX|. XN.<.dXGXGXxXG.=.N N N N N N V V } *.1.1.x 4 4 4 4 a c 4 b 4 4 4 4 3 ! }.^ F.K.K.s 3 ~ _.^.0XNX9X5 s f 4 4 4 4 4 4 4 4 4 4 4 4 4 4 4 4 4 4 4 4 4 4 4 4 4 4 4 4 4 4 4 ",
"M.M.4.>.>.>.>.>.>.>.>.>.>.>.>.m.g.>.>.>.>.>.>.>.>.g.g.>.>.>.>.>.>.m.>.>.>.>.m.>.>.>.>.m.>.>.g.m.>.>.m.>.>.m.>.g.m.>.>.>.>.>.>.>.>.>.>.>.>.>.>.>.>.m.>.>.>.>.>.>.>.>.>.m.>.>.g.kXB.B.V.B.B.B.B.B.V.B.B.B.A.A.T.Y.C.V.B.B.V.B.V.V.B.V.B.B.B.B.B.B.B.B.B.x.A.=Xz.z.z.z.x.c.z.z.z.z.z.z.z.z.x.c.z.z.z.z.z.z.c.z.z.z.z.c.c.z.z.z.c.z.z.z.c.z.z.c.x.z.N.|.l.|.&XOXN.6.L.AXz.DXxX,.N N N N N m V V V *.1.1.x 4 4 4 4 a c 4 b 4 4 4 4 3 ! }.^ F.K.K.s 3 ~ _.^.0XNX9X7 a c % 4 4 4 4 4 4 4 4 4 4 4 4 4 4 4 4 4 4 4 4 4 4 4 4 4 4 4 4 4 4 ",
"M.M.4.>.>.>.>.>.>.>.>.>.>.>.>.m.g.>.>.>.>.>.>.>.>.g.g.>.>.>.>.>.>.m.>.>.>.>.m.>.>.>.>.m.>.>.g.m.>.>.m.>.>.m.>.g.m.>.>.>.>.>.>.>.>.>.>.>.>.>.>.>.>.m.>.>.>.>.>.>.>.>.>.m.>.;.Q.Q.>.B.V.B.B.B.B.B.V.B.B.B.A.A.T.Y.C.V.B.B.V.B.V.V.B.V.B.B.B.B.B.B.B.B.B.B.x.=XA.z.z.z.x.c.z.z.z.z.z.z.z.z.x.c.z.z.z.z.z.z.c.z.z.z.z.c.c.z.z.z.c.z.z.x.c.z.z.c.x.z.A.&Xb.A.M.oX X4X1XfX! DXvX,.N N N N N m V V V *.1.1.x 4 4 4 4 a c 4 b 4 4 4 4 3 ! }.^ F.K.K.s 3 ~ _.^.0XNX9X7 & b x a s a a a a a a a a a a a a a a a a a a a a a a a a a a a a ",
"M.M.4.>.>.>.>.>.>.>.>.>.>.>.>.m.g.>.>.>.>.>.>.>.>.g.g.>.>.>.>.>.>.m.>.>.>.>.m.>.>.>.>.m.>.>.g.m.>.>.m.>.>.m.>.g.m.>.>.>.>.>.>.>.>.>.>.>.>.>.>.>.>.m.>.>.>.>.>.>.>.>.>.m.>.>.kXV.B.B.V.B.B.B.B.B.V.B.B.B.A.A.T.Y.C.V.B.B.V.B.V.V.B.V.B.B.B.B.B.B.B.B.B.B.x.S.=Xz.x.z.x.c.z.z.z.z.z.z.z.z.x.c.z.z.z.z.z.z.c.z.z.z.z.c.c.z.z.z.c.z.z.x.c.z.z.c.x.z.c.z.x.b.x..XoX XoXA.l.L.xX:.N N N N N m V V V *.1.1.x 4 4 4 4 a c 4 b 4 4 4 4 3 ! }.^ F.K.K.s 3 ~ _.^.0XNX9X7 & 4 s x x x x x x x x x x x x x x x x x x x x x x x x x x x x x x ",
"M.4.4.>.>.>.>.>.>.>.>.>.>.>.>.m.g.>.>.>.>.>.>.>.>.g.g.>.>.>.>.>.>.m.>.>.>.>.m.>.>.>.>.m.>.>.g.m.>.>.m.>.>.m.>.g.m.>.>.>.>.>.>.>.>.>.>.>.>.>.>.>.>.m.>.>.>.>.>.>.>.>.>.m.;.Y.Q.>.B.B.V.B.B.B.B.B.V.B.B.B.A.A.T.Y.C.V.B.B.V.B.V.V.B.V.B.B.B.B.B.B.B.B.B.B.B.x.=XA.z.z.x.c.z.z.z.z.z.z.z.z.x.c.z.z.z.z.z.z.c.z.z.z.z.c.c.z.z.z.c.z.z.x.c.z.z.c.x.z.c.z.z.c.z.N.oX*X&X&X&XN.zX:.} N N N N m V V V *.1.1.x 4 4 4 4 a c 4 b 4 4 4 4 3 ! }.^ F.K.K.s 3 ~ _.^.0XNX9X7 4 c x x x x x x x x x x x x x x x x x x x x x x x x x x x x x x x ",
"A.A.m.>.>.>.>.>.>.>.>.>.>.>.>.m.g.>.>.>.>.>.>.>.>.g.g.>.>.>.>.>.>.m.>.>.>.>.m.>.>.>.>.m.>.>.g.m.>.>.m.>.>.m.>.g.m.>.>.>.>.>.>.>.>.>.>.>.>.>.>.>.>.m.>.>.>.>.>.>.>.>.>.m.>.kXV.B.B.B.V.B.B.B.B.B.V.B.B.B.A.A.T.Y.C.V.B.B.V.B.V.V.B.V.B.B.B.B.B.B.B.B.B.B.B.x.S.=Xz.z.x.c.z.z.z.z.z.z.z.z.x.c.z.z.z.z.z.z.c.z.z.z.z.c.c.z.z.z.c.z.z.x.c.z.z.c.x.z.c.z.z.c.z.z.oX&XM.|.oX`.zXdX-.N N N N m V V V *.1.1.x 4 4 4 4 a c 4 b 4 4 4 4 3 ! }.^ F.K.K.s 3 ~ _.^.0XNX9X7 s e.o.o.o.o.o.e.e.o.o.e.o.o.e.e...a s s s s s s s s s s s s s s s ",
"A.A.B.>.>.>.>.>.>.>.>.>.>.>.>.m.g.>.>.>.>.>.>.>.>.m.m.>.>.>.>.>.>.m.>.>.>.>.m.>.>.>.>.m.>.>.g.m.>.>.m.>.>.m.>.g.m.>.>.>.>.>.>.>.>.>.>.>.>.>.>.>.>.m.>.>.>.>.>.>.>.>.>.>.Y.jX>.B.B.B.V.B.B.B.B.B.V.B.B.B.A.A.T.Y.C.V.B.B.V.B.V.V.B.V.B.B.B.B.B.B.B.B.B.B.B.B.x.;XB.z.c.c.z.z.z.z.z.z.z.z.x.c.z.z.z.z.z.z.c.z.z.z.z.c.c.z.z.z.c.z.z.x.c.z.z.c.x.z.c.z.z.c.z.z.N.x.N.oXoX{.F.xX-.N N N N N V V V *.1.1.x 4 4 4 4 a c 4 b 4 4 4 4 3 ! }.^ F.K.K.s 3 ~ _.^.0XNX9X7 s o.d.H.j.l.e.k.k.e.k.j.l.d.X.o.S & 4 4 4 4 4 4 4 4 4 4 4 4 4 4 4 ",
"M.A.m.;.>.>.>.>.>.>.>.>.>.>.;.m.>.>.>.>.>.>.>.>.;.g.g.;.>.>.>.>.>.m.;.>.>.;.m.>.>.>.>.m.>.>.>.g.;.>.m.>.>.m.;.>.m.;.>.>.>.>.>.>.>.>.>.>.>.>.>.>.>.m.>.>.>.>.>.>.>.>.>.g.jXI.B.B.B.B.V.B.B.B.B.B.V.B.B.B.A.A.T.Y.V.V.B.B.V.x.B.V.x.V.B.B.B.B.B.B.B.B.B.B.B.B.x.S.=X<.x.x.z.z.z.z.z.z.z.z.z.c.z.z.z.z.z.z.c.z.z.z.z.x.x.z.z.z.c.z.z.z.c.z.z.c.z.z.c.z.z.c.z.z.z.l.M.oX|.|.A.zX-.m m m m m V N V *.1.1.x 4 4 4 4 a c 4 b 4 4 4 4 3 ! }.^ F.K.K.s 3 ~ _.^.0XNX9X7 s X.H.!.J.J.J.!.J.J.J.J.J.k.X.o.S 4 4 4 4 4 4 4 4 4 4 4 4 4 4 4 4 ",
"M.M.m.m.m.m.m.m.m.m.m.m.m.m.m.B.m.m.m.m.m.m.m.m.m.m.m.m.m.m.m.m.m.B.m.m.m.m.B.m.m.m.m.B.m.m.m.m.m.m.B.m.m.B.m.m.B.m.m.m.m.m.m.m.m.m.m.m.m.m.m.m.m.B.m.m.m.m.m.m.m.m.>.Y.jXB.V.V.V.V.C.V.V.V.V.V.C.V.V.V.Z.A.T.Y.U.C.V.V.C.V.V.V.V.C.V.V.V.V.V.V.V.V.V.V.V.V.V.V.;Xc.c.c.c.c.c.c.c.c.c.c.c.v.c.c.c.c.c.c.v.c.c.c.c.c.c.c.c.c.v.c.c.c.v.c.c.v.c.c.v.c.c.v.c.c.c.c.c.B.B..X*XzX<.V V V V V } } *.*.2.1.x 4 4 4 4 a c 4 b 4 4 4 4 3 ! }.^ F.K.K.s 3 ~ _.^.0XNX9X7 s o.l.j.k.j.J.H.k.H.l.H.k.k.o.e.x 4 4 4 4 4 4 4 4 4 4 4 4 4 4 4 4 ",
"M.M.m.m.m.m.m.m.m.m.m.m.m.m.g.m.m.g.m.m.m.m.m.m.g.m.m.g.m.m.m.m.m.B.g.m.m.g.B.m.m.m.m.B.m.g.m.m.g.m.B.m.m.B.g.m.B.g.m.m.m.m.m.m.m.m.m.m.m.m.m.m.m.B.m.m.m.m.m.m.m.m.;.jXY.B.V.V.V.V.V.V.V.V.V.V.C.V.V.V.Z.A.T.Y.U.C.V.V.V.B.V.V.B.C.V.V.V.V.V.V.V.V.V.V.V.V.V.c.=XS.b.c.c.c.c.c.c.c.c.c.c.c.c.c.c.c.c.c.v.c.c.c.c.c.c.c.c.c.v.c.c.c.v.c.c.v.c.c.v.c.c.v.c.c.c.c.c.c.b.M.{.xXb.V V V V V } } *.*.2.1.x 4 4 4 4 a c 4 b 4 4 4 4 3 ! }.^ l.K.K.s 3 ~ _.^.0XNX9X7 s X. . . . . .S e.o. . . . ...c 4 4 4 4 3 3 3 3 3 4 & $ & & $ 4 4 ",
"5.4.4.>.>.>.>.>.>.>.>.>.>.>.;.m.>.>.>.>.>.>.>.>.>.g.g.>.>.>.>.>.>.m.;.>.>.;.m.>.>.>.>.m.>.>.g.g.;.>.m.>.>.m.;.g.m.;.>.>.>.>.>.>.>.>.>.>.>.>.>.>.>.m.>.>.>.>.>.>.>.;.V.kXg.B.B.B.B.B.V.B.B.B.B.B.V.B.B.B.A.A.T.Y.V.V.B.B.V.B.B.V.x.V.B.B.B.B.B.B.B.B.B.B.B.B.B.B.B.;Xx.x.z.z.z.z.z.z.z.z.z.c.z.z.z.z.z.z.c.z.z.z.z.x.x.z.z.z.c.z.z.z.c.z.z.c.z.z.c.z.z.c.z.z.z.z.z.z.z.B.).xXb.m m m m m V N V *.1.1.x 4 4 4 4 a c 4 b 4 4 4 4 3 ! }.^ F.P.K.s 3 ~ _.^.0XNX9X7 s x 4 4 4 4 4 4 4 4 4 4 4 4 4 4 4 4 4 4 h l k k k 8 y v v v v r 4 ",
"M.M.4.>.>.>.>.>.>.>.>.>.>.>.>.m.g.>.>.>.>.>.>.>.>.m.m.>.>.>.>.>.>.m.>.>.>.>.m.>.>.>.>.m.>.>.g.m.>.>.m.>.>.m.>.g.m.>.>.>.>.>.>.>.>.>.>.>.>.>.>.>.>.m.>.>.>.>.>.>.>.;.jXQ.B.B.B.B.B.B.V.B.B.B.B.B.V.B.B.B.A.A.T.Y.C.V.B.B.V.B.V.V.B.V.B.B.B.B.B.B.B.B.B.B.B.B.B.B.x.=XS.b.z.z.z.z.z.z.z.z.x.c.z.z.z.z.z.z.c.z.z.z.z.c.c.z.z.z.c.z.z.x.c.z.z.c.x.z.c.z.z.c.z.z.z.z.z.z.z.z.'.gXF.N N N N m V V V *.1.1.x 4 4 4 4 a c 4 b 4 4 4 4 3 R / ~ o.i.@.e 3 J P L #.8X8X5 s f 4 4 & & & % 4 & 4 4 4 4 4 4 4 4 4 3 >X3X>X>X3XE uXBXBXBXBXu.@ ",
"M.M.4.>.>.>.>.>.>.>.>.>.>.>.>.m.g.>.>.>.>.>.>.>.>.g.g.>.>.>.>.>.>.m.>.>.>.>.m.>.>.>.>.m.>.>.g.m.>.>.m.>.>.m.>.g.m.>.>.>.>.>.>.>.>.>.>.>.>.>.>.>.>.m.>.>.>.>.>.>.;.B.kXB.B.B.B.B.B.B.V.B.B.B.B.B.V.B.B.B.A.A.T.Y.C.V.B.B.V.B.V.V.B.V.B.B.B.B.B.B.B.B.B.B.B.B.B.B.x.A.;Xb.z.z.z.z.z.z.z.z.x.c.z.z.z.z.z.z.c.z.z.z.z.c.c.z.z.z.c.z.z.x.c.z.z.c.x.z.c.z.z.c.z.z.z.z.z.z.x.l.(.JXF.C N N N m V V V *.1.1.x 4 4 4 4 a c 4 b 4 4 4 4 3 R ~ E O.@.@.4 3 J L L #.8X8X5 s x % f b b b  .a b e 4 4 4 4 4 4 4 4 4 >X).)./.#XE uXrXiXrXiXu.@ ",
"5.4.4.>.>.>.>.>.>.>.>.>.>.>.>.m.g.>.>.>.>.>.>.>.>.g.g.>.>.>.>.>.>.m.>.>.>.>.m.>.>.>.>.m.>.>.g.m.>.>.m.>.>.m.>.g.m.>.>.>.>.>.>.>.>.>.>.>.>.>.>.>.>.m.>.>.>.>.>.>.;.Q.Q.B.B.B.B.B.B.B.V.B.B.B.B.B.V.B.B.B.A.A.T.Y.C.V.B.B.V.B.V.V.B.V.B.B.B.B.B.B.B.B.B.B.B.B.B.B.B.x.=XA.z.z.z.z.z.z.z.z.x.c.z.z.z.z.z.z.c.z.z.z.z.c.c.z.z.z.c.z.z.x.c.z.z.c.x.z.c.z.z.c.z.z.z.z.z.z.z.b.5.JXK.C N N N m V V V *.1.1.x 4 4 4 4 a c 4 b 4 4 4 4 3 R / E O.@.@.e 3 J L L #.8X8X5 s x #  ...e.c ..4  .X. .4 4 4 4 4 4 4 4 >X).#X).>XE uXtXBXtXBXu.@ ",
"A.M.m.>.>.>.>.>.>.>.>.>.>.>.>.m.g.>.>.>.>.>.>.>.>.g.g.>.>.>.>.>.>.m.>.>.>.>.m.>.>.>.>.m.>.>.g.m.>.>.m.>.>.m.>.g.m.>.>.>.>.>.>.>.>.>.>.>.>.>.>.>.>.m.>.>.>.>.>.>.x.kXB.V.B.B.B.B.B.B.V.B.B.B.B.B.V.B.B.B.A.A.T.Y.C.V.B.B.V.B.V.V.B.V.B.B.B.B.B.B.B.B.B.B.B.B.B.B.B.x.A.=Xz.z.z.z.z.z.z.z.x.c.z.z.z.z.z.z.c.z.z.z.z.c.c.z.z.z.c.z.z.x.c.z.z.c.x.z.c.z.z.c.z.z.z.z.z.z.z.z.>.kXL.C N N N m V V V *.1.1.x 4 4 4 4 a c 4 b 4 4 4 4 3 R / E O.@.@.e 3 J L L #.8X8X5 s x # b c S 4 Z 4 X.S S 4 4 4 4 4 4 4 4 >X).)./.#XE uXtXrXaXiXu.@ ",
"I.I.B.;.>.>.>.>.>.>.>.>.>.>.>.m.g.>.>.>.>.>.>.>.>.g.g.>.>.>.>.>.>.m.>.>.>.>.m.>.>.>.>.m.>.>.g.m.>.>.m.>.>.m.>.g.m.>.>.>.>.>.>.>.>.>.>.>.>.>.>.>.>.m.>.>.>.>.>.;.Q.Q.>.V.B.B.B.B.B.B.V.B.B.B.B.B.V.B.B.B.A.A.T.Y.C.V.B.B.V.B.V.V.B.V.B.B.B.B.B.B.B.B.B.B.B.B.B.B.B.B.c.;XA.z.z.z.z.z.z.z.x.c.z.z.z.z.z.z.c.z.z.z.z.c.c.z.z.z.c.z.z.x.c.z.z.c.x.z.c.z.z.c.z.z.z.z.z.z.z.z.>.JXL.C N N N m V V V *.1.1.x 4 4 4 4 a c 4 b 4 4 4 4 3 R / E O.@.@.e 3 J L L #.8X8X5 s f 4 4 4 4 4 4 4 e 4 4 4 4 4 4 4 4 4 3 >X3X>X>X3XE uXBXBXBXBXu.@ ",
"C.C.B.;.>.>.>.>.>.>.>.>.>.>.>.m.g.>.>.>.>.>.>.>.>.g.g.>.>.>.>.>.>.m.>.>.>.>.m.>.>.>.>.m.>.>.g.m.>.>.m.>.>.m.>.g.m.>.>.>.>.>.>.>.>.>.>.>.>.>.>.>.>.m.>.>.>.>.>.>.kXB.B.V.B.B.B.B.B.B.V.B.B.B.B.B.V.B.B.B.A.A.T.Y.C.V.B.B.V.B.B.V.B.V.B.B.B.B.B.B.B.B.B.B.B.B.B.B.B.B.x.S.=Xz.z.z.z.z.z.z.x.c.z.z.z.z.z.z.c.z.z.z.z.c.c.z.z.z.c.z.z.z.c.z.z.c.z.z.c.z.z.c.z.z.z.z.z.z.z.z.:.1XL.l N N N m V V V *.1.1.x 4 4 4 4 a c 4 b 4 4 4 4 3 R / E O.@.@.e 3 J L L #.8X8X5 s f & 4 4 4 4 4 4 4 4 4 4 4 4 4 4 4 4 4 g j h h h 4 r v v v v 5 & ",
"M.5.4.>.>.>.>.>.>.>.>.>.>.>.>.m.g.>.>.>.>.>.>.>.>.m.m.>.>.>.>.>.g.m.>.>.>.>.m.g.>.>.>.m.>.>.m.m.>.>.m.>.>.m.>.m.m.>.>.>.>.>.>.>.>.>.>.>.>.>.>.>.>.m.>.>.>.>.;.Q.jXm.B.V.B.B.B.B.B.B.V.V.B.B.B.B.V.B.B.B.A.A.T.Y.C.V.B.V.V.B.V.V.B.V.B.B.B.B.B.B.B.B.B.B.B.B.B.B.B.B.V.B.;XV.z.x.z.z.z.z.x.c.z.z.z.z.z.x.c.z.z.z.z.c.c.z.z.z.c.z.z.x.c.z.z.c.x.z.c.x.x.c.z.z.z.z.z.z.z.x.:.1XvXO.m N N N } V } *.1.1.x 4 4 4 4 a c 4 b 4 4 4 4 3 R / E O.@.@.e 3 J L L #.8X8X5 s f e s s s s s s s s s s s s s s s s s s r r r r s a a a a a s s ",
"M.M.m.m.m.m.m.m.m.m.m.m.m.m.m.B.m.m.m.m.m.m.m.m.m.m.m.m.m.m.m.m.m.B.m.m.m.m.B.m.m.m.m.B.m.m.m.B.m.m.B.m.m.B.m.m.B.m.m.m.m.m.m.m.m.m.m.m.m.m.m.m.m.B.m.m.m.m.m.kXC.V.V.C.V.V.V.V.V.V.C.V.V.V.V.V.C.V.V.V.Z.A.T.Y.U.C.V.V.C.V.V.C.V.C.V.V.V.V.V.V.V.V.V.V.V.V.V.V.V.V.V.V.S.=Xb.c.c.c.c.c.c.v.c.c.c.c.c.c.v.c.c.c.c.c.c.c.c.c.v.c.c.c.v.c.c.v.c.c.v.c.c.v.c.c.c.c.c.c.c.c.b.-XHX%.C } V V } } *.*.2.1.x 4 4 4 4 a c 4 b 4 4 4 4 3 R / E O.@.@.e 3 J L L #.8X8X5 s f 4 4 4 4 4 4 4 4 4 4 4 4 4 4 4 4 4 4 3 2 2 2 2 4 $ @ @ @ @ & 4 ",
"M.4.4.>.>.>.>.>.>.>.>.>.>.>.>.m.>.>.>.>.>.>.>.>.>.g.g.>.>.>.>.>.>.m.>.>.>.>.m.>.>.>.>.m.>.>.g.g.>.>.m.>.>.m.>.g.m.;.>.>.>.>.>.>.>.>.>.>.>.>.>.>.>.m.>.>.>.;.Y.jX>.B.B.V.B.B.B.B.B.B.V.B.B.B.B.B.V.B.B.B.A.A.T.Y.C.V.B.B.V.B.B.V.B.V.B.B.B.B.B.B.B.B.B.B.B.B.B.B.B.B.B.V.x.;Xx.z.z.z.z.z.z.c.z.z.z.z.z.z.c.z.z.z.z.x.x.z.z.z.c.z.z.z.c.z.z.c.z.z.c.z.z.c.z.z.z.z.z.z.z.z.b.).jX&.k N m m V N V *.1.1.x 4 4 4 4 a c 4 b 4 4 4 4 3 R / E O.@.@.e 3 J L L #.8X8X5 s f & 4 4 4 4 4 4 4 4 4 4 4 4 4 4 4 4 3 / (.(.(.(.j &.qXqXqXqX| $ ",
"M.M.4.>.>.>.>.>.>.>.>.>.>.>.>.m.g.>.>.>.>.>.>.>.>.m.g.;.>.>.>.>.>.m.>.>.>.>.m.>.>.>.>.m.>.;.>.m.>.>.m.>.>.m.>.g.m.>.>.>.>.>.>.>.>.>.>.>.>.>.>.>.>.m.>.>.>.;.kXI.B.B.B.V.B.B.B.B.B.B.V.B.B.B.B.B.V.B.B.B.A.A.T.Y.C.V.B.B.V.B.V.V.B.V.B.B.B.B.B.B.B.B.B.B.B.B.B.B.B.B.V.V.x.S.S.z.x.z.z.z.x.c.z.z.z.z.z.z.c.z.z.z.z.c.c.z.z.z.c.z.z.x.c.z.z.c.z.2.c.z.z.c.z.z.z.z.z.z.z.x.b.).jX&.k N N m V V V *.1.1.x 4 4 4 4 a c 4 b 4 4 4 4 3 R / E O.@.@.e 3 J L L #.8X8X5 s f & 4 e 4 a a 4 4 e & 4 & 4 4 4 4 4 4 >X#X#X`.3XE pXBXBXiXBXu.+ ",
"M.M.4.>.>.>.>.>.>.m.B.B.g.>.>.m.g.>.>.>.>.>.>.>.>.g.m.B.B.m.>.>.>.m.>.>.>.>.m.>.>.>.>.m.m.B.B.m.>.>.m.>.>.m.>.g.m.>.>.>.>.m.B.B.g.>.>.>.>.>.>.>.>.m.>.>.;.I.jXA.V.V.B.V.B.B.B.B.B.B.V.B.B.B.B.B.C.C.V.B.A.A.T.Y.C.V.B.B.V.B.V.V.B.C.C.V.B.B.B.B.B.B.B.B.B.B.B.B.B.B.V.Z.V.Z.;Xx.z.z.z.z.x.c.z.z.z.z.z.z.v.v.v.z.z.c.c.z.z.z.c.z.z.x.c.z.z.v.v.c.c.z.z.c.z.z.z.z.z.z.z.x.l.(.jX&.k N N m V V V *.1.1.x 4 4 4 4 a c 4 b 4 4 4 4 3 R / E O.@.@.e 3 J L L #.8X8X5 s x # Z  .X.Z o.e S  .c e  .s 4 4 4 4 4 @X).`./.#XE uXrXiXrXiXu.@ ",
"M.M.4.>.>.>.>.>.>.A.B.Z.B.>.>.m.g.>.>.>.>.>.>.>.>.>.A.B.B.B.;.>.>.m.>.>.>.>.m.>.>.>.>.B.A.>.Z.m.>.>.m.>.>.m.>.g.m.>.>.>.>.A.m.A.B.;.>.>.>.>.>.>.>.m.>.>.;.jXY.V.U.U.x.V.B.B.B.B.B.B.V.B.B.B.B.V.U.V.U.B.A.A.T.Y.C.V.B.B.V.B.V.V.B.U.C.E.V.B.B.B.B.B.B.B.B.B.B.B.B.B.C.C.V.C.=XS.z.x.z.z.x.c.z.z.z.z.z.c.I.v.R.z.z.c.c.z.z.z.c.z.z.x.c.z.z.I.c.R.I.z.x.c.z.z.z.z.z.z.z.x.l.(.Q.&.k N N m V V V *.1.1.x 4 4 4 4 a c 4 b 4 4 4 4 3 R / E O.@.@.e 3 J L L #.8X8X5 s x #  .S o.s S 4  .c d. .j.a 4 4 4 4 4 @X).`./.#XE uXtXtXrXiXu.@ ",
"M.M.4.>.>.>.>.>.>.B.B.A.m.>.>.m.g.>.>.>.>.>.>.>.>.g.B.A.m.m.>.>.>.m.>.>.>.>.m.>.>.>.>.m.A.A.Z.g.>.>.m.>.>.m.>.g.m.>.>.>.>.B.B.A.m.>.>.>.>.>.>.>.>.m.>.;.V.jXB.U.C.Z.B.V.B.B.B.B.B.B.V.B.B.B.B.B.U.V.U.B.A.A.T.Y.C.V.B.B.V.B.V.V.x.Z.Z.U.V.B.B.B.B.B.B.B.B.B.B.B.B.B.V.U.V.V.A.;Xz.z.z.z.x.c.z.z.z.z.z.z.I.v.I.z.z.c.c.z.z.z.c.z.z.x.c.z.z.C.v.v.v.z.z.c.z.z.z.z.z.z.z.x.b.(.Q.&.k N N m V V V *.1.1.x 4 4 4 4 a c 4 b 4 4 4 4 3 R / E O.@.@.e 3 J L L #.8X8X5 s x % f e f 4 c 4 c S f S c s 4 4 4 4 4 >X@X`.`.3XE uXBXtXtXBXu.+ ",
"C.C.m.>.>.>.>.>.>.>.>.>.>.>.>.m.g.>.>.>.>.>.>.>.>.m.g.>.>.>.>.>.>.m.>.>.>.>.m.>.>.>.>.m.>.>.g.m.>.>.m.>.>.m.>.g.m.>.>.>.>.>.>.>.>.>.>.>.>.>.>.>.>.m.>.;.jXY.g.B.B.B.B.V.B.B.B.B.B.B.V.B.B.B.B.B.V.B.B.B.A.A.T.Y.C.V.B.B.V.B.V.V.B.V.B.B.B.B.B.B.B.B.B.B.B.B.B.B.B.B.B.V.B.B.x.=XS.z.z.z.x.c.z.z.z.z.z.z.c.z.z.z.z.c.c.z.z.z.c.z.z.x.c.z.z.c.c.z.c.z.z.c.z.z.z.z.z.z.z.z.b.6.1X&.k N N m V V V *.1.1.x 4 4 4 4 a c 4 b 4 4 4 4 3 R / E O.@.@.e 3 J L L #.8X8X5 s f & 4 4 4 4 & 4 & & & % & 4 4 4 4 4 3 ^ ).).).).j i.yXqXqXyX+.$ ",
"C.I.B.>.>.>.>.>.>.>.Z.A.>.Z.B.g.Z.Z.A.>.A.A.>.Z.A.>.A.A.Z.>.A.Z.>.A.A.Z.>.B.Z.>.A.Z.>.A.A.Z.m.m.Z.>.B.Z.Z.B.>.Z.B.g.Z.m.m.A.A.A.>.Z.B.>.Z.Z.A.>.A.A.;.U.kXB.U.Z.U.B.U.U.B.U.U.U.B.C.E.B.Z.U.B.U.Z.U.V.V.E.A.T.E.E.U.V.E.V.V.E.V.V.U.U.Z.B.U.C.B.U.U.U.B.U.U.B.U.Z.B.U.U.U.B.U.T.=XG.I.R.x.v.R.z.v.I.z.I.v.R.c.c.R.x.v.I.R.v.x.R.c.c.R.c.c.I.I.C.z.R.v.x.I.I.I.z.I.I.c.z.b.5.2X&.k N N N V V V *.1.1.x 4 4 4 4 a c 4 b 4 4 4 4 3 R / E O.@.@.e 3 J L L #.8X8X5 s f 4 4 4 4 4 4 4 4 4 4 4 4 4 4 4 4 4 4 3 2 2 2 2 4 $ @ @ @ @ & 4 ",
"M.M.m.>.>.>.>.>.>.>.Z.A.>.D.A.>.Z.Z.Z.;.Z.Z.;.Z.A.>.Z.A.Z.>.A.Z.>.Z.Z.D.g.B.D.>.A.Z.>.A.A.D.m.m.W.>.B.Z.Z.A.>.W.B.m.W.m.B.A.Z.A.>.D.A.g.Z.Z.Z.;.Z.Z.;.jXQ.B.U.U.E.B.U.U.B.U.U.E.B.C.E.B.U.E.B.U.U.E.V.V.E.A.T.Q.E.U.V.E.V.V.E.V.C.U.U.U.B.E.C.B.U.E.U.B.U.U.B.E.U.B.U.U.E.B.U.U.=XE.I.R.x.v.R.z.I.R.z.I.I.R.c.c.R.x.v.R.R.v.z.R.c.c.R.c.v.I.R.I.z.R.v.x.R.R.I.z.I.R.c.z.z.:.Q.K.0 N m m V N V *.1.1.x 4 4 4 4 a c 4 b 4 4 4 4 3 R / E O.@.@.e 3 J L L #.8X8X5 s f e s s s a 8 a x a 8 a s s s s s s s s s s s s s s s s s s s s ",
"M.M.m.m.m.m.m.m.m.m.Z.A.>.Z.A.g.Z.Z.Z.>.Z.Z.>.Z.A.>.Z.A.Z.>.A.Z.>.Z.Z.Z.g.B.D.>.A.Z.>.A.A.Z.m.m.D.>.B.Z.Z.A.>.D.B.m.W.m.B.A.Z.A.>.Z.A.g.Z.Z.Z.>.Z.A.>.kXU.B.U.U.E.B.U.U.B.U.U.E.B.C.E.B.U.E.B.U.U.E.V.V.E.A.T.Q.E.U.V.E.V.V.E.V.C.U.U.U.B.E.C.B.U.U.U.B.U.U.B.E.U.B.U.U.E.B.U.U.S.1XG.R.x.v.R.z.I.R.z.I.I.R.c.c.R.x.v.I.R.v.x.R.c.c.R.c.v.I.I.I.z.R.v.x.I.R.I.z.I.R.v.c.c.x.Q.sXC } } } O.} *.-.2.1.x 4 4 4 4 a c 4 b 4 4 4 4 3 R / E O.@.@.e 3 J L L #.8X8X5 s f & 4 4 & 4 t.LXeXLXt.4 & 4 4 4 4 4 4 & & & 4 % & 4 4 4 % & 4 4 ",
"M.M.4.>.>.>.>.>.>.>.Z.A.;.Z.B.>.Z.Z.Z.;.Z.Z.;.Z.A.>.Z.A.Z.;.A.Z.;.A.Z.Z.>.B.D.>.A.Z.;.A.A.Z.m.m.W.>.B.Z.Z.B.>.W.m.>.W.m.m.A.Z.A.;.Z.B.>.Z.Z.Z.;.Z.A.Q.kXA.B.U.U.E.x.U.U.x.U.U.E.B.C.E.B.Z.E.x.U.U.E.V.V.E.A.T.Q.E.U.B.E.V.B.E.V.V.U.U.U.B.E.C.B.U.U.U.x.U.U.x.E.U.B.U.U.E.x.U.U.x.;XU.R.x.v.R.z.C.R.2.I.I.R.c.c.R.z.v.I.R.v.z.R.c.x.R.c.v.I.I.I.z.R.v.z.I.R.I.2.I.R.c.z.x.:.Q.K.k N N N V V } *.1.1.x 4 4 4 4 a c 4 b 4 4 4 4 3 R / E O.@.@.e 3 J L L #.8X8X5 s f 4 4 4 r eXLXt.i t.eXLXr & 4 4 & b X.s a s e c b s 4 x Z a e 4 ",
"M.M.4.>.>.>.>.>.>.>.Z.Z.A.Z.A.A.Z.Z.Z.A.Z.Z.A.Z.Z.A.Z.A.Z.B.Z.Z.A.Z.Z.Z.A.Z.Z.A.Z.Z.A.Z.A.Z.A.A.Z.A.Z.Z.Z.A.A.D.A.A.D.A.Z.A.Z.Z.A.Z.A.A.Z.Z.Z.A.Z.Z.kXE.U.U.U.U.E.C.U.U.Z.U.U.E.Z.U.E.C.U.E.C.U.Z.E.U.U.E.Z.E.Q.E.U.U.E.U.U.E.U.U.U.U.U.Z.E.U.U.U.U.U.C.E.U.Z.E.U.U.U.U.E.C.U.E.C.1X1XR.C.I.R.v.I.R.v.R.v.R.I.I.R.C.I.I.R.I.I.R.I.I.R.I.I.I.I.I.C.R.I.I.R.I.R.v.R.R.c.z.z.:.L.sXk N N m V V V *.1.1.x 4 4 4 4 a c 4 b 4 4 4 4 3 R / E O.@.@.e 3 J L L #.8X8X5 s f & 4 $ t.LXt   $ = 3 LXp.& 4 4 %  .j.d.e.o.j.S o.o.o.o.o.X.S & ",
"M.M.4.>.>.>.>.>.>.>.Z.Z.Z.W.Z.Z.Z.Z.D.Z.W.Z.Z.W.Z.Z.Z.A.W.Z.W.Z.Z.W.Z.W.Z.W.D.Z.W.D.Z.W.A.D.Z.D.W.Z.W.Z.Z.Z.Z.W.Z.D.W.Z.W.A.Z.Z.Z.W.Z.Z.Z.Z.D.Z.D.jXkXW.E.E.E.U.E.U.E.E.E.E.U.E.U.E.E.U.E.E.U.E.Z.E.U.E.E.W.E.Q.E.E.E.E.U.E.E.U.E.U.U.E.E.E.U.E.E.E.E.U.E.E.E.E.E.E.E.U.E.U.E.E.U.E.2XE.I.R.R.R.R.R.R.R.v.R.R.R.R.I.R.I.R.R.R.R.R.R.R.I.R.I.R.R.R.R.R.R.R.R.R.R.R.R.c.z.z.:.L.sXk N N m V V V *.1.1.x 4 4 4 4 a c 4 b 4 4 4 4 3 R / E O.@.@.e 3 J L L #.8X8X5 s f 4 4 r PX]   Z ....= i PXu & 4 4 c b  .S o...Z S b  .b b o.c & ",
"M.M.4.>.>.>.>.>.>.>.B.B.B.A.B.A.A.B.A.B.A.B.B.A.B.A.A.m.A.B.A.A.B.A.B.A.B.A.A.B.A.A.B.A.m.A.B.A.A.B.A.B.A.A.B.A.A.B.A.B.A.B.B.A.B.A.B.B.A.B.A.B.A.kXU.Z.C.C.C.V.U.C.Z.U.C.Z.C.U.C.Z.U.C.Z.Z.C.U.C.Z.C.Z.U.Z.E.E.U.U.C.U.Z.C.U.C.Z.C.C.C.C.U.C.C.C.C.Z.C.U.C.C.U.C.C.Z.C.Z.C.U.C.C.C.=X=Xb.I.v.v.C.v.v.I.v.C.v.v.C.v.I.v.C.v.I.I.v.v.I.v.C.v.v.v.C.I.v.I.v.v.v.v.I.v.x.z.z.:.L.sXk N N m V V V *.1.1.x 4 4 4 4 a c 4 b 4 4 4 4 3 R / E O.@.@.e 3 J L L #.8X8X5 s f 4 $ ] LXt & S Z ..s 3 LX] $ 4 4 4 4 % 4 % # & & 4 & & 4 c 4 4 ",
"5.4.4.>.>.>.>.>.>.>.>.>.>.;.;.g.>.;.;.>.;.;.>.;.;.g.g.;.;.;.;.;.>.g.;.;.>.;.g.>.;.;.>.m.>.;.>.g.;.>.m.>.>.m.;.>.m.;.;.;.;.>.>.;.>.;.>.;.;.>.>.;.Y.jX>.B.B.B.B.B.B.B.B.V.B.B.B.B.B.x.V.B.x.B.B.B.V.B.B.B.A.A.T.Y.V.V.B.B.V.x.B.V.x.V.B.B.B.B.B.B.B.B.B.B.B.B.B.B.B.B.B.V.2.B.B.B.B.x.B.;Xx.x.2.2.z.z.z.z.c.2.z.z.2.x.z.2.2.z.c.z.z.z.c.z.2.c.z.2.c.z.z.c.2.2.2.z.z.z.z.z.z.:.L.qX0 N N N V V V *.1.1.x 4 4 4 4 a c 4 b 4 4 4 4 3 R / E O.@.@.e 3 J L L #.8X8X5 s f 4 & i PXu + S x c 4 t PX] $ 4 4 4 4 c 4 s b b s 4 e 4 4 4 4 4 ",
"A.M.4.>.>.>.>.>.>.>.>.>.>.>.>.m.B.c.c.>.>.>.>.>.>.m.m.c.c.g.>.>.g.m.>.>.>.>.m.B.x.x.>.m.>.>.g.m.>.>.m.>.>.m.>.g.B.x.c.c.x.>.>.>.>.>.>.>.>.>.>.;.jXI.C.C.C.C.B.B.B.B.B.V.C.C.C.C.B.B.V.B.B.B.B.B.C.C.C.C.U.A.T.Y.C.V.B.B.V.B.V.V.B.V.C.C.B.B.B.B.B.B.B.B.B.B.B.B.B.B.B.V.C.V.B.B.B.B.x.=XS.b.v.c.z.z.z.z.c.z.z.z.z.x.v.v.c.z.c.z.z.x.c.z.z.c.x.z.c.z.z.v.v.v.v.x.z.z.z.z.z.:.L.dXE N N m V O.=.=.2.1.x 4 4 4 4 a c 4 b 4 4 4 4 3 R / E O.@.@.e 3 J L L #.8X8X5 s f 4 4 4 LXt.  4 s #   q.LXr 4 4 4 4 & ..s b e.e.b b j.....b & 4 ",
"C.C.m.>.>.>.>.>.>.>.>.>.>.>.>.m.x.v.v.g.>.>.>.>.>.g.g.v.v.x.>.>.>.m.>.>.>.>.m.B.v.v.g.m.>.>.g.m.>.>.m.>.>.m.>.>.B.v.v.C.c.>.>.>.>.>.>.>.>.>.;.I.jXB.I.I.I.I.B.B.B.B.B.V.C.I.I.I.V.B.V.B.B.B.B.B.V.I.I.I.R.A.T.Y.C.V.B.B.V.B.V.V.B.V.C.I.I.B.B.B.B.B.B.B.B.B.B.B.B.B.B.V.I.R.B.B.B.B.x.A.;Xc.G.J.z.z.z.z.c.z.z.z.z.x.v.G.J.z.c.z.z.z.c.z.z.c.z.z.c.z.z.c.G.G.J.G.2.z.z.z.z.>.K.JX_.u W W N -.<.b.G.1.x 4 4 4 4 a c 4 b 4 4 4 4 3 R / E O.@.@.e 3 J L L #.8X8X5 s f & 4 $ ] IXq.= O   w.IXw.$ 4 4 4 4 & c c S X.o.c c S S  .S & 4 ",
"M.A.m.>.>.>.>.>.>.>.>.>.>.>.>.m.V.x.x.>.>.>.>.>.>.m.m.x.c.g.>.>.g.m.>.>.>.>.m.B.c.x.>.m.>.>.m.m.>.>.m.>.>.m.>.m.m.g.x.c.x.>.>.>.>.>.>.>.>.>.;.jXY.V.I.C.C.C.B.B.B.B.B.V.C.C.C.C.B.B.V.B.B.B.B.B.V.C.C.C.U.A.T.Y.C.V.B.V.V.B.V.V.B.V.V.C.C.B.B.B.B.B.B.B.B.B.B.B.B.B.B.C.C.C.B.B.B.B.B.x.=XS.b.v.c.z.z.z.c.z.z.z.z.c.c.v.v.z.c.z.z.x.c.z.z.c.x.z.c.x.x.c.c.v.v.c.z.z.z.z.z.:.L.gX4X^ / ).{ -.-.=.2.1.x 4 4 4 4 e c 4 b 4 4 4 4 3 R / E O.@.@.e 3 J L L #.8X8X5 s f & 4 4 $ t.w.@ $ @ ] t.$ 4 4 4 4 4 4 4 4 e 4 e 4 4 4 4 e 4 4 4 ",
"4.4.;.;.;.;.;.;.;.;.;.;.;.;.;.>.;.;.;.;.;.;.;.;.;.>.>.;.;.;.;.;.;.>.;.;.;.;.>.;.;.;.;.>.;.;.>.>.;.;.>.;.;.>.;.>.>.;.;.;.;.;.;.;.;.;.;.;.;.;.V.jX>.B.>.2.2.2.x.x.x.x.2.B.2.>.2.2.x.2.B.B.2.x.x.x.B.2.2.4.B.B.U.U.V.B.x.B.B.2.B.B.2.B.B.2.2.x.x.x.x.x.x.x.x.x.x.x.x.2.B.B.>.2.x.x.x.x.x.2.A.=X<.2.2.2.2.2.z.2.2.2.2.z.z.2.2.2.z.2.2.2.z.2.2.z.z.2.z.2.2.x.2.2.2.2.2.2.2.2.2.:.G.fX_.]._._.N m N V *.1.f 4 4 4 4 a c 4 b 4 4 4 4 3 R / E O.@.@.e 3 J L L #.8X8X5 s f & 4 4 4 @ 4 ] w.] 4 @ 4 4 4 4 4 4 4 4 4 4 & 4 4 4 4 4 4 4 4 4 ",
"M M M M M M M M M M M M M M M M M M M M M M M M M M M M M M M M M M M M M M M M M M M M M M M M M M M M M M M M M M M M M M M M M M M M M M S S M B B B B B B B B B B B B B B B B B B B B B B B B B B B B B B B B B B B B B B B B B B B B B B B B B B B B B B B B B B B B B B B B B B B B V B B B B B B B B B B B B B B B B B B B B B B B B B B B B B B B B B B B B B B B B B  .x c z M c c c c c Z 4 4 4 4 4 4 b x c 4 4 4 4 3 R / E O.@.@.5 3 J L L #.8X8X5 s f & 4 4 $ ] wXPXwXPXeXw.$ 4 4 4 4 4 4 4 4 e f 4 4 s s 4 4 4 4 4 ",
"s s s s s s s s s s s s s s s s s s s s s s s s s s s s s s s s s s s s s s s s s s s s s s s s s s s s s s s s s s s s s s s s s s s s s s s s s s s s s s s s s s s s s s s s s s s s s s s s s s s s s s s s s s s s s s s s s s s s s s s s s s s s s s s s s s s s s s s s s s s s s s s s s s s s s s s s s s s s s s s s s s s s s s s s s s s s s s s s s s s s s s s s s s s s s s s s s 4 4 4 4 4 4 % a f 4 & 4 4 4 3 R / E O.@.@.e 3 J L L #.8X8X5 s f & 4 $ ] PXp.t + 3 t.PXi & 4 4 4 4 4 4 4 X.S o.x o.j.x & 4 4 4 ",
"4 4 4 4 4 4 4 4 4 4 4 4 4 4 4 4 4 4 4 4 4 4 4 4 4 4 4 4 4 4 4 4 4 4 4 4 4 4 4 4 4 4 4 4 4 4 4 4 4 4 4 4 4 4 4 4 4 4 4 4 4 4 4 4 4 4 4 4 4 4 & % % % % % % % % % % % % % 4 4 4 4 4 4 4 4 4 4 4 4 4 % O O O O O 3 $ + + + + + $ 4 4 4 4 4 4 4 4 4 4 4 4 4 4 4 4 4 4 4 4 4 4 4 % % % % % % % % % % % % % & 4 4 4 & & & & & & & & & & & & & & & & & & & & & & & & & & & & & & & & & & & & & & & & & & 4 4 4 4 4 e x & s s f 4 4 4 3 R / E O.r.@.4 3 J L L #.8X8X5 s f 4 4 4 wXp.  @ x $   q.t.4 4 4 4 4 4 4 4 b j. .e...X.x & 4 4 4 ",
"4 4 4 4 4 4 4 4 4 4 4 4 4 4 4 4 4 4 4 4 4 4 4 4 4 4 4 4 4 4 4 4 4 4 4 4 4 4 4 4 4 4 4 4 4 4 4 4 4 4 4 4 4 4 4 4 4 4 4 4 4 4 4 4 4 4 4 4 4 4 a c c c c c c c c c c c c x 4 4 4 4 4 4 4 4 4 4 4 4 3 R ^ ^ ^ ^ ^ R { qXu.u.u.qX{ & 4 4 4 4 4 4 4 4 4 4 4 4 4 4 4 4 4 4 4 4 4 4 x c c c c c c c c c c c c a 4 s & x Z b b b b b b b b b b b b b b b b b b b b b b b b b b b b b b b b b b b b b b b Z s 4 4 4 & Z ..x ..e...a 4 4 4 8 4 8 4 5 5 4 4 8 8 4 5 5 5 4 f f 4 & u PXi o  .S x + t wXu & 4 4 4 4 4 4 x x a f s s s 4 4 4 4 ",
"4 & 4 4 4 & & 4 4 s s s f f s f f s s s f f f f f f s s f f e 4 4 4 4 4 4 4 4 4 4 & 4 & & & & 4 4 s s f s f f f s s s f f f f s s x s 4 4 & x S x c c c c c c c c c c S e 4 4 4 4 4 & 4 & & & 4 O ^ 3X@X#X@X3X^ qXBXiXBXiXBXu.+ 4 4 4 4 4 4 4 4 4 4 4 4 4 4 4 4 4 4 4 4 4 4 S c c c c c c c x c c x Z c 4 s & b c f x x x x x x x x x x x x x x x x f f x f x x x x x x x x x x x x x x x x x f Z x & 4 4 & b X.S ..e...a 4 4 4 6 _ 1 < _ _ 4 4 3 9 R h 9 R % f f 4 $ ] LX3 & S b S f O p.i $ 4 4 4 4 4 4 & & & 4 & & 4 4 4 4 4 ",
" .c s x ..s x 4 s ..Z S x s X.c f c c c f f f f f f f e H.k.4 4 4 4  .c  .s Z Z a f s f s S c 4 s o.S c c S c x o...e.c s f f a Z ~.b 4 4 & x c S .. . .Z c S S ..S x b a % b  .c X.c f x x f 4 O / @X/.)./.@XP qXiXaXiXaXiXu.@ 4 4 4 4 4 4 4 4 4 4 4 4 4 4 4 4 4 4 4 4 4 4 b c c c X.Z c b X.Z S Z c c 4 s & c c s f f f f f f f f f f f f s S b ..j.S  .o.c s f f f f f f f f f f f f f f f s c x & 4 4 4 e x a f a f 4 4 4 4 g ' _ _ ' _ 6 4 8 R E R R ~ % f f 4 & u PX] = b S S o t wXu & 4 4 4 4 S S s X...S 4 S X.o.s 4 4 ",
"j.o.o.o.e.k. .4 f k.j.k.o.e.j.j.k.e.e.d.f f f f f f s s l.j.a 4 4 4 b j.S # S e.o.X.o.X.o.j.b 4 s k.o.j.e.k.o.c k.o.o.f f f f a S k.S 4 4 & x c o.e.l.j.....k.j.o.k.c Z a # S  .X.e.o.j.j.b o.4 O ^ #X).@X/.#XP qXiXrXBXrXBXu.@ 4 4 4 4 4 4 4 4 4 4 4 4 4 4 4 4 4 4 4 4 4 4 b Z ..S k.o. .S l.k.H.X.x c 4 s & c c s f f f f f f f f f f f f s ..S X.j.k.j.n.x x x f f f f f f f f f f f f f f s b x & 4 4 4 4 % 4 4 4 & 4 4 4 4 4 g 1 g < < 4 4 4 9 9 9 8 9 & f f 4 4 & a.wX# . 4 + O t.t.4 4 4 4 4 4  . .Z X.j.S b o.o.j.c & 4 ",
"b Z b Z S Z c 4 s e.e.o.o.o.e.e.e.S S ..x f f f f f s e H.k.4 4 4 4 c Z S s x  .b Z b b b S b 4 f  .c e.S j.o.c j... .f f f f a S ~.b 4 4 & x c b x S  .S c ..S ..S x b e & x a c b Z S c a S 8 O / @X/.@X/.@XP qXiXaXiXaXiXu.@ 4 4 4 4 4 4 4 4 4 4 4 4 4 4 4 4 4 4 4 4 4 4 b x o.b S Z S X.S  ...Z c c 4 s & c c s f f f f f f f f f f f f s Z o.X.Z  ...S  .S Z s f f f f f f f f f f f f f s b x & 4 4 4 4 e X.o.e.a 4 4 4 4 6 1 g 1 < g 6 4 6 < < < < < 6 f f 4 4 & u PXp.o # + w.wXu & 4 4 4 4 4 c S c S S b a  .Z ..s 4 4 ",
"& & & 4 & & 4 4 4 f f f x f x s x f f f f f f f f f s s x x e 4 4 4 4 & & 4 4 & & 4 & 4 4 & 4 4 4 f f f f s f f x f f f f f f s s c s 4 4 & x S x c x c c c x x c x c S e 4 4 4 4 4 & 4 4 4 & 4 O ^ 3X`.@X@X3X^ qXBXiXiXiXBXu.+ 4 4 4 4 4 4 4 4 4 4 4 4 4 4 4 4 4 4 4 4 4 4 S c c c x c c c c x x x Z c 4 s & b c f x f f f f f f f f f f f x f f f f s s f f f f f f f f f f f f f f f f f x f b x & 4 4 4 & Z o.e.j.f & 4 4 4 a _ ' _ 6X' 6 4 a _ _ ' ' ' 4 s c % 4 4 $ u u & 4 4 r u $ 4 4 4 4 4 4 & % & % % & 4 & & & & 4 4 ",
"4 4 4 4 4 4 4 4 4 4 4 4 4 4 4 4 4 4 4 4 4 4 4 4 4 4 4 4 4 4 4 4 4 4 4 4 4 4 4 4 4 4 4 4 4 4 4 4 4 4 4 4 4 4 4 4 4 4 4 4 4 4 4 4 4 4 4 4 4 4 a c c c c c c c c c c c c c 4 4 4 4 4 4 4 4 4 4 4 4 3 R (.(.(.(.(.R +.qXqXqXqXqX| $ 4 4 4 4 4 4 4 4 4 4 4 4 4 4 4 4 4 4 4 4 4 4 x c c c c c c c c c c c c s 4 s & x S b Z Z Z Z Z Z Z Z Z Z Z Z Z Z Z Z Z Z Z Z Z Z Z Z Z Z Z Z Z Z Z Z Z Z Z Z Z b S s 4 4 4 4 4 s S b S e 4 4 4 4 4 < < < _ _ 4 4 e < g _ _ < 4 4 b x e a s 8 8 a a a a 8 a a a a a a a a a a a a a a a a a a a a ",
"& & & & & & & & & & & & & & & & & & & & & & & & & & & & & & & & & & & & & & & & & & & & & & & & & & & & & & & & & & & & & & & & & & & & & & & # % % % % % % % % % % % % & & & & & & & & & & & & 4 % O O O O O % @ = + + + = # 4 & & & & & & & & & & & & & & & & & & & & & & % % % % % % % % % % % % % % 4 4 & & & & & & & & & & & & & & & & & & & & & & & & & & & & & & & & & & & & & & & & & & & & & & & & 4 % # % # & & & & & & 6 6 6 6 6 & & & 6 % 6 6 6 & & 4 s x x x c x x x x x x x x x x x x x x x x x x x x x x x x x x ",
"x x x x c x c x x x x x x x x x x x x x x x x x x x x x x x x x x x x x x x x x x x x x x x x x x x x x x x x x x x x x x x x x x x x x x x x c c c c c c c c c c c c c x x x x x x x x x x x x x c c c c c c c c c c c c c c x x x x x x x x x x x x x x x x x x x x x x x c c c c c c c c c c c c c c x x x x x x x x x x x x x x x x x x x x x x x x x x x x x x x x x x x x x x x x x x x x x x x x x x x x c c c x x x x x x c c c c c x x x c x c c c x x x f f x f f f f f f f f f f f f f f f f f f f f f f f f f f f x ",
"o.o.e.e.o.o.o.o.o.e.o.o.o.e.o.s s s s s s s s s s s s s s s s s s s s s s s s s s s s s s s s s s s s s s s s s s s s s s s s s s s s s s s s s s s s s s s s s s s s s s s s s s s s s s s s s s s s s s s s s s s s s s s s s s s s s s s s s s s s s s s s s s s s s s s s s s s s s s s s s s s s s s s s s s s s s s s s s s s s s s s s s s s s s s s s s s s s s s s s s s s s s s s s s s s s s s s s s s s s s s s s s s s s s s s s s s s s s s s s s s s s s s s s s s s s s s s s s s s s s s s s s s s s s s s s s ",
"j...H.J.j.j.l.o.J.j.k.k...o...4 4 4 4 4 4 4 4 4 4 4 4 4 4 4 4 4 4 4 4 4 4 4 4 4 4 4 4 4 4 4 4 4 4 4 4 4 4 4 4 4 4 4 4 4 4 4 4 4 4 4 4 4 4 4 4 4 4 4 4 4 4 4 4 4 4 4 4 4 4 4 4 4 4 4 4 4 4 4 4 4 4 4 4 4 4 4 4 4 4 4 4 4 4 4 4 4 4 4 4 4 4 4 4 4 4 4 4 4 4 4 4 4 4 4 4 4 4 4 4 4 4 4 4 4 4 4 4 4 4 4 4 4 4 4 4 4 4 4 4 4 4 4 4 4 4 4 4 4 4 4 4 4 4 4 4 4 4 4 4 4 4 4 4 4 4 4 4 4 4 4 4 4 4 4 4 4 4 4 4 4 4 4 4 4 4 4 4 4 4 4 4 4 4 4 4 4 4 4 4 4 4 4 4 4 4 4 4 4 4 4 4 4 4 4 4 4 4 4 4 4 4 4 4 4 4 4 4 4 4 4 4 4 4 4 4 4 4 4 4 4 ",
"l...J.J.J.!.J.J.J.j.j.k...o...4 4 4 4 4 4 4 4 4 4 4 4 4 4 4 4 4 4 4 4 4 4 4 4 4 4 4 4 4 4 4 4 4 4 4 4 4 4 4 4 4 4 4 4 4 4 4 4 4 4 4 4 4 4 4 4 4 4 4 4 4 4 4 4 4 4 4 4 4 4 4 4 4 4 4 4 4 4 4 4 4 4 4 4 4 4 4 4 4 4 4 4 4 4 4 4 4 4 4 4 4 4 4 4 4 4 4 4 4 4 4 4 4 4 4 4 4 4 4 4 4 4 4 4 4 4 4 4 4 4 4 4 4 4 4 4 4 4 4 4 4 4 4 4 4 4 4 4 4 4 4 4 4 4 4 4 4 4 4 4 4 4 4 4 4 4 4 4 4 4 4 4 4 4 4 4 4 4 4 4 4 4 4 4 4 4 4 4 4 4 4 4 4 4 4 4 4 4 4 4 4 4 4 4 4 4 4 4 4 4 4 4 4 4 4 4 4 4 4 4 4 4 4 4 4 4 4 4 4 4 4 4 4 4 4 4 4 4 4 4 4 ",
"d.X.H.H.J.H.j.k.J.d.j.j.X.e.b 4 4 4 4 4 4 4 4 4 4 4 4 4 4 4 4 4 4 4 4 4 4 4 4 4 4 4 4 4 4 4 4 4 4 4 4 4 4 4 4 4 4 4 4 4 4 4 4 4 4 4 4 4 4 4 4 4 4 4 4 4 4 4 4 4 4 4 4 4 4 4 4 4 4 4 4 4 4 4 4 4 4 4 4 4 4 4 4 4 4 4 4 4 4 4 4 4 4 4 4 4 4 4 4 4 4 4 4 4 4 4 4 4 4 4 4 4 4 4 4 4 4 4 4 4 4 4 4 4 4 4 4 4 4 4 4 4 4 4 4 4 4 4 4 4 4 4 4 4 4 4 4 4 4 4 4 4 4 4 4 4 4 4 4 4 4 4 4 4 4 4 4 4 4 4 4 4 4 4 4 4 4 4 4 4 4 4 4 4 4 4 4 4 4 4 4 4 4 4 4 4 4 4 4 4 4 4 4 4 4 4 4 4 4 4 4 4 4 4 4 4 4 4 4 4 4 4 4 4 4 4 4 4 4 4 4 4 4 4 4 4 ",
"..X..... . ...............Z 4 4 4 4 4 4 4 4 4 4 4 4 4 4 4 4 4 4 4 4 4 4 4 4 4 4 4 4 4 4 4 4 4 4 4 4 4 4 4 4 4 4 4 4 4 4 4 4 4 4 4 4 4 4 4 4 4 4 4 4 4 4 4 4 4 4 4 4 4 4 4 4 4 4 4 4 4 4 4 4 4 4 4 4 4 4 4 4 4 4 4 4 4 4 4 4 4 4 4 4 4 4 4 4 4 4 4 4 4 4 4 4 4 4 4 4 4 4 4 4 4 4 4 4 4 4 4 4 4 4 4 4 4 4 4 4 4 4 4 4 4 4 4 4 4 4 4 4 4 4 4 4 4 4 4 4 4 4 4 4 4 4 4 4 4 4 4 4 4 4 4 4 4 4 4 4 4 4 4 4 4 4 4 4 4 4 4 4 4 4 4 4 4 4 4 4 4 4 4 4 4 4 4 4 4 4 4 4 4 4 4 4 4 4 4 4 4 4 4 4 4 4 4 4 4 4 4 4 4 4 4 4 4 4 4 4 4 4 4 4 4 4 ",
"4 4 4 4 4 4 4 4 4 4 4 4 4 4 4 4 4 4 4 4 4 4 4 4 4 4 4 4 4 4 4 4 4 4 4 4 4 4 4 4 4 4 4 4 4 4 4 4 4 4 4 4 4 4 4 4 4 4 4 4 4 4 4 4 4 4 4 4 4 4 4 4 4 4 4 4 4 4 4 4 4 4 4 4 4 4 4 4 4 4 4 4 4 4 4 4 4 4 4 4 4 4 4 4 4 4 4 4 4 4 4 4 4 4 4 4 4 4 4 4 4 4 4 4 4 4 4 4 4 4 4 4 4 4 4 4 4 4 4 4 4 4 4 4 4 4 4 4 4 4 4 4 4 4 4 4 4 4 4 4 4 4 4 4 4 4 4 4 4 4 4 4 4 4 4 4 4 4 4 4 4 4 4 4 4 4 4 4 4 4 4 4 4 4 4 4 4 4 4 4 4 4 4 4 4 4 4 4 4 4 4 4 4 4 4 4 4 4 4 4 4 4 4 4 4 4 4 4 4 4 4 4 4 4 4 4 4 4 4 4 4 4 4 4 4 4 4 4 4 4 4 4 4 4 4 4 ",
"& 4 4 4 4 4 4 4 4 4 4 4 & 4 4 4 4 4 4 4 4 4 4 4 4 4 4 4 4 4 4 4 4 4 4 4 4 4 4 4 4 4 4 4 4 4 4 4 4 4 4 4 4 4 4 4 4 4 4 4 4 4 4 4 4 4 4 4 4 4 4 4 4 4 4 4 4 4 4 4 4 4 4 4 4 4 4 4 4 4 4 4 4 4 4 4 4 4 4 4 4 4 4 4 4 4 4 4 4 4 4 4 4 4 4 4 4 4 4 4 4 4 4 4 4 4 4 4 4 4 4 4 4 4 4 4 4 4 4 4 4 4 4 4 4 4 4 4 4 4 4 4 4 4 4 4 4 4 4 4 4 4 4 4 4 4 4 4 4 4 4 4 4 4 4 4 4 4 s 4 4 & 4 4 4 4 4 4 4 4 4 4 4 4 s 4 4 4 4 4 4 4 4 4 4 4 4 4 4 4 4 4 4 4 4 4 4 4 4 4 4 4 e a 4 4 4 4 4 4 4 4 4 & 4 4 4 4 4 4 4 4 4 4 4 4 4 4 4 4 4 4 & 4 4 4 ",
" .c 4 S x e a ..s 4 s s f 4 4 4 4 4 4 4 4 4 4 4 4 4 4 4 4 4 4 4 4 4 4 4 4 4 4 4 4 4 4 4 4 4 4 4 4 4 4 4 4 4 4 4 4 4 4 4 4 4 4 4 4 4 4 4 4 4 4 4 4 4 4 4 4 4 4 4 4 4 4 4 4 4 4 4 4 4 4 4 4 4 4 4 4 4 4 4 4 4 4 4 4 4 4 4 4 4 4 4 4 4 4 4 4 4 4 4 4 4 4 4 4 4 4 4 4 4 4 4 4 4 4 4 4 4 4 4 4 4 4 4 4 4 4 4 4 4 4 4 4 4 4 4 4 4 4 4 4 4 4 4 4 4 4 4 4 4 4 4 4 4 4 4 4 4 s 4 4 x f & 4 & & & & & 4 s 4 4 s 4 4 4 4 4 4 4 4 4 4 4 e 4 % x s 4 4 4 4 4 4 4 4 4 4 4 e a 4 4 4 4 4 4 4 4 4 f a 4 % s 4 4 4 4 4 4 4 4 4 4 4 4 4 a f 4 4 4 ",
" .X.o.o.j.j. .X.X...j.o.e.f & 4 4 4 4 4 4 4 4 4 4 4 4 4 4 4 4 4 4 4 4 4 4 4 4 4 4 4 4 4 4 4 4 4 4 4 4 4 4 4 4 4 4 4 4 4 4 4 4 4 4 4 4 4 4 4 4 4 4 4 4 4 4 4 4 4 4 4 4 4 4 4 4 4 4 4 4 4 4 4 4 4 4 4 4 4 4 4 4 4 4 4 4 4 4 4 4 4 4 4 4 4 4 4 4 4 4 4 4 4 4 4 4 4 4 4 4 4 4 4 4 4 4 4 4 4 4 4 4 4 4 4 4 4 4 4 4 4 4 4 4 4 4 4 4 4 4 4 4 4 4 4 4 4 4 4 4 4 4 4 4 4 4 4 s % S c o.Z x S  .b  .c ..S & 4 s 4 4 4 4 4 4 4 4 4 4 a Z a ..j.e.e 4 4 4 4 4 4 4 4 4 4 e a 4 4 4 4 4 4 4 4 e j...b S o. .X.s 4 4 4 4 4 4 4 4 4 4 ..c x S Z ",
"b X.S  . . .S b c o.X.S c s 4 4 4 4 4 4 4 4 4 4 4 4 4 4 4 4 4 4 4 4 4 4 4 4 4 4 4 4 4 4 4 4 4 4 4 4 4 4 4 4 4 4 4 4 4 4 4 4 4 4 4 4 4 4 4 4 4 4 4 4 4 4 4 4 4 4 4 4 4 4 4 4 4 4 4 4 4 4 4 4 4 4 4 4 4 4 4 4 4 4 4 4 4 4 4 4 4 4 4 4 4 4 4 4 4 4 4 4 4 4 4 4 4 4 4 4 4 4 4 4 4 4 4 4 4 4 4 4 4 4 4 4 4 4 4 4 4 4 4 4 4 4 4 4 4 4 4 4 4 4 4 4 4 4 4 4 4 4 4 4 4 4 4 4 s %  .x S ..j.k.S e.S j.j.S % 4 s 4 4 4 4 4 4 4 4 4 4 a  . .l. ...e 4 4 4 4 4 4 4 4 4 4 e a 4 4 4 4 4 4 4 4 a d.X.o.X.o. .e.e 4 4 4 4 4 4 4 4 4 e  ...j.k.o.",
"4 & & 4 & 4 4 4 & & & & 4 4 4 4 4 4 4 4 4 4 4 4 4 4 4 4 4 4 4 4 4 4 4 4 4 4 4 4 4 4 4 4 4 4 4 4 4 4 4 4 4 4 4 4 4 4 4 4 4 4 4 4 4 4 4 4 4 4 4 4 4 4 4 4 4 4 4 4 4 4 4 4 4 4 4 4 4 4 4 4 4 4 4 4 4 4 4 4 4 4 4 4 4 4 4 4 4 4 4 4 4 4 4 4 4 4 4 4 4 4 4 4 4 4 4 4 4 4 4 4 4 4 4 4 4 4 4 4 4 4 4 4 4 4 4 4 4 4 4 4 4 4 4 4 4 4 4 4 4 4 4 4 4 4 4 4 4 4 4 4 4 4 4 4 4 4 s 4 a b s s c f a s a s f a 4 4 s 4 4 4 4 4 4 4 4 4 4 4 b f f a f e 4 4 4 4 4 4 4 4 4 4 e a 4 4 4 4 4 4 4 4 4 a s f j.x 4 x a 4 4 4 4 4 4 4 4 4 4 f c c x s ",
"s s s s s s s s s s s s s s s s s s s s s s s s s s s s s s s s s s s s s s s s s s s s s s s s s s s s s s s s s s s s s s s s s s s s s s s s s s s s s s s s s s s s s s s s s s s s s s s s s s s s s s s s s s s s s s s s s s s s s s s s s s s s s s s s s s s s s s s s s s s s s s s s s s s s s s s s s s s s s s s s s s s s s s s s s s s s s s s s a 4 s 4 4 % & & % & 4 & 4 & & 4 4 4 s 4 4 4 4 4 4 4 4 4 4 4 % & & 4 & 4 4 4 4 4 4 4 4 4 4 4 4 a 4 4 4 4 4 4 4 4 4 4 % 4 a & 4 & 4 4 4 4 4 4 4 4 4 4 4 6 % 6 6 6 ",
"4 4 4 4 4 4 4 4 4 4 4 4 4 4 4 4 4 4 4 4 4 4 4 4 4 4 4 4 4 4 4 4 4 4 4 4 4 4 4 4 4 4 4 4 4 4 4 4 4 4 4 4 4 4 4 4 4 4 4 4 4 4 4 4 4 4 4 4 4 4 4 4 4 4 4 4 4 4 4 4 4 4 4 4 4 4 4 4 4 4 4 4 4 4 4 4 4 4 4 4 4 4 4 4 4 4 4 4 4 4 4 4 4 4 4 4 4 4 4 4 4 4 4 4 4 4 4 4 4 4 4 4 4 4 4 4 4 4 4 4 4 4 4 4 4 4 4 4 4 4 4 4 4 4 4 4 4 4 4 4 4 4 4 4 4 4 4 4 4 4 4 4 4 4 4 4 4 4 a e e e e e e e e e e e e e e e s 4 a a a a a a a a a a a a a a a a a a a a a a a a a e a a 4 e e e e e e e e a a e 4 a a a a e e e e e e e e 4 4 a 8 8 a a ",
"4 4 4 4 4 4 4 4 4 4 4 4 4 4 4 % % 4 4 % 4 4 4 4 4 4 4 4 4 4 4 4 4 4 4 4 4 4 4 4 4 4 4 & & % 4 4 & 4 4 % & & & & a 4 4 4 4 4 4 4 4 4 4 4 4 4 a & & & & & % % & % & 4 4 4 4 4 4 4 4 4 4 4 4 a 4 % & & & 4 4 & 4 4 & & 4 4 4 4 4 4 4 4 4 4 4 4 4 4 4 4 4 4 4 4 4 4 s a 4 4 4 4 4 4 4 4 4 4 4 4 4 4 4 4 4 4 4 4 4 4 4 4 4 4 4 4 4 4 a e a 4 4 4 4 4 4 4 4 4 4 4 4 4 4 4 a a a a a a a a a a a a a a a a s a e 3 3 3 3 3 3 3 3 3 3 3 3 3 3 3 3 3 3 3 3 3 3 3 5 a a s a 4 & & & & & & & & & & & & & & & & & & & & & & a e 6 _ ' ' ' ' ",
"4 4 4 4 4 4 4 4 4 4 4 4 o.Z o.c s X.S b 4 4 4 4 4 4 4 4 4 4 4 4 4 4 4 4 4 4 4 4 & Z a c x c S S s Z o.f b x c Z X.& 4 4 4 4 4 4 4 4 4 4 & f j.S c b x c b S x b x 4 4 4 4 4 4 4 4 4 4 & c j.b c x c Z ..b s b X.b f 4 4 4 4 4 4 4 4 4 4 4 4 4 4 4 4 4 4 & b s S b e.a 4 4 4 4 4 4 4 4 4 4 4 4 4 4 4 4 4 4 4 4 4 4 4 4 4 & b Z X.b .. .4 4 4 4 4 4 4 4 4 4 4 4 4 4 4 s & 4 4 4 4 4 4 4 4 4 4 4 4 4 4 s % h R R R R R R R R R R R R R R R R R R R R R R R j & 4 a % v +.+.+.+.+.+.+.+.+.+.+.+.+.+.+.+.+.+.+.+.+.| 4 4 $ qXDXnXA x ",
"4 4 4 4 4 4 4 4 4 4 4 4 e.j.j.X.e.X.j.j.4 4 4 4 4 4 4 4 4 4 4 4 4 4 4 4 4 4 4 4 % S b ..e.X.e.l. .k...e.l.o.k.e...& 4 4 4 4 4 4 4 4 4 4 & c ..S S l.o.k.e.X.X.o...4 4 4 4 4 4 4 4 4 4 & c j.e.j.e.k.S X.o.j.o.o.X.X.& 4 4 4 4 4 4 4 4 4 4 4 4 4 4 4 4 4 % S b  .s o.4 4 4 4 4 4 4 4 4 4 4 4 4 4 4 4 4 4 4 4 4 4 4 4 4 4 % S o.l.s  .Z & 4 4 4 4 4 4 4 4 4 4 4 4 4 4 s 4 4 4 4 4 4 4 4 4 4 4 4 4 4 4 s O (.3X#X3X>X>X>X>X>X>X>X>X>X>X>X>X>X>X>X>X>X>X>X3X>X3 a s @ pXBXBXBXBXBXBXBXBXBXBXBXBXBXBXBXBXBXBXBXBXBXDXz & $ qXDXnX{ y ",
"4 4 4 4 4 4 4 4 4 4 4 4 f c f b s Z x c 4 4 4 4 4 4 4 4 4 4 4 4 4 4 4 4 4 4 4 4 & x Z c f c x x Z b s f c b b b c 4 4 4 4 4 4 4 4 4 4 4 4 s 4 a e c c Z f s x o.f 4 4 4 4 4 4 4 4 4 4 4 a s c c b c c c f c s f ..c % 4 4 4 4 4 4 4 4 4 4 4 4 4 4 4 4 4 & x b c b a 4 4 4 4 4 4 4 4 4 4 4 4 4 4 4 4 4 4 4 4 4 4 4 4 4 4 4 s e f Z x 4 4 4 4 4 4 4 4 4 4 4 4 4 4 4 4 s 4 4 4 Z S e 4 s 4 Z f & 4 4 4 s O (.@X/././.).).).`.`.`.).).).).).).).).)./././.).>X4 e s @ uXrXaXaXaXrXrXtXtXtXrXrXtXaXrXrXrXrXrXaXaXaXBXn & $ qXDXnX{ z ",
"4 4 4 4 4 4 4 4 4 4 4 4 & & & % & % & & 4 4 4 4 4 4 4 4 4 4 4 4 4 4 4 4 4 4 4 4 4 & % & & & & & % % & & & & % % & 4 4 4 4 4 4 4 4 4 4 4 4 4 4 4 4 & & % & & 4 4 & 4 4 4 4 4 4 4 4 4 4 4 4 & & & % % & & & & 4 % s 4 4 4 4 4 4 4 4 4 4 4 4 4 4 4 4 4 4 4 4 & & & & 4 4 4 4 4 4 4 4 4 4 4 4 4 4 4 4 4 4 4 4 4 4 4 4 4 4 4 4 4 4 & % & 4 4 4 4 4 4 4 4 4 4 4 4 4 4 4 4 s 4 4 & o.e...j.o.X.e.x & 4 4 4 s O (.#X).).).@X3X@X`.#X>X#X3X`.>X3X@X@X3X>X).).).).>X4 e s @ uXtXrXrXrXBXBXtXiXBXBXBXBXtXBXBXtXiXtXrXrXrXBXn & $ qXDXnX{ z ",
"4 4 4 4 4 4 4 4 4 4 4 4 4 4 4 4 4 4 4 4 4 4 4 4 4 4 4 4 4 4 4 4 4 4 4 4 4 4 4 4 4 4 4 4 4 4 4 4 4 4 4 4 4 4 4 4 4 4 4 4 4 4 4 4 4 4 4 4 4 4 4 4 4 4 4 4 4 4 4 4 4 4 4 4 4 4 4 4 4 4 4 4 4 4 4 4 4 4 4 4 4 4 4 4 4 4 4 4 4 4 4 4 4 4 4 4 4 4 4 4 4 4 4 4 4 4 4 4 4 4 4 4 4 4 4 4 4 4 4 4 4 4 4 4 4 4 4 4 4 4 4 4 4 4 4 4 4 4 4 4 4 4 4 4 4 4 4 4 4 4 4 4 4 4 4 4 4 4 s 4 4 &  .X.o.o.c  .X.s 4 4 4 4 s O (.@X/.).).@X#X@X).`.@X@X@X).@X`.).).#X@X).).).).>X4 e s @ uXtXaXrXrXiXiXtXtXiXiXiXiXrXiXrXrXtXtXaXrXaXBXn & $ qXDXnX{ z ",
"s s s s s s s s s s s s s s s s s s s s s s s s s s s s s s s s s s s s s s s s s s s s s s s s s s s s s s s s s s s s s s s s s s s s s s s s s s s s s s s s s s s s s s s s s s s s s s s s s s s s s s s s s s s s s s s s s s s s s s s s s s s s s s s s s s s s s s s s s s s s s s s s s s s s s s s s s s s s s s s s s s s s s s s s s s s s s s s s a 4 s 4 4 4 4 4 4 4 4 4 4 4 4 4 4 4 s O (.#X).`.`.`.).`.`.`.`.`.`.`.).`.`.`.`.`.`.`.`.`.>X4 e s @ pXiXrXtXtXrXtXtXtXtXtXtXtXtXtXtXtXtXtXtXtXrXBXn & $ qXDXnX{ z ",
"4 4 4 4 4 4 4 4 4 4 4 4 4 4 4 4 4 4 4 4 4 4 4 4 4 4 4 4 4 4 4 4 4 4 4 4 4 4 4 4 4 4 4 4 4 4 4 4 4 3 4 4 4 4 4 4 4 4 4 4 4 4 4 4 4 4 4 4 4 4 4 4 4 4 4 3 4 4 4 4 4 4 4 4 4 4 4 4 4 4 4 4 4 4 4 4 4 4 4 3 4 4 4 4 4 4 4 4 4 4 4 4 4 4 4 4 4 4 4 4 4 4 4 4 4 4 4 4 4 4 4 4 4 4 4 4 4 4 4 4 4 4 4 4 4 4 4 4 4 4 4 4 4 4 4 4 4 4 4 4 4 4 4 4 4 4 4 4 4 4 4 4 4 4 4 4 4 4 s 4 4 4 4 4 4 4 4 4 4 4 4 4 4 4 s % ! >X`.`.`.`.`.`.`.`.`.`.@X`.`.`.`.`.`.`.`.`.`.@X).3 a s @ qXpXuXpXpXpXpXpXpXpXpXpXpXpXpXpXpXpXpXpXpXpXpXr 4 $ qXDXnX{ z ",
"4 4 e 4 e 4 4 4 4 4 4 4 4 4 4 4 4 4 4 4 4 4 4 4 4 4 4 4 4 4 4 4 4 4 4 4 4 4 4 4 4 4 4 4 4 4 4 3 4 8 3 3 4 4 4 4 4 4 4 4 4 4 4 4 4 4 4 4 4 4 4 4 4 3 4 8 4 3 4 4 4 4 4 4 4 4 4 4 4 4 4 4 4 4 4 4 4 3 4 9 4 3 4 4 4 4 4 4 4 4 4 4 4 4 4 4 4 4 4 4 4 4 4 4 4 4 4 4 4 4 4 4 4 4 4 4 4 4 4 4 4 4 4 4 4 4 4 4 4 4 4 4 4 4 4 4 4 4 4 4 4 4 4 4 4 4 4 4 4 4 4 4 4 4 4 4 4 4 s 4 4 4 4 4 4 4 4 4 4 4 4 4 4 4 s 4 3 3 3 3 3 3 3 3 3 3 3 3 # 3 3 3 3 3 3 3 3 3 3 3 3 4 e a 4 $ $ $ $ $ $ $ $ $ $ $ @ $ $ $ $ $ $ $ $ $ $ @ 4 4 $ qXDXnX{ z ",
"a f s f s s f f f f f f f f f f f f f f f f f f f f f f f f s x c a 4 4 4 4 4 4 4 4 4 4 4 4 4 I T T T q 3 4 4 4 4 4 4 4 4 4 4 4 4 4 4 4 4 4 4 4 3 U T Y T U 3 4 4 4 4 4 4 4 4 4 4 4 4 4 4 4 4 4 3 E /./._.R 3 4 4 4 4 4 4 4 4 4 4 4 b Z b b b b b b b b b b b b b b b b b b b b b b b b Z b 4 4 4 b b b b b b b b b b b b b b b b b b b b b b b b b b b b b S f & 4 s 4 4 4 4 4 & & 4 & & & 4 4 4 4 s 4 4 4 4 4 4 4 4 4 4 4 4 4 x 4 4 4 4 4 4 4 4 4 4 4 4 4 e a 4 4 4 4 4 4 4 4 4 4 4 4 x 4 4 4 4 4 4 4 4 4 4 4 4 4 $ qXDXnX{ z ",
"b e.o.Z X.e.Z s f f f f f f f f f f f f f f f f f f f f f f e j.J.a 4 4 4 4 4 4 4 4 4 4 4 3 I Y + o ; ^.q 3 4 4 4 4 4 4 4 4 4 4 4 4 4 4 4 4 4 3 ~ T @ + ; T U 3 4 4 4 4 4 4 4 4 4 4 4 4 4 4 4 3 ~ /.; + ; _.E 3 4 4 4 4 4 4 4 4 4 4 S f x x x x x x x x x x f x c x x x x x x x x x x x f S 4 4 4 S f x x x x x x x x x x x f f c c x x x x x x x x x x x f b c & 4 s 4 & S e.f x b f b f c 4 4 4 4 s 4 4 4 4 4 4 4 4 4 4 4 & s o.c & 4 4 4 4 4 4 4 4 4 4 4 e a 4 4 4 4 4 4 4 4 4 4 & s o.c & 4 4 4 4 4 4 4 4 4 4 4 $ qXDXnX{ z ",
"S k.j.l.k.e. .s f f f f f f f f f f f f f f f f f f f f f f a e.k.f 4 4 4 4 4 4 4 4 4 4 3 q T X 4 c O ; T 4 4 4 4 4 4 4 4 4 4 4 4 4 4 4 4 4 3 9 _.+ X c 3 + T 8 4 4 4 4 4 4 4 4 4 4 4 4 4 4 3 9 _.. # b 3 @ _.8 4 4 4 4 4 4 4 4 4 4 Z f f f f f f f f f s c Z S ..o.f f f f f f f f f f f Z 4 4 4 Z s f f f f f f f f f s x X.X. .o.S s f f f f f f f f f s c c & 4 s 4 %  .j. .k.X.e.X.j.l.s 4 4 4 s 4 4 4 4 4 4 4 4 4 4 4 & s o.c & 4 4 4 4 4 4 4 4 4 4 4 e a 4 4 4 4 4 4 4 4 4 4 & s o.c & 4 4 4 4 4 4 4 4 4 4 4 $ qXDXnX{ z ",
"c X...o.X.....s f f f f f f f f f f f f f f f f f f f f f f e j.J.a 4 4 4 4 4 4 4 4 4 4 3 U H O S  .S . Y 9 3 4 4 4 4 4 4 4 4 4 4 4 4 4 4 4 3 R T X f Z  .. Y q 3 4 4 4 4 4 4 4 4 4 4 4 4 4 3 R T X B S s X T q 3 4 4 4 4 4 4 4 4 4 Z f f f f f f f f f s c o.X.S e.f f f f f f f f f f f Z 4 4 4 Z f f f f f f f f f f s c e.j.S o.S s f f f f f f f f f s c c & 4 s 4 4 s x S S s x e. .c 4 4 4 4 s 4 4 4 4 4 4 4 4 4 4 4 4 4 c 4 4 4 4 4 4 4 4 4 4 4 4 4 e a 4 4 4 4 4 4 4 4 4 4 4 4 c 4 4 4 4 4 4 4 4 4 4 4 4 4 $ qXDXnX{ z ",
"e s f s s x s f f f f f f f f f f f f f f f f f f f f f f f s f f a 4 4 4 4 4 4 4 4 4 4 3 U Y X 4 c s . T 8 4 4 4 4 4 4 4 4 4 4 4 4 4 4 4 4 3 R /.X s S f X T q 3 4 4 4 4 4 4 4 4 4 4 4 4 4 3 R /.X s Z s X Y 9 3 4 4 4 4 4 4 4 4 4 Z s s s s s s s s s s f S b Z f s s s s s s s s s s s Z 4 4 4 Z s s s s s s s s s s s f x x Z c s s s s s s s s s s s s c c & 4 s 4 4 4 4 # % & & x 4 & 4 4 4 4 s 4 4 4 4 4 4 4 4 4 4 & 4 & # & & & 4 4 4 4 4 4 4 4 4 4 e a 4 4 4 4 4 4 4 4 4 4 4 4 % & & 4 4 4 4 4 4 4 4 4 4 4 $ qXDXnX{ z ",
"4 4 4 4 4 4 4 4 4 4 4 4 4 4 4 4 4 4 4 4 4 4 4 4 4 4 4 4 4 4 4 4 4 4 4 4 4 4 4 4 4 4 4 4 4 8 T :   # X I Y 3 4 4 4 4 4 4 4 4 4 4 4 4 4 4 4 4 4 4 /.U X # X H Y 3 4 4 4 4 4 4 4 4 4 4 4 4 4 4 4 4 /.U X # X H Y 3 4 4 4 4 4 4 4 4 4 4 S Z Z Z Z Z Z Z Z Z Z Z c b b b Z Z Z Z Z Z Z Z Z Z Z S 4 4 4 S Z Z Z Z Z Z Z Z Z Z Z b b b b b Z Z Z Z Z Z Z Z Z Z Z b S c & 4 s 4 4 4 4 c b f x c a 4 4 4 4 4 s 4 4 4 4 4 4 4 4 4 a b 4 x c x c c s 4 4 4 4 4 4 4 4 4 e a 4 4 4 4 4 4 4 4 4 4 s s s c Z 4 4 4 4 4 4 4 4 4 4 4 $ qXDXnX{ z ",
"4 4 4 4 4 4 4 4 4 4 4 4 4 4 4 4 4 4 4 4 4 4 4 4 4 4 4 4 4 4 4 4 4 4 4 4 4 4 4 4 4 4 4 4 4 3 U Y % # 8 Y 8 4 4 4 4 4 4 4 4 4 4 4 4 4 4 4 4 4 4 3 j /.% # 4 Y 9 3 4 4 4 4 4 4 4 4 4 4 4 4 4 4 4 3 j /.% # 4 Y 9 3 4 4 4 4 4 4 4 4 4 4 a s s s s s s s s s s s s s s s s s s s s s s s s s s a 4 4 4 a s s s s s s s s s s s s s s s s s s s s s s s s s s s s s 4 4 4 s 4 4 4 4  .e.o.X.X.c & 4 4 4 4 s 4 4 4 4 4 4 4 4 4 4 S X.j. .d.o.e.Z 4 4 4 4 4 4 4 4 4 e a 4 4 4 4 4 4 4 4 4 4 o.S j.b ..4 4 4 4 4 4 4 4 4 4 4 $ qXDXnX{ z ",
"a f s f s f s x f s f f f f f f f f f f f f f f f f f f f f s c b a 4 4 4 4 4 4 4 4 4 4 4 4 3 3 4 4 4 3 4 4 4 4 4 4 4 4 4 4 4 4 4 4 4 4 4 4 4 4 3 3 4 4 4 3 4 4 4 4 4 4 4 4 4 4 4 4 4 4 4 4 4 4 3 3 4 4 4 3 4 4 4 4 4 4 4 4 4 4 4 4 4 4 4 4 4 4 4 4 4 4 4 4 4 4 4 4 4 4 4 4 4 4 4 4 4 4 4 4 4 4 4 4 4 4 4 4 4 4 4 4 4 4 4 4 4 4 4 4 4 4 4 4 4 4 4 4 4 4 4 4 4 4 4 4 s 4 4 4 4  .b c o.S c & 4 4 4 4 s 4 4 4 4 4 4 4 4 & x o. .j...o.X.o.b & 4 4 4 4 4 4 4 4 e a 4 4 4 4 4 4 4 4 4 4  .o.e...c & 4 4 4 4 4 4 4 4 4 4 $ qXDXnX{ z ",
"S  .X.S b o.b j.S c f f f f f f f f f f f f f f f f f f f f e j.J.s 4 4 4 4 4 4 4 4 4 4 4 4 4 4 4 4 4 4 4 4 4 4 4 4 4 4 4 4 4 4 4 4 4 4 4 4 4 4 4 4 4 4 4 4 4 4 4 4 4 4 4 4 4 4 4 4 4 4 4 4 4 4 4 4 4 4 4 4 4 4 4 4 4 4 4 4 4 4 4 4 4 4 4 4 4 4 4 4 4 4 4 4 4 4 4 4 4 4 4 4 4 4 4 4 4 4 4 4 4 4 4 4 4 4 4 4 4 4 4 4 4 4 4 4 4 4 4 4 4 4 4 4 4 4 4 4 4 4 4 4 4 4 4 4 s 4 4 4 4 s 4 4 4 s 4 4 4 4 4 4 s 4 4 4 4 4 4 4 4 4 e f 4 4 s 4 e a 4 4 4 4 4 4 4 4 4 4 a a 4 4 4 4 4 4 4 4 4 4 e 4 4 e 4 4 4 4 4 4 4 4 4 4 4 4 $ qXDXnX{ z ",
"S k.l.j.e.j.d.j.j.k.c s f f f f f f f f f f f f f f f f f f a d.k.f 4 4 4 4 4 4 4 4 4 4 4 4 4 4 4 4 4 4 4 4 4 4 4 4 4 4 4 4 4 4 4 4 4 4 4 4 4 4 4 4 4 4 4 4 4 4 4 4 4 4 4 4 4 4 4 4 4 4 4 4 4 4 4 4 4 4 4 4 4 4 4 4 4 4 4 4 4 4 4 4 4 4 4 4 4 4 4 4 4 4 4 4 4 4 4 4 4 4 4 4 4 4 4 4 4 4 4 4 4 4 4 4 4 4 4 4 4 4 4 4 4 4 4 4 4 4 4 4 4 4 4 4 4 4 4 4 4 4 4 4 4 4 4 4 4 4 4 & 4 & & 4 4 % & 4 & & & 4 4 & 4 & & & & & & 4 & % 4 & % & & & & 4 & & & & & & & & 4 4 & & & 4 4 & & & & 4 & & 4 & & & & & & & & & & 4 4 4 $ qXDXnX{ z ",
"c o.X.X.X.o.X.o...o.x f f f f f f f f f f f f f f f f f f f e j.H.a 4 4 4 4 4 4 4 4 4 4 4 4 4 4 4 4 4 4 4 4 4 4 4 4 4 4 4 4 4 4 4 4 4 4 4 4 4 4 4 4 4 4 4 4 4 4 4 4 4 4 4 4 4 4 4 4 4 4 4 4 4 4 4 4 4 4 4 4 4 4 4 4 4 4 4 4 4 4 4 4 4 4 4 4 3 a a 3 4 4 4 4 4 4 4 4 4 4 4 4 4 4 4 4 4 4 4 4 4 4 4 4 4 4 3 4 a 4 3 4 4 4 4 4 4 4 4 4 4 4 4 4 4 4 4 4 4 4 4 4 4 4 4 4 4 4 f f f f f f f f f f f f f f f f f f f f f f f f f f f f f f f f f f f f f f f f f f f f f f f f f f f f f f f f f f f f f f f f f f f s 4 4 $ qXDXnX{ z ",
"e s s s s s s s s s f f f f f f f f f f f f f f f f f f f s s s s a 4 4 4 4 4 4 4 4 4 4 4 s X.a S  . . .S 4 4 4 4 4 4 4 4 4 4 4 4 4 4 4 4 4 4 % x  . .b c ....x & 4 4 4 4 4 4 4 4 4 4 4 4 4 4 4 s S S Z s X.e 4 4 4 4 4 4 4 4 4 4 4 4 4 4 a Q Q Q Q a 4 4 4 4 4 4 4 4 4 e c c x a Z 4 4 4 4 4 4 4 4 4 4 d Q Q ,.D 4 4 4 4 4 4 4 4 4 4 & x b c 4 Z a 4 4 4 4 4 4 4 4 4 Z c x x x x x x x x x x x x x x x x x x x x x x x x x x x x x x x x x x x x x x x x x x x x x x x x x x x x x x x x x x x x x x x x x z M M 4 $ yXGXAX{ z ",
"4 4 4 4 4 4 4 4 4 4 4 4 4 4 4 4 4 4 4 4 4 4 4 4 4 4 4 4 4 4 4 4 4 4 4 4 4 4 4 4 4 4 4 4 & c ..Z S j.X.j. .4 4 4 4 4 4 4 4 4 4 4 4 4 4 4 4 4 4 x x X.Z x Z e.o.Z & 4 4 4 4 4 4 4 4 4 4 4 4 4 4 4 4 X. . .Z X.x & 4 4 4 4 4 4 4 4 4 4 4 4 4 Q g . . g f.4 4 4 4 4 4 4 4 4 4 Z b b x Z s 4 4 4 4 4 4 4 3 d Q $ . + D Q 3 4 4 4 4 4 4 4 4 e X. .c c b x & 4 4 4 4 4 4 4 c s 4 e e e e e f e e e e e a s 4 e e e 4 s s 4 e e e 4 s a e e e e 4 f a e 4 j j 4 s a & | v 4 a 9.9.a e e e a s 4 e 4 4 & Z  .4 e a 4 g ].D s & | i.+.v v ",
"4 4 e e e e e e e e e 4 e e e e e e e e e e e e e e e e e 4 4 4 4 4 4 4 4 4 4 4 4 4 4 4 4 a ..c S S S S Z 4 4 4 4 4 4 4 4 4 4 4 4 4 4 4 4 4 4 4 c S c s S S  .x 4 4 4 4 4 4 4 4 4 4 4 4 4 4 4 4 4 x b S c  .4 4 4 4 4 4 4 4 4 4 4 4 4 % D k   x c . k D % 4 4 4 4 4 4 4 4 s x c f b 4 4 4 4 4 4 4 4 4 Q $ + b s   Q d 3 4 4 4 4 4 4 4 4 x c c f b a 4 4 4 4 4 4 4 4 c 4 4 4 4 4 4 4 s 4 4 4 4 4 4 a 4 4 4 4 4 4 s 4 4 4 4 4 a 4 4 4 4 4 4 s 4 4 3 j j 3 s 4 $ { v % 4 7.7.4 4 4 4 4 a 4 4 4 c b X. .# 4 4 3 ].~ r x & r r r y v ",
"a x f s s s s s s f s x f f f f f f f f f f f f f f f f f f s c Z a 4 4 4 4 4 4 4 4 4 4 4 4 & & & & & & 4 4 4 4 4 4 4 4 4 4 4 4 4 4 4 4 4 4 4 4 4 4 % & % & & 4 4 4 4 4 4 4 4 4 4 4 4 4 4 4 4 4 4 & & & & & 4 4 4 4 4 4 4 4 4 4 4 4 4 3 Q $ 4 S ..a $ Q 3 4 4 4 4 4 4 4 4 4 4 & & 4 4 4 4 4 4 4 4 4 a Q . 4 Z X.+ l M % 4 4 4 4 4 4 4 4 & & & & 4 4 4 4 4 4 4 4 4 4 c 4 4 4 4 4 4 4 s 4 4 4 4 4 4 a 4 4 4 4 4 e s 4 4 4 4 4 s 4 4 4 4 4 4 s 4 4 3 j j 3 s 4 $ { v & 8 7.7.8 4 4 4 4 s 4 4 b o...d. .% 4 2 _.^.2 x x & z v v z v ",
"b e.c S  .b Z Z S c b X.x f f f f f f f f f f f f f f f f f e l.J.s 4 4 4 4 4 4 4 4 4 4 4 4 4 e a 4 e 4 4 4 4 4 4 4 4 4 4 4 4 4 4 4 4 4 4 4 4 4 4 4 b S Z 4 4 4 4 4 4 4 4 4 4 4 4 4 4 4 4 4 4 4 4 4 a 4 e 4 4 4 4 4 4 4 4 4 4 4 4 4 4 % Q a . a b + a Q % 4 4 4 4 4 4 4 4 e a s e 4 4 4 4 4 4 4 4 4 a h.. # b c   D M % 4 4 4 4 4 4 4 4 4 a s a 4 4 4 4 4 4 4 4 4 4 c 4 4 4 4 4 4 4 s 4 4 4 4 4 4 a 4 4 4 & & 4 s 4 4 4 4 & a 4 4 4 4 4 & s 4 4 3 j j % s 4 $ { v # 4 7.7.4 4 4 4 4 s 4 4 f c x .. .# 2 P _.2 a x x & y v z z v ",
"S o.e.l.j.k.k.X.j.o.k.l.f f f f f f f f f f f f f f f f f f a j.k.f 4 4 4 4 4 4 4 4 4 4 4 4 4 o.e. .X.a 4 4 4 4 4 4 4 4 4 4 4 4 4 4 4 4 4 4 4 4 4 Z e.e.j.e 4 4 4 4 4 4 4 4 4 4 4 4 4 4 4 4 4 4 4 X.e. .X.s 4 4 4 4 4 4 4 4 4 4 4 4 4 3 d Q + . + + Q d 3 4 4 4 4 4 4 4 & f  .Z Z 4 4 4 4 4 4 4 4 4 % d.,.. + . a Q 4 4 4 4 4 4 4 4 4 4 e  .Z Z s 4 4 4 4 4 4 4 4 4 c e 4 4 & f x s s 4 4 & x s f a 4 4 4 c c f a 4 4 4 f x x 4 4 4 4 x x f 4 4 % l W r s 4 $ { { a f 7.7.4 4 f f f a 4 4 4 4 # b o.t E ].4 4 a x x & y v z z v ",
"b o.......X. .b Z X.e.X.f f f f f f f f f f f f f f f f f f e d.H.a 4 4 4 4 4 4 4 4 4 4 4 4 4 S Z b X.f & 4 4 4 4 4 4 4 4 4 4 4 4 4 4 4 4 4 4 4 & Z X.X.o.e 4 4 4 4 4 4 4 4 4 4 4 4 4 4 4 4 4 4 4 S Z b ..c & 4 4 4 4 4 4 4 4 4 4 4 4 4 3 D c # # d D 3 4 4 4 4 4 4 4 4 4 s x b Z 4 4 4 4 4 4 4 4 4 4 4 h.a # % D d 3 4 4 4 4 4 4 4 4 4 e c c  .4 4 4 4 4 4 4 4 4 4 c e .. .a S j.S s 4 4 4 ..o.X.a 4 4 e b b b a 4 4 c o. .Z 4 4 4 Z e.o.x 4 4 4 l f. .s 4 $ { { S -.7.7.8 e Z c b e 4 4 4 4 & b e.Q '.9 3 4 e x x & y v z z v ",
"e s s s s s s s s s s s s s s s s s s s s s s s s s s s f s s s s a 4 4 4 4 4 4 4 4 4 4 4 4 4 4 4 4 4 4 4 4 4 4 4 4 4 4 4 4 4 4 4 4 4 4 4 4 4 4 4 4 4 4 4 4 4 4 4 4 4 4 4 4 4 4 4 4 4 4 4 4 4 4 4 4 4 4 4 4 4 4 4 4 4 4 4 4 4 4 4 4 4 4 4 3 4 4 4 4 3 4 4 4 4 4 4 4 4 4 4 4 4 4 4 4 4 4 4 4 4 4 4 4 4 4 % 4 4 4 4 4 4 4 4 4 4 4 4 4 4 4 4 4 4 4 4 4 4 4 4 4 4 4 4 4 c e c x e f b c s 4 & 4 b c c e & 4 a s b f e & 4 s b b x 4 & 4 s b b f 4 & 3 C Q c s 4 # { O.f b 7.7.4 4 a b x 4 & 4 4 4 # b d.).R O 4 & 4 x x & y v z z v ",
"4 4 4 4 4 4 4 4 4 4 4 4 4 4 4 4 4 4 4 4 4 4 4 4 4 4 4 4 4 4 4 4 4 4 4 4 4 4 4 4 4 4 4 4 4 4 4 4 4 4 4 4 4 4 4 4 4 4 4 4 4 4 4 4 4 4 4 4 4 4 4 4 4 4 4 4 4 4 4 4 4 4 4 4 4 4 4 4 4 4 4 4 4 4 4 4 4 4 4 4 4 4 4 4 4 4 4 4 4 4 4 4 4 4 4 4 4 4 4 4 4 4 4 4 4 4 4 4 4 4 4 4 4 4 4 4 4 4 4 4 4 4 4 4 4 4 4 4 4 4 4 4 4 4 4 4 4 4 4 4 4 4 4 4 4 4 4 4 4 4 4 4 4 4 4 4 4 4 c a s s s s s s c s s s s a s c s s s s s x c s s s s a x f s s a a a c f s r R l r c f a +.{ a s 7.7.f s s s f c s s s s a b  X/ t f s s f x x & y v z z v ",
"4 4 4 4 4 4 4 4 4 4 4 4 4 4 4 4 4 4 4 4 4 4 4 4 4 4 4 4 4 4 4 4 4 4 4 4 4 4 4 4 4 4 4 4 4 4 4 4 4 4 4 4 4 4 4 4 4 4 4 4 4 4 4 4 4 4 4 4 4 4 4 4 4 4 4 4 4 4 4 4 4 4 4 4 4 4 4 4 4 4 4 4 4 4 4 4 4 4 4 4 4 4 4 4 4 4 4 4 4 4 4 4 4 4 4 4 4 4 4 4 4 4 4 4 4 4 4 4 4 4 4 4 4 4 4 4 4 4 4 4 4 4 4 4 4 4 4 4 4 4 4 4 4 4 4 4 4 4 4 4 4 4 4 4 4 4 4 4 4 4 4 4 4 4 4 4 4 4 c x e.e.e.e.e.e.j.e.e.e.e.e.d.j.o.e.e.e.e.j.j.o.e.e.e.e.j.e.e.e.e.e.e.j.e.e.e.f.f.e.j.e.o.K.F.o.j.=X=Xd.e.e.e.e.j.o.e.e.d.r.|.).+.d.o.o.o.o.x f & y v z z v ",
"s s s s s s s s s s s s s s s s s s s s s s s s s s s s s s s s s s s s s s s s s s s s s s s s s s s s s s s s s s s s s s s s s s s s s s s s s s s s s s s s s s s s s s s s s s s s s s s s s s s s s s s s s s s s s s s s s s s s s s s s s s s s s s s s s s s s s s s s s s s s s s s s s s s s s s s s s s s s s s s s s s s s s s s s s s s s s s s s s 4 c 4 % % % % % % a & % % % % 4 4 # % % % % 4 e # & % % # 4 4 % % % & # a 4 % # q q # a 4 + { y # 4 7.7.4 % % % 4 4 % % & O L |.A + % 4 c b 4 x x & y v z z v ",
"4 4 4 4 4 4 4 4 4 4 4 4 4 4 4 4 4 4 4 4 4 4 4 4 4 4 4 4 4 4 4 4 4 4 4 4 4 4 4 4 4 4 4 4 4 4 4 4 4 4 4 4 4 4 4 4 4 4 4 4 4 4 4 4 4 4 4 4 4 4 4 4 4 4 4 4 4 4 4 4 4 4 4 4 4 4 4 4 4 4 4 4 4 4 4 4 4 4 4 4 4 4 4 4 4 4 4 4 4 4 4 4 4 4 4 4 4 4 4 4 4 4 4 4 4 4 4 4 4 4 4 4 4 4 4 4 4 4 4 4 4 4 4 4 4 4 4 4 4 4 4 4 4 4 4 4 4 4 4 4 4 4 4 4 4 4 4 4 4 4 4 4 4 4 4 4 4 4 c 4 4 4 4 4 4 4 f 4 4 4 4 4 4 s 4 4 4 4 4 a s 4 4 4 4 4 s 4 4 4 4 4 4 s 4 4 3 j j 3 s 4 $ | v & 8 7.7.8 4 4 4 4 s 4 8 2 E ].Z  .% 4 ..X.o.f f x & y v z z v ",
"4 4 4 4 4 4 4 4 4 4 4 4 4 4 4 4 4 4 4 4 4 4 4 4 4 4 4 4 4 4 4 4 4 4 4 4 4 4 4 4 4 4 4 4 4 4 4 3 3 3 3 4 4 4 4 4 4 4 4 4 4 4 4 4 4 4 4 4 4 4 4 4 4 3 2 3 2 3 4 4 4 4 4 4 4 4 4 4 4 4 4 4 4 4 4 4 4 3 2 3 2 3 4 4 4 4 4 4 4 4 4 4 4 4 4 & & & & & & & & & & & & & & & & & & & & & & & & & & 4 4 4 4 & & & & & & & & & & & & & & & & & & & & & & & & & & & & & & 4 4 4 c 4 4 4 4 4 4 4 s 4 4 4 4 4 4 a 4 4 4 4 4 e s 4 4 4 4 4 a 4 4 4 4 4 4 s 4 4 3 j j 3 s 4 $ { v & 8 7.7.4 4 4 4 4 s 4 3 j '.- b ..# 4 c c c s x x & y v z z v ",
"a f s s s s f f f f f f f f f f f f f f f f f f f f f f f f s x c a 4 4 4 4 4 4 4 4 4 4 4 4 3 q Y Y I 4 3 4 4 4 4 4 4 4 4 4 4 4 4 4 4 4 4 4 4 4 3 9 / /./ 9 3 4 4 4 4 4 4 4 4 4 4 4 4 4 4 4 4 4 3 9 / /./ 9 3 4 4 4 4 4 4 4 4 4 4 4 x c x c c c c c c c c c c c c c c c c c c c c c c x c x 4 4 4 x c x c c c c c c c c c c c c c c c c c c c c c c c c c x c s 4 4 c 4 4 4 4 4 4 4 s 4 4 4 4 4 4 a 4 4 4 4 4 e s 4 4 4 4 4 a 4 4 4 4 4 4 s 4 4 3 j j 3 s 4 $ { v & 8 7.7.4 4 4 4 4 s 3 8 '.R O S  .# 4 4 4 & 4 x x & y v z z v ",
"c o.X.Z ..o.Z s f f f f f f f f f f f f f f f f f f f f f f e j.J.a 4 4 4 4 4 4 4 4 4 4 4 3 U T > ; H T 9 3 4 4 4 4 4 4 4 4 4 4 4 4 4 4 4 4 4 3 R _.I > E _.q 3 4 4 4 4 4 4 4 4 4 4 4 4 4 4 4 3 R _.I > I ).j 3 4 4 4 4 4 4 4 4 4 4 S c c c c c c c c c c c c c c c c c c c c c c c c c c S 4 4 4 S c c c c c c c c c c c c c c c c c c c c c c c c c c c c Z c & 4 c 4 4 4 4 4 4 4 s 4 4 4 4 4 4 a 4 4 4 4 4 e s 4 4 4 4 4 a 4 4 4 4 4 4 s 4 4 3 j j 3 s 4 $ { v & 8 7.7.4 4 4 4 4 s 3 ].~ 2 & Z  .# 4 4 4 4 e x x & y v z z v ",
"S k.j.j.k.e. .s f f f f f f f f f f f f f f f f f f f f f f a e.k.f 4 4 4 4 4 4 4 4 4 4 4 9 T @ O e X H Y 3 4 4 4 4 4 4 4 4 4 4 4 4 4 4 4 4 4 8 /.- X e X > T 4 4 4 4 4 4 4 4 4 4 4 4 4 4 4 4 8 /.- X e X > /.4 4 4 4 4 4 4 4 4 4 4 Z s s s s s s s s s s x c b  . .f s s s s s s s s s s Z 4 4 4 Z s s s s s s s s s s s f Z Z S  .Z s s s s s s s s s s s c c 4 4 c 4 4 4 4 4 4 4 s 4 4 4 4 4 4 a 4 4 4 4 4 e s 4 4 4 4 4 a 4 4 4 4 4 4 s 4 4 3 j j 3 s 4 $ { v & 8 7.7.4 4 4 4 8 t _._.2 4 % Z  .# 4 4 4 4 e x x & y v z z v ",
"b X...e.X...X.s f f f f f f f f f f f f f f f f f f f f f f e j.J.a 4 4 4 4 4 4 4 4 4 4 3 U I X B X.c . T 8 4 4 4 4 4 4 4 4 4 4 4 4 4 4 4 4 3 R T X b S a X Y q 3 4 4 4 4 4 4 4 4 4 4 4 4 4 3 R T X c  .s X /.q 3 4 4 4 4 4 4 4 4 4 Z f f f f f f f f f s b X.X.S j.f f f f f f f f f f f Z 4 4 4 Z f f f f f f f f f f s c j.k.S o. .s f f f f f f f f f s c c 4 4 c 4 4 4 4 4 4 4 s 4 4 4 4 4 4 s 4 4 4 4 4 e s 4 4 4 4 4 s 4 4 4 4 4 4 s 4 4 3 j j 3 s 4 $ { v & 8 7.7.8 4 4 4 2 ^ ].2 4 4 % Z  .% 4 4 4 4 e x x & y v z z v ",
"a s f s s x s f f f f f f f f f f f f f f f f f f f f f f f s f f a 4 4 4 4 4 4 4 4 4 4 3 U I X f b c . T 9 3 4 4 4 4 4 4 4 4 4 4 4 4 4 4 4 3 R T X c S b X Y q 3 4 4 4 4 4 4 4 4 4 4 4 4 4 3 R T X c Z s X Y q 3 4 4 4 4 4 4 4 4 4 Z s s s s s s s s s s f ..S S b s s s s s s s s s s s Z 4 4 4 Z s s s s s s s s s s s x b Z  .S x s s s s s s s s s s s c c 4 4 c a s s s s s s c s s s s s s f s s s s s f x a s s s s f s s s s s a c s s r R R r x s a +.{ a f 7.7.s s s t E ].s s s s 4  .o.4 s a s s s x x & y v z z v ",
"4 4 4 4 4 4 4 4 4 4 4 4 4 4 4 4 4 4 4 4 4 4 4 4 4 4 4 4 4 4 4 4 4 4 4 4 4 4 4 4 4 4 4 4 3 9 T + . 4 . > T 3 4 4 4 4 4 4 4 4 4 4 4 4 4 4 4 4 4 8 _.; . 8 O ; T 4 4 4 4 4 4 4 4 4 4 4 4 4 4 4 4 8 _.; . 8 O ; T 4 4 4 4 4 4 4 4 4 4 4 S c c c c c c c c c c c c c c c c c c c c c c c c c c S 4 4 4 S c c c c c c c c c c c c c c c c c c c c c c c c c c c c Z c & 4 c 4 4 4 4 4 4 4 s 4 4 4 4 4 4 a 4 4 4 4 4 e s 4 4 4 4 4 a 4 4 4 4 4 4 s 4 4 3 j j 3 s 4 $ { v % 4 7.7.4 4 3 j '.k 3 4 4 4 # Z  .4 s f 4 4 e x x & y v z z v ",
"4 4 4 4 4 4 4 4 4 4 4 4 4 4 4 4 4 4 4 4 4 4 4 4 4 4 4 4 4 4 4 4 4 4 4 4 4 4 4 4 4 4 4 4 4 3 I Y O + $ T 9 3 4 4 4 4 4 4 4 4 4 4 4 4 4 4 4 4 4 3 E _.O + # T q 3 4 4 4 4 4 4 4 4 4 4 4 4 4 4 4 3 E _.O + # T q 3 4 4 4 4 4 4 4 4 4 4 x c c c c c c c c c c c c c c c c c c c c c c c c c c x 4 4 4 x c c c c c c c c c c c c c c c c c c c c c c c c c c c c c s 4 4 c 4 4 4 4 4 4 4 s 4 4 4 4 4 4 a 4 4 4 4 4 e s 4 4 4 4 4 a 4 4 4 4 4 4 s 4 4 3 j j 3 s 4 $ { v & 8 7.7.8 3 8 '.R t 4 4 4 4 % Z ..s b b a 4 e x x & y v z z v ",
"a f s f f f s f f s f f f f f f f f f f f f f f f f f f f f s c b a 4 4 4 4 4 4 4 4 4 4 4 4 4 8 4 4 4 8 3 4 4 4 4 4 4 4 4 4 4 4 4 4 4 4 4 4 4 4 3 9 4 4 4 8 3 4 4 4 4 4 4 4 4 4 4 4 4 4 4 4 4 4 3 9 4 4 4 8 3 4 4 4 4 4 4 4 4 4 4 4 4 & & & & & & & & & & & & & & & & & & & & & & & & & & 4 4 4 4 & & & & & & & & & & & & & & & & & & & & & & & & & & & & & & 4 4 4 c 4 4 4 4 4 4 4 s 4 4 4 4 4 4 a 4 4 4 4 4 e s 4 4 4 4 4 a 4 4 4 4 4 4 s 4 4 3 j j 3 s 4 $ { v & 8 7.7.4 3 ].~ 2 s 4 4 4 4 % Z X.4 c S 4 4 e x x & y v z z v ",
"Z  ...S b o.b j.S c f f f f f f f f f f f f f f f f f f f f e j.J.s 4 4 4 4 4 4 4 4 4 4 4 4 4 4 4 4 4 4 4 4 4 4 4 4 4 4 4 4 4 4 4 4 4 4 4 4 4 4 4 3 4 4 4 4 4 4 4 4 4 4 4 4 4 4 4 4 4 4 4 4 4 4 4 3 4 4 4 4 4 4 4 4 4 4 4 4 4 4 4 4 4 4 4 4 4 4 4 4 4 4 4 4 4 4 4 4 4 4 4 4 4 4 4 4 4 4 4 4 4 4 4 4 4 4 4 4 4 4 4 4 4 4 4 4 4 4 4 4 4 4 4 4 4 4 4 4 4 4 4 4 4 4 4 4 c 4 4 4 4 4 4 4 s 4 4 4 4 4 4 a 4 4 4 4 4 e s 4 4 4 4 4 a 4 4 4 4 4 4 s 4 4 3 j j 3 s 4 $ { v & 8 7.7.2 _._.2 8 s 4 4 4 4 % Z  .# 4 4 4 4 e x x & y v z z v ",
"S k.l.j.e.j.d.j.j.k.c s f f f f f f f f f f f f f f f f f f a d.k.f 4 4 4 4 4 4 4 4 4 4 4 4 4 4 4 4 4 4 4 4 4 4 4 4 4 4 4 4 4 4 4 4 4 4 4 4 4 4 4 4 4 4 4 4 4 4 4 4 4 4 4 4 4 4 4 4 4 4 4 4 4 4 4 4 4 4 4 4 4 4 4 4 4 4 4 4 4 4 4 4 4 4 4 4 4 4 4 4 4 4 4 4 4 4 4 4 4 4 4 4 4 4 4 4 4 4 4 4 4 4 4 4 4 4 4 4 4 4 4 4 4 4 4 4 4 4 4 4 4 4 4 4 4 4 4 4 4 4 4 4 4 4 4 4 c 4 4 4 4 4 4 4 s 4 4 4 4 4 4 a 4 4 4 4 4 e s 4 4 4 4 4 a 4 4 4 4 4 4 s 4 4 3 j j 3 s 4 $ { v & 4 7.9./ _.2 4 4 s 4 4 4 4 % Z  .# 4 4 4 4 e x x & y v z z v ",
"c e.X.X.X.o.o.o.X.o.x f f f f f f f f f f f f f f f f f f f e j.J.a 4 4 4 4 4 4 4 4 4 4 4 4 4 4 4 4 4 4 4 4 4 4 4 4 4 4 4 4 4 4 4 4 4 4 4 4 4 4 4 4 4 4 4 4 4 4 4 4 4 4 4 4 4 4 4 4 4 4 4 4 4 4 4 4 4 4 4 4 4 4 4 4 4 4 4 4 4 4 4 4 4 4 4 4 3 4 4 3 4 4 4 4 4 4 4 4 4 4 4 4 4 4 4 4 4 4 4 4 4 4 4 4 4 4 3 4 a 4 3 4 4 4 4 4 4 4 4 4 4 4 4 4 4 4 4 4 4 4 4 4 4 4 4 4 c 4 4 4 4 4 4 4 s 4 4 4 4 4 4 s 4 4 4 4 4 e s 4 4 4 4 4 s 4 4 4 4 4 4 s 4 4 3 j j 3 s 4 $ { v & 8 9.+X'.4 4 4 4 s 4 4 4 4 % Z ..# 4 4 4 4 e x x & y v z z v ",
"e s s s s s s s s f f f f f f f f f f f f f f f f f f f f s s s s a 4 4 4 4 4 4 4 4 4 4 4 s X.e S  . . .S 4 4 4 4 4 4 4 4 4 4 4 4 4 4 4 4 4 4 4 f X.e S  ...e 4 4 4 4 4 4 4 4 4 4 4 4 4 4 4 4 4 s S S Z s X.4 4 4 4 4 4 4 4 4 4 4 4 4 4 4 a Q Q Q Q a 4 4 4 4 4 4 4 4 4 e c c x a Z 4 4 4 4 4 4 4 4 4 4 d Q Q ,.D 4 4 4 4 4 4 4 4 4 4 & x b c 4 Z a 4 4 4 4 4 4 4 4 c 4 4 4 4 4 4 4 s 4 4 4 4 4 4 a & 4 4 4 & 4 s & 4 4 4 & a 4 4 4 4 4 & s 4 4 3 j j % a 4 @ { v $ 4 +X$X9 3 4 4 4 a 4 4 4 4 # Z  .# 4 4 4 4 4 x x & y v z z v ",
"4 4 4 4 4 4 4 4 4 4 4 4 4 4 4 4 4 4 4 4 4 4 4 4 4 4 4 4 4 4 4 4 4 4 4 4 4 4 4 4 4 4 4 4 & c ..Z S j.X.j. .4 4 4 4 4 4 4 4 4 4 4 4 4 4 4 4 4 4 & b ..Z S j...x & 4 4 4 4 4 4 4 4 4 4 4 4 4 4 4 4 4 X. . .Z X.x & 4 4 4 4 4 4 4 4 4 4 4 4 4 Q d . + d f.4 4 4 4 4 4 4 4 4 4 Z b c x Z s 4 4 4 4 4 4 4 3 d Q & . + D Q 3 4 4 4 4 4 4 4 4 e X. .c x b x & 4 4 4 4 4 4 4 c a s s s s s s c s s s s s f x s s s s s x c s s s s s x f s s s s s c f s r R R r c f a +.{ a r ,X$Xt s s s f x s s s s e  .o.4 s s s s f x x & y v z z v ",
"4 4 e e e e e e e e e 4 4 4 4 4 4 4 4 4 4 4 4 4 4 4 4 4 4 4 4 4 4 4 4 4 4 4 4 4 4 4 4 4 4 s ..c S S S S Z 4 4 4 4 4 4 4 4 4 4 4 4 4 4 4 4 4 4 4 s ..c S S  .4 4 4 4 4 4 4 4 4 4 4 4 4 4 4 4 4 4 4 x Z S c  .4 4 4 4 4 4 4 4 4 4 4 4 4 % D M   f c . l D % 4 4 4 4 4 4 4 4 s x c f b 4 4 4 4 4 4 4 4 4 Q $ + c a . Q d 3 4 4 4 4 4 4 4 4 c b c f b a 4 4 4 4 4 4 4 4 c e 4 4 4 4 4 4 f 4 4 4 4 4 e s 4 4 4 4 4 a s 4 4 4 4 4 s e 4 4 4 4 4 f e 4 3 j j 3 s e & | v & b ;X+X4 4 4 4 e s 4 4 4 4 & S ..4 s 4 4 4 a x x & y v z z v ",
"s f s s s s s s s f s x f f f f f f f f f f f f f f f f f f s c Z a 4 4 4 4 4 4 4 4 4 4 4 4 4 & & & & & 4 4 4 4 4 4 4 4 4 4 4 4 4 4 4 4 4 4 4 4 4 4 & % # 4 4 4 4 4 4 4 4 4 4 4 4 4 4 4 4 4 4 4 4 & & & 4 & 4 4 4 4 4 4 4 4 4 4 4 4 4 3 Q & 4 S X.a $ Q 3 4 4 4 4 4 4 4 4 4 4 & 4 4 4 4 4 4 4 4 4 4 a Q . 4 S X.+ l M % 4 4 4 4 4 4 4 4 & & 4 & 4 4 4 4 4 4 4 4 4 4 c 4 4 4 4 4 4 4 s 4 4 4 4 4 4 a 4 4 4 4 4 4 s 4 4 4 4 4 a 4 4 4 4 4 4 s 4 4 3 j j 3 s 4 $ { z r W +X7.8 4 4 4 4 a 4 4 4 4 # Z  .4 S  .4 & 4 x x & y v z z v ",
"x o.b S  .c b b S c c X.x f f f f f f f f f f f f f f f f f e l.J.s 4 4 4 4 4 4 4 4 4 4 4 4 4 4 a 4 4 4 4 4 4 4 4 4 4 4 4 4 4 4 4 4 4 4 4 4 4 4 4 4 b S Z 4 4 4 4 4 4 4 4 4 4 4 4 4 4 4 4 4 4 4 4 4 a 4 4 4 4 4 4 4 4 4 4 4 4 4 4 4 4 % Q a . a b + a Q % 4 4 4 4 4 4 4 4 e e s e 4 4 4 4 4 4 4 4 4 a h.. # b c   D M % 4 4 4 4 4 4 4 4 4 a a a 4 4 4 4 4 4 4 4 4 4 c 4 4 4 4 4 4 4 s 4 4 4 4 4 4 a 4 4 4 4 4 e s 4 4 4 4 4 a 4 4 4 4 4 4 s 4 4 3 j j 3 s 4 $ { { r ~ $X9.8 4 4 4 4 s 4 4 4 4 % Z X.x S ..a 4 e x x & y v z z v ",
"f e.d.j.j.k.k.X.j.o.k.l.f f f f f f f f f f f f f f f f f f a d.k.f 4 4 4 4 4 4 4 4 4 4 4 4 4 o.e. .X.a 4 4 4 4 4 4 4 4 4 4 4 4 4 4 4 4 4 4 4 4 4 b e.e.d.e 4 4 4 4 4 4 4 4 4 4 4 4 4 4 4 4 4 4 4 X.e. .X.s 4 4 4 4 4 4 4 4 4 4 4 4 4 3 d Q + . + + Q d 3 4 4 4 4 4 4 4 & f  .Z Z 4 4 4 4 4 4 4 4 4 % d.Q   # . 8 Q 4 4 4 4 4 4 4 4 4 4 e  .Z Z s 4 4 4 4 4 4 4 4 4 c 4 4 4 4 4 4 4 s 4 4 4 4 4 4 a 4 4 4 4 4 e s 4 4 4 4 4 a 4 4 4 4 4 4 s 4 4 3 j j 3 s 4 @ | O.O _.$X9.8 4 4 4 4 s 4 4 4 4 % Z  .4 a 4 4 4 e x x & y v z z v ",
"x o.S  .X.o...b S X.j.X.f f f f f f f f f f f f f f f f f f e j.H.a 4 4 4 4 4 4 4 4 4 4 4 4 4 S Z Z X.f & 4 4 4 4 4 4 4 4 4 4 4 4 4 4 4 4 4 4 4 & Z X.X.o.e 4 4 4 4 4 4 4 4 4 4 4 4 4 4 4 4 4 4 4 S Z Z ..c & 4 4 4 4 4 4 4 4 4 4 4 4 4 3 D c # # d D 3 4 4 4 4 4 4 4 4 4 s x b Z 4 4 4 4 4 4 4 4 4 4 a h.a # % D d 3 4 4 4 4 4 4 4 4 4 e c c  .4 4 4 4 4 4 4 4 4 4 c 4 4 4 4 4 4 4 s 4 4 4 4 4 4 a 4 4 4 4 4 e s 4 4 4 4 4 a 4 4 4 4 4 4 s 4 4 3 j j 3 s 4 & @.v # ].+X9.8 4 4 4 4 s 4 4 4 4 % Z ..# 4 4 4 4 e x x & y v z z v ",
"e s s s s s s s s s s s f f f f f f f f f f f f f f f f f s s s s a 4 4 4 4 4 4 4 4 4 4 4 4 4 4 4 4 e 4 4 4 4 4 4 4 4 4 4 4 4 4 4 4 4 4 4 4 4 4 4 4 e 4 e 4 4 4 4 4 4 4 4 4 4 4 4 4 4 4 4 4 4 4 4 4 4 4 e 4 4 4 4 4 4 4 4 4 4 4 4 4 4 4 4 3 4 4 4 4 4 4 4 4 4 4 4 4 4 4 4 4 4 4 e 4 4 4 4 4 4 4 4 4 4 4 % 4 4 4 4 4 4 4 4 4 4 4 4 4 4 4 4 4 4 e 4 4 4 4 4 4 4 4 4 4 c 4 4 4 4 4 4 4 s 4 4 4 4 4 4 a 4 4 4 4 4 e s 4 4 4 4 4 a 4 4 4 4 4 4 s 4 4 3 j j 3 s 4 f +.u ; ].8.7.8 4 4 4 4 s 4 4 4 4 % Z  .# 4 4 4 4 e x x & y v z z v ",
"4 4 4 4 4 4 4 4 4 4 4 4 4 4 4 4 4 4 4 4 4 4 4 4 4 4 4 4 4 4 4 4 4 4 4 4 4 4 4 4 4 4 4 4 4 4 4 4 4 4 4 4 4 4 4 4 4 4 4 4 4 4 4 4 4 4 4 4 4 4 4 4 4 4 4 4 4 4 4 4 4 4 4 4 4 4 4 4 4 4 4 4 4 4 4 4 4 4 4 4 4 4 4 4 4 4 4 4 4 4 4 4 4 4 4 4 4 4 4 4 4 4 4 4 4 4 4 4 4 4 4 4 4 4 4 4 4 4 4 4 4 4 4 4 4 4 4 4 4 4 4 4 4 4 4 4 4 4 4 4 4 4 4 4 4 4 4 4 4 4 4 4 4 4 4 4 4 4 c 4 4 4 4 4 4 4 s 4 4 4 4 4 4 a 4 4 4 4 4 4 s & 4 4 4 4 a 4 4 4 4 4 & s 4 4 3 j j 3 a c 4 { u > ].9.7.4 4 4 4 4 a 4 4 4 4 # Z  .# 4 4 4 4 4 x x & y v z z v ",
"4 4 4 4 4 4 4 4 4 4 4 4 4 4 4 4 4 4 4 4 4 4 4 4 4 4 4 4 4 4 4 4 4 4 4 4 4 4 4 4 4 4 4 4 4 4 4 4 4 4 4 4 4 4 4 4 4 4 4 4 4 4 4 4 4 4 4 4 4 4 4 4 4 4 4 4 4 4 4 4 4 4 4 4 4 4 4 4 4 4 4 4 4 4 4 4 4 4 4 4 4 4 4 4 4 4 4 4 4 4 4 4 4 4 4 4 4 4 4 4 4 4 4 4 4 4 4 4 4 4 4 4 4 4 4 4 4 4 4 4 4 4 4 4 4 4 4 4 4 4 4 4 4 4 4 4 4 4 4 4 4 4 4 4 4 4 4 4 4 4 4 4 4 4 4 4 4 4 c e e e e e e e x e e e e e s s e e e e e s f 4 e e e e s s e e e e 4 x s a 5 j l 3 c c & +.u E _.9.7.s e e e a f e e e a 4 S X.4 e e e e s x x & y v z z v ",
"4 4 4 4 4 4 4 4 4 4 4 4 4 4 4 4 4 4 4 4 4 4 4 4 4 4 4 4 4 4 4 4 4 4 4 4 4 4 4 4 4 4 4 4 4 4 4 4 4 4 4 4 4 4 4 4 4 4 4 4 4 4 4 4 4 4 4 4 4 4 4 4 4 4 4 4 4 4 4 4 4 4 4 4 4 4 4 4 4 4 4 4 4 4 4 4 4 4 4 4 4 4 4 4 4 4 4 4 4 4 4 4 4 4 4 4 4 4 4 4 4 4 4 4 4 4 4 4 4 4 4 4 4 4 4 4 4 4 4 4 4 4 4 4 4 4 4 4 4 4 4 4 4 4 4 4 4 4 4 4 4 4 4 4 4 4 4 4 4 4 4 4 4 4 4 4 4 4 c e e e e e e e x e e e e e s s e e e e e s f 4 a e e e s s e e e e e x s a 5 l j z Z e & +.u P / 9.7.s e e e a f e e e a 4 S ..4 s s a e s x x & y v z z v ",
"4 s 4 & 4 & 4 4 4 4 4 4 4 4 4 4 4 4 4 4 4 4 4 4 4 4 4 4 4 4 4 4 4 4 4 4 4 4 4 4 4 4 4 4 4 4 4 4 4 4 4 4 4 4 4 4 4 4 4 4 4 4 4 4 4 4 4 4 4 4 4 4 4 4 4 4 4 4 4 4 4 4 4 4 4 4 4 4 4 4 4 4 4 4 4 4 4 4 4 4 4 4 4 4 4 4 4 4 4 4 4 4 4 4 4 4 4 4 4 4 4 4 4 4 4 4 4 4 4 4 4 4 4 4 4 4 4 4 4 4 4 4 4 4 4 4 4 4 4 4 4 4 4 4 4 4 4 4 4 4 4 4 4 4 4 4 4 4 4 4 4 4 4 4 4 4 4 4 c 4 4 4 4 4 4 4 s 4 4 4 4 4 4 a 4 4 4 4 4 4 s & 4 4 4 4 a 4 4 4 4 4 & s 4 4 3 j l z s 4 # { u ^.E 9.7.4 4 4 4 4 a 4 4 4 4 # Z  .4 X.S 4 4 4 x x & y v z z v ",
" .b s S S b s 4 4 4 4 4 4 4 4 4 4 4 4 4 4 4 4 4 4 4 4 4 4 4 4 4 4 4 4 4 4 4 4 4 4 4 4 4 4 4 4 4 4 4 4 4 4 4 4 4 4 4 4 4 4 4 4 4 4 4 4 4 4 4 4 4 4 4 4 4 4 4 4 4 4 4 4 4 4 4 4 4 4 4 4 4 4 4 4 4 4 4 4 4 4 4 4 4 4 4 4 4 4 4 4 4 4 4 4 4 4 4 4 4 4 4 4 4 4 4 4 4 4 4 4 4 4 4 4 4 4 4 4 4 4 4 4 4 4 4 4 4 4 4 4 4 4 4 4 4 4 4 4 4 4 4 4 4 4 4 4 4 4 4 4 4 4 4 4 4 4 4 c 4 4 4 4 4 4 4 s 4 4 4 4 4 4 a 4 4 4 4 4 e s 4 4 4 4 4 a 4 4 4 4 4 4 s 4 4 3 j Q 3 s 4 $ | u [.R 9.7.8 4 4 4 4 s 4 4 4 4 % Z X.s X...a 4 e x x & y v z z v ",
".. .d.k.o.k.c & 4 4 4 4 4 4 4 4 4 4 4 4 4 4 4 4 4 4 4 4 4 4 4 4 4 4 4 4 4 4 4 4 4 4 4 4 4 4 4 4 4 4 4 4 4 4 4 4 4 4 4 4 4 4 4 4 4 4 4 4 4 4 4 4 4 4 4 4 4 4 4 4 4 4 4 4 4 4 4 4 4 4 4 4 4 4 4 4 4 4 4 4 4 4 4 4 4 4 4 4 4 4 4 4 4 4 4 4 4 4 4 4 4 4 4 4 4 4 4 4 4 4 4 4 4 4 4 4 4 4 4 4 4 4 4 4 4 4 4 4 4 4 4 4 4 4 4 4 4 4 4 4 4 4 4 4 4 4 4 4 4 4 4 4 4 4 4 4 4 4 c 4 4 4 4 4 4 4 s 4 4 4 4 4 4 a 4 4 4 4 4 e s 4 4 4 4 4 a 4 4 4 4 4 4 s 4 4 3 W j 3 s 4 $ { n ].h 7.7.4 4 4 4 4 s 4 4 4 4 % Z  .4 a e 4 4 e x x & y v z z v ",
"f Z b c x c e 4 4 4 4 4 4 4 4 4 4 4 4 4 4 4 4 4 4 4 4 4 4 4 4 4 4 4 4 4 4 4 4 4 4 4 4 4 4 4 4 4 4 4 4 4 4 4 4 4 4 4 4 4 4 4 4 4 4 4 4 4 4 4 4 4 4 4 4 4 4 4 4 4 4 4 4 4 4 4 4 4 4 4 4 4 4 4 4 4 4 4 4 4 4 4 4 4 4 4 4 4 4 4 4 4 4 4 4 4 4 4 4 4 4 4 4 4 4 4 4 4 4 4 4 4 4 4 4 4 4 4 4 4 4 4 4 4 4 4 4 4 4 4 4 4 4 4 4 4 4 4 4 4 4 4 4 4 4 4 4 4 4 4 4 4 4 4 4 4 4 4 c 4 4 4 4 4 4 4 s 4 4 4 4 4 4 a 4 4 4 4 4 e s 4 4 4 4 4 a 4 4 4 4 4 4 s 4 4 z R j 3 s 4 $ { V ].4 7.7.4 4 4 4 4 s 4 4 4 4 % Z ..# 4 4 4 4 e x x & y v z z v ",
"4 4 4 4 4 4 4 4 4 4 4 4 4 4 4 4 4 4 4 4 4 4 4 4 4 4 4 4 4 4 4 4 4 4 4 4 4 4 4 4 4 4 4 4 4 4 4 4 4 4 4 4 4 4 4 4 4 4 4 4 4 4 4 4 4 4 4 4 4 4 4 4 4 4 4 4 4 4 4 4 4 4 4 4 4 4 4 4 4 4 4 4 4 4 4 4 4 4 4 4 4 4 4 4 4 4 4 4 4 4 4 4 4 4 4 4 4 4 4 4 4 4 4 4 4 4 4 4 4 4 4 4 4 4 4 4 4 e e 4 4 4 4 4 4 4 4 4 4 4 4 4 4 4 4 4 4 4 4 4 4 4 4 4 4 4 4 4 4 4 4 4 4 4 4 4 4 4 c 4 4 4 4 4 4 4 s 4 4 4 4 4 4 a 4 4 4 4 4 e s 4 4 4 4 4 a 4 4 4 4 4 4 s 4 f r j j 3 s 4 $ [ ! [.3 7.7.4 4 4 4 4 s 4 4 4 4 % Z  .# 4 4 4 4 e x x & y v z z v ",
"s s s s s s s a a a a a a a a a a a a a a a a a a a a a a a a a a a a a a a a a a a a a a a a a a a a a a a a a a a a a a a a a a a a a a a a a a a a a a a a a a a a a a a a a a a a a a a a a a a a a a a a a a a s a a s s s s s s a a a a a a a a a a a a a a a a a a a a a a a a a a a e a a a a a a a a a a a a a a a a a a a a a a a a a a a a a a a a a a 4 c 4 4 4 4 4 4 4 s 4 4 4 4 4 4 a 4 4 4 4 4 e s 4 4 4 4 4 a 4 4 4 4 4 4 s f x % j j 3 s 4 $ O.^ [.g 7.7.4 4 4 4 4 a 4 4 4 4 # Z  .# 4 4 4 4 4 x x & y v z z v ",
"4 4 4 4 4 4 4 4 4 4 4 4 4 4 4 4 4 4 4 4 4 4 4 4 4 4 4 4 4 4 4 4 4 4 4 4 4 4 4 4 4 4 4 4 4 4 4 4 4 4 4 4 4 4 4 4 4 4 4 4 4 4 4 4 4 4 4 4 4 4 4 4 4 4 4 4 4 4 4 4 4 4 4 4 4 4 4 4 4 4 4 4 4 4 4 4 4 4 4 4 4 4 4 4 4 4 & 4 4 & & % & & % 4 4 4 4 4 4 4 4 4 4 4 4 4 4 4 4 4 4 4 4 4 4 e a 4 4 4 a 4 4 4 4 4 4 4 4 4 4 4 4 4 4 4 4 4 4 4 4 4 4 4 4 4 4 4 4 4 4 4 4 4 4 4 c e 4 4 4 4 4 4 f 4 4 4 4 4 e s 4 4 4 4 4 a s 4 4 4 4 4 s e 4 4 4 4 4 x Z 4 3 j j 3 s 5 - >.`.^.R 7.7.8 4 4 4 e s 4 4 4 4 & S ..& 4 4 4 4 a x x & y v z z v ",
"4 4 4 4 4 4 4 4 4 4 4 4 4 4 4 4 4 4 4 4 4 4 4 4 4 4 4 4 4 4 4 4 4 4 4 4 4 4 4 4 4 4 4 4 4 4 4 4 4 4 4 4 4 4 4 4 4 4 4 4 4 4 4 4 4 4 4 4 4 4 4 4 4 4 4 4 4 4 4 4 4 4 4 4 4 4 4 4 4 4 4 4 4 4 4 4 4 4 4 4 4 4 4 4 4 4 a  .c a x c a x x 4 4 4 4 4 4 4 4 4 4 4 4 4 4 4 4 4 4 4 4 4 s o.d. ...X.o.X.e.S o.o. ... .4 4 4 4 4 4 4 4 4 4 4 4 4 4 4 4 4 4 4 4 4 4 4 4 4 4 4 c a s s s s s s c s s s s s f x s s s s s x c s s s s s x f s s s s f S s s r R R r c s g 2.).^.R 7.8.f s s s f x s s s s e  .o.4 s s s s f x x & y v z z v ",
"4 4 4 4 4 4 4 4 4 4 4 & & & 4 4 4 4 & 4 4 4 4 4 4 4 4 4 4 4 4 4 4 4 4 4 4 % 4 4 & 4 & 4 4 4 4 4 4 4 4 4 4 4 4 4 4 & 4 4 4 4 4 4 4 4 4 & % 4 4 & 4 4 4 4 4 4 4 4 4 4 4 & 4 4 4 4 4 4 4 4 4 4 4 4 4 4 4 4 4 4 4 4 4 % b b x X.j.Z e.j.j.4 4 4 4 4 4 4 4 4 4 4 4 4 4 4 4 4 4 4 4 4 s  .Z j.Z o...o.o.x e.S e. .X.4 4 4 4 4 4 4 4 4 4 4 4 4 4 4 4 4 & 4 4 4 4 4 4 4 4 4 c 4 4 4 4 4 4 4 s 4 4 4 4 4 4 a & 4 4 4 & 4 s & 4 4 4 & a 4 4 4 4 4 x x 4 4 3 j j % a 4 $ | `.L 8 7.7.4 4 4 4 4 a 4 4 4 4 # Z S 4 S S 4 & 4 x x & y v z z v ",
"4 4 4 4 4 4 & c S s s s x b s s s S f 4 4 4 4 4 4 4 4 4 4  .S s e S b 4 a b b s s a x 4 4 4 &  .x  .e Z x a s 4 s x 4 4 4 4 4 4 4 a S c S s a s  .s 4 4 4 4 4 4 4 o.c a S s a s s s s 4 4 4 4 4 4 4 4 4 4 4 4 4 4 4 4 S c  .b 4 b x b 4 4 4 4 4 4 4 4 4 4 4 4 4 4 4 4 4 4 4 4 4 4 4 4 S 4 a 4 e 4 4 4 a e 4 a 4 4 4 4 4 4 4 4 4 4 4 4 4 4 c x c s Z f ..4 4 4 4 4 4 c 4 4 4 4 4 4 4 s 4 4 4 4 4 4 s 4 4 4 4 4 e s 4 4 4 4 4 s 4 4 4 4 c a s 4 4 3 j j 3 s 4 $ { <X- 4 7.7.8 4 4 4 4 s 4 4 4 4 % Z X.b j.o.a 4 e x x & y v z z v ",
"4 4 4 4 4 4 4 X.e ..o.o.o.o... .o.o.o.s 4 4 4 4 4 4 4 4 4 d.e.j.j.o.o. .o. .o.o...o.o.s 4 4 % o.j.e.X.k.e.e.j.S o.o.c & 4 4 4 4 % S k.o.o.S k. .e.X.% 4 4 4 4 4 a l.o.j.e.j.o.e.e.e.k.s 4 4 4 4 4 4 & & 4 4 4 4 4 4 4 4 4 & & 4 & 4 4 4 & 4 4 4 4 4 4 4 4 4 4 4 4 4 4 & & 4 4 4 4 4 4 4 4 4 4 4 4 4 4 4 4 & & 4 4 4 4 4 4 4 4 4 4 4 4 4 %  .d.j...o.o.o.4 4 4 4 4 4 c 4 4 4 4 4 4 4 s 4 4 4 4 4 4 a 4 4 4 4 4 e s 4 4 4 4 4 a 4 4 4 x f & s 4 4 3 j j 3 s 4 # O.<X$ 4 7.7.4 4 4 4 4 s 4 4 4 4 % Z ..& f x 4 4 e x x & y v z z v ",
"4 4 4 4 4 4 & c S Z S x c  .f c S c S s 4 4 4 4 4 4 4 4 4 c b  .Z  .S ..S b S Z S b c a 4 4 4 c  .Z X...S  .Z  .o.o.a 4 4 4 4 4 4 c c  .b ..X.S S Z 4 4 4 4 4 4 e b Z  .b S S X.S .. .4 4 4 4 4 4 4 f f 4 & 4 & % e 4 4 4 4 4 4 4 4 4 4 f 4 & & & & & 4 4 4 4 4 4 4 4 s x 4 % 4 & % 4 4 & 4 4 4 4 4 4 4 4  .b 4 e a 4 e 4 4 4 4 4 4 4 4 4 x f S S b S  .4 4 4 4 4 4 c 4 4 4 4 4 4 4 s 4 4 4 4 4 4 a 4 4 4 4 4 e s 4 4 4 4 4 a 4 & s x 4 4 s 4 4 3 j j 3 s 4 # O.`.# 8 7.7.4 4 4 4 4 s 4 4 4 4 % Z  .# 4 & 4 4 e x x & y v z z v ",
"4 4 4 4 4 4 4 4 4 4 4 4 4 4 4 4 4 4 4 4 4 4 4 4 4 4 4 4 4 4 & 4 4 4 4 4 4 4 4 4 4 4 4 4 4 4 4 4 & & & & & 4 4 % s a & 4 4 4 4 4 4 4 & 4 4 4 & 4 4 4 4 4 4 4 4 4 4 4 & 4 4 & 4 & 4 & 4 4 4 4 4 4 4 4 X.o...c b S Z  .o.e 4 4 4 4 4 4 4 4 X. .c b Z b c 4 4 4 4 4 4 4 4 ..o...c b Z Z S o.a 4 4 4 4 4 4 4 4 S ....o.X.j.X.& 4 4 4 4 4 4 4 4 4 4 & 4 & 4 4 4 4 4 4 4 4 c 4 4 4 4 4 4 4 s 4 4 4 4 4 4 a 4 4 4 4 4 e s 4 4 4 4 4 s 4 e c 4 4 4 s 4 4 3 j j 3 s 4 # O.(.# 8 7.7.4 4 4 4 4 s 4 4 4 4 % Z  .# 4 4 4 4 e x x & y v z z v ",
"4 4 4 4 4 4 4 4 4 4 4 4 4 4 4 4 4 4 4 4 4 4 4 4 4 4 4 4 4 4 4 4 4 4 4 4 4 4 4 4 4 4 4 4 4 4 4 4 4 4 4 4 4 4 4 4 4 4 4 4 4 4 4 4 4 4 4 4 4 4 4 4 4 4 4 4 4 4 4 4 4 4 4 4 4 4 4 4 4 4 4 4 4 4 4 4 4 & b S ..e.Z l.X.e.X.b & 4 4 4 4 4 4 a .. .o.o...k. .& 4 4 4 4 4 4 & b S ..e.Z l.X.e.X.b & 4 4 4 4 4 4 s o.S ..Z c o.b 4 4 4 4 4 4 4 4 4 4 4 4 4 4 4 4 4 4 4 4 4 4 c 4 4 4 4 4 4 4 s 4 4 4 4 4 4 a 4 4 4 4 4 e s 4 4 4 4 4 a e c 4 4 4 4 s 4 4 3 j j 3 s 4 # -.^ O 8 7.7.4 4 4 4 4 a 4 4 4 4 # Z  .# 4 4 4 4 4 x x & y v z z v ",
"4 4 4 4 4 4 4 4 4 4 4 4 4 4 4 4 4 4 4 4 4 4 4 4 4 4 4 4 4 4 4 4 4 4 4 4 4 4 4 4 4 4 4 4 4 4 4 4 4 4 4 4 4 4 4 4 4 4 4 4 4 4 4 4 4 4 4 4 4 4 4 4 4 4 4 4 4 4 4 4 4 4 4 4 4 4 4 4 4 4 4 4 4 4 4 4 4 4 s s s f 4 x f c s a 4 4 4 4 4 4 4 s S x c s s x s 4 4 4 4 4 4 4 4 s s s f 4 x f c s a 4 4 4 4 4 4 4 4 4 4 4 4 4 4 4 4 4 4 4 4 4 4 4 4 4 4 4 4 4 4 4 4 4 4 4 4 4 c e 4 4 4 4 4 4 f 4 4 4 4 4 e s 4 4 4 4 4 a s 4 4 4 4 4 s Z a 4 4 4 4 s e 4 3 j j 3 s e # 2.! % 8 7.7.8 4 4 4 4 s 4 4 4 4 & S ..& 4 4 4 4 a x x & y v z z v ",
"4 4 4 4 4 4 4 4 4 4 4 4 4 4 4 4 4 4 4 4 4 4 4 4 4 4 4 4 4 4 4 4 4 4 4 4 4 4 4 4 4 4 4 4 4 4 4 4 4 4 4 4 4 4 4 4 4 4 4 4 4 4 4 4 4 4 4 4 4 4 4 4 4 4 4 4 4 4 4 4 4 4 4 4 4 4 4 4 4 4 4 4 4 4 4 4 4 4 4 4 4 & 4 & & % 4 4 4 4 4 4 4 4 4 4 % & & 4 4 & 4 4 4 4 4 4 4 4 4 4 & 4 & 4 & & % 4 4 4 4 4 4 4 4 4 4 4 4 4 4 4 4 4 4 4 4 4 4 4 4 4 4 4 4 4 4 4 4 4 4 4 4 4 4 4 c a a s s s s s c s s s s a s f a s s s a f x a s s s a Z f a s s s a x s s r l l r x s 4 7.,.4 d 7.7.s a s s s f a s s s 4  .X.4 a e s s s x x & y v z z v ",
"s s s s s s s s s s s s s s s s s s s s s s s s s s s s s s s s s s s s s s s s s s s s s s s s s s s s s s s s s s s s s s s s s s s s s s s s s s s s s s s s s s s s s s s s s s s s s s s s s s s s s s s s s s s s s s s s s s s s s s s s s s s s s s s s s s s s s s s s s s s s s s s s s s s s s s s s s s s s s s s s s s s s s s s s s s s s s s s s s 4 c 4 4 4 4 4 4 4 s 4 4 4 4 4 4 a 4 4 4 4 4 4 s & 4 4 & f c 4 4 4 4 4 4 s 4 4 3 j j 3 s 4 # 8.N # 8 7.7.4 4 4 4 4 a 4 4 4 4 # Z S 4 x c 4 4 4 x x & y v z z v ",
"4 4 4 4 4 4 4 4 4 4 4 4 4 4 4 4 4 4 4 4 4 4 4 4 4 4 4 4 4 4 4 4 4 4 3 3 3 3 4 4 4 4 4 4 4 4 4 4 4 4 4 3 2 3 3 4 4 4 4 4 4 4 4 4 4 4 4 4 % 3 % 4 4 4 4 4 4 4 4 4 4 4 4 4 4 6 6 6 4 4 4 4 4 4 4 4 4 4 4 4 4 % % % 3 4 4 4 4 4 4 4 4 4 4 4 4 3 2 3 2 4 4 4 4 4 4 4 4 4 4 4 4 4 4 4 4 4 4 4 4 4 4 4 4 4 4 4 4 4 4 3 3 3 4 4 4 4 4 4 4 4 4 4 4 4 4 3 3 3 3 4 4 4 4 4 4 4 c 4 4 4 4 4 4 4 s 4 4 4 4 4 4 a 4 4 4 4 4 e s 4 4 4 s x e 4 4 4 4 4 4 s 4 4 3 j j 3 s 4 $ -Xn & 8 7.7.8 4 4 4 4 s 4 4 4 4 % Z ..b o. .s & e x x & y v z z v ",
"O O O O O O O O O O O O O O 4 4 & 4 4 & 4 4 & 4 4 & 4 4 4 4 4 4 4 3 q Y Y I 4 4 4 4 4 4 4 4 4 4 4 4 3 R / Y U 3 4 4 4 4 4 4 4 4 4 4 3 8 W 3.! 0 % 4 4 4 4 4 4 4 4 4 4 & p ( ( ( 4 4 4 4 4 4 4 4 4 4 4 3 4 3.7.9.k % 4 4 4 4 4 4 4 4 4 4 3 R / ^ ~ 3 3 4 4 4 4 4 4 4 4 4 4 4 d M M a 3 4 4 4 4 4 4 4 4 4 4 3 s Q Q D 4 4 4 4 4 4 4 4 4 4 4 4 4 U Y Y q 3 4 4 4 4 4 4 c 4 4 4 4 4 4 4 s 4 4 4 4 4 4 a 4 4 4 4 4 e s 4 4 a c 4 a 4 4 4 4 4 4 s 4 4 3 j j 3 s 4 - -Xu & 8 7.7.4 4 4 4 4 s 4 4 4 4 % Z ..s Z b 4 4 e x x & y v z z v ",
").).).).).).).).).).).).).).h x b c c b e f b c c b s 4 4 4 4 4 3 U T H > I T 8 4 4 4 4 4 4 4 4 4 3 / /.U > Y Y 4 4 4 4 4 4 4 4 4 3 0 9.W 9 q 9.l % 4 4 4 4 4 4 4 4 $ ( s.p p ( s.4 4 4 4 4 4 4 4 4 3 0 +X3.q W %XW % 4 4 4 4 4 4 4 4 3 ~ /.U > T /.8 4 4 4 4 4 4 4 4 4 4 C d & 8 C d 4 4 4 4 4 4 4 4 4 3 M Q g 8 D Q 4 4 4 4 4 4 4 4 4 4 4 T I > H T I 3 4 4 4 4 4 c 4 4 4 4 4 4 4 s 4 4 4 4 4 4 a 4 4 4 4 4 e s & 4 c 4 4 s 4 4 4 4 4 4 s 4 4 3 j j 3 s 3 > <Xu & 8 7.7.4 4 4 4 4 s 4 4 4 4 % Z  .# 4 4 4 4 e x x & y v z z v ",
"3X`.@X@X#X#X#X@X#X#X@X@X`.3XR b c S x S s b b b b Z c & 4 4 4 3 9 T + O 4 X H Y 3 4 4 4 4 4 4 4 3 R /.X X O X Y U 3 4 4 4 4 4 4 4 4 3.q X 4 O ; 9.8 4 4 4 4 4 4 4 4 p s.. o 4 = ( ( $ 4 4 4 4 4 4 4 % 7.W   3 O $ %X0 3 4 4 4 4 4 4 3 j /.+ O 3 X ~ ~ 3 4 4 4 4 4 4 4 4 M d   # . + D 8 4 4 4 4 4 4 4 4 a Q +   #   l Q 3 4 4 4 4 4 4 4 3 I I X 3 O + T q 3 4 4 4 4 c 4 4 4 4 4 4 4 s 4 4 4 4 4 4 a 4 4 4 4 4 e s 4 c e 4 4 a 4 4 4 4 4 4 s 4 4 3 j j 3 s 3 J <Xu & 8 7.7.4 4 4 4 4 s 4 4 4 4 % Z  .# 4 4 4 4 e x x & y v z z v ",
">X/.).`.#X#X@X`.@X>X>X)./.>XR v f o.x c s c c j.o.x x & 4 4 4 3 I I X B X.x o T 8 4 4 4 4 4 4 4 2 ^ U O b S r ; T 3 4 4 4 4 4 4 3 0 3.. s  . .X W C % 4 4 4 4 4 4 $ ( p o S S # O ( 4 4 4 4 4 4 4 3 0 8.. s ..c   3.W % 4 4 4 4 4 4 2 / E X S B # o T 4 4 4 4 4 4 4 4 4 D . % x s   d d 3 4 4 4 4 4 4 % D l   s x # . Q 4 4 4 4 4 4 4 4 4 T + 4 ....O H I 3 4 4 4 4 c 4 4 4 4 4 4 4 s 4 4 4 4 4 4 a 4 4 4 4 4 e a x s 4 4 4 a 4 4 4 4 4 4 s 4 4 3 j j 3 s 2 K -Xu & 8 7.7.4 4 4 4 4 s 4 4 4 4 % Z  .# 4 4 4 4 e x x & y v z z v ",
">X/.).`.`.).).).`.`.`.)./.>XR v f S x c s c x ..S c x & 4 4 4 3 I H O f Z x o T 8 4 4 4 4 4 4 4 3 ^ > O S  .e ; Y 3 4 4 4 4 4 4 3 0 3.  4 b S . W C % 4 4 4 4 4 4 $ ( p o Z b & O ( 4 4 4 4 4 4 4 3 d 8.. s S c X W W % 4 4 4 4 4 4 2 / I X S S s + T 4 4 4 4 4 4 4 4 4 C . & f e   8 d 4 4 4 4 4 4 4 % D k   s s # . D 4 4 4 4 4 4 4 4 4 T o 4 x S O H I 3 4 4 4 4 c 4 4 4 4 4 4 4 s 4 4 4 4 4 4 a 4 4 4 4 4 4 b s & 4 4 4 a 4 4 4 4 4 4 s 4 4 3 j j 3 s 2 P +Xu $ 4 7.7.4 4 4 4 4 a 4 4 4 4 # Z  .# 4 4 4 4 4 x x & y v z z v ",
"3X@X@X@X@X@X@X@X@X@X@X@X@X3XR A b c x S s b b x x S c & 4 4 4 3 q T . . 4 X > Y 3 4 4 4 4 4 4 4 3 E T X & 4 X I I 3 4 4 4 4 4 4 4 4 8.9 . a # + 9.8 4 4 4 4 4 4 4 $ p (   % e o p ( 4 4 4 4 4 4 4 4 3 8.q   a % + 9.0 3 4 4 4 4 4 4 3 R /.X # a X H Y 3 4 4 4 4 4 4 4 4 C 8   # + . d 8 4 4 4 4 4 4 4 3 d Q . . %   8 D 4 4 4 4 4 4 4 4 3 Y H   % & X Y q 3 4 4 4 4 c a s s s s s s c s s s s s f c s s s s s c Z s s s s s c f s s s s s c f s r R R r c t ^.7.[ a x 8.8.f s s s f c s s s f a  .o.e s s s s f x x & y v z z v ",
"/.(.(.(.(.(.(.(.(.(.(.(.(.(.9 s c x x c 4 s c x x c a 4 4 4 4 4 3 Y Y O . $ T 9 3 4 4 4 4 4 4 4 4 3 _.E X . : T 4 4 4 4 4 4 4 4 4 % W %X# . O 3.W % 4 4 4 4 4 4 4 4 6 s.( o . t ( e 4 4 4 4 4 4 4 4 % m %X& . . ! W % 4 4 4 4 4 4 4 4 3 /.~ X . ; T 8 4 4 4 4 4 4 4 4 4 8 Q & . + d d 4 4 4 4 4 4 4 4 4 % Q D . . & D a 4 4 4 4 4 4 4 4 4 8 ^.; . O I Y 3 4 4 4 4 4 c 4 4 4 4 4 4 4 s 4 4 4 4 4 4 s 4 4 4 4 a Z a 4 4 4 4 4 s 4 4 4 4 4 4 s 4 4 3 j j 3 s 3 [.2.u & 8 7.7.8 4 4 4 4 s 4 4 4 4 % S  .4 Z c 4 4 e x x & y v z z v ",
"t u r r r r r r t t t t t t x f f f f x x x x x x x a 4 4 4 4 4 4 4 9 4 4 8 8 3 4 4 4 4 4 4 4 4 4 4 8 9 4 4 8 8 4 4 4 4 4 4 4 4 4 4 3 d 4 4 4 0 4 4 4 4 4 4 4 4 4 4 4 4 r 4 4 e e 4 4 4 4 4 4 4 4 4 4 3 d 8 4 4 0 4 4 4 4 4 4 4 4 4 4 4 4 9 4 4 8 8 3 4 4 4 4 4 4 4 4 4 4 4 4 4 4 4 4 4 4 4 4 4 4 4 4 4 4 4 a 4 4 4 4 4 4 4 4 4 4 4 4 4 4 3 8 8 4 4 9 4 4 4 4 4 4 4 c 4 4 4 4 4 4 4 s 4 4 4 4 4 4 a 4 4 4 4 c a s 4 4 4 4 4 a 4 4 4 4 4 4 s 4 4 3 j j 3 s 4 [.-.u & 4 7.7.4 4 4 4 4 s 4 4 4 4 % Z ..e Z b e 4 e x x & y v z z v ",
"S c b b b b b b b S S S S S Z S S S Z c c c c c c S c & 4 4 4 & 4 4 4 4 4 4 4 4 4 4 4 4 4 4 4 4 4 4 4 3 4 4 4 4 4 4 4 4 4 4 4 4 4 4 4 & 4 4 4 4 4 4 4 4 4 4 4 4 4 4 4 4 4 4 4 4 4 4 4 4 4 4 4 4 4 4 4 4 3 4 4 4 3 4 4 4 4 4 4 4 4 4 4 4 4 3 4 4 4 4 4 4 4 4 4 4 4 4 4 4 4 4 4 4 4 4 4 4 4 4 4 4 4 4 4 4 4 4 4 4 4 4 4 4 4 4 4 4 4 4 4 4 4 4 4 3 4 4 4 4 4 4 4 4 4 4 c 4 4 4 4 4 4 4 s 4 4 4 4 4 4 a 4 4 4 c 4 4 s 4 4 4 4 4 a 4 4 4 4 4 4 s 4 4 3 j j 3 s 8 ].| u & 8 7.7.4 4 4 4 4 s 4 4 4 4 % Z ..e x Z 4 4 e x x & y v z z v ",
"Z s s s s f s S e.j.o.X.e.j.j.o.X.o.S s s s s s s c x & 4 4 4 s s s 4 a 4 a 4 4 s s 4 4 4 4 4 4 a 4 4 a e 4 & 4 s a 4 4 4 4 4 4 s 4 a 4 a 4 4 4 % & & 4 4 4 4 4 4 4 4 a 4 a 4 & & & 4 4 4 4 4 4 4 a a s 4 e e a 4 & e s a 4 4 4 4 4 e 4 a 4 s 4 a 4 4 s s 4 4 4 4 4 4 4 4 4 4 4 e 4 & 4 a e 4 4 4 4 4 4 4 e 4 4 e e 4 4 e e 4 4 4 4 4 4 4 a 4 s 4 & & & & 4 4 4 4 4 c 4 4 4 4 4 4 4 s 4 4 4 4 4 4 a 4 4 c s & e s 4 4 4 4 4 a 4 4 4 4 4 4 s 4 4 3 j j 3 r h [.{ v & 8 7.7.4 4 4 4 4 s 4 4 4 4 % Z  .# 4 4 4 4 e x x & y v z z v ",
"Z s f f f f s Z  .Z  .S ....X...X...S s f f f f s c x & 4 4 4 S ..S f  .o.X.s b o.e.S & 4 4 4 4 X.b c o.o.b a o.o.e.e 4 4 4 & c X.s ..o. .X.x s ..Z c c 4 4 4 4 & S  ...o. .s  .S c b 4 4 4 4 4 4 s ..S b a e.X.b s o.o.o.4 4 4 4 4  .S j.4 b e.X.a Z o.e.Z & 4 4 4 s b b x x b c c 4 S S  .4 4 4 4 4 b f Z e Z x Z e x S  .c 4 4 4 4 4 S  .s o.s b ..c b a 4 4 4 4 c 4 4 4 4 4 4 4 s 4 4 4 4 4 4 s & f f 4 4 e s 4 4 4 4 4 a 4 4 4 4 4 4 s 4 4 3 j j 3 r R [.[ n & 8 7.7.4 4 4 4 4 s 4 4 4 4 % Z  .# 4 4 4 4 e x x & y v z z v ",
"S x x x x x x x f x x x x x f c x x x x x x x x f b c & 4 e f b c  .c  .j...c X.o.j...& 4 4 4 e .. .S o.e.Z S o.e.j.s 4 4 4 & b X.S  .j. . .f c o.......4 4 4 4 & x ....j.S c o.X. .o.4 4 4 4 4 f b S S b a j.o.Z S o.e.d.a 4 4 a f c ..j.f S S e.c o.o.j. .& 4 4 s s c b Z b S b c x S  . .a 4 4 4 s x s Z c  .c Z f Z S  .b 4 4 4 4 4 S ..S X.c ..o. .o.c & 4 4 4 c 4 4 4 4 4 4 4 s 4 4 4 4 4 4 e s x 4 4 4 e s 4 4 4 4 4 a 4 4 4 4 4 4 s 4 4 3 j j 3 t E ^.[ n & 8 7.7.8 4 4 4 4 s 4 4 4 4 % Z  .# 4 4 4 4 e x x & y v z z v ",
"b b b b b b b b b b b b b b b b b b b b b b b b b Z s 4 4 4 4 s f S s c x b 4 c c b f 4 4 4 4 4 c c f c c s a b c b 4 4 4 4 4 a b s c x c a e e s s f c 4 4 4 4 4 a s c x c 4 s s s c 4 4 4 4 4 & c Z S c c x b s a b c b 4 4 4 4 4 s f c x S x x 4 c c b s 4 4 4 4 4 a s s s f x a 4 x s x 4 4 4 4 4 e s x s s f f 4 f f x s 4 4 4 4 4 s b s b 4 s s s c s 4 4 4 4 c 4 4 4 4 4 4 4 s 4 4 4 4 4 4 f x 4 4 4 4 4 s & 4 4 4 4 a 4 4 4 4 4 & s 4 4 3 j j 3 5 / P [ n # 4 7.7.4 4 4 4 4 a 4 4 4 4 # Z  .# 4 4 4 4 4 x x & y v z z v ",
"4 4 4 4 4 4 4 4 4 4 4 4 4 4 4 4 4 4 4 4 4 4 4 4 4 4 4 4 4 4 4 4 4 % 4 & & & 4 & & & 4 4 4 4 4 4 & & & & & 4 4 % & & 4 4 4 4 4 4 & 4 & & & 4 4 4 4 4 4 & 4 4 4 4 4 4 4 & & & 4 4 4 4 & 4 4 4 4 4 4 & & % & & & & 4 4 & & & 4 4 4 4 4 4 4 & & % 4 & 4 & & & 4 4 4 4 4 4 4 4 4 4 4 4 4 4 & 4 & 4 4 4 4 4 4 4 4 4 4 4 4 4 4 4 & 4 4 4 4 4 4 4 & 4 & 4 4 4 4 & 4 4 4 4 4 c a a a a a a a x a a a a a s S s a a a a s x e a a a a f s a a a a a x s a r l l r t /.~ [ { e s 7.7.s a a a s f a a a s 4 S X.4 a a a a s x x & y v z z v ",
"4 4 4 4 4 4 4 4 4 4 4 4 4 4 4 4 4 4 4 4 4 4 4 4 4 4 4 4 4 4 4 4 4 4 4 4 4 4 4 4 4 4 4 4 4 4 4 4 4 4 4 4 4 4 4 4 4 4 4 4 4 4 4 4 4 4 4 4 4 4 4 4 4 4 4 4 4 4 4 4 4 4 4 4 4 4 4 4 4 4 4 4 4 4 4 4 4 4 4 4 4 4 4 4 4 4 4 4 4 4 4 4 4 4 4 4 4 4 4 4 4 4 4 4 4 4 4 4 4 4 4 4 4 4 4 4 4 4 4 4 4 4 4 4 4 4 4 4 4 4 4 4 4 4 4 4 4 4 4 4 4 4 4 4 4 4 4 4 4 4 4 4 4 4 4 4 4 4 c e 4 4 4 4 4 4 f 4 4 4 4 4 Z s 4 4 4 4 4 s s 4 4 4 4 4 s a 4 4 4 4 4 f a 4 3 j j 4 r _.J [ v & a 7.7.a 4 4 4 e s 4 4 4 e 4 S ..4 s s e 4 a x x & y v z z v ",
"s s s s s s s s s s s s s s s s s s s s s s s s s s s s s s s s s s s s s s s s s s s s s s s s s s s s s s s s s s s s s s s s s s s s s s s s s s s s s s s s s s s s s s s s s s s s s s s s s s s s s s s s s s s s s s s s s s s s s s s s s s s s s s s s s s s s s s s s s s s s s s s s s s s s s s s s s s s s s s s s s s s s s s s s s s s s s s s s s 4 c 4 4 4 4 4 4 4 s 4 4 4 4 x s e 4 4 4 4 4 4 s 4 4 4 4 4 a 4 4 4 4 4 4 s 4 4 3 j j 3 r ].: [ v % 4 7.7.4 4 4 4 4 a 4 4 4 4 # Z  .c X.X.4 & 4 x x & y v z z v ",
"4 4 4 4 4 4 4 4 4 4 4 4 4 4 4 4 4 4 4 4 4 4 4 4 4 4 4 4 4 4 4 4 4 4 3 3 4 3 4 4 4 4 4 4 4 4 4 4 4 4 4 2 3 4 3 4 4 4 4 4 4 4 4 4 4 4 4 % # 4 % % 4 4 4 4 4 4 4 4 4 4 4 4 $ 4 4 $ 4 4 4 4 4 4 4 4 4 4 4 4 & # 4 % % 4 4 4 4 4 4 4 4 4 4 4 4 3 3 4 2 4 4 4 4 4 4 4 4 4 4 4 4 4 3 4 4 3 4 4 4 4 4 4 4 4 4 4 4 4 % 3 4 % 4 4 4 4 4 4 4 4 4 4 4 4 4 3 4 3 3 4 4 4 4 4 4 4 c 4 4 4 4 4 4 4 s 4 4 4 f f 4 s 4 4 4 4 4 e s 4 4 4 4 4 a 4 4 4 4 4 4 s 4 4 3 j j 3 d ].; { v & 8 7.7.4 4 4 4 4 s 4 4 4 4 % Z X.c .. .e 4 e x x & y v z z v ",
"4 4 4 4 4 4 4 4 4 4 4 4 4 4 4 4 4 4 4 4 4 4 4 4 4 4 4 4 4 4 4 4 4 3 U T T Y 8 3 4 4 4 4 4 4 4 4 4 4 4 ~ /.T I 4 4 4 4 4 4 4 4 4 4 4 % k 7.8.8.C % 4 4 4 4 4 4 4 4 4 4 4 ( s.s.( 4 4 4 4 4 4 4 4 4 4 4 % d 7.8.8.W % 4 4 4 4 4 4 4 4 4 4 3 E /././ 8 3 4 4 4 4 4 4 4 4 4 4 4 M C D d 4 4 4 4 4 4 4 4 4 4 4 4 M Q Q Q 8 4 4 4 4 4 4 4 4 4 4 3 8 Y T T U 3 4 4 4 4 4 4 c 4 4 4 4 4 4 4 s 4 4 s x & 4 a 4 4 4 4 4 e s 4 4 4 4 4 a 4 4 4 4 4 4 s 4 4 3 j j 2 l ].# { v & 8 7.7.4 4 4 4 4 s 4 4 4 4 % Z  .# 4 & 4 4 e x x & y v z z v ",
"Z Z b b b b b b b b b b b S e b Z b b S a c Z b b S f 4 4 4 4 4 3 ~ Y ; @ H ^.9 3 4 4 4 4 4 4 4 4 3 /.T ; ; I T 4 4 4 4 4 4 4 4 4 % C %Xk $ q +X3.% 4 4 4 4 4 4 4 4 4 ( ( 2 O ( s.e 4 4 4 4 4 4 4 4 % k %XW $ 9 8.3.% 4 4 4 4 4 4 4 4 3 / T ; ; E `.9 3 4 4 4 4 4 4 4 4 8 D 8 + $ C M 3 4 4 4 4 4 4 4 4 3 D Q & @ d f.a 4 4 4 4 4 4 4 4 4 8 T H @ ; Y Y 3 4 4 4 4 4 c 4 4 4 4 4 4 4 s 4 a c 4 4 4 a 4 4 4 4 4 e s 4 4 4 4 4 a 4 4 4 4 4 4 s 4 4 3 j j 2 E _.O | v & 8 7.7.4 4 4 4 4 s 4 4 4 4 % Z ..# 4 4 4 4 e x x & y v z z v ",
"S s S S S S b ..b S S Z s Z s b x S f Z s c c S Z b c & 4 4 4 3 j /.X O s X > Y 3 4 4 4 4 4 4 4 3 E T X # % X I I 3 4 4 4 4 4 4 4 4 8.9 X s O + 8.0 4 4 4 4 4 4 4 $ p ( = 4 s o ( ( $ 4 4 4 4 4 4 4 3 8.q X s % . +Xk % 4 4 4 4 4 4 3 R /.X % s X I ^ 3 4 4 4 4 4 4 4 4 C 8   4 # . C a 4 4 4 4 4 4 4 3 d Q . . 4   g Q 3 4 4 4 4 4 4 4 3 Y H X s 4 X T q 3 4 4 4 4 c 4 4 4 4 4 4 4 s 4 c 4 4 4 4 s 4 4 4 4 4 e s 4 4 4 4 4 s 4 4 4 4 4 4 s 4 4 3 j j 2 / /.O | v & 8 7.7.8 4 4 4 4 s 4 4 4 4 % Z ..# 4 4 4 4 e x x & y v z z v ",
"Z s j.d.o.j.j...S X.j.k.s Z s b f o.c b s c c k.e.c c & 4 4 4 2 ~ E X s  .c o T 8 4 4 4 4 4 4 4 3 ^ > # b S s ; Y 3 4 4 4 4 4 4 % k 7.  c  .s   W C % 4 4 4 4 4 4 $ ( p + S S % O ( 4 4 4 4 4 4 4 3 d 8.. f  .x   W W % 4 4 4 4 4 4 2 / I O S  .f + /.4 4 4 4 4 4 4 4 4 C . & x f . g d 3 4 4 4 4 4 4 % D l   f x 4 . Q 4 4 4 4 4 4 4 4 4 T o e  .X.% H I 3 4 4 4 4 c 4 & 4 4 4 4 4 s c 4 & 4 4 4 a & 4 4 4 & 4 a & 4 4 4 & a 4 4 4 4 4 & s 4 4 3 j j O P ~ O { v # 4 7.7.4 4 4 4 4 a & 4 4 4 # b  .# 4 4 4 & 4 x x & y v z z v ",
"Z s b Z Z  .c c f S c S s b s b s Z f c s c f S c c x & 4 4 4 2 ~ ~ X b S s + T 8 4 4 4 4 4 4 4 2 ^ U O S S 3 ; T 3 4 4 4 4 4 4 % d 8.  s S c X W C % 4 4 4 4 4 4 $ ( p o Z Z & O ( 4 4 4 4 4 4 4 3 0 8.. e S c X W W % 4 4 4 4 4 4 2 / I X b c # @ /.4 4 4 4 4 4 4 4 4 D . # s 4   d d 3 4 4 4 4 4 4 % D l   a a + + Q 4 4 4 4 4 4 4 4 4 T + 3 f S O H I 3 4 4 4 4 c a s s s s s a Z c a s s s s x s s s s s f x s s s s s x s s s s s s c s s r R R t _.E 3 +.{ a f 7.7.s s s s s x s s s s 4  .X.4 s s s s s x x & y v z z v ",
"S b c c c c c c b c c c c S s S Z c c S s b Z c c S c & 4 4 4 3 q _.@ . & X H Y 3 4 4 4 4 4 4 4 3 R /.. # # X Y U 3 4 4 4 4 4 4 4 3 8.W   & . ; 9.8 4 4 4 4 4 4 4 4 p s.. + & . p p 4 4 4 4 4 4 4 4 % 7.W   & + $ 9.8 4 4 4 4 4 4 4 3 j /.+ + & X I ~ 3 4 4 4 4 4 4 4 4 M d   + . + k 8 4 4 4 4 4 4 4 4 a Q + . +   g D 3 4 4 4 4 4 4 4 3 I I   + + + T q 3 4 4 4 4 c e 4 e e e 4 c b 4 e e e 4 a s 4 e e e 4 s f 4 e e e 4 s a 4 e e e 4 f a 4 4 j j 3 ].l % | v 4 s 7.7.a 4 e 4 a s 4 e e e 4 S X.4 a e e 4 s x x & y v z z v ",
"s f f f f f f f f f f f f f 4 s f f f f 4 a f f f f 4 4 4 4 4 4 2 ~ / O + - T 8 4 4 4 4 4 4 4 4 4 3 /.E O O q Y 3 4 4 4 4 4 4 4 4 % k %X4 + # 3.l % 4 4 4 4 4 4 4 4 $ ( ( o + t ( 4 4 4 4 4 4 4 4 4 3 d %X8 + O ! W % 4 4 4 4 4 4 4 4 2 / / O + 9 T 4 4 4 4 4 4 4 4 4 4 4 D 4 + # d a 4 4 4 4 4 4 4 4 4 % D Q + + 4 D 4 4 4 4 4 4 4 4 4 4 8 T 9 + O I I 3 4 4 4 4 4 c 4 4 4 4 & s x s 4 4 4 4 4 4 a 4 4 4 4 4 4 s & 4 4 4 4 a 4 4 4 4 4 & s 4 4 3 j h 4 ].8 # { v # 4 7.7.4 4 4 4 4 a 4 4 4 4 # Z  .# 4 4 4 4 4 x x & y v v z v ",
"c c c c c c c c c x x x x x c c x x c c b c c c c b s 4 4 4 4 4 4 3 4 4 4 4 4 4 4 4 4 4 4 4 4 4 4 4 4 8 4 4 4 4 4 4 4 4 4 4 4 4 4 4 3 4 4 4 4 4 3 4 4 4 4 4 4 4 4 4 4 4 4 4 4 4 4 4 4 4 4 4 4 4 4 4 4 3 4 4 4 4 4 3 4 4 4 4 4 4 4 4 4 4 3 8 4 4 4 4 4 4 4 4 4 4 4 4 4 4 4 4 4 4 4 4 4 4 4 4 4 4 4 4 4 4 4 4 4 4 4 4 4 4 4 4 4 4 4 4 4 4 4 4 4 4 4 4 4 3 4 4 4 4 4 4 c 4 4 4 4 a c 4 s 4 4 4 4 4 4 a 4 4 4 4 4 e s 4 4 4 4 4 a 4 4 4 4 4 4 s 4 4 3 j h j ].3 $ { v & 8 7.7.4 4 4 4 4 s 4 4 4 4 % Z  .# 4 4 4 4 e x f & 4 4 4 4 4 ",
"S x c x x x x c b S S  .S S S S S S Z x x x x c x Z c & 4 4 4 & 4 4 4 & 4 & 4 4 4 & 4 4 4 4 4 4 & 4 4 & & 4 4 4 & & 4 4 4 4 4 4 4 4 4 4 4 & 4 4 4 4 4 4 4 4 4 4 4 4 4 & 4 & 4 4 4 4 4 4 4 4 4 4 4 4 & 4 4 4 & & 4 4 4 & & 4 4 4 4 4 4 4 4 & 4 & 4 4 4 & 4 4 4 4 4 4 4 4 4 4 4 4 4 4 4 4 4 4 4 4 4 4 4 4 4 4 4 4 4 4 4 4 4 4 4 4 4 4 4 4 4 & 4 & 4 4 4 4 4 4 4 4 4 4 c 4 4 4 4 c 4 4 s 4 4 4 4 4 4 a 4 4 4 4 4 e s 4 4 4 4 4 a 4 4 4 4 4 4 s 4 4 3 j h E _.2 $ { v & 8 7.7.4 4 4 4 4 s 4 4 4 4 % Z  .# 4 4 4 4 e x f 4 & v { { 5 ",
"Z s f f f f s  .j.j.e.X.e.j.j.o.o.e. .s f f f f s c x & 4 4 4 x 4 s 4 f s x 4 4 x x a 4 4 4 4 4 f a e f s s % s x f 4 4 4 4 4 4 s s x 4 a f & 4 4 4 4 4 4 4 4 4 4 s a f s f & 4 4 4 4 4 4 4 4 4 & s f 4 a a f f a % s x f 4 4 4 4 4 4 f 4 s s x 4 4 x x s 4 4 4 4 4 4 a s e 4 s s e & a s s 4 4 4 4 4 4 s 4 a a s 4 4 s s a 4 4 4 4 4 4 s f 4 c 4 4 4 4 4 4 4 4 4 4 c 4 4 4 c e 4 4 s 4 4 4 4 4 4 a 4 4 4 4 4 e s 4 4 4 4 4 a 4 4 4 4 4 4 s 4 4 3 j 9 ~ ^ 2 $ { v & 8 7.7.4 4 4 4 4 s 4 4 4 4 % Z  .& 4 4 s 4 e x x & r +.+.+.+.",
"Z s s s s s s c Z c S Z S S S S  .S S s s s s s s c x & 4 4 4 c  .o.s  .e.X.f S e.j. .& 4 4 4 4 X.Z c o.o.Z f o.e.d.a 4 4 4 4 4 e o.o.c Z ..s X...Z S 4 4 4 4 4 & S ....e. .f X...Z S 4 4 4 4 4 4 a  .X.b c e.o.b x e.e.e.4 4 4 4 4 c e.a S e.o.x b e.d.X.4 4 4 4 4 s b s c f S  .x s S  . .4 4 4 4 4 s  .e c  .Z s x  . .Z 4 4 4 4 4 4 S  .x o.x S o.Z  .s 4 4 4 4 c 4 & c s 4 4 4 s 4 4 4 4 4 4 a 4 4 4 4 4 e s 4 4 4 4 4 a 4 4 4 4 4 4 s 4 4 3 j h _.E 3 $ { v & 8 7.7.4 4 4 4 4 s 4 4 4 4 % b e.S Z  .Z % e x f 4 4 v { v r ",
"S c c c c c c c c c c c c c x c c c c c c c c c c S c & 4 4 x  ...j.S  .e...c X.o.j. .& 4 4 4 4 .. .S o.o.b Z o.o.d.s 4 4 4 4 & b X... .S  .c X. . .o.4 4 4 4 4 & f  ...e.S c X. . .o.4 4 4 4 4 s Z ..e.X.Z o.o.b S o.o.e.a 4 4 4 e S e.S S e.X.c ..o.e.X.4 4 4 4 s a x b x c S  .x x S S  .e 4 4 4 4 c  .c c  .Z f b S  .S 4 4 4 4 4 4 S X.Z X.c  ...S o.c & 4 4 4 c 4 f f 4 4 4 4 f 4 4 4 4 4 4 s 4 4 4 4 4 e s 4 4 4 4 4 s 4 4 4 4 4 4 s 4 4 3 j j _.l 4 $ | v & 8 7.7.8 4 4 4 4 s 4 4 4 4 % Z o.c b S f 4 e x x & r v 4 v v ",
"c c c c c c c c c c c c c c c c c c c c c c c c c c a 4 4 4 4 c a e s f s f 4 f s x a 4 4 4 4 4 s s s s s a 4 x s x 4 4 4 4 4 4 x x f s s s 4 a e a f 4 4 4 4 4 4 4 e f s s 4 a e a f 4 4 4 4 4 & f x 4 s s s s e 4 x s f 4 4 4 4 4 4 f a f s f 4 s f f s 4 4 4 4 4 4 e s s a a a 4 4 s a s 4 4 4 4 4 4 s e s e s 4 e s s a 4 4 4 4 4 4 a f a x 4 e e e f e 4 4 4 4 c x s % 4 4 4 & s 4 4 4 4 & 4 e & 4 4 4 & 4 a & 4 4 4 & e 4 & 4 4 4 & a 4 & % 9 E [.e 4 @ { y # 4 9.9.4 & 4 & 4 e & 4 4 4 # b S + & % & & 4 c s # v i.+.u.u.",
"4 4 4 4 4 4 4 4 4 4 4 4 4 4 4 4 4 4 4 4 4 4 4 4 4 & 4 4 4 4 4 & 4 4 4 4 4 4 4 4 4 & 4 4 4 4 4 4 4 4 4 4 4 4 4 & 4 & 4 4 4 4 4 4 & & 4 4 4 4 4 4 4 4 4 4 4 4 4 4 4 4 4 4 4 4 4 4 4 4 4 4 4 4 4 4 4 4 & 4 4 4 4 4 4 4 & 4 & 4 4 4 4 4 4 & 4 4 4 4 4 4 4 4 4 4 4 4 4 4 4 4 4 4 4 4 4 4 4 4 4 4 4 4 4 4 4 4 4 4 4 4 4 4 4 4 4 4 4 4 4 4 4 4 4 4 4 & 4 4 4 4 4 4 4 4 4 4 e Z f s f s s s f s s s s s f f s s s s s f f s s s s s f f s s s s s f f s f s l R s f s x f s f x x f s s s f f s s s s s f f s f f f s c b 4 4 r | v | | ",
"4 4 4 4 4 4 4 4 4 4 4 4 4 4 4 4 4 4 4 4 4 4 4 4 4 4 4 4 4 4 4 4 4 4 4 4 4 4 4 4 4 4 4 4 4 4 4 4 4 4 4 4 4 4 4 4 4 4 4 4 4 4 4 4 4 4 4 4 4 4 4 4 4 4 4 4 4 4 4 4 4 4 4 4 4 4 4 4 4 4 4 4 4 4 4 4 4 4 4 4 4 4 4 4 4 4 4 4 4 4 4 4 4 4 4 4 4 4 4 4 4 4 4 4 4 4 4 4 4 4 4 4 4 4 4 4 4 4 4 4 4 4 4 4 4 4 4 4 4 4 4 4 4 4 4 4 4 4 4 4 4 4 4 4 4 4 4 4 4 4 4 4 4 4 4 4 4 4 & 4 s f f f f f f f f f f f f f f f f f f f f f f f f f f f f f f f f f f f f f s r f f f f f f f f f f f f f f f f f f f f f f f f f f f s 4 4 4 & $ & $ $ ",
"c c c c c c c c c c c c c c c c c c c c c c c c c c c c c c c c c c c c c c c c c c c c c c c c c c c c c c c c c c c c c c c c c c c c c c c c c c c c c c c c c c c c c c c c c c c c c c c c c c c c c c c c c c c c c c c c c c c c c c c c c c c c c c c c c c c c c c c c c c c c c c c c c c c c c c c c c c c c c c c c c c c c c c c c c c c c c c c c c c c c x x x x x x x x x x x x x x x x x x x x x x x x x x x x x x x x x x x x x x x x x x x x x x x x x x x x x x x x x x x x x x x x x x x x c c c c c c c c ",
"s s s s s s s s s s s s s s s s s s s s s s s s s s s s s s s s s s s s s s s s s s s s s s s s s s s s s s s s s s s s s s s s s s s s s s s s s s s s s s s s s s s s s s s s s s s s s s s s s s s s s s s s s s s s s s s s s s s s s s s s s s s s s s s s s s s s s s s s s s s s s s s s s s s s s s s s s s s s s s s s s s s s s s s s s s s s s s s s s s s s s s s s s s s s s s s s s s s s s s s s s s s s s s s s s s s s s s s s s s s s s s s s s s s s s s s s s s s s s s s s s s s s s s s s s s s s s s s s ",
"c c c c c c c c c c c c c c c c c c c c c c c c c c c c c c c c c c c c c c c c c c c c c c c c c c c c c c c c c c c c c c c c c c c c c c c c c c c c c c c c c c c c c c c c c c c c c c c c c c c c c c c c c c c c c c c c c c c c c c c c c c c c c c c c c c c c c c c c c c c c c c c c c c c c c c c c c c c c c c c c c c c c c c c c c c c c c c c c c c c c c c c c c c c c c c c c c c c c c c c c c c c c c c c c c c c c c c c c c c c c c c c c c c c c c c c c c c c c c c c c c c c c c c c c c c c c c c c c ",
"% % 4 4 4 4 4 4 4 4 4 4 4 4 4 # % % & 4 4 4 4 4 4 4 4 4 4 4 & & & % & 4 4 4 4 4 4 4 4 4 4 4 4 4 4 4 4 4 4 4 4 4 4 4 4 4 4 4 4 4 4 4 4 4 4 4 4 4 4 4 4 4 4 4 4 4 4 4 4 4 4 4 4 4 4 4 4 4 4 4 4 4 4 4 4 4 4 4 4 4 4 4 4 4 4 4 4 4 4 4 4 4 4 4 4 4 4 4 4 4 4 4 4 4 4 4 4 4 4 4 4 4 4 4 4 4 4 4 4 4 4 4 4 4 4 4 4 4 4 4 4 4 4 4 4 4 4 4 4 4 4 4 4 4 4 4 4 4 4 4 4 4 4 4 4 4 4 4 4 4 4 4 4 4 4 4 4 4 4 4 4 4 4 4 4 4 4 4 4 4 4 4 4 4 4 4 4 4 4 4 4 4 4 4 4 4 4 4 4 4 4 4 4 4 4 4 4 4 & & & 4 % & & 4 4 4 6 4 4 4 4 4 4 & $ & & 4 $ & ",
"b c 4 4 4 & 4 4 4 & 4 4 4 4 4 S S S f 4 4 4 & 4 4 & 4 4 4 4 4 c c b e 4 4 & 4 4 4 & 4 4 4 4 4 4 4 4 4 4 4 4 4 4 4 4 4 4 4 4 4 4 4 4 4 4 4 4 4 4 4 4 4 4 4 4 4 4 4 4 4 4 4 4 4 4 4 4 4 4 4 4 4 4 4 4 4 4 4 4 4 4 4 4 4 4 4 4 4 4 4 4 4 4 4 4 4 4 4 4 4 4 4 4 4 4 4 4 4 4 4 4 4 4 4 4 4 4 4 4 4 4 4 4 4 4 4 4 4 4 4 4 4 4 4 4 4 4 4 4 4 4 4 4 4 4 4 4 4 4 4 4 4 4 4 4 4 4 4 4 4 4 4 4 4 4 4 4 4 4 4 4 4 4 4 4 4 4 4 4 4 4 4 4 4 4 4 4 4 4 4 4 4 4 4 4 4 4 4 4 4 4 4 4 4 4 4 4 4 4 4 4 4 4 s 4 4 4 4 4 G 4 e 4 4 4 4 u ] ] u 4 ] i ",
" . .4 4 4 w.r 4 r u e 4 4 4 4 o...j.b & 4 i ] 4 4 r r 4 4 4 4  .j.j.s 4 4 ] i & r u r 4 4 4 4 4 4 4 4 4 4 4 4 4 4 4 4 4 4 4 4 4 4 4 4 4 4 4 4 4 4 4 4 4 4 4 4 4 4 4 4 4 4 4 4 4 4 4 4 4 4 4 4 4 4 4 4 4 4 4 4 4 4 4 4 4 4 4 4 4 4 4 4 4 4 4 4 4 4 4 4 4 4 4 4 4 4 4 4 4 4 4 4 4 4 4 4 4 4 4 4 4 4 4 4 4 4 4 4 4 4 4 4 4 4 4 4 4 4 4 4 4 4 4 4 4 4 4 4 4 4 4 4 4 4 4 4 4 4 4 4 4 4 4 4 4 4 4 4 4 4 4 4 4 4 4 4 4 4 4 4 4 4 4 4 4 4 4 4 4 4 4 4 4 4 4 4 4 4 4 4 4 4 4 4 4 4 4 4 4 s c Z c f S c a 4 G G ) ) G e 4 4 i ] q.u 4 w.] ",
"o.k.4 & u p.i $ i w.u & 4 4 4 X.o.c x 4 4 w.t.4 r w.] 4 4 4 s 4  . .4 4 4 t.w.$ u w.i & 4 4 4 4 4 4 4 4 4 4 4 4 4 4 4 4 4 4 4 4 4 4 4 4 4 4 4 4 4 4 4 4 4 4 4 4 4 4 4 4 4 4 4 4 4 4 4 4 4 4 4 4 4 4 4 4 4 4 4 4 4 4 4 4 4 4 4 4 4 4 4 4 4 4 4 4 4 4 4 4 4 4 4 4 4 4 4 4 4 4 4 4 4 4 4 4 4 4 4 4 4 4 4 4 4 4 4 4 4 4 4 4 4 4 4 4 4 4 4 4 4 4 4 4 4 4 4 4 4 4 4 4 4 4 4 4 4 4 4 4 4 4 4 4 4 4 4 4 4 4 4 4 4 4 4 4 4 4 4 4 4 4 4 4 4 4 4 4 4 4 4 4 4 4 4 4 4 4 4 4 4 4 4 4 4 4 4 4 s  .S S 4  .b e 4 G G ) ) ) 4 4 4 u i ] u 4 ] w.",
"o.e.4 4 & r 4 4 & $ 4 4 4 4 4 S  .f s 4 4 4 r & 4 $ & 4 4 4 e f S S 4 4 & r 4 4 4 $ & 4 4 4 4 4 4 4 4 4 4 4 4 4 4 4 4 4 4 4 4 4 4 4 4 4 4 4 4 4 4 4 4 4 4 4 4 4 4 4 4 4 4 4 4 4 4 4 4 4 4 4 4 4 4 4 4 4 4 4 4 4 4 4 4 4 4 4 4 4 4 4 4 4 4 4 4 4 4 4 4 4 4 4 4 4 4 4 4 4 4 4 4 4 4 4 4 4 4 4 4 4 4 4 4 4 4 4 4 4 4 4 4 4 4 4 4 4 4 4 4 4 4 4 4 4 4 4 4 4 4 4 4 4 4 4 4 4 4 4 4 4 4 4 4 4 4 4 4 4 4 4 4 4 4 4 4 4 4 4 4 4 4 4 4 4 4 4 4 4 4 4 4 4 4 4 4 4 4 4 4 4 4 4 4 4 4 4 4 4 c x 4 s x e s s 4 e G 4 e G 4 4 4 i ] i u & q.i ",
"4 & 4 4 4 4 4 4 4 4 4 4 4 4 4 4 4 4 4 4 4 4 4 4 4 4 4 4 4 4 4 4 4 4 4 4 4 4 4 4 4 4 4 4 4 4 4 4 4 4 4 4 4 4 4 4 4 4 4 4 4 4 4 4 4 4 4 4 4 4 4 4 4 4 4 4 4 4 4 4 4 4 4 4 4 4 4 4 4 4 4 4 4 4 4 4 4 4 4 4 4 4 4 4 4 4 4 4 4 4 4 4 4 4 4 4 4 4 4 4 4 4 4 4 4 4 4 4 4 4 4 4 4 4 4 4 4 4 4 4 4 4 4 4 4 4 4 4 4 4 4 4 4 4 4 4 4 4 4 4 4 4 4 4 4 4 4 4 4 4 4 4 4 4 4 4 4 4 4 4 4 4 4 4 4 4 4 4 4 4 4 4 4 4 4 4 4 4 4 4 4 4 4 4 4 4 4 4 4 4 4 4 4 4 4 4 4 4 4 4 4 4 4 4 4 4 4 4 4 4 4 4 e 4 4 4 4 4 4 4 4 4 6 4 4 4 4 4 4 4 4 4 4 4 & 4 ",
"4 4 4 4 4 4 4 4 4 4 4 4 4 4 4 4 4 4 4 4 4 4 4 4 4 4 4 4 4 4 4 4 4 4 4 4 4 4 4 4 4 4 4 4 4 4 4 4 4 4 4 4 4 4 4 4 4 4 4 4 4 4 4 4 4 4 4 4 4 4 4 4 4 4 4 4 4 4 4 4 4 4 4 4 4 4 4 4 4 4 4 4 4 4 4 4 4 4 4 4 4 4 4 4 4 4 4 4 4 4 4 4 4 4 4 4 4 4 4 4 4 4 4 4 4 4 4 4 4 4 4 4 4 4 4 4 4 4 4 4 4 4 4 4 4 4 4 4 4 4 4 4 4 4 4 4 4 4 4 4 4 4 4 4 4 4 4 4 4 4 4 4 4 4 4 4 4 4 4 4 4 4 4 4 4 4 4 4 4 4 4 4 4 4 4 4 4 4 4 4 4 4 4 4 4 4 4 4 4 4 4 4 4 4 4 4 4 4 4 4 4 4 4 4 4 4 4 4 4 4 4 4 4 4 4 4 4 4 4 4 4 4 4 4 4 4 4 4 4 4 4 4 4 4 4 4 "
};
