/* XPM */
static char *sc_mb_gate_stereo[] = {
/* columns rows colors chars-per-pixel */
"256 256 256 2 ",
"   c #09090A",
".  c #090C11",
"X  c #0C161C",
"o  c #1D1116",
"O  c #16171C",
"+  c #1B161B",
"@  c #16191E",
"#  c #19191F",
"$  c #131315",
"%  c #150E11",
"&  c #27191C",
"*  c #32191E",
"=  c #37171C",
"-  c #2A0D15",
";  c #1D241B",
":  c #142A19",
">  c #20261F",
",  c #272A1C",
"<  c #34351D",
"1  c #2C3019",
"2  c #141B21",
"3  c #1B1C22",
"4  c #191925",
"5  c #0F1921",
"6  c #231D23",
"7  c #2B1C22",
"8  c #241D2B",
"9  c #261927",
"0  c #361D24",
"q  c #2A1E33",
"w  c #1F2026",
"e  c #1C242B",
"r  c #16262A",
"t  c #172730",
"y  c #192932",
"u  c #1E2E39",
"i  c #172933",
"p  c #1C333A",
"a  c #11312D",
"s  c #222224",
"d  c #23242C",
"f  c #26282F",
"g  c #292726",
"h  c #232335",
"j  c #272931",
"k  c #2A2C34",
"l  c #252539",
"z  c #26293B",
"x  c #2B2C3A",
"c  c #29253B",
"v  c #372A34",
"b  c #2E303A",
"n  c #24343A",
"m  c #31333D",
"M  c #3C363C",
"N  c #332A29",
"B  c #4A211E",
"V  c #4A3117",
"C  c #6D2418",
"Z  c #782B1A",
"A  c #4D1C23",
"S  c #731D24",
"D  c #49282A",
"F  c #5B2625",
"G  c #47263B",
"H  c #42343A",
"J  c #49393C",
"K  c #573837",
"L  c #63322B",
"P  c #6E302F",
"I  c #4D191E",
"U  c #3A4B16",
"Y  c #1E522C",
"T  c #505112",
"R  c #557317",
"E  c #574F3B",
"W  c #6F443B",
"Q  c #62653B",
"!  c #616227",
"~  c #64681F",
"^  c #1B3B47",
"/  c #19344E",
"(  c #282740",
")  c #2B2C42",
"_  c #242C45",
"`  c #27334A",
"'  c #343641",
"]  c #363944",
"[  c #3A3A46",
"{  c #3C3D4A",
"}  c #373547",
"|  c #2A3657",
" . c #333056",
".. c #36345A",
"X. c #363D5C",
"o. c #322C50",
"O. c #12287F",
"+. c #303B6A",
"@. c #552C4A",
"#. c #463B46",
"$. c #493C46",
"%. c #4A3D4A",
"&. c #483946",
"*. c #543C4A",
"=. c #553C46",
"-. c #4C3F53",
";. c #443F54",
":. c #543D51",
">. c #673C49",
",. c #7B3856",
"<. c #71314A",
"1. c #483C6E",
"2. c #18424B",
"3. c #1A4955",
"4. c #145259",
"5. c #3E414D",
"6. c #3E4147",
"7. c #294756",
"8. c #0E5B65",
"9. c #095B66",
"0. c #1A5967",
"q. c #165571",
"w. c #3A4364",
"e. c #2F4972",
"r. c #07636C",
"t. c #0A6C77",
"y. c #176878",
"u. c #0E6D75",
"i. c #2F6776",
"p. c #0E6A45",
"a. c #4A4145",
"s. c #46464D",
"d. c #4C434B",
"f. c #47494E",
"g. c #49494E",
"h. c #454245",
"j. c #554345",
"k. c #5B4446",
"l. c #5A4A44",
"z. c #55444A",
"x. c #59464A",
"c. c #514A4E",
"v. c #5B494C",
"b. c #564943",
"n. c #444452",
"m. c #4C4255",
"M. c #464A53",
"N. c #4B4C53",
"B. c #4A475C",
"V. c #474A5C",
"C. c #4C4A5C",
"Z. c #45445C",
"A. c #544D52",
"S. c #514E5D",
"D. c #564655",
"F. c #4A5155",
"G. c #4A5658",
"H. c #53535C",
"J. c #585559",
"K. c #545648",
"L. c #654549",
"P. c #79444B",
"I. c #685742",
"U. c #644D57",
"Y. c #635156",
"T. c #67545A",
"R. c #794A56",
"E. c #58674C",
"W. c #63684F",
"Q. c #4D4B61",
"!. c #484A66",
"~. c #514E64",
"^. c #554C68",
"/. c #465864",
"(. c #535364",
"). c #56536A",
"_. c #5C5B6C",
"`. c #585867",
"'. c #444E77",
"]. c #485576",
"[. c #545375",
"{. c #5C5A71",
"}. c #595676",
"|. c #564E74",
" X c #625963",
".X c #6E4E6F",
"XX c #4C6575",
"oX c #656676",
"OX c #902D18",
"+X c #861E24",
"@X c #8E2E23",
"#X c #873832",
"$X c #99373A",
"%X c #8F3030",
"&X c #A73B39",
"*X c #AE382C",
"=X c #8A4237",
"-X c #AF4238",
";X c #81703B",
":X c #C9422F",
">X c #E14128",
",X c #873858",
"<X c #AD3D41",
"1X c #953D64",
"2X c #87464C",
"3X c #9A5347",
"4X c #894655",
"5X c #974753",
"6X c #8D4E51",
"7X c #B54648",
"8X c #8D506F",
"9X c #A25470",
"0X c #C54444",
"qX c #D54B4B",
"wX c #CC3D21",
"eX c #509446",
"rX c #AAB91B",
"tX c #0E2A94",
"yX c #1633A3",
"uX c #374D8D",
"iX c #057A86",
"pX c #167288",
"aX c #227586",
"sX c #326F8A",
"dX c #3B55AA",
"fX c #3078AE",
"gX c #4F5490",
"hX c #675B97",
"jX c #6B588C",
"kX c #446A85",
"lX c #54678D",
"zX c #67698E",
"xX c #4758A6",
"cX c #565AA8",
"vX c #495BB6",
"bX c #6B5CA9",
"nX c #4E64B5",
"mX c #6E62B3",
"MX c #1338C1",
"NX c #3B5FC8",
"BX c #455EC4",
"VX c #4967D7",
"CX c #4F66CC",
"ZX c #6A68CC",
"AX c #4F71F0",
"SX c #6473EE",
"DX c #4E3C88",
"FX c #8E588C",
"GX c #8F5D9D",
"HX c #0C8793",
"JX c #248597",
"KX c #0797A7",
"LX c #2492AC",
"PX c #1EA3B3",
"IX c #269FC6",
"UX c #7E829D",
/* pixels */
"3 3 3 3 3 3 3 3 3 3 3 3 3 3 3 3 3 3 3 3 3 3 3 3 3 3 3 3 3 3 3 3 3 3 3 3 3 3 3 3 3 3 3 3 3 3 3 3 3 3 3 3 3 3 3 3 3 3 3 3 3 3 3 3 3 3 3 3 3 3 3 3 3 3 3 3 3 3 3 3 3 3 3 3 3 3 3 3 3 3 3 3 3 3 3 3 3 3 3 3 3 3 3 3 3 3 3 3 3 3 3 3 3 3 3 3 3 3 3 3 3 3 3 3 3 3 3 3 3 3 3 3 3 3 3 3 3 3 3 3 3 3 3 3 3 3 3 3 3 3 3 3 3 3 3 3 3 3 3 3 3 3 3 3 3 3 3 3 3 3 3 3 3 3 3 3 3 3 3 3 3 3 3 3 3 3 3 3 3 3 3 3 3 3 3 3 3 3 3 3 3 3 3 3 3 3 3 3 3 3 3 3 3 3 3 3 3 3 3 3 3 3 3 3 3 3 3 3 3 3 3 3 3 3 3 3 3 3 3 3 3 3 3 3 3 3 3 3 3 3 3 3 3 3 3 3 ",
"3 3 3 3 3 3 3 3 3 # + # # 3 3 3 3 3 3 3 3 3 3 3 3 3 3 3 3 3 3 3 3 3 3 3 3 3 3 3 3 3 3 3 3 3 3 3 3 3 3 3 3 3 3 3 3 3 3 3 3 3 3 3 3 3 3 3 3 3 3 3 3 3 3 3 3 3 3 3 3 3 3 3 3 3 3 3 3 3 3 3 3 3 3 3 3 3 3 3 3 3 3 3 3 3 3 3 3 3 3 3 3 3 3 3 3 3 3 3 3 3 3 3 3 3 3 3 3 3 3 3 3 3 3 3 3 3 3 3 3 3 3 3 3 3 3 3 3 3 3 3 3 @ # @ 3 @ @ 3 # O 3 # O 3 3 3 3 3 3 # # 3 3 3 3 3 # 3 # 3 3 3 3 3 3 @ O O @ 3 O # 3 3 3 3 3 3 3 O @ 3 3 3 @ @ 3 3 3 @ O # @ O 3 3 O # O O # O 3 O # 3 O 3 3 O 3 3 # 3 # 3 @ 3 3 3 3 3 3 # # 3 + # # 3 3 3 + # ",
"o o o # 3 3 3 # 4 i / i t # 3 3 3 3 3 3 3 3 3 3 3 3 3 3 3 3 3 3 3 3 3 3 3 3 3 3 3 3 3 3 3 3 3 3 3 3 3 3 3 3 3 3 3 3 3 3 3 3 3 3 3 3 3 3 3 3 3 3 3 3 3 3 3 3 3 3 3 3 3 3 3 3 3 3 3 3 3 3 3 3 3 3 3 3 3 3 3 3 3 3 3 3 3 3 3 3 3 3 3 3 3 3 3 3 3 3 3 3 3 3 3 3 3 3 3 3 3 3 3 3 3 3 3 3 3 3 3 3 3 3 3 3 3 3 3 3 3 3 3 x j x d x x O j ' 3 f b d 3 d 3 d 3 j j d 3 d 3 3 f # d d s w d d 3 k m b x s b j # d 3 d w w s b k @ 3 @ k x 3 d 3 k ' k k b 3 3 x k m m j m d m d 3 ' d 3 m 3 3 j 3 f d k 3 3 f d 3 # u y # p y e 3 e e u y ",
"3.3.3.y + 3 # t 0.eXeXeXE.3.e # 3 3 3 3 3 3 3 3 3 3 3 3 3 3 3 3 3 3 3 3 3 3 3 3 3 3 3 3 3 3 3 3 3 3 3 3 3 3 3 3 3 3 3 3 3 3 3 3 3 3 3 3 3 3 3 3 3 3 3 3 3 3 3 3 3 3 3 3 3 3 3 3 3 3 3 3 3 3 3 3 3 3 3 3 3 3 3 3 3 3 3 3 3 3 3 3 3 3 3 3 3 3 3 3 3 3 3 3 3 3 3 3 3 3 3 3 3 3 3 3 3 3 3 3 3 3 3 3 3 3 3 3 3 3 3 O [ oXk {.' {.`.] (.).m {.{ (.' (.s _.5.n.n.`.V.M.j f zX3 zXV.5.] n.Q.3 ' zX5.{.' oXoX3 ).M.{ oX] V._.`.{ $ { {.n.O {.n.m zX{ oXn.$ V.{.k {.~.~._.[ {.(.V.oXm (.(.Q.$ 5._.{ C.zXk O x j + p aXu 3.0.^ aXe y.3.y.y.",
"IXIXIXLXp + i 0.rXeXT ! rXeX/ w 3 3 3 3 3 3 3 3 3 3 3 3 3 3 3 3 3 3 3 3 3 3 3 3 3 3 3 3 3 3 3 3 3 3 3 3 3 3 3 3 3 3 3 3 3 3 3 3 3 3 3 3 3 3 3 3 3 3 3 3 3 3 3 3 3 3 3 3 3 3 3 3 3 3 3 3 3 3 3 3 3 3 3 3 3 3 3 3 3 3 3 3 3 3 3 3 3 3 3 3 3 3 3 3 3 3 3 3 3 3 3 3 3 3 3 3 3 3 3 3 3 3 3 3 3 3 3 3 3 3 3 3 3 3 3 3 d (.] V.m V.d ).(.n.V.n.  ~.{.oXb zX{.{ [ V.{.oXd f zXC.oXV.5.m V.C.# O (.3 C.m {.{.b zXoX5.{.{.V.5.f _.. _.x (.b zXoX3 (.d oXm @ k `.j 5.m V.~.b zX(.M.).' ).. oX3 w UXd ~.zXx O k f # w 0.3.y.+ # aX0.y.3.0.y.",
"4.0.aXIXy.o 7.rXE X 5 X 2 7.aX^ # 3 3 3 3 3 3 3 3 3 3 3 3 3 3 3 3 3 3 3 3 3 3 3 3 3 3 3 3 3 3 3 3 3 3 3 3 3 3 3 3 3 3 3 3 3 3 3 3 3 3 3 3 3 3 3 3 3 3 3 3 3 3 3 3 3 3 3 3 3 3 3 3 3 3 3 3 3 3 3 3 3 3 3 3 3 3 3 3 3 3 3 3 3 3 3 3 3 3 3 3 3 3 3 3 3 3 3 3 3 3 3 3 3 3 3 3 3 3 3 3 3 3 3 3 3 3 3 3 3 3 3 3 3 3 # j ).(.{.] {.{.' (.C.m {.{ Q.k n.(.V.C.oXn.n.m zXw k (._.~.[ (._.b {.Q.d (.j oX' {.(.Q.V.V.{.x oXM.{._.] $ { `._.~.V.(.] Q.f oX{ # x {.5.5.' V.(.] (.V.C.{.k (.`.C.$ M.C.V.Q.oX' $ x j O e 0.0.3.0.^ 4.y.0.3.0.0.",
"% % p IX0.4 aXE.5 w # p 3.O aX3.w 3 3 3 3 3 3 3 3 3 3 3 3 3 3 3 3 3 3 3 3 3 3 3 3 3 3 3 3 3 3 3 3 3 3 3 3 3 3 3 3 3 3 3 3 3 3 3 3 3 3 3 3 3 3 3 3 3 3 3 3 3 3 3 3 3 3 3 3 3 3 3 3 3 3 3 3 3 3 3 3 3 3 3 3 3 3 3 3 3 3 3 3 3 3 3 3 3 3 3 3 3 3 3 3 3 3 3 3 3 3 3 3 3 3 3 3 3 3 3 3 3 3 3 3 3 3 3 3 3 3 3 3 3 3 3 d x 3 j w j j O d m 3 d k s 3 w d @ 3 k d s 3 s 3 3 s 3 s 3 d j @ f x 3 s 3 j 3 k d w # 3 f 3 3 w k j @ 3 @ k j d @ 3 d s 3 k k 3 d k # w 3 s b d 3 3 d x d 3 x 3 3 d # d d j 3 3 d w 3 w p 3 # u e w 3 w 3 y y ",
"y u 0.IXy.o ^ JXaX# 3 e w o y.y.e # 3 3 3 3 3 3 3 3 3 3 3 3 3 3 3 3 3 3 3 3 3 3 3 3 3 3 3 3 3 3 3 3 3 3 3 3 3 3 3 3 3 3 3 3 3 3 3 3 3 3 3 3 3 3 3 3 3 3 3 3 3 3 3 3 3 3 3 3 3 3 3 3 3 3 3 3 3 3 3 3 3 3 3 3 3 3 3 3 3 3 3 3 3 3 3 3 3 3 3 3 3 3 3 3 3 3 3 3 3 3 3 3 3 3 3 3 3 3 3 3 3 3 3 3 3 3 3 3 3 3 3 3 3 3 3 @ 3 # 3 # # 3 3 O 3 3 @ 3 3 3 # 3 3 @ 3 3 3 3 3 3 3 3 3 3 3 # 3 # O 3 3 3 # 3 @ # 3 3 3 # 3 3 3 @ # 3 3 3 # # 3 3 3 3 3 3 # @ 3 3 @ 3 3 3 3 O # 3 3 # O 3 3 O 3 3 3 3 3 3 # 3 3 3 3 3 3 # 3 3 + 3 3 3 3 3 # # ",
"IXIXIXIX2.3 y.PXLX3 + # 3 + y.0.e # 3 3 3 3 3 3 3 3 3 3 3 3 3 3 3 3 3 3 3 3 3 3 3 3 3 3 3 3 3 3 3 3 3 3 3 3 3 3 3 3 3 3 3 3 3 3 3 3 3 3 3 3 3 3 3 3 3 3 3 3 3 3 3 3 3 3 3 3 3 3 3 3 3 3 3 3 3 3 3 3 3 3 3 3 3 3 3 3 3 3 3 3 3 3 3 3 3 3 3 3 3 3 3 3 3 3 3 3 3 3 3 3 3 3 3 3 3 3 3 3 3 3 3 3 3 3 3 3 3 3 3 3 3 3 @ 3 3 3 3 3 3 3 3 3 3 3 3 3 3 3 3 3 3 3 3 3 3 3 3 3 3 3 3 3 3 3 3 3 3 3 3 3 3 3 3 3 3 3 3 3 3 3 3 3 3 3 3 3 3 3 3 3 3 4 3 3 3 3 3 3 3 3 3 3 3 3 3 3 3 3 3 3 3 3 3 3 3 3 3 # # # 3 # 3 3 # # # # 3 3 3 3 3 3 3 3 ",
"aXaXaX3.+ y aXy.PXy.y e + y JX3.3 3 3 3 3 3 3 3 3 3 3 3 3 3 3 3 3 3 3 3 3 3 3 3 3 3 3 3 3 3 3 3 3 3 3 3 3 3 3 3 3 3 3 3 3 3 3 3 3 3 3 3 3 3 3 3 3 3 3 3 3 3 3 3 3 3 3 3 3 3 3 3 3 3 3 3 3 3 3 3 3 3 3 3 3 3 3 3 3 3 3 3 3 3 3 3 3 3 3 3 3 3 3 3 3 3 3 3 3 3 3 3 w 3 3 3 3 3 3 3 3 3 3 3 3 3 3 3 3 3 3 3 3 3 3 3 b d O 3 x @ # # 3 d 3 3 3 # 3 3 # # 3 3 # d 3 3 3 3 3 3 3 3 3 3 3 3 3 3 3 3 3 3 3 3 3 3 3 e # 3 3 3 3 3 3 3 3 3 3 3 4 Y : 4 3 3 # + + + 3 3 3 e 8.4.r 3 3 3 3 3 3 3 3 3 3 u u u 3 j d w j k k k 3 d f 3 f 3 3 3 ",
"% + + + 3 3 o y.PXLXIXy.w y.y.p # 3 3 3 3 3 3 3 3 3 3 3 3 3 3 3 3 3 3 3 3 3 3 3 3 3 3 3 3 3 3 3 3 3 3 3 3 3 3 3 3 3 3 3 3 3 3 3 3 3 3 3 3 3 3 3 3 3 3 3 3 3 3 3 3 3 3 3 3 3 3 3 3 3 3 3 3 3 3 3 3 3 3 3 3 3 3 3 3 3 3 3 3 3 3 3 3 3 3 3 3 3 3 3 3 3 3 3 3 3 w ^ e 3 3 3 3 3 3 3 3 3 3 3 3 3 3 3 3 3 3 3 3 3 @ x n.s { { [ [ ] m { M.# ] { m [ ' { { x m { V.k # 3 3 3 3 3 3 3 3 3 3 3 3 3 3 3 3 3 3 3 3 # p p # 3 3 3 3 3 3 3 3 3 3 w Y Y 4 3 3 y ^ ^ 4.w 3 # r r.r.p + 3 3 3 3 3 3 3 3 w 0.0.0.2 { { ' M.n.x V.[ ' { d { 3 3 w ",
"+ w 3 3 3 3 w aX2.JXLXaXy.aX^ 3 3 3 3 3 3 3 3 3 3 3 3 3 3 3 3 3 3 3 3 3 3 3 3 3 3 3 3 3 3 3 3 3 3 3 3 3 3 3 3 3 3 3 3 3 3 3 3 3 3 3 3 3 3 3 3 3 3 3 3 3 3 3 3 3 3 3 3 3 3 3 3 3 3 3 3 3 3 3 3 3 3 3 3 3 3 3 3 3 3 3 3 3 3 3 3 3 3 3 3 3 3 3 3 3 3 3 3 3 3 # y 2.3 3 3 3 3 3 3 3 3 3 3 3 3 3 3 3 3 3 3 3 3 3 3 3 m M.V.[ V.V.n.[ d ] O { m V.b M.{ ] { C.{ s.3 3 3 3 3 3 3 3 3 3 3 3 3 3 3 3 3 3 3 3 3 3 # u 2.# 3 3 3 3 3 3 3 3 3 4 Y Y Y w 3 # p 3.3.8.w 3 # t 9.8.^ + 3 3 3 3 3 3 3 3 w 4.0.0.3 m n.n.[ 5.j ' s.n.[ f { 3 3 e ",
"3 3 3 3 3 3 3 + + aX^ 3.0.p 3 3 3 3 3 3 3 3 3 3 3 3 3 3 3 3 3 3 3 3 3 3 3 3 3 3 3 3 3 3 3 3 3 3 3 3 3 3 3 3 3 3 3 3 3 3 3 3 3 3 3 3 3 3 3 3 3 3 3 3 3 3 3 3 3 3 3 3 3 3 3 3 3 3 3 3 3 3 3 3 3 3 3 3 3 3 3 3 3 3 3 3 3 3 3 3 3 3 3 3 3 3 3 3 3 3 3 3 3 3 3 3 # y e 3 3 3 3 3 3 3 3 3 3 3 3 3 3 3 3 3 3 3 3 3 3 d ] m ] x m ] k ] m ] 3 n.{ b f m m x [ ' x m k # 3 3 3 3 3 3 3 3 3 3 3 3 3 3 3 3 3 3 3 3 3 u 3 3 3 3 3 3 3 3 3 3 3 3 : 3 : w 3 3 # + + + 3 3 3 3 2.^ 3 3 3 3 3 3 3 3 3 3 3 2.3.2.3 j ' ' k [ m x f { k 5.k # 3 3 ",
"3 3 3 3 3 3 3 3 3 3 3 3 w # 3 3 3 3 3 3 3 3 3 3 3 3 3 3 3 3 3 3 3 3 3 3 3 3 3 3 3 3 3 3 3 3 3 3 3 3 3 3 3 3 3 3 3 3 3 3 3 3 3 3 3 3 3 3 3 3 3 3 3 3 3 3 3 3 3 3 3 3 3 3 3 3 3 3 3 3 3 3 3 3 3 3 3 3 3 3 3 3 3 3 3 3 3 3 3 3 3 3 3 3 3 3 3 3 3 3 3 3 3 3 3 3 3 3 3 3 3 3 3 3 3 3 3 3 3 3 3 3 3 3 3 3 3 3 3 3 3 3 3 # 3 3 # 3 3 3 3 3 3 ] 3 # 3 3 3 3 3 3 3 3 3 3 3 3 3 3 3 3 3 3 3 3 3 3 3 3 3 3 3 3 3 3 3 # 3 3 3 3 3 3 3 3 3 3 3 3 4 3 4 3 3 3 3 3 3 3 3 3 3 3 + + 3 3 3 3 3 3 3 3 3 3 3 # # # 3 3 # # 3 3 3 3 3 # 3 3 3 3 3 3 ",
"# # # # # # # # # # 3 # # 3 # # # # # # # # # # # # # # # # # # # # # # # # # # # # # # # # # # # # # # # # # # # # # # # # # # # # # # # # # # # # # # # # # # # # # # # # # # # # # # # # # # # # # # # # # # # # # # # # # # # # # # # # # # # # # # # # # 3 3 # # # # # # # # # # # # # # # # # # # # # # # # 3 3 # 3 3 # 3 # 3 # 3 3 3 # 3 # # 3 3 # 3 # # # # # # # # # # # # # # # # # # # # # # # 3 # # # # # # # # # # # # # # # # # # # # # # # # # # 3 3 # # # # # # # # # # # 3 3 3 # 3 3 3 3 3 # 3 3 3 3 # 3 # # # ",
"f f f f f f f f f f f f f f f f f f f f f f f f f f f f f f f f f f f f f f f f f f f f f f f f f f f f f f f f f f f f f f f f f f f f f f f f f f f f f f f f f f f f f f f f f f f f f f f f f f f f f f f f f f f f f f f f f f f f f f f f f f f f f f f f f f f f f f f f f f f f f f f f f f f f f f f f f f f f f f f f f f f f f f f f f f f f f f f f f f f f f f f f f f f f f f f f f f f f f f f f f f f f f f f f f f f f f f f f f f f f f f f f f f f f f f f f f f f f j j j j j j j j j j j j j j j j j j j j ",
"j j j j j j j j j j j j j j j j j j j j j j j j j j j j j j j j j j j j j j j j j j j j j j j j j j j j j j j j j j j j j j j j j j j j j j j j j j j j j j j j j j j j j j j j j j j j j j j j j j j j j j j j j j j j j j j j j j j j j j j j j j j j j j j j j j j j j j j j j j j j j j j j j j j j j j j j j j j j j j j j j j j j j j j j j j j j j j j j j j j j j j j j j j j j j j j j j j j j j j j j j j j j j j j j j j j j j j j j j j j j j j j j j j j j j j j j j j j j f f f f f f f f f f f f f f f f f f f f ",
"3 # # 3 # 3 # 3 3 # # # # # # # # # # # # # # # # # # # # # # # # # # # # # # # # # # # # # # # # # # # # # # # # # # # # # # # # # # # # # # # # # # # # # # # # # # # # # # # # # # # # # # # # # # # # # # # # # # # # # # # # # # # # # # # # # # # # # # # # # # # # # # # # # # # # # # # # # # # # # # # # # # # # # # # # # # # # # # # # # # # # # # # # # # # # # # # # # # # # # # # # # # # # # # # # # # # # # # # @ O O O # # # # # # # # 3 # # # # # # # 3 3 # # 3 3 # 3 j j j j j j j j j j j j j j j j j j j j ",
"3 3 3 3 3 3 3 3 # 3 3 3 3 3 3 3 3 3 3 3 3 3 3 3 3 3 3 3 3 3 3 3 3 3 3 3 3 3 3 3 3 3 3 3 3 3 3 3 3 3 3 3 3 3 3 3 3 3 3 3 3 3 3 3 3 3 3 3 3 3 3 3 3 3 3 3 3 3 3 3 3 3 3 3 3 3 3 3 3 3 3 3 3 3 3 3 3 3 3 3 3 3 3 3 3 3 3 3 3 3 3 3 3 3 3 3 3 3 3 3 3 3 3 3 3 3 3 3 3 3 3 3 3 3 3 3 3 3 3 3 3 3 3 3 3 3 3 3 3 3 3 3 3 3 3 3 3 3 3 3 3 3 3 3 3 3 3 3 3 3 3 3 3 3 3 3 3 3 3 3 3 3 3 3 3 3 3 3 3 3 3 3 3 3 3 3 3 3 3 3 3 3 3 3 3 3 3 3 d k k k w 3 3 3 3 3 3 3 3 3 3 3 3 3 3 3 3 3 3 3 3 3 3 d 5.{ { 5.5.{ 5.{ 5.{ 5.5.5.5.{ d d d d d ",
"k m k { d b f [ m f f d 3 3 3 3 3 3 3 3 3 3 3 3 3 3 3 3 3 3 3 3 3 3 3 3 3 3 3 3 3 3 3 3 3 3 3 3 3 3 3 3 3 3 3 3 3 3 3 3 3 3 3 3 3 3 3 3 3 3 3 3 3 3 3 3 3 3 3 3 3 3 3 3 3 3 3 3 3 3 3 3 3 3 3 3 3 3 3 3 3 3 3 3 3 3 3 3 3 3 3 3 3 3 3 3 3 3 3 3 3 3 3 3 3 3 3 3 3 3 3 3 3 3 3 3 3 3 3 3 3 3 3 3 3 3 3 3 3 3 3 3 3 3 3 3 3 3 3 3 3 3 3 3 3 3 3 3 3 3 3 3 3 3 3 3 3 3 3 3 3 3 3 3 3 3 3 3 3 3 3 3 3 3 3 3 3 3 3 3 3 3 3 3 3 3 3 # ' )._.n.j # 3 3 3 3 3 d ' w s 3 3 3 3 3 ] m 3 3 j j # d { n.(.n.{ n.{ n.{ { C.n.[ { ] 3 # 3 3 3 ",
"[ f [ V.x V.] n.] 5.n.f # 3 3 3 3 3 3 3 3 3 3 3 3 3 3 3 3 3 3 3 3 3 3 3 3 3 3 3 3 3 3 3 3 3 3 3 3 3 3 3 3 3 3 3 3 3 3 3 3 3 3 3 3 3 3 3 3 3 3 3 3 3 3 3 3 3 3 3 3 3 3 3 3 3 3 3 3 3 3 3 3 3 3 3 3 3 3 3 3 3 3 3 3 3 3 3 3 3 3 3 3 3 3 3 3 3 3 3 3 3 3 3 3 3 3 3 3 3 3 3 3 3 3 3 3 3 3 3 3 3 3 3 3 3 3 3 3 3 3 3 3 3 3 3 3 3 3 3 3 3 3 3 3 3 3 3 3 3 3 3 3 3 3 3 3 3 3 3 3 3 3 3 3 3 3 3 3 3 3 3 3 3 3 3 3 3 3 3 3 3 3 3 3 3 3 O M.V.3 (.d 3 3 3 3 3 3 d ] { [ 3 3 3 @ b k x 5.j n.b O d { n.).Q.`.`.`._.C.`.{.n.[ { ] 3 3 3 3 3 ",
"' [ s.] { ' s.m 3 ' m f # 3 3 3 3 3 3 3 3 3 3 3 3 3 3 3 3 3 3 3 3 3 3 3 3 3 3 3 3 3 3 3 3 3 3 3 3 3 3 3 3 3 3 3 3 3 3 3 3 3 3 3 3 3 3 3 3 3 3 3 3 3 3 3 3 3 3 3 3 3 3 3 3 3 3 3 3 3 3 3 3 3 3 3 3 3 3 3 3 3 3 3 3 3 3 3 3 3 3 3 3 3 3 3 3 3 3 3 3 3 3 3 3 3 3 3 3 3 3 3 3 3 3 3 3 3 3 3 3 3 3 3 3 3 3 3 3 3 3 3 3 3 3 3 3 3 3 3 3 3 3 3 3 3 3 3 3 3 3 3 3 3 3 3 3 3 3 3 3 3 3 3 3 3 3 3 3 3 3 3 3 3 3 3 3 3 3 3 3 3 3 3 3 3 3 @ [ ~.).UXk @ 3 3 3 3 3 d 5.b m w 3 3 # f ] ' ] { { k @ d { { (.{.(.(._.V.`.{.{.s.[ { m 3 3 3 3 3 ",
"3 f 3 3 d O 3 3 3 3 3 3 3 3 3 3 3 3 3 3 3 3 3 3 3 3 3 3 3 3 3 3 3 3 3 3 3 3 3 3 3 3 3 3 3 3 3 3 3 3 3 3 3 3 3 3 3 3 3 3 3 3 3 3 3 3 3 3 3 3 3 3 3 3 3 3 3 3 3 3 3 3 3 3 3 3 3 3 3 3 3 3 3 3 3 3 3 3 3 3 3 3 3 3 3 3 3 3 3 3 3 3 3 3 3 3 3 3 3 3 3 3 3 3 3 3 3 3 3 3 3 3 3 3 3 3 3 3 3 3 3 3 3 3 3 3 3 3 3 3 3 3 3 3 3 3 3 3 3 3 3 3 3 3 3 3 3 3 3 3 3 3 3 3 3 3 3 3 3 3 3 3 3 3 3 3 3 3 3 3 3 3 3 3 3 3 3 3 3 3 3 3 3 3 3 3 3 # x ' [ ).j # 3 3 3 3 3 3 d 3 3 3 3 3 3 3 d d 3 f 3 d # d { s.M.5.M.oXV.5.n.n.n.5.{ { d 3 3 3 3 3 ",
"d w d d s d s d d d d d d d d d d d d d d d d d d d d d d d d d d d d d d d d d d d d d d d d d d d d d d d d d d d d d d d d d d d d d d d d d d d d d d d d d d d d d d d d d d d d d d d d d d d d d d d d d d d d d d d d d d d d d d d d d d d d d d d d d d d d d d d d d d d d d d d d d d d d d d d d d d d d d d d d d d d d d d d d d d d d d d d d d d d d d d d d d d d d d d d d d d d d d d d d d s 3 3 3 3 3 3 3 3 3 w O # 3 3 3 3 3 3 3 3 3 3 3 3 3 3 3 2 3 3 # 3 3 3 d ' x x x m m x b x x x b k s 3 3 3 3 3 3 ",
"k k k k k k k k k k k k k k k k k k k k k k k k k k k k k k k k k k k k k k k k k k k k k k k k k k k k k k k k k k k k k k k k k k k k k k k k k k k k k k k k k k k k k k k k k k k k k k k k k k k k k k k k k k k k k k k k k k k k k k k k k k k k k k k k k k k k k k k k k k k k k k k k k k k k k k k k k k k k k k k k k k k k k k k k k k k k k k k k k k k k k k k k k k k k k k k k k k k k k k k k k k 3 3 3 3 3 3 s b k b 3 3 3 3 3 3 3 3 3 3 3 3 3 3 3 3 3 3 3 3 3 3 # f j O 3 3 # @ 3 # # 3 # # # 3 3 3 3 3 3 3 ",
"# 3 3 # # # # # # # # # # 3 3 # # # # # # 3 3 # # # # 3 3 # # # 3 3 # 3 # d M M #.M # 3 6 6 6 1 ; # # # # # # # # # # # # # # # # # 3 3 # # # # # # # # # 3 3 # # # # # # 3 3 # # # # # 3 3 # # # > r a 2 e 3 2 # 3 3 # 3 3 @ 3 3 # # # # # # # # # # # # # # # # # 3 3 # # # # # # # # # # 3 3 # # 3 3 3 2 z l 3 3 3 # 3 3 # # # 3 3 # # # 3 # # 3 3 # # 3 # # w # # # # # # # # # # # # # # # # # # 3 3 3 3 3 h } j 3 3 3 3 # d k O b 3 3 3 3 3 3 7 * * * * * * 3 3 7 * * * * * * # f k 3 3 3 3 3 3 3 3 3 3 3 3 3 3 3 3 3 3 3 ",
"3 3 d 3 3 3 3 3 3 3 3 3 3 d 3 3 3 3 3 3 3 d 3 3 3 3 3 s d 3 3 3 w d 3 3 3 k %.$.d.#.3 6 j 7 0 T , s w 3 3 3 3 3 3 3 3 3 3 3 3 3 3 3 d w 3 3 3 3 3 3 3 3 3 3 d 3 3 3 3 3 3 3 d 3 3 3 3 3 d 3 3 w w g p 2.r y e 3 3 d 3 3 d s # d d 3 3 3 3 3 3 3 3 3 3 3 3 3 3 3 3 3 3 d 3 3 3 3 3 3 3 3 3 3 d 3 3 3 3 e e r |  .d d 3 3 w d 3 3 3 3 d 3 3 3 d 3 3 w d 3 3 d 3 3 j 3 3 3 3 3 3 3 3 3 3 3 3 3 3 3 3 3 3 d d 3 d d ) ..k 3 3 3 3 3 d j O x 3 3 3 3 3 3 7 * * & * * & 3 3 7 * * & * * 7 # f j # 3 3 3 3 3 3 + + + + + + 3 3 3 3 3 3 ",
"3 3 d 3 3 3 3 3 3 3 3 3 3 d 3 3 3 3 3 3 3 d 3 3 3 3 3 w s 3 3 @ 3 d 3 3 3 k #.#.%.#.3 3 g 7 7 U > w w 3 3 3 3 3 3 3 3 3 3 3 3 3 3 3 d 3 3 3 3 3 3 3 3 3 3 3 d 3 3 3 3 3 3 3 d 3 3 3 3 3 d 3 3 3 w g p 2.r y e 3 3 d 3 3 s w # d d 3 3 3 3 3 3 3 3 3 3 3 3 3 3 3 3 3 3 d 3 3 3 3 3 3 3 3 3 3 d 3 3 3 3 w e r |  .d d 3 3 3 d 3 3 3 3 d 3 3 3 d 3 3 3 d 3 3 d 3 3 f 3 3 3 3 3 3 3 3 3 3 3 3 3 3 3 3 3 3 s s 3 d d )  .k 3 3 3 3 3 d m k m 3 3 3 3 3 3 7 * * & * * & 3 3 7 * * & * * 7 # f j # 3 3 3 3 3 + ^ 0.y.y.0.p o 3 3 3 3 3 ",
"3 3 d 3 3 3 3 3 3 3 3 3 3 d 3 3 3 3 3 3 3 d 3 3 3 3 3 s w 6 b v j d 3 3 # k $.#.%.#.3 3 f 7 7 U , w w 3 3 3 3 3 3 3 j d 3 3 3 3 3 3 d 3 3 3 3 3 3 3 3 3 3 3 d 3 3 3 3 3 3 3 d 3 3 3 3 3 d 3 3 3 w g p 2.r y e 3 3 d 3 3 s s # d d 3 3 3 3 3 3 3 3 3 3 3 3 3 3 3 3 3 3 d 3 3 3 3 3 3 3 3 3 3 d 3 3 3 3 w e r |  .d d 3 3 w d 3 3 3 3 d 3 3 3 d 3 3 3 d 3 3 d 3 3 f 3 3 3 3 3 3 3 3 3 3 3 3 3 3 3 3 3 3 s s 3 d d )  .k 3 3 3 3 3 d x d m 3 3 3 3 3 3 7 * * & * * & 3 3 7 * * & * * 7 # f j # 3 3 3 3 # 0.JXPXaXaXPXJX0.3 3 3 3 3 ",
"3 3 d 3 3 3 3 3 3 3 3 3 3 d 3 3 3 3 3 3 3 d 3 3 3 3 3 w 3 f %.%.M w 3 d d m $.#.%.#.3 3 f 7 7 U , w w 3 3 3 3 3 3 3 x d 3 3 3 3 3 3 d 3 3 3 3 3 3 3 3 3 3 3 d 3 3 3 3 3 3 3 d 3 3 3 3 3 d 3 3 3 w g p 2.r y e 3 3 d 3 3 s s # d d 3 3 3 3 3 3 3 3 3 3 3 3 3 3 3 3 3 3 d 3 3 3 3 3 3 3 3 3 3 d 3 3 3 3 w e r |  .d d 3 3 w d 3 3 3 3 d 3 3 3 d 3 3 3 d 3 3 d 3 3 f 3 3 3 3 3 3 3 3 3 3 3 3 3 3 3 3 3 3 s s 3 d d )  .k 3 3 3 3 3 d j O x 3 3 3 3 3 3 7 * * & * * & 3 3 7 * * & * * 7 # f j # 3 3 3 # y.PX0.@ . . @ 0.PXy.# 3 3 3 ",
"3 3 d 3 3 3 3 3 3 3 3 3 3 d 3 3 3 3 3 3 3 d 3 3 3 3 d m x m $.#.#.x k b ) { $.#.%.%.d s g 7 7 U , w w 3 3 3 3 3 3 2 v g 2 3 3 3 3 3 d 3 3 3 3 3 3 3 3 3 3 3 d 3 3 3 3 3 3 3 d 3 3 3 3 3 d 3 3 3 w g p 2.r y e 3 3 d 3 3 s s # d d 3 3 3 3 3 3 3 3 3 3 3 3 3 3 3 3 3 3 d 3 3 3 3 3 3 3 3 3 3 d 3 3 3 3 w e r |  .d d 3 3 w d 3 3 3 3 d 3 3 3 d 3 3 3 d 3 3 d 3 3 f 3 3 3 3 3 3 3 3 3 3 3 3 3 3 3 3 3 3 s s 3 d d )  .k 3 3 3 3 3 d k # b 3 3 3 3 3 3 7 * * & * * & 3 3 7 * * & * * 7 # f j # 3 3 + 2.JX0.  $ f f O   0.JX2.+ 3 3 ",
"3 3 d 3 3 3 3 3 3 3 3 3 3 d 3 3 3 3 3 3 3 d 3 3 3 3 m d.%.#.#.$.#.' x [ #.%.#.#.%.%.b x g 7 7 U , w w 3 3 3 3 3 3 # gX+.# 3 3 3 3 3 d 3 3 3 3 3 3 3 3 3 3 3 d 3 3 3 3 3 3 3 d 3 3 3 3 3 d 3 3 3 w g p 2.r y e 3 3 d 3 3 s s # d d 3 3 3 3 3 3 3 3 3 3 3 3 3 3 3 3 3 3 d 3 3 3 3 3 3 3 3 3 3 d 3 3 3 3 w e r |  .d d 3 3 w d 3 3 3 3 d 3 3 3 d 3 3 3 d 3 3 d 3 3 f 3 3 3 3 3 3 3 3 3 3 3 3 3 3 3 3 3 3 s s 3 d d )  .k 3 3 3 3 3 d k # b 3 3 3 3 3 3 7 * * & * * & 3 3 7 * * & * * 7 # f j # 3 3 + aXJX  @ m ' ] { 3   JXaX+ 3 3 ",
"3 3 d 3 3 3 3 3 3 3 3 3 3 d 3 3 3 3 3 3 3 d 3 3 3 3 M d.%.#.#.#.#.] m #.$.d.#.#.%.%.#.M f 7 7 U , w w 3 3 3 3 3 # z VXxX# 3 3 3 3 3 d 3 3 3 3 3 3 3 3 3 3 3 d 3 3 3 3 3 3 3 d 3 3 3 3 3 d 3 3 3 w g p 2.r y e 3 3 d 3 3 s s # d d 3 3 3 3 3 3 3 3 3 3 3 3 3 3 3 3 3 3 d 3 3 3 3 3 3 3 3 3 3 d 3 3 3 3 w e r |  .d d 3 3 w d 3 3 3 3 d 3 3 3 d 3 3 3 d 3 3 d 3 3 f 3 3 3 3 3 3 3 3 3 3 3 3 3 3 3 3 3 3 s s 3 d d )  .k 3 3 3 3 3 d k # b 3 3 3 3 3 3 7 * * & * * & 3 3 7 * * & * * 7 # f j # 3 3 e JX0.  j m m m m k   0.JXe 3 3 ",
"3 3 d 3 3 3 3 3 3 3 3 3 3 d 3 3 3 3 3 3 3 d 3 3 3 3 M d.%.#.#.#.%.%.#.#.#.d.#.#.%.%.$.#.f 7 7 T , s w 3 3 3 3 3 + _ mXgXs 3 3 3 3 3 d w 3 3 3 3 3 3 3 3 3 3 d 3 3 3 3 3 3 w d 3 3 3 3 3 d 3 3 w w g p 2.r y e 3 3 d 3 3 d e 3 d d 3 3 3 3 3 3 3 3 3 3 3 3 3 3 3 3 3 3 d 3 3 3 3 3 3 3 3 3 3 d 3 3 3 3 e e r |  .d d w 3 w d 3 3 3 w d 3 3 3 d 3 3 w d 3 3 d 3 3 j 3 3 3 3 3 3 3 3 3 3 3 3 3 3 3 3 3 3 d e 3 d d )  .k 3 3 3 3 3 d k # b 3 3 3 3 3 3 7 * * & * * & 3 3 7 * * & * * 7 # f j # 3 # e JX3.  j x m k s w   ^ y.e 3 3 ",
"3 3 d 3 3 3 3 3 3 3 3 3 # d 3 3 3 3 3 3 3 d 3 3 3 3 M %.%.#.#.#.$.%.#.#.#.d.#.#.%.%.#.#.f 7 7 U > ; ; 3 3 3 3 3 + uXbXcXs 4 4 4 4 + 6 + o o o o o o o o o o 6 o o o o o o & & o & & & o 6 o o o & & f ^ # w 6 o o 6 + o & & o & & o o o o o o o o o o o o o o o o o o 6 o o o o o o o o o o 6 + o o o + 3 @ o.o.6 9 & o & 6 o o o o 6 o o o 6 o o & & o o 6 o o 7 o o o o o o o o o o o o o o o o o o & & + 9 9 c o.k 3 3 3 3 3 d k # b 3 3 3 3 3 3 7 * * & * * & 3 3 7 * * & * * 7 # f j # 3 3 3 JXaX  d x x b ' j   0.y.3 3 3 ",
"w d f 3 w w w w w w w w 3 f d w w w w w 3 f s w w w #.d.d.%.%.%.%.d.%.%.%.d.%.%.d.d.%.$.k g N T g s s s w 4 4 4 e cX3XmXe., 1 1 1 n 2.2.2.4.4.4.8.8.8.8.8.8.8.8.8.8.8.8.8.8.8.9.8.XX8.9.q.8.8.8.8.8.u.t.9.r.r.8.8.8.4.4.8.8.8.8.8.8.8.8.8.8.8.8.8.8.8.8.8.8.8.8.8.8.8.8.8.8.8.8.8.8.8.8.8.8.8.4.4.8.8.8.r.r.pXy.8.8.8.8.8.8.4.8.8.8.8.8.8.8.8.8.8.8.8.8.8.8.8.8.8.8.8.8.8.8.8.8.8.8.8.8.8.8.8.8.8.8.8.8.8.8.8.8.y.+.j 3 3 3 3 3 d k # b 3 3 3 3 3 3 7 * * & * * & 3 3 7 * * & * * 7 # f j # 3 3 o y.JX@   d k x j   @ y.4.+ 3 3 ",
"d f j d d d d d d d d d d j f d d d d d d k f d d d #.m.d.d.d.d.d.m.d.d.d.c.d.d.d.m.d.%.v N v T g g g d 8 g U U U hX=X7XkXp.aXHXHXHXHXHXiXiXt.t.u.u.u.u.u.u.u.u.u.u.u.u.u.u.u.u.XXi.i.aXaXu.r.t.u.u.u.iXt.t.u.r.u.HXKXKXKXHXiXiXiXt.t.t.t.t.t.t.t.t.t.t.t.t.t.t.t.t.t.t.t.t.t.t.t.t.iXiXHXKXKXKXHXt.r.t.t.t.pXpXu.u.r.r.pXLXIXLXfXpXpXu.u.u.pXu.u.u.pXu.u.pXu.u.pXu.u.u.u.u.u.u.u.u.u.u.u.u.u.u.u.u.u.pXu.u.pXpXpXe.j 3 3 3 3 3 d k # b 3 3 3 3 3 3 7 * * & * * & 3 3 7 * * & * * 7 # f j # 3 3 # e JXJX2   $ $ . 2 y.y.e 3 3 3 ",
"3 3 d # 3 3 3 3 3 3 3 3 # s 3 # 3 3 3 3 # d 3 # # # M %.%.#.#.#.$.%.#.#.#.d.#.#.%.%.&.&.N 7 7 U , ; 3 1 U U U 1 n hXa.kXKXiXr.2.p w g > & & & & & & & & & & , & & & & & & & > = @XC OX1 U U U , o & f ^ 3 6 6 / q.q.2.i y y 4 d d 4 3 3 3 3 3 3 3 3 3 3 3 3 3 3 3 3 3 d 3 3 3 3 3 3 3 3 e e p ^ 4.q.4.3 o @ o.o.6 o ( DXDX1.o.q q 8 c 9 9 9 c 9 9 q q 9 9 c 9 9 c 9 9 9 9 9 9 9 9 9 9 9 9 9 9 9 9 9 9 q q q q q o...k 3 3 3 3 3 d k # b 3 3 3 3 3 3 7 * * & * * & 3 3 7 * * & * * 7 # f j # 3 3 3 # ^ PX0.o @ @ + 2.pXu 3 3 3 3 ",
"3 3 d 3 3 3 3 3 3 3 3 3 3 d 3 3 3 3 3 3 3 d w j d j #.%.%.#.#.#.%.d.#.#.$.d.#.$.%.#.[ #.f s v T > > U U 1 ; w w d fXHXJXuXo & > > ; g g w s w w s s s s w s f w s s w s ; > r F P N %Xs d s U T U g p 2.3 ^ pXr.p j e r u u t u u i i i i i i i i i i i i i i i i i y p i i i i i i i i i t z e e i 8.iX3.2 | o.w gXxX .h j e h h l ) h l h ) l h z z h l ) l h ) l l l l l l l l l l l l l l l l l h z z l ( (  ...k 3 3 3 3 3 d k # b 3 3 3 3 3 3 7 * * & * * & 3 3 7 * * & * * 7 # f j # 3 3 3 3 + p w # + + # 3 u # 3 3 3 3 ",
"3 3 d 3 3 3 3 3 3 3 3 3 3 d 3 3 3 3 3 3 3 d j } ' ' #.%.%.#.#.#.%.d.#.#.#.d.$.[ *.P.2X2XP D [ E < T U w w s b N r.KX7.:.gX; s s s ; g s ; > > > > > > > > s g ; > > s ; n uXN *XL N #XD g s w w U T p ^ 4.pX^ w r p y t u u t u u t y t t t t t t t t t t t t t t t y u t y t t t t t t i t u y i t e u pX9.` ..gX'.h e z z h h h l x h h h x h h l z h h x h h ) h h h h h h h h h h h h h h h h h h z z l ( z  ...k 3 3 3 3 3 d k # b 3 3 3 3 3 3 7 * * * * * * 3 3 7 * * & * * 7 # f j # 3 3 3 3 3 o 3 y ^ ^ y # o 3 3 3 3 3 ",
"3 3 d 3 3 3 3 3 3 3 3 3 3 d 3 3 3 3 3 3 3 w k %.#.$.#.%.%.#.#.#.%.d.#.#.$.d.[ P.5XP.>.L.,X<X2XE R M s > ; f v u.KXgXK C.gX; s > > ; g s ; > > > > > > > > s g s s > > s xXBXR.Z N N P L r s > > w U R t.t.p u i t u y t u u t u u t y t t t t t t t t t t t t t t t y u t y t t t t t t i t u y t t i i y r.pXcX+.h z h l z h h h l x h h h x h h l z h h x h h ) h h h h h h h h h h h h h h h h h h z z l ( z  ...k 3 3 3 3 3 d k # b 3 3 3 3 3 3 6 & 7 6 7 & 6 3 3 s 0 0 , 7 0 g # f j # 3 3 3 3 # p aXLXLXLXLXy.u # 3 3 3 3 ",
"3 3 d 3 3 3 3 3 3 3 3 3 3 d 3 3 3 3 3 3 3 w b %.#.#.#.%.%.#.#.#.%.d.#.#.#.s.2X2X*.%.%.*.#.&.6X;Xb.h.M g w g y.HX` gXJ D.gX; > > > ; g s ; > > > > s s > > s g ; > s ; n gXe.ZXF N N L @Xe s > > , , 4.aXy p p i t u y t u u t u u t y t t t t t t t t t t t t t t t y u t y t t t t t t i t u y t t i i p i CXuXq ) l h l z h h h l x h h h ) l h l z h h x h h ) h h h h h h h h h h h h h h h h h h z z l ( z  ...k 3 3 3 3 3 d k # b 3 3 3 3 3 4 T T T T T T T 3 3 g < < 1 < < 1 # f j # 3 3 3 # ^ LXaX0.i i 0.aXLX^ # 3 3 3 ",
"3 3 d 3 3 3 3 3 3 3 3 3 3 d 3 3 3 3 3 3 3 w b %.#.#.#.%.%.#.#.#.%.d.#.$.#.4X2X&.*.z.*.*.v.=.Q 6X2Xa.h.[ N 0.KXm w.gXJ c.xX; > > > ; g s ; > > > s ; ; > > s g z s s ; e.uX'.AXv H nXH @XN w > s , ^ iXY U ^ p t i u y t u u t u u t y t t t t t t t t t t t t t t t y u t y t t t t t t i t u y t t i u a uXxXpX7.c z h l z h h h l x h l 8 e.uX3 z z h h x h h ) h h h h h h h h h h h h h h h h h h z z l ( z  ...k 3 3 3 3 3 d k # b 3 3 3 3 3 5 rXrXrXrXrXrXrX4 3 g < < , < < g # f j # 3 3 # y JXaX@   $ $   @ aXJXe # 3 3 ",
"3 3 d 3 3 3 3 3 3 3 3 3 3 d 3 3 3 3 3 3 3 s m %.#.#.#.%.%.#.#.#.%.d.&.[ P.4X$.*.*.z.*.*.:.Q I.I.2X2Xh.j.5.KXV.J e.gXJ j.bX+.; s > ; g s ; s s s ; X.dX; > s , vXuX; ; uX2X7XAXH '.VX{ @XN w > > g pX2.2.Y Y / ^ r u y t u u t u u t y t t t t t t t t t t t t t t t y u t y t t t t t t i t u y t t y r +.xX7.e.pX_ l h l z h h h l x h l 3 uXvX3 z z h h x h h ) h h h h h h h h h h h h h h h h h h z z l ( z  ...k 3 3 3 3 3 d k # b 3 3 3 3 3 3 g < < 1 < < 1 3 3 g < < , < < g # f j # 3 3 o y.JX@   k ' ] b % @ JXy.o 3 3 ",
"3 3 d 3 3 3 3 3 3 3 3 3 3 d 3 3 3 3 3 3 3 w M %.#.#.#.%.%.#.#.#.%.d.[ >.5Xz.*.*.*.z.*.*.I.Q k.I.b.6XL.J HXi.K !.CX.X#.J 5XdX; s s ; g g > ; ; > s vXvXj ; e.w.dXxX; ; uX7XW nX!.gXgXe.OXD w s , u.3.Y 4.p U w.dXuX` t t u u t u u t y y y y y y y y y y y y y y y t y u t y y y y y y y y t u y i y t u cX/ e.X.q.pXq h l z h h h l x h l 8 uXBX8 z z h h x h h ) h h h h h h h h h h h h h h h h h h z z l ( (  ...k 3 3 3 3 3 d k # b 3 3 3 3 3 3 g < < , < < 1 3 3 g < < , < < g # f j # 3 3 3 JXaX  d m m ' [ x   aXJX3 3 3 ",
"3 3 d 3 3 3 3 3 3 3 3 3 # d 3 3 3 # d m x ' #.#.#.#.#.%.%.#.#.#.$.%.$.5X=.z.*.*.*.*.*.j.Q k.k.I.b.x.3Xi.HXJ J gX.X#Xh.$.3XcX; ; w ; g s ; j x ; z uXuXz % dXuXuXxXs ; gX5XM [.gXgXm.vXP L r & 2.r.1 2.3.p Y E.VXVXuXr t u y r u u t t t t t t t t t t t t t t t t t t u t t t t t t t t t t u t t i r gXe.p e.+.( pX| 8 l z h h h h z h h 3 uXBX4 l z h h x h h ) h h h h h h h h h h h h h h h h h h z z l c z  ...k 3 3 3 3 3 d k # b 3 3 3 3 3 3 g < < g s g s 3 3 g < < , < < g # f j # 3 # e JX3.  k x m k d w   2.aXe # 3 ",
"d d j d d d d d d d d d d j d d d w M c.d.c.d.d.d.d.%.d.d.%.d.%.d.s.4XP.d.v.z.z.z.v.*.Q I.v.L.I.v.k.J.PXM.z.E gX9X=Xs.d.L.hXdXX., g k g f vXdX, ` gXgXdXk vXdXjXhXn g hXL.a.[.CXgXE xXP.L g N pXn n 2.4.p p i.AXnXVX_ u n n u n n u u u u u y z z u u u u u u u u u u n u u u u u u u u u u n u u y | cX` ` e.e.` 7.pXc ) ) z x z x ) z ) j uXBXj ) ) z x ) x z ' x z z z z z z z z z z z z z z z x z ) ) ) ) ) ....k 3 3 3 3 3 d k # b 3 3 3 3 3 3 g < 1 T ~ ~ T 3 3 g < < 1 < < 1 # f j # 3 3 e JX0.  f x x x x j   3.y.w 3 3 ",
"3 w d 3 3 3 3 3 3 3 3 3 3 d s 3 3 3 m %.#.d.%.$.$.$.$.%.d.$.$.$.#.L.5X%.*.z.*.*.z.*.l.Q v.k.L.I.l.L.HXoX>.h.gXZXP.a.a.a.k.#Xe.xXxXw., f _ gXhX` e.gXb gXdXbXCXhXjXu s xXd.a.a.VXgXJ xXU.@X*X_.4.g n Y 4.n n VXoX5XAX_ r u u t n u y y y r uXe.r i y y y y y y y y y y u r y y y y y y y y y n y y t xX| ^ ^ e.+.` ) y.q.h ) h l l l ) l l 8 uXCXd z x h l ) l l ) l l l l l l l l l l l l l l l l l l x z c ) )  ...k 3 3 3 3 3 d k # b 3 3 3 3 3 3 g < g ! rXrXrX2 3 g < < g N < g # f j # 3 3 + aXJX  O k x b m #   y.0.+ 3 3 ",
"3 3 d 3 3 3 3 3 3 3 3 3 3 d 3 3 3 3 m $.#.d.$.#.#.#.#.%.%.#.#.#.#.5X>.%.*.z.*.*.*.*.Q l.v.k.k.I.W i.HXL.6XJ vX2XW h.a.a.a.&XL vXBXvXuXdXdX.X9XuXuXw.n b VX9X7X4XjX^ ; xXa.d.E nXgXJ gX'.wXGXlX> p n 2.3.@X7.mX=X7XAX` r u u t u u t t i r uXVXD D i y t t t t t t y r %.+.r i t t t t t t t u y r +.gXu ` ^ e.+.` ` ` pXz c h h h l x h l 3 uXCX8 l z h h x h h ) h h h h h h h h h h h h h h h h h h z z l z z  ...k 3 3 3 3 3 d k # b 3 3 3 3 3 3 g N g } lXlX'.# 3 6 7 7 8 y h y # f j # 3 3 + ^ JX0.  $ 3 w $   2.y.p # 3 3 ",
"3 3 d 3 3 3 3 3 3 3 3 3 3 d 3 # 3 @ M %.#.d.$.#.#.#.#.%.%.#.$.[ P.2X$.*.*.z.*.*.*.K.Q =.v.k.k.I.l.KXG.J P.R.dX=XW h.a.a.h.W -X-XJ ^.SXP.CXjX3XgXuXm.#XK VX9X*X*XhX} gXxXJ d.E nX].J B.vXL VXFXZ a n Y 0.bX.XFX*X0XCXuXdXu u t u u t y y r gXnX,.R.5 y y t t t t i y r .XAX/ r y t t t t y t u y i xX` ^ ` ^ e.+.` ` z q.q.h h h h h z h l 8 uXVX8 l z h h x h h ) h h h h h h h h h h h h h h h h h h z z l ( z  ...k 3 3 3 3 3 d k # b 3 3 3 3 3 2 P 3X3XU.lXzX].# 3 6 g g s h h h # f j # 3 3 3 # y.IX3.% . . % ^ pX3.# 3 3 3 ",
"3 3 d 3 3 3 3 3 3 3 3 3 3 j k f f f #.$.#.d.$.#.#.#.#.%.%.#.#.$.5Xx.*.*.*.z.*.*.*.Q j.j.v.k.v.W aXJXK z.E mX.X*Xk.h.a.a.a.h.6.=X-X=XgX=X7XP.P.hXhX-X=X*X8X2Xx.K jX.XSXxXJ d.a.!.B.a.J gXBXAXjX*Xn b Y sXZXmX X:X=X.XNXCX` y t u u t y y r gXbXgXdX| u t i t t t t i r |.GXe.r y t t t t i t n r e.gXy ` ` ^ e.+.` ` _ _ pX_ h h h ` e.d l 3 uXVX8 l z h h x h h ) h h h h h h h h h h h h h h h h h h z z l ( z  ...k 3 3 3 3 3 d k # b 3 3 3 3 3 2 W 3X3XT.lXzX].# 3 6 g 7 s h l h # f j # 3 3 3 3 # y.p # 3 3 3 u 3.# 3 3 3 3 ",
"3 3 d 3 3 3 3 3 3 3 3 3 # ] d.#.$.$.#.#.#.d.$.#.#.#.#.%.%.&.[ P.P.%.*.*.*.z.*.*.E Q =.k.v.k.L.E.KXc.k.j.E cX7XK h.a.a.a.a.a.a.h.a.h.E 5.*X=X6.bXbXW 6.:X#X] d.J }.GXnX!.J d.d.J a.a.a.m.AXVXdXP P $XW jXBXVXN.v.W 6XVXxX` y t u u t t i t cXjXcXBXvX/ r y t t t t i r gXFXgXr y t t t t i t u y xX` _ ` ` ^ e.+.` ` ` l q.q.8 l 8 | dX8 l 3 uXVXh l z h h x h h ) h h h h h h h h h h h h h h h h h h z z l ( z  ...k 3 3 3 3 3 d k # b 3 3 3 3 3 2 W 3X3XU.lXzX].# 3 6 g 7 6 e e w # f j # 3 3 3 3 3 + 2 4 3 3 4 4 + 3 3 3 3 3 ",
"3 3 d 3 3 3 3 3 3 3 3 3 3 #.%.#.#.#.#.#.#.d.$.#.#.#.#.%.%.#.*.5X*.z.*.*.*.z.*.*.Q x.j.j.v.k.K JXi.K z.j.j.cX7Xj.h.a.a.a.a.a.a.a.a.a.d.a.L.k.h.a.h.h.a.:XW h.z.a.j.cX'.J a.a.d.a.a.a.$.G.kXgXnXgXwX:X-XFXvXCXg.5.L.0XCXdXuXg t u u t j k t hXFXcXZXAX/ r y i y y i y t dXD.bX/ r i t t t i y t e.uXy _ ` ` ^ e.+.` ` ` _ ` pXl h d | dX8 l 3 uXVXh l z h h x h h ) h h h h h h h h h h h h h h h h h h z z l ( z  ...k 3 3 3 3 3 d k # b 3 3 3 3 3 2 W 3X3XT.lXzX].# 3 6 g * c +.+.| 3 f j # 3 3 3 3 3 4 < T T T T < 4 3 3 3 3 3 ",
"3 3 d 3 3 3 3 3 3 3 3 3 3 #.%.#.#.#.#.#.#.d.$.#.#.#.#.%.%.[ 2XP.%.z.*.*.*.z.*.E I.z.j.j.v.>./.KXl.k.j.j.z.cX:XP.h.a.a.a.a.a.a.a.a.a.d.a.h.h.a.a.a.a.h.W k.h.d.a.a.J a.a.a.a.d.a.a.a.$.sX/.E nXVXV W M cXgXgXg.M.g.:X=XlXZX-XL i y r cX>./ bXFXnX4XZX| r y t r t y i i xXh.jX+.r y t t t y t n xX` _ _ ` ` ^ e.+.` ` ` _ z q.q.8 8 | vX8 l 4 gXSX+.d z h h x h h ) h h h h h h h h h h h h h h h h h h z z l ( z  ...k 3 3 3 3 3 d k # b 3 3 3 3 3 2 W 3X3XU.lXzX].# 3 6 g & o.vXvXdX3 d k # 3 3 3 3 3 T T T T T T T T 3 3 3 3 3 ",
"3 3 d 3 3 3 6 v v v v v v %.%.#.#.#.#.#.#.d.$.#.#.#.#.%.%.=.5X*.*.z.*.*.*.z.z.W.E E j.k.v.>.HXXXW x.j.E c.bXL.6Xj.h.a.a.a.a.a.a.a.a.d.a.a.a.a.a.a.a.a.h.h.a.d.a.a.a.a.a.a.a.d.a.a.J /.i.g.s.].CX6.M.xXnXV.g.N.g.f.P.:X7XZXSXFXP } ` AX7XhXGXFXVXJ .X+.: y i X.f i r | cX#.jXe.r y t t t y r e.gXy _ _ ` ` ^ e.+.` ` ` _ _ ` pXh l uXvX8 l 4 gXSXuX8 ) h h x h h ) h h h h h h h h h h h h h h h h h h z z l ( z  ...k 3 3 3 3 3 d k # b 3 3 3 3 3 2 W 3X3XU.lXzX].# 3 6 g 7 s e h e # f j # 3 3 3 3 T ~ 1 . . . . 1 ~ T 3 3 3 3 ",
"3 3 d # 3 # g %.$.$.$.$.$.d.$.#.#.#.#.#.#.d.$.#.#.#.#.%.#.2XP.$.*.z.*.*.=.|.nXxXxXcXz.j.L.i.HXW l.b.D.^.c.cXa.P.2Xh.a.a.a.a.a.a.a.a.d.a.a.a.a.a.a.a.a.a.a.a.d.a.a.a.a.a.a.a.d.a.a.$.sXF.N.M.s.gXxXVXAXCXM.N.N.f.f.N.c.Q  XVXAXGXGX8XbXGXZXFXFXvXH }.hX| : / ZXv t +.AXnXJ |.BXy t t t t t y xX` _ _ _ ` ` ^ e.+.` ` _ _ ` z q.3.o.VXvXd l 4 gXSXVX( z h h x h h ) h h h h h h h h h h h h h h h h h h z z l z z  ...k 3 3 3 3 3 d k # b 3 3 3 3 3 2 W 3X3XU.lXzX].# 3 6 g 7 6 e e e # f j # 3 3 4 < T 1 . 3 k x s . 1 T < 4 3 3 ",
"v M H v v v H $.#.$.$.$.#.d.%.$.$.$.$.$.$.d.%.$.$.$.$.%.z.5X*.*.*.z.*.*.K gX8X=XR.bX^.E v.KXG.W l.E cXcXnXcXE j.6Xj.a.a.a.a.a.a.a.a.d.d.a.a.a.a.a.a.a.a.a.a.d.a.a.a.a.a.a.d.d.a.$./.i.d.N.N.a.xXVX(.lXxXf.F.N.g.g.N.n.F.Q gXAXAXAXZX5XBXVX=XcXxXJ |.SXCX+.^.ZXF N AXSXgXh.x.GXuXr y y y r +.gXu _ _ _ ` ` ^ e.+.` ` ` _ ` ` / pX| VXvXh z 4 gXSXAX .c l l ) l l ) l l l l l l l l l l l l l l l l l h z z l ( (  ...k 3 3 3 3 3 d k # b 3 3 3 3 3 2 W 3X3XT.lXzX].# 3 6 0 * ) dXdXuX3 d k # 3 3 4 T T . 3 m m ' [ d . T T 4 3 3 ",
"d.m.D.d.m.m.d.d.d.d.d.d.d.c.d.d.d.d.d.d.d.c.d.d.d.d.d.n.4XP.z.x.D.D.z.D.=.cX.XW $XjX[.K aXJXL.I.L.gXbX*X4XJ.v.z.P.2Xs.c.d.c.c.c.c.d.c.c.d.c.c.c.c.c.c.c.d.c.c.d.c.c.c.c.d.c.c.d.z.sX/.N.H.N.g.gXVXK.G./.F.G.F.N.N.H.N.N.E.H.gXcXAXZX=XM.nXn.xXgXa.].AXVXAXCXmX8XbXVXnXg.C.N.-XcX^ u p n n cXX.` ` ` ` | | ` e.w.| | | ` ` | ) y.uXVXBXx x uXxXZXAXX.x x ) } ) ) } ) ) ) ) ) ) ) ) ) ) ) ) ) ) ) ) ) ) ' ) ) o.o.....k 3 3 3 3 3 d k # b 3 3 3 3 3 2 W 3X3XT.lXzX].# 3 6 6 & o.BXCXdX3 d k # 3 3 w T < . j b m m ' m . < T w 3 3 ",
"#.#.%.#.#.#.#.#.#.#.#.#.#.%.$.#.#.#.#.#.#.d.#.#.#.#.#.*.5X*.*.*.*.z.*.*.K zX^.E a.jX|.f.KXx.K W ].mX5Xk.E j.j.j.j.6Xj.h.a.a.a.a.a.a.d.a.a.a.a.a.a.a.a.a.a.a.d.a.a.a.a.a.a.a.d.J G.i.a.f.N.f.h.!.CXg.G./.M.N.N.f.f.N.g.s.K.E.#.a.CXnXk.n.Z.#.gXgXJ '.CXxXAXFX9XZXAXGX[.n.n.5.K GX/ d j r +.gXn _ _ _ _ ^ / ^ e.e.` ` _ _ _ ` z ^ fXAXBXh e.BXxXZXcX| ) +.h ) h h x h h h h h 8 h h h h h h h h h h h h z z l c z  ...k 3 3 3 3 3 d k # b 3 3 3 3 3 2 W 3X3XT.lXzX].# 3 0 F F &.BXBXdX3 d k # 3 3 w T < . j x j m m b . < T s 3 3 ",
"#.$.d.#.#.#.#.#.#.#.#.#.#.d.%.#.#.#.#.#.#.d.$.#.#.$.[ 2XP.%.*.*.*.z.*.*.E zX^.E E jXgXHXi.U.gXcXbX5XW z.j.j.j.j.a.P.P.h.a.a.a.a.a.a.d.a.a.a.a.a.a.a.a.a.a.a.d.a.a.a.a.a.a.a.d.$.i.G.s.f.N.g.g.N./.g.G./.M.F.N.f.g.N.g.g.M.E.g.n.!.Z.s.n.s.s.n.n.h.!.CXh.'.W FXCXgXD.a.V.n.n.a.FXuXnX:.5 cX| ` _ _ _ _ ` ` / 7.xXuX_ ` _ ` ` _ u dXAXBX8 vXVXxXZXbX+.uXAXuXd l h ` ` h h h h +._ h h h h h h h h h h h z z l ( (  ...k 3 3 3 3 3 d k # b 3 3 3 3 3 2 W 3X3XU.lXzX].# 2 P *X*X>.NXBXdX3 d k # 3 3 3 T T . w j w b m s . T T 3 3 3 ",
"#.$.d.#.#.#.#.#.#.#.#.#.#.d.$.#.#.#.#.#.#.d.$.#.#.#.$.5X*.*.*.*.*.z.=.D.W.nXD.E z.2XnXIXU.cXjX7X-XL.d.j.j.j.j.j.j.j.5Xj.a.a.a.a.a.a.d.a.a.a.a.a.a.a.a.a.a.a.d.a.a.a.a.a.a.a.a.V.i.d.g.f.N.g.g.g.g.g.G./.M.F.N.f.f.N.g.f.N.K.E.m.g.s.n.n.n.n.s.n.h.!.nXh.s.6.'.VX#.s.n.M.n.n.s.2XZXZX.XgXgXu ` _ _ _ _ ^ ^ / 7.vXuXz ` _ _ ` u u xXAXAX| BXAXvXmXFXdXAXAXdX+.l d +.dX8 l h 8 vX| 8 h h h h h h h h h h z z l ( z  ...k 3 3 3 3 3 d k # b 3 3 3 3 3 2 W 3X3XU.lXzX].# 3 6 6 & o.BXBXdX3 d k # 3 3 4 < T >   O f k s . > T V 4 3 3 ",
"#.$.d.#.#.#.#.#.#.#.#.#.#.d.$.#.#.#.#.#.#.d.$.#.$.[ P.P.%.*.*.*.*.*.-.nXxXhXL.j.j.J.JXhX|.hX5X=Xc.b.k.j.j.j.j.j.j.a.P.P.h.a.a.a.a.a.d.a.a.a.a.a.a.a.a.a.a.a.d.a.a.a.a.a.a.d.a.i.G.d.g.f.N.g.g.g.g.g.G./.M.F.N.f.f.N.g.f.N.M.E.F.m.s.n.n.n.n.n.n.s.n.!.s.n.s.n.'.n.n.n.M.n.n.n.h.CXGXbXAXBX+._ z _ _ u e.uX| | CXdXz ` _ ` ` +./ bXZXSXxXBXAXAXbX8XCXAXCXBXAX+.+.nXBXl h h h BX| d h h h h h h h h h h z z l ( z  ...k 3 3 3 3 3 d k # b 3 3 3 3 3 2 W 3X3XU.lXzX].# 2 L *XOX>.NXBXdX3 d k # 3 3 3 3 T T ,   . $ . , T T 3 3 3 3 ",
"#.$.d.#.#.#.#.#.#.#.#.#.#.d.$.#.#.#.#.#.#.d.$.#.#.$.5X*.*.*.*.*.*.=.!.zX=X-XL.j.k.KXi.8X}.hXS.E l.k.j.j.j.j.j.j.j.j.j.5Xj.a.a.a.a.a.d.a.a.a.a.a.a.a.a.a.a.a.d.a.a.a.a.a.a.a.G.i.d.g.g.f.N.g.g.g.g.g.G./.M.F.N.f.f.N.g.f.N.M.K.E.n.s.n.n.n.n.n.n.n.s.s.n.n.n.s.h.n.n.n.M.n.n.n.h.'.!.CXZXAXdXBXe.y / u BXAXdX7.VXdXz u uXuX` vX/ hXZX8XgXVXAXAXbX8XVXAXuXVXuXxXvXAXAX+.8 l h VX| 8 l h h h h h h h h h z z l ( z  ...k 3 3 3 3 3 d k # b 3 3 3 3 3 2 W 3X3XT.lXzX].# 2 P *X*X,.NXBXdX3 d k # 3 3 3 3 > T < 4 # # 4 < T > 3 3 3 3 ",
"#.$.d.#.#.#.#.#.#.#.#.#.#.d.$.#.#.#.#.#.#.d.$.$.[ P.2X%.z.*.*.*.*.=.|.jXP L.j.K JXJXK }.nXcXL.I.l.k.j.j.j.j.j.j.j.j.a.P.P.h.a.a.a.a.d.a.a.a.a.a.a.a.a.a.a.a.d.a.a.a.a.a.a.$.XX/.d.g.g.f.N.g.g.g.g.g.G./.M.F.N.f.f.N.g.f.N.N.s.E.g.n.n.n.n.n.n.n.n.n.n.n.n.n.n.n.n.n.n.M.n.n.n.n.s.h.nX.XmXCXSXCXw.L ) VXAXAXe.VXdX` _ dXvX_ VXVXbXZX8XxXVXAXZX7X4XZXZX.XZXP.xXAXVXcXe.# h +.AX| 8 l h h h h h h h h h z z l ( z  ...k 3 3 3 3 3 d k # b 3 3 3 3 3 2 W 3X3XT.lXzX].# 2 P *X*X,.NXBXdX3 d k # 3 3 3 3 4 s + + # # + + s 3 3 3 3 3 ",
"#.$.d.#.#.#.#.#.#.#.#.#.#.d.$.#.#.#.#.#.#.d.$.#.$.5X=.*.*.*.*.*.*.=.oXgXE c.K aXHXk.a.P.jX8XL.I.l.k.j.j.j.j.j.j.j.j.j.k.6Xa.a.a.a.a.d.a.a.a.a.a.a.a.a.a.a.a.d.a.a.a.a.a.$.M.sXs.g.g.g.f.N.g.g.g.g.g.G./.M.F.N.f.f.N.g.f.N.N.s.K.E.;.n.n.n.n.n.n.n.n.n.n.n.n.n.n.n.n.n.M.n.n.n.n.s.Q.hXP.0XAX7XZXbX:XR.CXAXAXBXAXuXe.VXvXvXe.AXAXbXCX9XnXAXSXFX*X2X8XmX9XFX:X .VXZX5XVXuXd dXSX..8 l h h h h h h h h h z z l ( z  ...k 3 3 3 3 3 d k # b 3 3 3 3 3 2 W 3X3XU.lXzX].# 2 P *X*X,.NXBXdX3 d k # 3 3 3 3 3 + ` e.sXsXi.` + 3 3 3 3 3 ",
"#.$.d.#.#.#.#.#.#.#.#.#.#.d.%.#.#.#.#.#.#.d.$.[ P.2X$.*.z.*.*.*.:.E oXgXE L.aXKXz.k.a.W -X-XL.I.l.k.j.j.j.j.j.j.j.j.j.a.2XP.h.a.a.a.d.a.a.a.a.a.a.a.a.a.a.a.d.a.a.a.a.a.J XX/.d.g.g.g.g.N.g.g.g.g.g.G./.M.F.N.f.g.N.g.f.N.N.s.N.E.f.n.n.n.n.n.n.n.n.n.n.n.n.n.n.n.n.n.M.n.n.n.n.h.jX[.z.5XAXR.vXZXVXCXbXZXAXSXBXxXdXAXZXmXAXAXgX2XVX5XmXZXZXFX*X2X*XGX7XwX:X>.ZX9X7XuXVXdXvXZX+.8 l h h h h h h h h h z z l ( (  ...k 3 3 3 3 3 d k # b 3 3 3 3 3 2 W 3X3XU.lXzX].# 2 P *X*X,.NXBXdX3 d k # 3 3 3 3 3 sXfXIXsXsXIXfXsX3 3 3 3 3 ",
"#.$.%.#.#.#.#.#.#.#.#.#.#.%.$.#.#.#.#.#.#.d.#.#.5X=.=.=.=.K =.=.=.! }.|.E JXHXz.k.x.j.j.P.L.k.I.l.j.j.j.j.j.j.j.j.j.j.j.k.6Xa.a.a.$.d.a.a.a.a.a.a.a.a.a.a.a.d.a.a.a.a.$.s.sXN.s.f.f.f.s.N.f.f.g.g.g.G./.M.N.N.f.s.N.g.s.N.N.s.M.K.K.;.s.s.s.s.s.s.s.s.s.s.s.s.s.s.s.n.M.s.s.n.s.B.hXB.B.!.BXC.].AXAXCX7XFXmX:X4XmXAXCXZXmXGXFX!.$XCX.XmXbXZX9X*XP.*XFX7XwX:X>XGX:X>XK +.AXvX8X+.3 l h h h h h h h h h z l l c z  ...k 3 3 3 3 3 d k # b 3 3 3 3 3 2 W 3X3XU.lXzX].# 2 P *X*X,.NXBXdX3 d k # 3 3 3 # sXIX7.$     $ 7.IXsX# 3 3 3 ",
"d.d.m.d.d.d.d.d.d.d.d.d.d.m.d.d.d.d.d.d.d.m.s.L.4Xd.D.^.Q.gXbXhXhXoXcXsXHXJXk.k.v.v.x.x.v.v.L.I.l.v.x.x.x.x.x.x.x.x.x.x.z.6XL.h.d.d.c.d.d.d.d.d.d.d.d.d.d.d.c.d.d.d.d.a.XXXXg.N.N.N.N.N.N.N.N.N.N.A.G./.N.F.F.N.N.N.N.N.N.N.N.N.F.E.M.n.M.M.M.M.M.M.M.M.M.M.M.M.M.M.M.C.n.M.M.s.jXjXB.Q.Q.^.~.Q.VXhX-X-X[.mX:X>X.XZX5XCX5X-XwX-X-XCX X7X5XbXFX>.D.:X-X:X:X5XP.-X2X>X>.e.AXmX9XuXf z z z z z z z z z z ) ) z ) ) ....k 3 3 3 3 3 d k # b 3 3 3 3 3 2 W 3X3XU.lXzX].# 2 P *X*X,.NXBXdX3 d k # 3 3 + 7.fX7.  @ j k 3   7.fX7.+ 3 3 ",
"&.=.=.&.&.&.&.&.&.&.&.&.&.=.=.&.&.&.&.&.&.=.&.<X<.*.mXjXhXFXD.!.lXIXPXHX/.L.x.z.x.v.j.x.L.k.L.I.l.l.x.x.x.x.x.x.x.x.x.x.z.L.6Xa.d.a.c.d.a.d.d.d.d.d.d.d.d.d.c.a.d.d.a.g.sXN.N.N.N.N.N.N.N.N.N.N.g.A.G./.M.F.N.N.N.N.N.N.N.N.g.N.N.K.K.n.n.n.n.n.n.n.n.n.n.n.n.n.n.n.n.C.n.n.n.B.hXQ.C.C.C.C.~.Q.CXQ.:XP.e.hX5X7X.XnX>X5X-X2X:X>XL.hX^.:XoX.X.Xn.D.-XU.2X2XD.Z.>.B.P.*X4XVX5XqXdXs | ) l z z z z z z l x x z ) ) ....k 3 3 3 3 3 d k # b 3 3 3 3 3 2 W 3X3XT.lXzX].# 2 P *X*X,.NXBXdX3 d k # 3 3 + sXfX  3 m ' ] { d   fXsX+ 3 3 ",
"i.i.i.i.i.i.i.i.i.i.i.i.i.i.i.i.i.i.i.i.i.i.i.XXi.aXLXoXXXJXHXHXHXi.F.K K x.j.j.x.x.j.j.v.k.k.I.l.b.j.j.j.j.j.j.j.j.j.j.j.a.2XL.h.a.d.a.a.a.a.a.a.a.a.a.a.a.d.a.a.a.J /./.d.N.s.f.f.f.f.N.f.g.g.g.g.G./.M.N.N.f.f.N.g.s.N.N.s.N.N.g.E.s.s.s.s.s.s.s.s.s.s.s.s.s.s.s.n.M.s.n.#.}.jXn.B.B.B.B.Q.B.'.B.-XD.!.V.].7XU.!.P.L.S.!.2X:XB.-XU.*XXXR.$X;.-.m.m.-.;.m.-.;.B.x.>X7XmX*X=XmX_ dX+.8 h h h h h h h z z l c z  ...k 3 3 3 3 3 d k # b 3 3 3 3 3 2 W 3X3XU.lXzX].# 2 P *X*X,.NXBXdX3 d k # 3 # e fXe.  j b m m x k   e.fXe # 3 ",
"HXHXJXHXHXHXHXHXHXHXHXHXHXJXJXHXpXaXaXaXaXpXJXaXaXaXfXi.i.i.!.E.E =.=.j.j.x.j.j.x.x.j.k.v.k.k.I.l.k.j.j.j.j.j.j.j.j.j.j.j.j.L.2Xh.a.d.a.a.a.a.a.a.a.a.a.a.a.d.a.a.a.a.sXM.g.N.f.g.g.g.f.N.g.g.g.g.g.G./.M.F.N.f.g.N.g.f.N.N.s.N.N.s.E.K.;.n.n.n.n.n.n.n.n.n.n.n.n.n.n.M.n.n.n.hXQ.B.B.B.B.B.Q.B.B.B.-XD.!.V.].6XD.Q.!.Z.C.Q.B.-XC.-XD.-X~.oXP.n.-.m.m.-.-.D.-.-.B.L.*XQ.FX-XP .XuXxX+.8 l h h h h h h z z l ( (  ...k 3 3 3 3 3 d k # b 3 3 3 3 3 2 W 3X3XT.lXzX].# 2 P *X*X,.NXBXdX3 d k # 3 # e fX7.  j x m k d w   / sXe 3 3 ",
"J &.=.J J J J J J J J J J =.&.J J J J J H >.<XK F ^.hXK =.=.=.Q z.x.j.j.j.x.j.j.x.x.j.j.v.k.k.I.l.k.j.j.j.j.j.j.j.j.j.j.j.j.a.6Xk.h.d.a.a.a.a.a.a.a.a.a.a.a.d.a.a.J /.i.a.N.N.f.g.g.g.f.N.g.g.g.g.g.G./.M.F.N.f.f.N.g.f.N.N.s.N.N.s.g.E.n.n.n.n.n.n.n.n.n.n.n.n.n.n.n.M.n.h.|.jXn.B.B.B.B.B.Q.B.B.B.D.C.Q.V.[.[.Q.Q.C.B.C.Q.B.C.B.-XS.P.D.sX~.-.-.m.m.-.-.m.-.-.C.:.>.x.>X-XP.<.dXCX+.8 l h h h h h h z z l ( z  ...k 3 3 3 3 3 d k # b 3 3 3 3 3 2 W 3X3XU.lXzX].# 2 P *X*X,.NXBXdX3 d k # 3 3 3 fXsX  w x x b ' f   q.q.3 3 3 ",
"#.%.d.#.#.#.#.#.#.#.#.#.#.d.%.#.#.#.#.$.{ 2X.XxXgXvXgX=.z.*.Q E z.x.j.j.j.x.j.j.x.x.j.j.v.k.k.I.l.k.j.j.j.j.j.j.j.j.j.j.j.j.a.L.2X#.d.a.a.a.a.a.a.a.a.a.a.a.d.a.a.a.sXM.s.N.N.f.g.g.g.f.N.g.g.g.g.g.G./.M.F.N.f.f.N.g.f.N.N.s.N.N.f.s.E.K.n.n.n.n.n.n.n.n.n.n.n.n.n.n.M.n.s.hX^.B.B.B.B.B.B.Q.B.B.B.V.C.Q.V.[.[.Q.Q.B.B.C.Q.B.B.B.D.~.Z.m.].XX%.m.m.m.-.-.m.-.-.D.-.;.>.:X=XL.*XhXAX+.8 l h h h h h h z z l ( z  ...k 3 3 3 3 3 d k # b 3 3 3 3 3 2 L =X#X*.'.].w.3 2 F @XOX@.MXMXyX3 d k # 3 3 o e.fX4   d k k d   2 uX7.+ 3 3 ",
"#.$.d.#.#.#.#.#.#.#.#.#.#.d.$.#.#.#.$.#.*.5XcX.X.X8X2X%.*.*.Q j.j.x.j.j.j.x.j.j.x.x.j.j.v.k.k.I.l.k.j.j.j.j.j.j.j.j.j.j.j.j.j.j.6Xj.d.a.a.a.a.a.a.a.a.a.a.a.d.a.$.G.i.a.f.g.N.f.g.g.g.f.N.g.g.g.g.g.G./.M.F.N.f.f.N.g.f.N.N.s.N.N.f.s.N.E.n.n.n.n.n.n.n.n.n.n.n.n.n.n.B.h.^.hXn.B.B.B.B.B.B.Q.B.B.B.B.C.Q.V.[.[.Q.Q.B.B.C.Q.B.B.B.V.Q.B.B.B.kXm.-.m.m.-.-.m.-.-.D.-.-.>.-X-.m.wX8XAX+.4 l h h h h h h z z l ( z  ...k 3 3 3 3 3 d k # b 3 3 3 3 3 2 L =X#X*.'.].w.3 2 F @XOX@.MXMXyX3 d k # 3 3 3 e fXfXe   $ $   4 sXuXw 3 3 3 ",
"#.$.d.#.#.#.#.#.#.#.#.#.#.d.%.#.#.#.&.H ,XR.cX#X#X#X>.z.*.E Q =.j.x.j.j.j.x.j.j.x.x.j.j.v.k.k.I.l.k.j.j.j.j.j.j.j.j.j.j.j.j.j.a.P.2Xh.a.a.a.a.a.a.a.a.a.a.a.d.a.$.i.G.s.f.g.N.f.g.g.g.f.N.g.g.g.g.g.G./.M.F.N.f.f.N.g.f.N.N.s.N.N.f.g.s.E.g.n.n.n.n.n.n.n.n.n.n.n.n.n.B.h.hX|.B.B.B.B.B.B.B.Q.B.B.B.B.C.Q.V.[.[.Q.Q.B.B.C.Q.B.B.B.C.Q.B.B.m.kX].%.m.m.-.-.m.-.-.D.-.-.:.P.-.m.=.8XZXxXh l h h h h h h z z l ( z  ...k 3 3 3 3 3 d k # b 3 3 3 3 3 2 L =X#X*.'.].w.3 2 F @XOX@.MXMXyX3 d k # 3 3 3 # _ IX7.o @ @ + | sXy 3 3 3 3 ",
"#.$.d.#.#.#.#.#.#.#.#.#.#.$.J J J J Z.'.8XgXcX$.%.%.*.*.z.Q b.j.j.x.j.j.j.x.j.j.x.x.j.j.v.k.k.I.l.k.j.j.j.j.j.j.j.j.j.j.j.j.j.j.j.6Xz.a.a.a.a.a.a.a.a.a.a.a.d.$.F.i.d.g.f.g.N.f.g.g.g.f.N.g.g.g.g.g.G./.M.F.N.f.f.N.g.f.N.N.s.N.N.f.g.s.K.E.;.n.n.n.n.n.n.n.n.n.n.n.n.n.Q.hXm.B.B.B.B.B.B.B.Q.B.B.B.B.C.Q.V.[.[.Q.Q.B.B.C.Q.B.B.B.B.Q.B.B.B.).kX%.m.m.-.-.m.-.-.D.-.-.-.;.-.-.;.&X9XAXh h h h h h h h z z l ( z  ...k 3 3 3 3 3 d k # b 3 3 3 3 3 2 L =X#X*.'.].w.3 2 F @XOX@.MXMXyX3 d k # 3 3 3 3 + z 4 4 4 4 4 4 y # 3 3 3 3 ",
"#.%.d.#.$.#.#.#.#.#.#.#.#.gXxXxXxXxXbXFXFXFX8X=.*.*.*.*.K.Q =.j.j.x.j.j.j.x.j.j.x.x.j.j.v.k.k.I.l.k.j.j.j.j.j.j.j.j.j.j.j.j.j.j.a.P.R.h.a.a.a.a.a.a.a.a.a.a.d.J i./.d.g.f.N.N.f.g.g.g.f.N.g.g.g.g.g.G./.M.F.N.f.f.N.g.f.N.N.s.N.N.f.g.g.s.E.g.n.n.n.n.n.n.n.n.n.n.n.n.s.jX|.n.B.B.B.B.B.B.B.Q.B.B.B.B.C.Q.V.[.[.Q.Q.B.B.C.Q.B.B.B.B.Q.B.B.B.C.kXQ.-.m.-.-.m.-.-.D.-.-.-.-.-.-.;.#X5XVX| l h h h h h h z z l ( z  ...k 3 3 3 3 3 d k # b 3 3 3 3 3 2 L =X#X*.'.].w.3 2 F @XOX@.MXMXyX3 d k # 3 3 3 3 3 O 1 U T T U 1 O 3 3 3 3 3 ",
"J J $.J J J J J J J J H n.mX5X4X4X5X-X-X#X#XP *.*.*.*.*.Q b.j.j.j.x.j.j.j.x.j.j.x.x.j.j.v.k.k.I.l.k.j.j.j.j.j.j.j.j.j.j.j.j.j.j.j.j.6Xa.a.a.a.a.a.a.a.a.a.a.a.M.i.d.f.g.f.g.N.f.g.g.g.f.N.g.g.g.g.g.G./.M.F.N.f.f.N.g.f.N.N.s.N.N.f.g.g.s.K.E.;.n.n.n.n.n.n.n.n.n.n.s.Q.hXB.B.B.B.B.B.B.B.B.Q.B.B.B.B.C.Q.V.[.[.Q.Q.B.B.C.Q.B.B.B.B.Q.B.B.B.C.].].%.m.-.-.m.-.-.D.-.-.-.-.-.-.-.m.%.jXAX| 8 h h h h h z z l z z  ...k 3 3 3 3 3 d k # b 3 3 3 3 3 2 L =X#X*.'.].w.3 2 F @XOX@.MXMXyX3 d k # 3 3 3 3 4 T R R R R R R T 3 3 3 3 3 ",
"xXxXxXxXxXxXxXgXgXgXgXgXvXjXP L.L.W P.4Xm.D.D.x.z.x.:.l.Q x.v.v.v.v.v.v.v.v.v.v.v.v.v.v.U.L.L.I.v.v.v.v.v.v.v.v.v.v.v.v.v.v.v.v.v.c.2XR.s.c.c.c.c.c.c.c.c.c.z.XX/.g.N.N.N.N.F.N.N.N.N.N.H.N.N.F.F.A.G./.F.G.F.N.N.H.N.N.F.F.N.F.F.N.N.N.N.N.E.N.B.C.C.C.C.C.C.C.C.C.f.jXjXC.~.~.~.~.~.~.~.~.(.~.~.~.Q.Q.~.Q.}.}.~.~.~.~.~.~.Q.~.~.~.~.Q.~.~.~.Q.kXS.S.D.D.S.D.D.S.D.D.D.D.D.D.D.D.m.4XZX+.k ) ) ) ) ) ' ' ) o.o.....k 3 3 3 3 3 d k # b 3 3 3 3 3 2 L =X#X*.'.].w.3 2 F @XOX@.MXMXyX3 d k # 3 3 3 4 T R U O . . O U R T 4 3 3 # ",
"R.R.R.R.R.R.R..X.X.X.X|.8X2X{ #.#.{ 5X>.*.z.*.*.*.*.*.Q l.j.j.j.j.x.j.j.j.x.j.j.x.x.j.k.v.k.k.I.l.k.j.j.j.j.j.j.j.j.j.j.j.j.j.j.j.j.L.6Xa.a.a.a.a.a.a.a.a.a.N.sXg.g.g.g.f.N.N.f.g.g.g.g.N.g.g.g.g.g.G./.M.F.N.f.g.N.g.f.N.N.s.N.N.f.g.g.g.s.K.K.;.n.n.n.n.n.n.n.n.s.m.hXB.B.B.B.B.B.B.B.B.B.Q.B.B.B.B.C.Q.V.[.[.Q.Q.C.B.C.Q.B.B.B.B.Q.B.B.B.Q.m.XX].:.-.-.m.-.-.D.-.-.-.-.-.-.-.-.m.K 9X+.8 l h h h h z z l ( (  ...k 3 3 3 3 3 d k # b 3 3 3 3 3 2 L =X#X*.'.].w.3 2 F @XOX@.MXMXyX3 d k # 3 3 4 < R U . $ d f O . U R < 4 3 3 ",
"P P #XP P P #X#X#X#X#X#X%XL.#.$.#.>.4X%.*.z.*.*.*.*.b.Q z.j.j.j.j.x.j.j.j.x.j.j.x.x.j.j.v.k.k.I.l.k.j.j.j.j.j.j.j.j.j.j.j.j.j.j.j.j.z.2XL.h.a.a.a.a.a.a.a.J XX/.a.f.g.g.f.g.N.f.g.g.g.f.N.g.g.g.g.g.G./.M.F.N.f.f.N.g.f.N.N.s.N.N.f.g.g.g.f.g.E.s.n.n.n.n.n.n.n.n.h.}.jXn.B.B.B.B.B.B.B.B.B.Q.B.B.B.B.C.Q.V.[.[.Q.Q.B.B.C.Q.B.B.B.B.Q.B.B.B.Q.B.!.kX:.-.-.m.-.-.D.-.-.-.-.-.-.-.-.m.%.jX+.4 l h h h h z z l ( z  ...k 3 3 3 3 3 d k # b 3 3 3 3 3 2 L =X#X*.'.].w.3 2 F @XOX@.MXMXyX3 d k # 3 3 4 R R . O m ' ] [ 3 . R R 4 3 3 ",
"{ { s.[ { { { { { { { { { d.$.#.#.4X>.%.*.z.*.*.*.*.Q l.z.j.j.j.j.x.j.j.j.x.j.j.x.x.j.j.v.k.k.I.l.k.j.j.j.j.j.j.j.j.j.j.j.j.j.j.j.j.z.L.6Xh.a.a.a.a.a.a.a.d.sXM.g.g.g.g.f.g.N.f.g.g.g.f.N.g.g.g.g.g.G./.M.F.N.f.f.N.g.f.N.N.s.N.N.f.g.g.g.g.s.E.K.;.n.n.n.n.n.n.n.n.hX^.B.B.B.B.B.B.B.B.B.B.Q.B.B.B.B.C.Q.V.[.[.Q.Q.B.B.C.Q.B.B.B.B.Q.B.B.B.Q.B.B.kXQ.-.-.m.-.-.D.-.-.-.-.-.-.-.-.m.%.jXuX4 l h h h h z z l ( z  ...k 3 3 3 3 3 d k # b 3 3 3 3 3 2 L =X#X*.'.].w.3 2 F @XOX@.MXMXyX3 d k # 3 3 w R T . f m m m ] m . T R w 3 3 ",
"$.$.d.&.$.$.$.$.$.$.$.$.&.d.%.#.>.5X%.*.*.z.*.*.*.j.Q z.x.j.j.j.j.x.j.j.j.x.j.j.x.x.j.j.v.k.k.I.l.k.j.j.j.j.j.j.j.j.j.j.j.j.j.j.j.j.x.j.2XL.h.a.a.a.a.a.J /.XXa.f.g.g.g.f.g.N.f.g.g.g.f.N.g.g.g.g.g.G./.M.F.N.f.f.N.g.f.N.N.s.N.N.f.g.g.g.g.f.g.E.n.n.n.n.n.n.n.h.|.jXC.B.B.B.B.B.B.B.B.B.B.Q.B.B.B.B.C.Q.V.[.[.Q.Q.B.B.C.Q.B.B.B.B.Q.B.B.B.Q.B.m.].].%.m.m.-.-.D.-.-.-.-.-.-.-.-.m.%.}.uX4 l h h h h z z l ( z  ...k 3 3 3 3 3 d k # b 3 3 3 3 3 2 L =X#X*.'.].w.3 2 F @XOX@.MXMXyX3 d k # 3 3 s R U . j x b x m m . U R s 3 3 ",
"#.$.d.#.#.#.#.#.#.#.#.#.#.d.%.[ 4XL.%.*.*.z.*.*.*.Q E z.x.j.j.j.j.x.j.j.j.x.j.j.x.x.j.j.v.k.k.I.l.k.j.j.j.j.j.j.j.j.j.j.j.j.j.j.j.j.x.j.L.2Xh.a.a.a.a.a.a.sXF.s.g.g.g.g.f.g.N.f.g.g.g.f.N.g.g.g.g.g.G./.M.F.N.f.f.N.g.f.N.N.s.N.N.f.g.g.g.g.g.s.E.K.;.n.n.n.n.n.s.hX^.C.B.B.B.B.B.B.B.B.B.B.Q.B.B.B.B.C.Q.V.[.[.Q.Q.B.B.C.Q.B.B.B.B.Q.B.B.B.Q.B.B.Q.kX-.-.m.-.-.D.-.-.-.-.-.-.-.-.-.%..XuX4 l h h h h z z l ( z  ...k 3 3 3 3 3 d k # b 3 3 3 3 3 2 L =X#X*.'.].w.3 2 F @XOX@.MXMXyX3 d k # 3 3 3 R R   s x x 3 x j   R R 3 3 3 ",
"#.$.d.#.#.#.#.#.#.#.#.#.#.d.#.=.5X%.*.*.*.z.*.*.j.Q j.x.x.j.j.j.j.x.j.j.j.x.j.j.x.x.j.j.v.k.k.I.l.k.j.j.j.j.j.j.j.j.j.j.j.j.j.j.j.j.x.x.a.6Xk.h.a.a.a.J /.XXd.f.g.g.g.g.f.g.N.f.g.g.g.f.N.g.g.g.g.g.G./.M.F.N.f.f.N.g.f.N.N.s.N.N.f.g.g.g.g.g.s.g.E.n.n.n.n.n.h.^.hXn.Q.B.B.B.B.B.B.B.B.B.B.Q.B.B.B.B.C.Q.V.[.[.Q.Q.B.B.C.Q.B.B.B.B.Q.B.B.B.Q.B.B.B.kX!.%.m.-.-.D.-.-.-.-.-.-.-.-.-.%..XgX4 l h h h h z z l ( z  ...k 3 3 3 3 3 d k # b 3 3 3 3 3 2 L =X#X*.'.].w.3 2 F @XOX@.MXMXyX3 d k # 3 3 4 T R O . d x j 3 . O R T 4 3 3 ",
"#.$.d.#.#.#.#.#.#.#.#.#.#.d.{ 2XP.%.*.*.*.z.*.*.E E =.x.x.j.j.j.j.x.j.j.j.x.j.j.x.x.j.j.v.k.k.I.l.k.j.j.j.j.j.j.j.j.j.j.j.j.j.j.j.j.x.x.a.P.2Xh.a.a.a.$.i.F.N.f.g.g.g.g.f.g.N.f.g.g.g.f.N.g.g.g.g.g.G./.M.F.N.f.f.N.g.f.N.N.s.N.N.f.g.g.g.g.g.g.s.E.g.n.n.n.n.h.hX|.B.Q.B.B.B.B.B.B.B.B.B.B.Q.B.B.B.B.C.Q.V.[.[.Q.Q.B.B.C.Q.B.B.B.B.Q.B.B.B.Q.B.B.B.].XX%.C.-.-.D.-.-.-.-.-.-.-.-.-.%..XgX4 l h h h h z z l ( z  ...k 3 3 3 3 3 d k # b 3 3 3 3 3 2 L =X#X*.'.].w.3 2 F @XOX@.MXMXyX3 d k # 3 3 3 s R R O . $ $   O R R s 3 3 3 ",
"#.$.d.#.#.#.#.#.#.#.#.#.#.%.*.5X*.*.*.*.*.z.*.*.Q j.j.x.x.j.j.j.j.x.j.j.j.x.j.j.x.x.j.k.v.k.k.I.l.k.j.j.j.j.j.j.j.j.j.j.j.j.j.j.j.j.x.j.j.j.6Xj.a.a.$.G.i.d.N.f.g.g.g.g.f.N.N.f.g.g.g.f.N.g.g.g.g.g.G./.M.F.N.f.g.N.g.f.N.N.s.N.N.f.g.g.g.g.g.g.s.K.E.;.n.n.s.Q.hXB.B.Q.B.B.B.B.B.B.B.B.B.B.Q.B.B.B.B.C.Q.V.[.[.Q.Q.B.B.C.Q.B.B.B.B.Q.B.B.B.Q.B.B.C.Q.kXm.m.-.-.D.-.-.-.-.-.-.-.-.-.%..XgX4 l h h h h z z l ( (  ...k 3 3 3 3 3 d k # b 3 3 3 3 3 2 L =X#X*.'.].w.3 2 F @XOX@.MXMXyX3 d k # 3 3 3 4 < R U 5 O O 2 U R < 3 3 3 3 ",
"#.$.d.#.#.#.#.#.#.#.#.#.&.#.P.P.$.*.*.*.*.z.*.l.Q =.j.x.x.j.j.j.j.x.j.j.j.x.j.j.x.x.j.j.v.k.k.I.l.b.j.j.j.j.j.j.j.j.j.j.j.j.j.j.j.j.x.j.j.a.P.P.#.a.J i.G.d.N.s.f.f.f.f.f.g.N.s.f.f.f.f.N.f.g.g.g.g.G./.M.N.N.f.f.N.g.s.N.N.s.N.N.s.f.f.f.f.f.f.g.s.E.g.n.n.h.jX[.n.B.Q.B.B.B.B.B.B.B.B.B.B.Q.B.B.B.B.B.Q.V.[.[.Q.Q.B.B.C.C.B.B.B.B.Q.B.B.B.Q.B.B.C.B.XX/.m.-.-.D.-.-.-.-.-.-.-.-.-.%.U.gX4 h h h h h z z l z z  ...k 3 3 3 3 3 d k # b 3 3 3 3 3 2 L =X#X*.'.].w.3 2 F @XOX@.MXMXyX3 d k # 3 3 3 3 4 1 w 3 3 3 3 w 1 4 3 3 3 3 ",
"%.%.d.$.%.%.%.%.%.%.%.%.$.z.5X*.*.*.*.*.*.z.*.Q l.z.j.x.x.j.x.j.x.v.j.x.x.v.x.j.x.x.j.x.v.k.L.I.l.l.x.x.x.x.x.x.x.x.x.x.x.x.x.x.x.j.v.x.j.z.x.6Xz.a.M.i.g.N.N.N.N.N.N.N.N.N.N.N.N.N.N.N.N.N.N.g.g.A.G./.M.F.N.N.N.N.N.g.N.N.g.N.N.g.N.N.N.N.N.N.N.n.K.E.n.n.C.hXC.C.C.Q.C.C.C.C.C.C.C.C.C.C.~.C.C.C.C.Q.Q.Q.[.[.Q.Q.Q.C.Q.Q.C.C.C.C.Q.C.C.C.~.C.C.Q.C./.kXD.m.m.D.m.m.m.m.m.m.m.m.m.m.U.gX| ( l l l l x x z ) ) ....k 3 3 3 3 3 d k # b 3 3 3 3 3 2 L =X#X*.'.].w.3 2 F @XOX@.MXMXyX3 d k # 3 3 3 3 3 4 3 3 3 3 3 3 4 3 3 3 3 3 ",
"%.d.d.%.%.%.%.%.%.%.%.%.#.P.4X%.z.z.z.z.z.D.K.Q z.x.x.v.v.x.x.x.x.v.x.x.x.v.x.x.v.v.x.x.L.v.L.I.l.v.x.x.x.x.x.x.x.x.x.x.x.x.x.x.x.x.v.x.x.x.z.2XR.$.XX/.g.N.N.N.N.N.N.N.N.N.N.N.N.N.N.N.N.N.N.N.N.A.G./.N.F.F.N.N.N.N.N.N.N.N.N.N.N.N.N.N.N.N.N.N.N.N.E.N.s.jXjXB.Q.Q.~.C.Q.Q.Q.Q.Q.Q.Q.Q.C.~.Q.Q.Q.Q.Q.Q.Q.[.[.~.~.Q.C.Q.~.C.Q.C.Q.~.C.Q.Q.~.Q.C.Q.~.C.kX~.m.m.S.m.m.m.m.m.m.m.m.m.m.U.cXdX) z z z z ) ) ) ) ) ....k 3 3 3 3 3 d k # b 3 3 3 3 3 2 L =X#X*.'.].w.3 2 F @XOX@.MXMXyX3 d k # 3 3 3 3 3 3 3 3 3 3 3 3 3 3 3 3 3 3 ",
"#.$.%.#.#.#.#.#.#.#.#.#.#.5X=.*.*.*.*.*.*.*.Q b.j.j.j.x.x.j.j.j.j.x.j.j.j.x.j.j.j.x.j.j.v.k.k.I.l.j.j.j.j.j.j.j.j.j.j.j.j.j.j.j.j.j.x.j.j.j.j.k.5Xf.sXs.f.g.N.s.f.f.f.f.s.g.N.s.f.f.f.s.N.f.f.g.g.g.G./.M.N.N.f.s.N.g.s.N.N.s.N.N.s.f.f.f.f.f.f.f.f.s.K.K.;.hXB.B.B.B.Q.B.B.B.B.B.B.B.B.B.B.Q.B.B.B.B.B.Q.V.[.[.Q.Q.B.B.C.C.B.B.B.B.Q.B.B.B.Q.B.B.B.Q.m.].].%.-.D.-.-.-.-.-.-.-.-.-.;.D.cXdX( h h h h z l l c z  ...k 3 3 3 3 3 d k # b 3 3 3 3 3 2 L =X#X*.'.].w.3 2 F @XOX@.MXMXyX3 d j # 3 3 3 3 3 3 3 3 3 3 3 3 3 3 3 3 3 3 ",
"#.$.d.#.#.#.#.#.#.#.$.#.>.4X%.*.*.*.*.*.*.v.Q =.j.j.j.x.x.j.j.j.j.x.j.j.j.x.j.j.x.x.j.k.v.k.k.I.l.k.j.j.j.j.j.j.j.j.j.j.j.j.j.j.j.j.x.j.j.j.j.a.2XoXi.d.f.g.N.f.g.g.g.g.f.N.N.f.g.g.g.g.N.g.g.g.g.g.G./.M.F.N.f.g.N.g.f.N.N.s.N.N.f.g.g.g.g.g.g.g.g.g.g.Q }.jXn.B.B.B.Q.B.B.B.B.B.B.B.B.B.B.Q.B.B.B.B.C.Q.V.[.[.Q.Q.C.B.C.Q.B.B.B.B.Q.B.B.B.Q.B.B.C.Q.B.!.kX-.-.D.-.-.-.-.-.-.-.-.-.-.D.cXdX( h h h h z z l ( (  ...k 3 3 3 3 3 d k # b 3 3 3 3 3 2 L =X#X*.'.].w.3 2 F @XOX@.MXMXyX3 w b # 3 3 3 3 3 3 3 3 3 3 3 3 3 3 3 3 3 3 ",
"#.$.d.#.#.#.#.#.#.#.$.#.5XL.*.*.*.*.*.*.*.Q l.j.j.j.j.x.x.j.j.j.j.x.j.j.j.x.j.j.x.x.j.j.v.k.k.I.l.k.j.j.j.j.j.j.j.j.j.j.j.j.j.j.j.j.x.j.j.j.j.j.v.lXf.g.f.g.N.f.g.g.g.g.f.g.N.f.g.g.g.f.N.g.g.g.g.g.G./.M.F.N.f.f.N.g.f.N.N.s.N.N.f.g.g.g.g.g.g.g.g.g.s.K.zX!.B.B.B.B.Q.B.B.B.B.B.B.B.B.B.B.Q.B.B.B.B.C.Q.V.[.[.Q.Q.B.B.C.Q.B.B.B.B.Q.B.B.B.Q.B.B.C.Q.B.m.kXQ.%.D.-.-.-.-.-.-.-.-.-.-.D.cXdX( h h h h z z l ( z  ...k 3 3 3 3 3 d k # b 3 3 3 3 3 2 L =X#X*.'.].w.3 2 F @XOX@.MXMXyX3 3 j x d d d d d d d d d d d d d d d d d d ",
"#.$.d.#.#.#.#.#.#.$.#.>.4X%.*.*.*.*.*.*.j.Q j.j.j.j.j.x.x.j.j.j.j.x.j.j.j.x.j.j.x.x.j.j.v.k.k.I.l.k.j.j.j.j.j.j.j.j.j.j.j.j.j.j.j.j.x.j.j.j.j.K /.oXL.f.g.g.N.f.g.g.g.g.f.g.N.f.g.g.g.f.N.g.g.g.g.g.G./.M.F.N.f.f.N.g.f.N.N.s.N.N.f.g.g.g.g.g.g.g.g.g.h.[.zXn.B.B.B.B.Q.B.B.B.B.B.B.B.B.B.B.Q.B.B.B.B.C.Q.V.[.[.Q.Q.B.B.C.Q.B.B.B.B.Q.B.B.B.Q.B.B.C.Q.B.m.].].%.C.-.-.-.-.-.-.-.-.-.-.z.cXBX( h h h h z z l ( z  ...k 3 3 3 3 3 d k # b 3 3 3 3 3 2 L =X#X*.'.].w.3 2 F @XOX@.MXMXyX3 3 # d j k k k k k k k k k k k k k k k j j ",
"#.$.d.#.#.#.#.#.#.$.#.4X>.z.*.*.*.*.*.*.Q I.j.j.j.j.j.x.x.j.j.j.j.x.j.j.j.x.j.j.x.x.j.j.v.k.k.I.l.k.j.j.j.j.j.j.j.j.j.j.j.j.j.j.j.j.x.j.j.j.j.j.sXY.4Xs.g.g.N.f.g.g.g.g.f.g.N.f.g.g.g.f.N.g.g.g.g.g.G./.M.F.N.f.f.N.g.f.N.N.s.N.N.f.g.g.g.g.g.g.g.g.g.s.hXW.F.B.B.B.B.Q.B.B.B.B.B.B.B.B.B.B.Q.B.B.B.B.C.Q.V.[.[.Q.Q.B.B.C.Q.B.B.B.B.Q.B.B.B.Q.B.B.C.Q.B.B.Q.kX-.D.-.-.-.-.-.-.-.-.-.-.:.cXVX( h h h h z z l ( z  ...k 3 3 3 3 3 d k # b 3 3 3 3 3 2 L =X#X*.'.].w.3 2 F @XOX@.MXMXyX3 3 f d d d d d d d d d d d d d d d d d d d ",
"#.$.d.#.#.#.#.#.$.#.=.5X%.z.*.*.*.*.*.j.Q x.j.j.j.j.j.x.x.j.j.j.j.x.j.j.j.x.j.j.x.x.j.j.v.k.k.I.l.k.j.j.j.j.j.j.j.j.j.j.j.j.j.j.j.j.x.j.j.j.K /.XXd.6Xv.s.g.N.f.g.g.g.g.f.g.N.f.g.g.g.f.N.g.g.g.g.g.G./.M.F.N.f.f.N.g.f.N.N.s.N.N.f.g.g.g.g.g.g.g.g.s.(.hXN.E.B.B.B.B.Q.B.B.B.B.B.B.B.B.B.B.Q.B.B.B.B.C.Q.V.[.[.Q.Q.B.B.C.Q.B.B.B.B.Q.B.B.B.Q.B.B.C.Q.B.B.C.kX!.D.m.-.-.-.-.-.-.-.-.-.%.cXVX( h h h h z z l ( z  ...k 3 3 3 3 3 d k # b 3 3 3 3 3 2 L =X#X*.'.].w.3 2 F @XOX@.MXMXyX3 d 5.{ { { { { { { { 5.{ { 5.{ { { 5.{ j j ",
"#.$.d.#.#.#.#.#.$.[ 2XP.$.z.*.*.*.*.*.E E z.j.j.j.j.j.x.x.j.j.j.j.x.j.j.j.x.j.j.x.x.j.j.v.k.k.I.l.k.j.j.j.j.j.j.j.j.j.j.j.j.j.j.j.j.x.j.j.j.j.kXF.g.U.R.s.g.N.f.g.g.g.g.f.g.N.f.g.g.g.f.N.g.g.g.g.g.G./.M.F.N.f.f.N.g.f.N.N.s.N.N.f.g.g.g.g.g.g.g.g.h.hX[.m.E.H.B.B.B.Q.B.B.B.B.B.B.B.B.B.B.Q.B.B.B.B.C.Q.V.[.[.Q.Q.B.B.C.Q.B.B.B.B.Q.B.B.B.Q.B.B.C.Q.B.B.C.].XXD.m.-.-.-.-.-.-.-.-.-.%.cXVX( d h h h z z l ( z  ...k 3 3 3 3 3 d k # b 3 3 3 3 3 2 L =X#X*.'.].w.3 2 F @XOX@.MXMXyX3 d { [ V.5.{ { { n.V.] { 5.5.{ { { { ] 3 # ",
"#.$.d.#.#.#.#.$.#.=.5X*.*.z.*.*.*.*.*.Q j.x.j.j.j.j.j.x.x.j.j.j.j.x.j.j.j.x.j.j.x.x.j.k.v.k.k.I.l.k.j.j.j.j.j.j.j.j.j.j.j.j.j.j.j.j.x.j.j.=.G.XXz.A.g.6Xc.f.N.f.g.g.g.g.g.N.N.f.g.g.g.g.N.g.g.g.g.g.G./.M.F.N.f.g.N.g.f.N.N.s.N.N.f.g.g.g.g.g.g.g.s.~.hXN.C.J.E.B.B.B.Q.B.B.B.B.B.B.B.B.B.B.Q.B.B.B.B.C.Q.V.[.[.Q.Q.C.B.C.Q.B.B.B.B.Q.B.B.B.Q.B.B.C.Q.B.B.Q.C.kXC.-.-.-.-.-.-.-.-.-.m.%.cXAX( _ l h h z z l ( (  ...k 3 3 3 3 3 d k # b 3 3 3 3 3 2 L =X#X*.'.].w.3 2 F @XOX@.MXMXyX3 d { { oX~._.C.C._._.C.`.(.(.`.s.[ { [ 3 3 ",
"#.#.%.#.#.#.#.&.[ P.P.$.*.z.*.*.*.*.K.Q =.x.j.j.j.j.j.x.x.j.j.j.j.x.j.j.j.x.j.j.j.x.j.j.v.k.k.I.l.j.j.j.j.j.j.j.j.j.j.j.j.j.j.j.j.j.x.j.j.=.XXG.c.c.g.U.R.s.N.s.f.f.f.f.s.g.N.s.f.f.f.s.N.f.f.g.g.g.G./.M.N.N.f.s.N.g.s.N.N.s.N.N.s.f.f.f.f.f.f.g.h.jX}.N.C.C.E.C.B.B.Q.B.B.B.B.B.B.B.B.B.B.Q.B.B.B.B.B.Q.V.[.[.C.Q.B.B.C.C.B.B.B.B.Q.B.B.B.Q.B.B.B.C.B.B.Q.m.kX[.%.-.-.-.-.-.-.-.-.-.$.cXAXh dX_ h h z l l c z  ...k 3 3 3 3 3 d k # b 3 3 3 3 3 2 L =X#X*.'.].w.3 2 F @XOX@.MXMXyX3 d [ V.`.{.Q.(.{.oX~.{.V.{.).).V.] { ' 3 3 ",
"d.d.c.d.d.d.d.d.z.5Xx.z.z.D.D.z.z.z.Q v.x.v.v.v.v.v.v.v.v.v.v.v.v.v.v.v.v.v.v.v.v.v.x.v.U.L.L.I.v.v.v.v.v.v.v.v.v.v.v.v.v.v.v.v.v.v.v.v.k.H.kXA.A.A.A.A.6XA.F.N.N.N.N.N.N.N.F.N.N.N.N.N.F.N.N.F.F.A.G./.F.G.F.N.N.F.N.N.F.N.N.F.F.N.N.N.N.N.N.N.N.H.hXS.H.H.~.J.E.Q.~.~.Q.Q.Q.Q.Q.Q.Q.Q.Q.Q.~.~.Q.Q.Q.Q.~.Q.}.}.~.~.~.Q.~.~.Q.Q.Q.~.~.Q.Q.Q.~.Q.Q.~.~.Q.Q.(.S.].kXD.C.D.D.D.D.D.D.D.C.z.cXAX+.xX .x ) ) ) ) o.o.....k 3 3 3 3 3 d k # b 3 3 3 3 3 2 L =X#X*.'.].w.3 2 F @XOX@.MXMXyX3 d { n.{ n.n.n.V.n.V.).s.V.n.V.n.{ { j 3 3 ",
"$.%.d.$.$.$.%.{ P.2X%.*.*.z.*.*.*.l.Q j.j.v.x.j.j.j.j.x.x.j.j.j.x.x.j.j.j.v.j.j.x.x.j.x.v.k.L.I.l.l.k.j.j.j.j.j.j.j.j.j.j.j.j.j.j.j.x.x.=.XX/.c.A.A.A.g.R.R.M.g.g.g.g.g.g.N.N.g.N.g.g.g.N.N.g.g.g.c.G./.M.F.N.M.g.N.N.g.N.N.g.N.N.g.N.g.g.g.g.N.h.jXjXN.C.C.C.C.W.C.B.Q.B.C.C.C.C.C.C.C.C.B.Q.C.B.C.C.C.Q.V.[.[.Q.Q.Q.B.C.Q.B.C.B.C.Q.B.C.B.Q.C.B.C.Q.B.C.Q.C.C.kXm.m.m.m.m.m.m.m.m.m.%.cXAXvXvX` h l x z c ) ) ....k 3 3 3 3 3 d k # b 3 3 3 3 3 2 L =X#X*.'.].w.3 2 F @XOX@.MXMXyX3 d ] m ' m m m m m [ ] m m m m m m f 3 3 3 ",
"#.$.d.#.#.#.#.#.5X=.*.*.*.z.*.*.*.Q b.j.j.x.j.j.j.j.j.x.x.j.j.j.j.x.j.j.j.x.j.j.x.x.j.j.v.k.k.I.l.k.j.j.j.j.j.j.j.j.j.j.j.j.j.j.j.j.x.j.A.kXc.c.c.c.c.c.c.6XN.s.g.f.f.f.f.g.N.s.g.f.f.f.N.g.g.g.g.g.G./.M.F.N.f.f.N.g.s.N.N.s.N.N.s.g.f.f.f.f.f.N.hXC.C.C.C.C.B.J.J.Z.Q.B.B.B.B.B.B.B.B.B.B.Q.B.B.B.B.C.Q.V.[.[.Q.Q.B.B.C.Q.B.B.B.B.Q.B.B.B.Q.B.B.C.Q.B.B.Q.B.m.kX!.%.-.-.-.-.-.-.-.m.$.cXAXvXBX_ h h z z l z z  ...k 3 3 3 3 3 d k # b 3 3 3 3 3 2 L =X#X*.'.].w.3 2 F @XOX@.MXMXyX3 f j @ 3 3 3 3 3 3 # 3 3 3 3 3 3 3 3 3 3 3 ",
"#.$.d.#.#.$.[ L.2X$.*.*.*.z.*.*.l.Q =.j.j.x.j.j.j.j.j.x.x.j.j.j.j.x.j.j.j.x.j.j.x.x.j.k.v.k.k.I.l.k.j.j.j.j.j.j.j.j.j.j.j.j.j.j.j.j.x.j.XX/.z.A.c.c.c.c.g.R.T.s.g.g.g.g.f.N.N.f.g.g.g.f.N.g.g.g.g.g.G./.M.F.N.f.f.N.g.f.N.N.s.N.N.f.g.g.g.g.M.h.}.jXN.C.C.C.C.C.C.E.C.Q.B.B.B.B.B.B.B.B.B.B.Q.B.B.B.B.C.Q.V.[.[.Q.Q.B.B.C.Q.B.B.B.B.Q.B.B.B.Q.B.B.C.Q.B.B.Q.B.m.].XX%.m.-.-.-.-.-.-.m.%.|.CXVXVX` h h z z l ( z  ...k 3 3 3 3 3 d k # b 3 3 3 3 3 2 D P P J w.w. .3 2 B Z Z @.yXyXtX3 d k # 3 # 3 # # @ 3 3 3 3 3 3 3 3 3 3 3 3 ",
"#.$.d.#.#.#.#.5X>.*.*.*.*.z.*.*.Q l.j.j.j.x.j.j.j.j.j.x.x.j.j.j.j.x.j.j.j.x.j.j.x.x.j.j.v.k.k.I.l.k.j.j.j.j.j.j.j.j.j.j.j.j.j.j.j.j.k.c.kXc.c.c.c.c.c.c.g.v.6Xf.g.g.g.g.f.g.N.f.g.g.g.f.N.g.g.g.g.g.G./.M.F.N.f.f.N.g.f.N.N.s.N.N.f.g.g.g.g.g.f.hX~.N.C.C.C.C.C.B.E.J.Q.B.B.B.B.B.B.B.B.B.B.Q.B.B.B.B.C.Q.V.[.[.Q.Q.B.B.C.Q.B.B.B.B.Q.B.B.B.Q.B.B.C.Q.B.B.Q.B.B.~.kXm.-.-.-.-.-.-.-.-.m.$.gXAXAX_ d h z z l ( z  ...k 3 3 3 3 3 d k # b 3 3 3 3 3 2 D L L H X.X.` 3 2 B C C G tXtXO.3 f k # 3 j f j j x w f 3 @ 3 3 3 3 3 3 3 3 ",
"#.$.d.#.$.#.>.4X%.*.*.*.*.z.*.b.Q j.j.j.j.x.j.j.j.j.j.x.x.j.j.j.j.x.j.j.j.x.j.j.x.x.j.j.v.k.k.I.l.k.j.j.j.j.j.j.j.j.j.j.j.j.j.j.j.j.k.XXXXz.A.c.c.c.c.c.c.g.6XU.s.g.g.g.f.g.N.f.g.g.g.f.N.g.g.g.g.g.G./.M.F.N.f.f.N.g.f.N.N.s.N.N.f.g.g.g.g.h.[.jXN.C.C.C.C.C.C.C.F.W.Q.B.B.B.B.B.B.B.B.B.B.Q.B.B.B.B.C.Q.V.[.[.Q.Q.B.B.C.Q.B.B.B.B.Q.B.B.B.Q.B.B.C.Q.B.B.Q.B.B.S.XX!.%.m.-.-.-.-.-.-.m.%.cXAXAXuXl h z z l ( z  ...k 3 3 3 3 3 d k # b 3 3 3 3 3 2 D L L H X.X.` 3 2 B C C G tXtXO.3 f k @ s s.m 5.k n.3 ' m [ d 3 3 3 3 3 3 3 ",
"#.$.d.#.$.#.4X>.%.*.*.*.*.z.*.Q l.j.j.j.j.x.j.j.j.j.j.x.x.j.j.j.j.x.j.j.j.x.j.j.x.x.j.j.v.k.k.I.l.k.j.j.j.j.j.j.j.j.j.j.j.j.j.j.j.j.v.kXA.c.c.c.c.c.c.c.c.g.Y.4Xs.g.g.g.f.g.N.f.g.g.g.f.N.g.g.g.g.g.G./.M.F.N.f.f.N.g.f.N.N.s.N.N.f.g.g.g.g.s.hX^.N.C.C.C.C.C.C.C.B.E.J.Z.B.B.B.B.B.B.B.B.B.Q.B.B.B.B.C.Q.V.[.[.Q.Q.B.B.C.Q.B.B.B.B.Q.B.B.B.Q.B.B.C.Q.B.B.Q.B.B.S.].XX%.m.-.-.-.-.-.-.m.%.cXAXAXVX( h z z l ( z  ...k 3 3 3 3 3 d k # b 3 3 3 3 3 2 D L L H X.X.` 3 2 B C C G tXtXO.3 f k @ d { x { w ] O m { ] b @ 3 3 3 3 3 3 ",
"#.$.d.#.#.=.5X%.*.*.*.*.*.*.x.Q j.j.j.j.j.x.j.j.j.j.j.x.x.j.j.j.j.x.j.j.j.x.j.j.x.x.j.j.v.k.k.I.l.k.j.j.j.j.j.j.j.j.j.j.j.j.j.j.j.K /.XXz.A.c.c.c.c.c.c.c.A.N.6Xv.s.g.g.f.g.N.f.g.g.g.f.N.g.g.g.g.g.G./.M.F.N.f.f.N.g.f.N.N.s.N.N.f.g.g.g.s.).hXN.C.C.C.C.C.C.C.C.C.H.E.B.B.B.B.B.B.B.B.B.B.Q.B.B.B.B.C.Q.V.[.[.Q.Q.B.B.C.Q.B.B.B.B.Q.B.B.B.Q.B.B.C.Q.B.B.Q.B.B.~.C.kXm.-.-.-.-.-.-.-.m.%.cXAXAXVX( h z z l ( z  ...k 3 3 3 3 3 d k # b 3 3 3 3 3 2 D L L H X.X.` 3 2 B C C G tXtXO.3 f k # w f w d 3 k # b k f d 3 3 3 3 3 3 3 ",
"#.$.d.&.[ 2XP.%.*.*.*.*.*.*.Q E =.j.j.j.j.x.j.j.j.j.j.x.x.j.j.j.j.x.j.j.j.x.j.j.x.x.j.j.v.k.k.I.l.k.j.j.j.j.j.j.j.j.j.j.j.j.j.j.j.j.kXF.c.c.c.c.c.c.c.c.c.A.A.U.4Xs.g.g.f.N.N.f.g.g.g.f.N.g.g.g.g.g.G./.M.F.N.f.f.N.g.f.N.N.s.N.N.f.g.g.M.h.hX).N.C.C.C.C.C.C.C.C.C.C.W.H.B.B.B.B.B.B.B.B.B.Q.B.B.B.B.C.Q.V.[.[.Q.Q.B.B.C.Q.B.B.B.B.Q.B.B.B.Q.B.B.C.Q.B.B.Q.B.B.~.m.kX!.%.m.-.-.-.-.-.m.%.cXAXAXVX( h z z l ( z  ...k 3 3 3 3 3 d k # b 3 3 3 3 3 2 D L L H X.X.` 3 2 B C C G tXtXO.3 f j # 3 3 3 3 3 3 3 # # 3 3 3 3 3 3 3 3 3 ",
"#.$.d.#.=.5X%.*.*.*.*.*.*.x.Q j.j.j.j.j.j.x.j.j.j.j.j.x.x.j.j.j.j.x.j.j.j.x.j.j.x.x.j.j.v.k.k.I.l.k.j.j.j.j.j.j.j.j.j.j.j.j.j.j.K G.XXz.A.c.c.c.c.c.c.c.c.c.A.g.6XA.s.g.f.g.N.f.g.f.g.f.N.g.g.g.g.g.G./.M.F.N.f.f.N.g.s.N.N.s.N.N.s.g.g.s.C.hXN.C.C.C.C.C.C.C.C.C.C.C.J.E.Z.B.B.B.B.B.B.B.B.Q.B.B.B.B.C.Q.V.[.[.Q.Q.B.B.C.Q.B.B.B.B.Q.B.B.B.Q.B.B.C.Q.B.B.Q.B.B.Q.m.].XX%.m.-.-.-.-.-.m.$.cXAXAXAX_ h z z l z z  ...k 3 3 3 3 3 d k # b 3 3 3 3 3 2 D L L H X.X.` 3 2 B C C G tXtXO.3 f k # 3 3 3 3 3 3 3 3 3 3 3 3 3 3 3 3 3 3 ",
"$.%.d.[ 2XP.%.*.*.*.*.*.*.K.Q j.j.j.j.j.j.v.j.j.j.j.j.x.x.j.j.j.x.x.j.j.j.v.j.j.x.x.j.k.v.k.L.I.l.l.k.j.j.j.j.j.j.j.j.j.j.j.j.j.j.XX(.c.A.A.A.A.A.A.A.A.A.A.A.g.U.R.s.g.g.N.N.g.g.g.g.g.N.g.g.g.g.g.G./.M.F.N.g.g.N.N.g.N.N.f.N.N.g.g.N.h.jX}.N.C.C.C.C.C.C.C.C.C.C.C.S.E.C.B.C.B.B.B.B.B.B.Q.C.B.B.B.C.Q.V.[.[.Q.Q.Q.B.C.Q.B.B.B.C.Q.B.B.B.Q.B.B.C.Q.B.B.Q.B.B.~.B.Q.kXm.m.m.m.m.m.m.m.%.cXAXVXCX} h x z l ( (  ...k 3 3 3 3 3 d k # b 3 3 3 3 3 2 D L L H X.X.` 3 2 B C C G tXtXO.3 f j 3 d d d d d d d d d d d d d d d d d d ",
"d.d.d.z.5Xz.z.z.z.z.z.z.z.Q v.x.x.x.x.x.x.v.x.x.x.x.x.v.v.x.x.x.v.v.x.x.x.v.x.x.v.v.x.v.L.v.L.I.l.v.v.x.x.x.x.x.x.x.x.x.x.x.x.k.H.XXA.A.A.A.A.A.A.A.A.A.A.A.J.A.A.6XA.N.N.N.N.N.N.N.N.N.N.N.N.N.N.A.G./.N.G.F.N.N.N.N.N.N.N.N.N.N.N.N.N.S.hXS.S.S.S.S.S.S.S.S.S.S.S.H.~.J.E.Q.Q.Q.Q.Q.Q.Q.Q.~.Q.Q.Q.Q.Q.Q.Q.}.}.~.~.Q.Q.Q.~.Q.Q.Q.Q.~.Q.Q.Q.~.Q.Q.Q.~.Q.Q.~.Q.Q.~.Q.C.kX~.m.m.m.m.m.m.B.z.gXAXhXFX4Xh ) ) ) ) ) ....k 3 3 3 3 3 d k # b 3 3 3 3 3 2 D L L H X.X.` 3 2 B C C G tXtXO.3 f j 3 3 3 3 3 3 3 3 3 3 3 3 3 3 3 3 3 3 3 ",
"#.$.#.P.P.$.*.*.*.*.*.*.E I.j.j.j.j.j.j.j.x.j.j.j.j.j.x.x.j.j.j.j.x.j.j.j.x.j.j.x.x.j.j.v.k.k.I.l.b.j.j.j.j.j.j.j.j.j.j.j.j.j.K XX/.c.A.c.c.c.c.c.c.c.c.c.c.A.c.g.R.R.s.g.g.N.s.f.f.f.f.N.g.g.g.g.g.G./.M.N.N.f.f.N.g.s.N.N.s.N.N.s.g.h.jX}.N.C.C.C.C.C.C.C.C.C.C.C.C.S.C.E.C.B.B.B.B.B.B.B.Q.B.B.B.B.B.Q.V.[.[.Q.Q.B.B.C.C.B.B.B.B.Q.B.B.B.Q.B.B.C.Q.B.B.Q.B.B.Q.B.m.].].%.-.-.-.-.-.-.$.gXAXFXFX4X4 z z l c z  ...k 3 3 3 3 3 d k # b 3 3 3 3 3 2 D L L H X.X.` 3 2 B C C G tXtXO.3 f k # 3 3 3 3 3 3 3 3 3 3 3 3 3 3 3 3 3 3 ",
"#.$.d.5X*.*.*.*.*.*.*.*.Q l.j.j.j.j.j.j.j.x.j.j.j.j.j.x.x.j.j.j.j.x.j.j.j.x.j.j.x.x.j.k.v.k.k.I.l.k.j.j.j.j.j.j.j.j.j.j.j.j.j.A.XXz.A.A.c.c.c.c.c.c.c.c.c.A.A.c.c.c.6Xg.f.N.N.f.g.g.g.g.N.g.g.g.g.g.G./.M.F.N.f.g.N.g.f.N.N.s.N.N.f.f.N.hXC.C.C.C.C.C.C.C.C.C.C.C.C.C.H.B.J.J.Z.B.B.B.B.B.B.Q.B.B.B.B.C.Q.V.[.[.Q.Q.C.B.C.Q.B.B.B.B.Q.B.B.B.Q.B.B.C.Q.B.B.Q.B.B.~.B.B.!.kX-.m.-.-.-.-.m.%.gXVXFXFX4X4 z z l ( (  ...k 3 3 3 3 3 d k # b 3 3 3 3 3 2 D L L H X.X.` 3 2 B C C G tXtXO.3 f j # 3 # 3 # 3 @ 3 3 # 3 3 3 # 3 3 3 3 3 ",
"$.#.R.2X%.*.*.*.*.*.*.l.Q z.j.x.j.j.j.j.j.x.j.j.j.j.j.x.x.j.j.j.j.x.j.x.j.x.j.j.x.x.j.j.v.k.k.I.l.k.j.j.j.j.x.j.j.j.j.j.j.j.K XX/.z.A.A.c.c.c.c.c.A.c.c.c.A.A.c.c.g.R.U.s.N.N.f.g.g.g.f.N.N.g.g.g.g.G./.M.F.N.f.f.N.g.f.N.N.s.N.N.g.h.}.jXN.C.C.C.C.C.C.C.C.C.C.C.C.C.H.C.H.W.B.B.B.B.B.B.B.Q.B.B.B.B.C.Q.V.[.[.Q.Q.B.B.C.Q.B.B.B.B.Q.B.B.B.Q.B.B.C.Q.B.B.Q.B.B.~.B.B.B.kXB.-.-.-.-.-.-.;.2X.XGXFX4X8 z z l ( z  ...k 3 3 3 3 3 d k # b 3 3 3 3 3 2 D L L H X.X.` 3 2 B C C G tXtXO.3 f k # 3 ' k m b { s d [ f 3 3 j 3 3 3 3 3 ",
"#.#.5X=.*.*.*.*.*.*.*.Q b.z.v.v.U.v.j.j.j.x.j.j.j.j.j.x.x.j.j.j.j.v.v.v.Y.v.j.j.x.x.j.j.v.k.k.I.l.k.j.j.j.v.v.Y.v.j.j.j.j.j.c.kXc.c.A.A.c.c.c.c.A.J.A.J.c.A.A.c.c.g.v.6Xf.N.N.f.g.g.f.N.H.H.H.g.g.g.G./.M.F.N.f.f.N.g.f.N.N.s.N.H.H.H.hX~.C.C.C.C.C.C.C.C.C.C.C.C.C.C.`.H.).W.J.B.B.B.B.B.B.Q.B.B.B.B.C.Q.V.[.}.).).B.B.C.Q.B.B.B.B.Q.B.B.B.Q.B.B.Q.).(.).~.B.B.~.B.B.m.].].%.m.-.-.-.-.;.#X.XjXFX4X8 z z l ( z  ...k 3 3 3 3 3 d k # b 3 3 3 3 3 2 D L L H X.X.` 3 2 B C C G tXtXO.3 f k @ s n.m n.d { 3 [ d 5.x b M.w 3 3 3 3 ",
"#.>.4X%.*.*.*.*.*.*.b.Q =.x.Y.j.v.v.j.j.j.x.j.j.j.j.j.x.x.j.j.j.j.Y.v.j.Y.x.j.j.x.x.j.k.v.k.k.I.l.k.j.j.j.Y.j.v.v.j.j.j.j.K XX/.z.c.A.A.c.c.c.c.J.A.J. Xc.A.A.c.c.c.g.R.U.f.N.f.g.g.s.N.H.g.H.N.g.g.G./.M.F.N.f.g.N.g.f.N.N.s.H.N.F.oXjXN.C.C.C.C.C.C.C.C.C.C.C.C.C.S.`.C.(.H.E.B.B.B.B.B.B.Q.B.B.B.B.C.Q.V.}.[.{.{.B.B.C.Q.B.B.B.B.Q.B.B.B.Q.B.B.~.(.C.{.~.B.B.~.B.B.B./.kX%.m.-.-.-.-.-.*.'.FX9X4X8 z z l ( z  ...k 3 3 3 3 3 d k # b 3 3 3 3 3 2 D L L H X.X.` 3 2 B C C G tXtXO.3 f k @ d ] j ] 3 ] @ ' m ] [ { [ 3 3 3 3 3 ",
"#.4XL.%.*.*.*.*.*.*.Q l.j.x.v.v.x.x.j.j.j.x.j.j.j.j.j.x.x.j.j.j.j.x.v.v.v.x.j.j.x.x.j.j.v.k.k.I.l.k.j.j.j.v.v.v.x.j.j.j.j.z.kXA.c.c.A.A.c.c.c.c.A.J.A.A.c.c.A.c.c.c.g.v.6Xf.N.f.g.f.g.f.H.N.F.g.g.g.G./.M.F.N.f.f.N.g.f.N.N.s.N.H.N.hX^.N.C.C.C.C.C.C.C.C.C.C.C.C.C.C.`.(.H.B.E.H.B.B.B.B.B.Q.B.B.B.B.C.Q.V.[.}.).^.B.B.C.Q.B.B.B.B.Q.B.B.B.Q.B.B.C.).Q.~.Q.B.B.~.B.B.B.B.kXm.-.-.-.-.-.-.-.Z.P.FX4X8 z z l ( z  ...k 3 3 3 3 3 d k # b 3 3 3 3 3 2 D L L H X.X.` 3 2 B C C G tXtXO.3 f k # 3 w 3 3 3 d 3 3 x 3 f f d s 3 3 3 3 ",
">.5Xz.*.*.*.*.*.*.j.Q j.j.x.j.j.j.j.j.j.j.x.j.j.j.j.j.x.x.j.j.j.j.x.j.j.j.x.j.j.x.x.j.k.v.k.L.I.l.k.k.j.j.j.j.j.j.j.j.j.K /.XXz.A.c.A.A.c.A.c.c.c.c.A.c.c.A.A.c.A.A.A.g.6XU.M.g.g.g.g.g.N.g.g.g.g.g.G./.M.F.N.f.g.N.g.f.N.N.s.N.g.^.hXN.C.C.C.C.C.C.C.C.C.C.C.C.C.C.C.S.C.C.C.J.E.B.C.B.B.B.Q.B.B.B.B.C.Q.V.[.[.Q.Q.C.B.C.Q.B.B.B.B.Q.B.B.B.Q.B.B.C.C.B.B.Q.B.B.Q.B.B.C.m.XX/.%.m.-.-.-.-.-.;.P FX4Xg z z l ( z  ...k 3 3 3 3 3 d k # b 3 3 3 3 3 2 D L L H X.X.` 3 2 B C C G tXtXO.3 f j # 3 3 3 3 3 3 3 3 @ 3 # # 3 3 3 3 3 3 ",
"5X>.D.U.T.D.*.U.D.E W.U.j.v.v.Y.Y.j.v.T.j.v.Y.Y.Y.j.v.T.x.x.T.v.j.Y.v.T.x.j.T.v.j.Y.Y.T.v.k.T.I.b.Y.Y.j.v.v.Y.Y.j.v.Y.j.v.kX`.J.c.J. XA.A. XA.A.J.J. XA.A. XJ.c.J.J. XA.U.6XF.s.H.H.s.H.H.H.H.g.J.J.G.XXH.`.H.f.H.`.f.N.`.N.N.H.F.hX).C._.S.C.`.`._.C.C._.(.C._.`.C.`.(._.(.C.`.W.N.^.).).).B.).).B.~.{.Q.Q.lX}.{.Q.~.{.C.Q.).).{.B.Q.{.Q.B.{.(.B.).~.{.~.B._.).B.).).{.~./.lX^.C.-.-.-.-.-.Z.P FX8X0 z z l ( (  ...k 3 3 3 3 3 d k # b 3 3 3 3 3 2 D L L H X.X.` 3 2 B C C G tXtXO.3 f j 3 3 3 3 3 3 3 3 3 3 3 3 3 3 3 3 3 3 3 ",
"5X$.U.U. XD.*.U.U.Q Y.T.j.v.Y.Y.Y.j.v.T.j.v.Y.Y.T.j.v.T.x.x.T.v.j.Y.v.T.x.j.T.v.j.Y.Y.T.v.k.T.I.b.Y.Y.j.v.v.Y.Y.j.Y.T.=./.XXT.`.c.J. XA.A. XA.A.J.J. XA.A. XJ.c.`.J. XA.N.8XJ.s.`.H.s.H.H.`.H.f.J.J.G.XX(.`.H.f.H.`.f.N.`.N.N.H.).bXN.(._.H.C._.`._.C.S._.(.C._.`.C.`.(._.(.C._. XE.^.).{.).B.).{.B.(.{.Q.Q.lX}.{.Q.~.{.C.Q.).).{.B.Q.{.Q.B.{.(.B.).~.{.~.B.{.).B.).).{.~.V.kX`.m.-.-.-.-.-.;.P 9X8X0 z l h c z  ...k 3 3 3 3 3 d k # b 3 3 3 3 3 2 D L L H X.X.` 3 2 B C C G tXtXO.3 f j 3 d d d d d 6 6 d s 6 d d d d d d d d ",
"R.$.U.U.T.D.*.U.W.E D.T.j.v.U.Y.Y.j.v.T.j.v.Y.Y.T.j.v.T.x.x.T.v.j.Y.v.T.x.j.T.v.j.Y.Y.T.v.k.T.I.b.Y.Y.j.v.v.Y.Y.j.Y.T.j.kX`.T.J.c.J. XA.A. XA.A.J.J. XA.A. XJ.c.J.J. XA.N.T.R.s.`.H.s.H.H.`.H.g.J.J.G.XX(.`.H.f.H.`.f.N.`.N.N.H.jXjXN.H._.H.C._.`._.C.S._.(.C._.`.C.`.(._.(.C._.`.E.`.).{.).B.).).B.(.{.Q.Q.lX}.{.Q.~.{.C.Q.).).{.C.Q.{.Q.B.{.(.B.).~.{.~.B.{.).B.).).{.(.m.kX{.D.m.m.m.m.D.B.L.FXbXv ) ) ) ) ) ....k 3 3 3 3 3 d k # b 3 3 3 3 3 2 D L L H X.X.` 3 2 B C C G tXtXO.3 f k # 3 3 3 3 + ^ y.aXaX0.y + 3 3 3 3 3 3 ",
"D.=.U.U. XD.*.U.Q j.U.T.j.v.Y.Y.Y.j.v.T.j.v.Y.Y.T.j.v.T.x.x.T.v.j.Y.v.T.x.j.T.v.j.Y.Y.T.v.k.T.I.b.Y.Y.j.v.v.Y.Y.j.Y.Y.G.kXY.`.J.d.J. Xc.A. XA.A.J.J. XA.A. XJ.c.J.J. XA.A. X6Xc.H.H.s.H.H.`.H.f.J.J.F.XX(.`.H.s.H.`.s.N.`.N.g._.hX_.C.S._.S.C._.`._.C.C._.(.C._.`.N.`.(._.(.C._.).K.W.)._.).B.).).B.(.{.Q.Q.lX}.{.Q.~.{.C.C.).).{.B.Q.{.Q.B.{.(.B.).~.{.~.B.{.).B.).).{.(.m.kXlXD.m.m.m.m.m.B.>.9XAXx x ) z ) ) ....k 3 3 3 3 3 d k # b 3 3 3 3 3 2 D L L H X.X.` 3 2 B C C G tXtXO.3 f j # 3 3 3 3 y.JXLX0.aXLXJX2.+ 3 3 3 3 3 ",
"D.*.U.U.T.D.*.I.W.z.Y.T.x.v.v.Y.Y.j.Y.T.x.v.Y.Y.T.x.v.T.x.v.T.v.x.Y.v.T.v.x.T.v.x.Y.Y.T.L.v.T.I.l.Y.Y.j.Y.v.Y.Y.j.Y.Y.XX`.T.`.`.A.J. XA.J. XA.A.J.J. XA.A. XJ.A.`.J. XA.A.`.R.R.(.J.g.H.H.`.H.g.J.J.G.XX(.`.(.N.H.`.N.H.`.N.g.zXjX`.S.(._.(.S._.`._.H.H._.(.C._.`.C.`.(._.(.C._.`.C.W.).{.).C.).).C.).{.Q.~.lX}.{.Q.).{.Q.~.).).{.Q.~.{.~.Q.{.).C.).~.{.~.C.{.).C.).).{.).B.}.kXD.-.-.-.-.-.;.>.9XAXl l z l c z  ...k 3 3 3 3 3 d k # b 3 3 3 3 3 2 D L L H X.X.` 3 2 B C C G tXtXO.3 f j # 3 3 + 0.PX3..     O aXLXp + 3 3 3 s ",
"U.U. XU.T.U.U.W.Y.U.T.T.Y.T.v.Y.T.Y.T.T.Y.T.Y.Y.T.Y.T.T.Y.T.T.Y.Y.T.v.T.Y.Y.T.Y.Y.T.Y.T.Y.T.T.I.Y.T.Y.Y.T.v.Y.T.Y.T._.kXT.J.J. XJ. X XJ. X XJ. XJ.J. XJ. X XJ.`. XJ. XJ.`. XJ.6X`.`.H.`.F.`.`.H.`.J.G.XX(.`.`.H.`.`.H.`.`.H.`.hX(._.`._._.`._._.`._.`._._.`._._._.`._.(._._.`._._.).W.J.}.).).{.{.).{.{.).{.lX}.{.).{.{.).{.).).{.).{.{.).).{.).).{.~.{.).).{.).).{.).{.).).{.kXS.-.-.-.-.-.m.*.gXAX_ l z l ( (  ...k 3 3 3 3 3 d k # b 3 3 3 3 3 2 D L L H X.X.` 3 2 B C C G tXtXO.3 f j # 3 + p JX3.  # k j % O aXaX# 3 3 3 s ",
"U.U. XU. XU.Y.W.T.Y.T.T.Y.T.v.Y.T.Y.T.T.Y.T.Y.Y.T.Y.T.T.Y.T.T.Y.T.T.v.T.Y.T.T.Y.Y.T.Y.T.Y.T.T.I.Y.T.T.Y.T.v.Y.T.Y.T.kXXX X`. X XJ. X XJ. X XJ. XJ.J. XJ. X XJ. X XJ. XJ. X X`.R.R.(.H.`.F.`.`.H.`.J.G.XX(.`.`.H.`.`.H.`.`.H.jXjXH.{.`._._.`._._.`._.`._._.`._._._.`._.(._._.`._._.`. XW.{.{.).{.{.).{.{.).{.lX}.{.).{.{.).{.{.).{.).{.{.)._.{.).).{.~.{.).).{.).).{.).{.).)._.lX/.%.m.-.-.-.-.-.-.cX| j z l ( z  ...k 3 3 3 3 3 d k # b 3 3 3 3 3 2 D L L H X.X.` 3 2 B C C G tXtXO.3 f j # 3 + 0.LX2 $ m m [ '   0.LXy # 3 3 3 ",
"z.z.D.*.z.:.Q l.x.x.v.v.x.v.x.x.v.x.v.v.x.v.x.x.v.x.x.v.v.x.v.x.v.v.j.v.x.v.v.x.v.v.x.v.L.L.L.I.l.v.v.x.v.x.x.v.k.A.kXA.A.A.A.A.A.A.J.A.A.A.A.A.A.A.A.A.A.A.J.A.A.A.A.A.A.A.A.A.6XN.N.N.N.N.N.N.F.A.G./.N.G.F.N.N.F.N.N.N.N.hX(.S.H.S.S.H.S.S.S.S.H.S.S.H.S.S.H.S.S.H.H.S.S.S.H.S.S.~.W.J.Q.~.Q.Q.Q.Q.Q.Q.Q.}.}.~.~.~.Q.Q.~.Q.Q.Q.Q.~.Q.Q.Q.~.Q.Q.~.Q.Q.Q.~.Q.Q.~.Q.Q.Q.Q.Q.S.].].%.m.-.-.-.-.m.$.gX| j z l ( (  ...k 3 3 3 3 3 d k # b 3 3 3 3 3 2 D L L H X.X.` 3 2 B C C G tXtXO.3 f j # 3 + y.aX. 3 b m f d   p JXp + 3 3 3 ",
"*.*.z.=.*.b.Q =.j.j.j.j.j.x.j.j.j.j.j.j.j.x.j.j.j.j.j.j.j.j.j.j.j.x.j.j.j.x.j.j.j.x.j.j.v.k.k.I.b.j.j.j.j.j.j.j.K XX/.z.c.c.c.c.c.g.A.A.d.c.c.c.c.c.c.c.c.c.A.g.c.c.c.c.c.c.A.g.R.U.s.s.N.s.s.g.g.g.G./.M.N.N.f.s.N.g.s.s.}.jXN.S.N.C.C.C.C.C.C.C.C.C.C.C.C.C.C.C.C.C.S.C.C.C.C.C.C.B.H.E.Z.Q.B.B.B.B.B.Q.V.[.[.C.Q.B.B.C.C.B.B.B.B.Q.B.B.B.Q.B.B.B.Q.B.B.Q.B.B.Q.B.B.B.B.B.B.!.kX-.m.-.-.-.-.m.%.hX+.j z h c z  ...k 3 3 3 3 3 d k # b 3 3 3 3 3 2 D L L H X.X.` 3 2 B C C G tXtXO.3 f j # 3 + 0.LX2 $ b b x j   2.aXy # 3 3 3 ",
"*.*.z.D.D.W.l.j.j.j.j.j.j.x.v.A.A.z.j.j.j.x.j.j.j.j.j.j.v.A.A.x.j.x.j.j.j.x.j.j.x.x.j.k.v.k.k.I.v.v.A.A.x.j.j.j.z.kXA.c.c.c.c.c.c.c.A.A.H.H.H.H.A.c.c.c.c.A.A.H.H.H.H.A.c.A.A.g.v.6Xf.g.N.H.N.H.H.H.G./.M.F.N.f.g.N.g.f.g.hX~.C.(.(.S.C.C.C.C.C.C.C.C.C.C.C.C.C.C.C.C.H.(.(.C.C.C.C.C.B.E.H.Q.Q.(.Q.B.C.Q.V.[.[.Q.Q.C.B.C.~.~.Q.B.B.Q.B.B.B.Q.B.B.C.Q.B.B.Q.B.B.Q.~.Q.(.Q.B.B.B.kXB.-.-.-.-.-.m.$.jX+.d ) } } } ....k 3 3 3 3 3 d k # b 3 3 3 3 3 2 D L L H X.X.` 3 2 B C C G tXtXO.3 f j # 3 + ^ LX^   3 j j $ % 0.0.3 3 3 3 # ",
"*.*.z.*.J.W.z.j.j.j.j.j.j.x.x.J.A.v.j.j.j.x.j.j.j.j.j.j.v.J.J.A.j.x.j.j.j.x.j.j.x.x.j.j.v.k.k.I.J.J.J.J.A.j.j.K /.XXz.A.c.c.c.c.c.c.A.A.H.H.`.H.A.c.c.c.c.A.A.H.`.(.H.A.c.A.A.c.g.4XU.s.N.H.H.H.(.J.G./.M.F.N.f.f.N.N.h.).hXM.S.H.(.`.S.C.C.C.C.C.C.C.C.C.C.C.C.C.C.C.S.S.`.(.C.C.C.C.C.J.E.Q.C.).).C.B.Q.V.[.[.Q.Q.B.B.C.~.(.).Q.B.Q.B.B.B.Q.B.B.C.Q.B.B.Q.B.B.Q.~.(.(._.Q.B.m.XX!.%.m.-.-.-.m.$.jX+.d z { { V.!...k 3 3 3 3 3 d k # b 3 3 3 3 3 2 D L L H X.X.` 3 2 B C C G tXtXO.3 f j # 3 3 3 y.LX^   . . $ 0.pXp # 3 3 3 # ",
"*.*.z.D.E.J.j.j.j.j.j.j.j.x.v.A.A.z.j.j.j.x.j.j.j.j.j.j.x.A.J.x.j.x.j.j.j.x.j.j.j.x.j.j.v.k.k.I.v.A.A.A.x.j.j.j.kXN.c.c.c.c.c.c.c.c.A.A.H.H.H.H.A.c.c.c.c.c.A.H.H.H.H.A.g.A.A.c.g.U.4Xs.N.N.H.H.H.H.G./.M.N.N.f.s.N.g.h.hX).N.C.S.S.(.C.C.C.C.C.C.C.C.C.C.C.C.C.C.C.C.H.(.(.(.C.C.C.C.C.C.E.H.Q.(.(.C.B.Q.V.[.[.C.Q.B.B.B.Q.~.(.Q.B.Q.B.B.B.Q.B.B.B.C.B.B.Q.B.B.Q.C.Q.(.(.Q.B.m.].].%.m.-.-.-.-.$.jX+.d } { } { !...k 3 3 3 3 3 d k # b 3 3 3 3 3 2 D L L H X.X.` 3 2 B C C G tXtXO.3 f j # 3 3 3 e aX0.+ 3 3 3 y.2.# 3 3 3 3 3 ",
"*.z.D.x.Q x.k.x.x.x.x.x.k.v.v.k.x.k.x.x.k.v.x.k.x.x.k.v.v.k.k.k.x.v.k.x.x.v.k.k.v.v.k.x.L.L.L.I.l.l.l.k.k.x.k./.XXx.A.A.A.A.A.A.A.A.J.A.A.A.A.A.A.A.A.A.A.A.J.A.A.A.A.A.A.A.J.A.A.N.6XU.N.N.N.N.g.A.G./.N.G.F.N.N.F.g.).bXS.S.(.(.S.S.S.S.S.S.S.S.S.S.S.S.S.S.S.S.S.S.(.S.S.S.S.S.S.S.S.C.J.W.Q.Q.C.Q.Q.Q.Q.}.}.~.~.Q.Q.Q.~.Q.C.Q.Q.~.C.Q.Q.~.Q.C.Q.~.C.Q.~.Q.Q.(.Q.Q.Q.C.Q.Q.C.~.kXm.m.m.m.m.m.%.jXuXh ) c ( (  ...j 3 3 3 3 3 d k # x 3 3 3 3 3 2 D L L H X.X.` 3 2 B C C G tXtXO.3 f j # 3 3 3 # w + + 3 3 o 3 3 3 3 3 3 3 3 ",
"M M M E E M H H H H H H M H H M H H H H M H H H H H M H H M H M H H M H H H H M H H M H H H H J H H H H H M H 7.{ M M M M M M M M M [ M M M M M M M M M M M [ M M M M M M M [ M M M =.=.m M M M M M ] ] M ] M M M ] m Z.Z.] [ [ [ [ [ [ [ [ [ [ [ [ [ [ [ [ [ [ [ [ [ [ [ [ [ [ [ [ [ [ [ [ E } } } } } [ } { { } } } } } [ } } } } [ } } } [ } } } [ } } [ } } [ } } } } } } } } w.} ' ' ' ' } M -.| 3 h d h h l } f 3 3 3 3 3 d k @ b 3 3 3 3 3 2 D L L H X.X.` 3 2 B C C G tXtXO.3 f j # 3 3 3 3 # 3.aXaXaXy.p + 3 3 3 3 3 3 ",
"k k k k k k k k k k k k k k k k k k k k k k k k k k k k k k k k k k k k k k k k k k k k k k k k k k k k k k k k k k k k k k k k k k k k k k k k k k k k k k k k k k k k k k k k k k k k k k k k k k k k k k k k k k k k j k k k k k k k k k k k k k k k k k k k k k k k k k k k k k k k k k k k k k k k k k k k k k k k k k k k k k k k k k k k k k k k k k k k k k k k k k k k k k k k k k k k k k k x k x k k k f 3 3 3 3 3 3 3 x b k 3 3 3 3 3 2 D L L H X.X.` 3 2 B C C G tXtXO.3 f j # 3 3 3 e aXJXJX0.y.JXJX3.+ 3 3 3 3 3 ",
"3 3 3 3 3 3 3 3 3 3 3 3 3 3 3 3 3 3 3 3 3 3 3 3 3 3 3 3 3 3 3 3 3 3 3 3 3 3 3 3 3 3 3 3 3 3 3 3 3 3 3 3 3 3 3 3 3 3 3 3 3 3 3 3 3 3 3 3 3 3 3 3 3 3 3 3 3 3 3 3 3 3 3 w w w w w w w w w w w w w w 3 3 3 3 3 3 3 3 3 3 3 3 3 3 3 3 3 3 3 3 3 3 3 3 3 3 3 3 3 3 3 3 3 3 3 3 3 3 3 3 3 3 3 3 3 3 3 3 3 3 3 3 3 3 3 3 3 3 3 3 3 3 3 3 3 3 3 3 3 3 3 3 3 3 3 3 3 3 3 3 3 3 3 3 3 3 3 3 3 3 3 3 3 3 3 3 3 3 3 3 3 3 3 3 3 3 3 3 3 3 # # 3 3 # @ 3 3 3 3 2 D L L H X.w.` 3 2 B C C G tXtXtX3 f j # 3 3 # y.LX2.      $ aXaXu # 3 3 3 3 ",
"3 3 3 3 3 3 3 3 3 3 3 3 3 3 3 3 3 3 3 3 3 3 3 3 3 3 3 3 3 3 3 3 3 3 3 3 3 3 3 3 3 3 3 3 3 3 3 3 3 3 3 3 3 3 3 3 3 3 3 3 3 3 3 3 3 # # # # # # # # # # # # # # # 3 3 3 o o o o o o o o o o o o o o 3 w 3 3 3 # # # # # # # # # # # # # # # # # # # # # 3 3 s 3 3 3 3 3 3 3 3 3 3 3 3 3 3 3 3 3 3 3 3 3 3 3 3 3 w 3 3 3 3 3 3 3 3 3 3 3 3 3 3 3 3 3 3 3 3 3 3 3 3 3 3 3 3 3 3 3 3 3 3 3 3 3 3 3 3 3 3 3 3 3 3 3 3 3 3 3 3 3 3 3 k j # x d x 3 3 3 3 3 D L L H X.X.` 3 2 B C C G tXtXO.3 f j # 3 + ^ JX^   3 b x   . 0.0.3 3 3 3 3 ",
"3 3 3 3 3 3 3 3 3 3 3 3 3 3 3 3 3 3 3 3 3 3 3 3 3 3 3 3 3 3 3 3 3 3 3 3 3 3 3 3 3 3 3 3 3 3 3 3 3 3 3 3 3 3 3 3 3 3 3 3 3 3 3 3 3 k k k k k k k k k k k k k k j 3 3 3 4.8.8.8.8.8.8.8.8.8.8.8.8.4.3 s s # d k k k k k k k k k k k k k k k k k k k k j 3 3 d 3 3 3 3 3 3 3 3 3 3 3 3 3 3 3 3 3 3 3 3 3 3 3 3 s d # d m b b b b b b b b b b b b b b b b b b b b m b b m b b b b b b b b b b b b b b b b b b b b b m d 3 3 3 3 w [ ' j ] n.[ x # 3 3 3 3 4 4 3 2 4 4 3 3 3 3 2 3 3 2 3 3 f j # 3 + 0.LX2 O m m f d   2.pXe # 3 3 3 ",
"f d f f f f f f f f f f f f f d d d d 3 3 3 3 # 3 3 3 3 3 3 3 3 3 3 3 3 # 3 3 3 d d f f f d f f d d d d f f f f d d d d d 3 3 3 d ' k k k k k k k k k k k k k ' w # e HXiXiXiXiXiXiXiXiXiXiXiXiXKXr 6 d @ k m k k j k k k k k k j k k k k k k k j k ' s 3 d 3 3 3 3 3 3 3 3 3 3 3 3 3 3 3 3 3 3 3 3 3 3 3 3 w d @ j b f j j j j j j j j j j j j j j j j f f f d f f f f j j j j j j j j j j j j j j j j j j j f m f # 3 3 3 w ] ] m ' n.] x # 3 3 3 5 1 < 2 T T < 2 3 2 7 0 0 6 0 7 @ f j # 3 + y.aX. 3 b b k ' $ t y.y # 3 3 3 ",
"j m d d d d d f f f f f f f f s m {.k 3 3 3 # k m j [ 3 m f 3 d 3 d 3 d k d 3 3 ' m k f d m f f ' m ] ' f f f f d s ~.V.w 3 3 3 d b f m k m b b f k k m b k f b w # e iX9.r.r.r.r.t.r.r.r.r.r.9.iXr 6 d @ k j k m ' m b m x m k m f b b m k j m ] f b s 3 d 3 3 3 3 3 3 3 3 3 3 3 3 3 3 3 3 3 3 3 3 3 3 3 3 w d @ j x d f f f f f f f f f f f f f f d j m k { { k m m m d f f f f f f f f f f f f f f f f f f d b d 3 3 3 3 3 k k d b f b 3 3 3 3 3 s ~ ~ < ~ T T 2 3 6 0 D L g D 0 @ f j # 3 + 0.LX2 $ x b m k   2.pXe # 3 3 3 ",
"5.n.{ 5.{ { s.j f f f f f f f s [ (.' 3 3 3 # b ' { 3 @ [ [ ] ] ] ] [ [ s.k 3 3 M.V.] 5.{ n.] f V.n.5.[ d f f f d f V.V.f 3 3 3 d b k V.s.M.n.] x M.n.5.5.n.d m w # e HXr.iXt.iXr.iXiXiXiXiXiXr.HXr 6 d @ k j [ [ [ n.{ M.n.n.{ ] ] { { M.{ k { 5.f m s 3 d 3 3 3 3 3 3 3 3 3 3 3 3 3 3 3 3 3 3 3 3 3 3 3 3 w d @ j x d f f f f f f f f f f f f f f d k { j { V.n.{ (.k d d d f f f f f f f f f f f f f f f f d b d 3 3 3 3 3 # # # O O O 3 3 3 3 3 w < T < T ~ < 4 3 6 6 g D 0 7 7 2 f j # 3 + ^ JX2.  @ d d % $ 0.0.3 3 3 3 3 ",
"5.M.C.V.] [ 5.b d f f f f f f w { {.m 3 3 3 3 d { { b 3 ] { { ] [ ] m { { k 3 3 M.k n.n.[ (.n.d V.n.[ m d f f f d f (.Q.d 3 3 3 d x b [ m n.5.] m M.n.{ 5.5.f m w # e HXr.iXt.iXt.t.iXt.iXt.iXr.HXr 6 d @ k k x 5.' { [ n.5.{ [ { m ' V.m [ { [ ] f m s 3 d 3 3 3 3 3 3 3 3 3 3 3 3 3 3 3 3 3 3 3 3 3 3 3 3 w d @ j x d f f f f f f f f f f f f f f f j n.] n.' V.5.n.[ m ' k d f f f f f f f f f f f f f f f d b d 3 3 3 3 3 3 3 x m ' d 3 3 3 3 3 3 2 2 3 2 2 3 3 3 3 3 3 4 2 3 3 # f j # 3 3 # y.PX3.  . . $ 0.pXu # 3 3 3 3 ",
"] m m m k k b k f f f f f f f d k Q.j w 3 3 3 d d 3 j 3 s f 3 f 3 f 3 d d f 3 3 b d b b x m m j ] ' k k d f f f d s n.5.s 3 3 3 d b d d d f k k d j f k k f d b w # e iX9.9.9.r.r.9.r.r.9.r.r.9.iXr 6 d @ k j j j f j k d j k j k d k j d j b j f d b s 3 d 3 3 3 3 3 3 3 3 3 3 3 3 3 3 3 3 3 3 3 3 3 3 3 3 w d @ j k d d d d d d d d d d d d d d d d d b b k f f j d k k k j d d d d d d d d d d d d d d d d d b d 3 3 3 3 3 3 b 5.{ n.k # 3 3 3 3 4 1 ~ g ~ ~ T 2 3 # l ` _ _ | ` O f j # 3 3 3 3 aX3.+ 3 3 3 0.^ # 3 3 3 3 3 ",
"d d d d d d d d d d d d d d d d d s d 3 3 3 3 3 3 3 # 3 3 # 3 # 3 # 3 3 3 # 3 3 d f d d d d d d d d d d d d d f d d d d s 3 3 3 d ' x b b b x x b b b x x b b ' w # e HXHXHXHXiXiXHXHXiXHXiXiXHXKXr 6 d @ k ' k b b b x b b x b x b x b b b k x b b ' w 3 d 3 3 3 3 3 3 3 3 3 3 3 3 3 3 3 3 3 3 3 3 3 3 3 3 w d @ j m j k k k k k k k k k k k k k k k k j j j k k k k k j j k k k k k k k k k k k k k k k k k j m f # 3 3 3 3 3 ' [ { n.x # 3 3 3 3 g ~ ~ g ~ ~ T 5 # e _ _ | _ | | # w b 3 # 3 3 # 3 # # 3 3 # # # # 3 3 3 3 3 ",
"3 3 3 3 3 3 3 3 3 3 3 3 3 3 3 3 3 3 3 3 3 3 3 3 3 3 3 3 3 3 3 3 3 3 3 3 3 3 3 3 3 3 3 3 3 3 3 3 3 3 3 3 3 3 3 3 3 3 3 3 3 3 3 3 3 d f f f f f f f f f f f f f d 3 3 3 ^ 2.2.2.2.2.2.2.2.2.2.2.2.^ 3 d d 3 w f f f f f f f f f f f f f f f f f f f f d 3 3 f 3 3 3 3 3 3 3 3 3 3 3 3 3 3 3 3 3 3 3 3 3 3 3 3 s d 3 d x k k k k k k k k k k k k k k k k k x k k k k k k k k k k k k k k k k k k k k k k k k k k k x s 3 3 3 3 3 3 d k d k 3 3 3 3 3 3 3 s 1 < < < g 3 3 3 3 e _ e l e 3 3 j b f d d d d d d d d d d d d d d d d d ",
"# # # # # # # # # # # # # # # # # # # # # # # # # # # # # # # # # # # # # # # # # # # # # # # # # # # # # # # # # # # # # # # # # O O O O O O O O O O O O O O @ # # # o o o o o o o o o o o o o o # 3 3 # # O O O O O O O O O O O O O O O O O O O O @ # # 3 3 # # # # # # # # # # # # # # # # # # # # # # # 3 3 # # O O O O O O O O O O O O O O O O O O O O O O O O O O O O O O O O O O O O O O O O O O O O O O O # # # # # # # @ O @ O # # # # # # # @ 2 2 2 5 @ # # # # @ O O O @ 3 # @ 3 j j j j j j j j j j j j j j j j j j ",
"j j j j j j j j j j j j j j j j j j j j j j j j j j j j j j j j j j j j j j j j j j j j j j j j j j j j j j j j j j j j j j j j j j j j j j j j j j j j j j j j j j j j k k k k k k k k k k k k j j j j j j j j j j j j j j j j j j j j j j j j j j j j j j j j j j j j j j j j j j j j j j j j j j j j j j j j j j j j j j j j j j j j j j j j j j j j j j j j j j j j j j j j j j j j j j j j j j j j j j j j j j j j j j j j j j j j j j j j j j j j j j j j j j j j j j j j j j j j j j f f f f f f f f f f f f f f f f f f ",
"5.m d f f f f f f f f f f f f f f f f f f f f f f f f f f f f f f f f f f f f f f f f f f f f f f f f f f f f f f f f f f f f f f f f f f f f f f f f f f f f f f f f f f f f f f f f f f f f f f f f f f f f f f f f f f f f f f f f f f f f f f f f f f f f f f f f f f f f f f f f f f f f f f f f f f f f f f f f f f f f f f f f f f f f f f f f f f f f f f f f f f f f f f f f f f f f f f f f f f f f f f f f f f f f f f f f f f f f f f f f f f f f f f f f f f f f f f f f f f f f f f f f f f f f f f f f f f f f f ",
"{ k O 3 # # # # # # # # # # # # # # # # # # # # # # # # # # # # # # # # # # # # # # # # # # # # # # # # # # # # # # # # # # # # # # # # # # # # # # # # # # # # # # # # # # # # # # # # # # # # # # # # # # # # # # # # # # # # # # # # # # # # # # # # # # # # # # # # # # # # # # # # # # # # # # # # # # # # # # # # # # # # # # # # # # # # # # # # # # # # # # # # # # # # # # # # # # # # # # # # # # # # # # # # # # # # # # # # # # # # # # # # # # # # # # # # # # # # # # # # # # # # # # # # # # # # # # # # # # # # ",
"{ k 3 3 3 3 3 3 3 3 3 3 3 3 3 3 3 3 3 3 3 3 3 3 3 3 3 3 3 3 3 3 3 3 3 3 3 3 3 3 3 3 3 3 3 3 3 3 3 3 3 3 3 3 3 3 3 3 3 3 3 3 3 3 3 3 3 3 3 3 3 3 3 3 3 3 3 3 3 3 3 3 3 3 3 3 3 3 3 3 3 3 3 3 3 3 3 3 3 3 3 3 3 3 3 3 3 3 3 3 3 3 3 3 3 3 3 3 3 3 3 3 3 3 3 3 3 3 3 3 3 3 3 3 3 3 3 3 3 3 3 3 3 3 3 3 3 3 3 3 3 3 3 3 3 3 3 3 3 3 3 3 3 3 3 3 3 3 3 3 3 3 3 3 3 3 3 3 3 3 3 3 3 3 3 3 3 3 3 3 3 3 3 3 3 3 3 3 3 3 3 3 3 3 3 3 3 3 3 3 3 3 3 3 3 3 3 3 3 3 3 3 3 3 3 3 3 3 3 3 3 3 3 3 3 3 3 3 3 3 3 3 3 3 3 3 3 3 3 3 3 3 3 3 3 3 ",
"5.j 3 3 3 3 3 3 3 3 3 3 3 3 3 3 3 3 3 3 3 3 3 3 3 3 3 3 3 3 3 3 3 3 3 3 3 3 3 3 3 3 3 3 3 3 3 3 3 3 3 3 3 3 3 3 3 3 3 3 3 3 3 3 3 3 3 3 3 3 3 3 3 3 3 3 3 3 3 3 3 3 3 3 3 3 3 3 3 3 3 3 3 3 3 3 3 3 3 3 3 3 3 3 3 3 3 3 3 3 3 3 3 3 3 3 3 3 3 3 3 3 3 3 3 3 3 3 3 3 3 3 3 3 3 3 3 3 3 3 3 3 3 3 3 3 3 3 3 3 3 3 3 3 3 3 3 3 3 3 3 3 3 3 3 3 3 3 3 3 3 3 3 3 3 3 3 3 3 3 3 3 3 3 3 3 3 3 3 3 3 3 3 3 3 3 3 3 3 3 3 3 3 3 3 3 3 3 3 3 3 3 3 3 3 3 3 3 3 3 3 3 3 3 3 3 3 3 3 3 3 3 3 3 3 3 3 3 3 3 3 3 3 3 3 3 3 3 3 3 3 3 3 3 3 3 ",
"' 3 3 3 3 3 3 3 3 3 3 3 3 3 3 3 3 3 3 3 3 3 3 3 3 3 3 3 3 3 3 3 3 3 3 3 3 3 3 3 3 3 3 3 3 3 3 3 3 3 3 3 3 3 3 3 3 3 3 3 3 3 3 3 3 3 3 3 3 3 3 3 3 3 3 3 3 3 3 3 3 3 3 3 3 3 3 3 3 3 3 3 3 3 3 3 3 3 3 3 3 3 3 3 3 3 3 3 3 3 3 3 3 3 3 3 3 3 3 3 3 3 3 3 3 3 3 3 3 3 3 3 3 3 3 3 3 3 3 3 3 3 3 3 3 3 3 3 3 3 3 3 3 3 3 3 3 3 3 3 3 3 3 3 3 3 3 3 3 3 3 3 3 3 3 3 3 3 3 3 3 3 3 3 3 3 3 3 3 3 3 3 3 3 3 3 3 3 3 3 3 3 3 3 3 3 3 3 3 3 3 3 3 3 3 3 3 3 3 3 3 3 3 3 3 3 3 3 3 3 3 3 3 3 3 3 3 3 3 3 3 3 3 3 3 3 3 3 3 3 3 3 3 3 3 3 ",
"3 3 3 3 3 3 3 3 3 3 3 3 3 3 3 3 3 3 3 3 3 3 3 3 3 3 3 3 3 3 3 3 3 3 3 3 3 3 3 3 3 3 3 3 3 3 3 3 3 3 3 3 3 3 3 3 3 3 3 3 3 3 3 3 3 3 3 3 3 3 3 3 3 3 3 3 3 3 3 3 3 3 3 3 3 3 3 3 3 3 3 3 3 3 3 3 3 3 3 3 3 3 3 3 3 3 3 3 3 3 3 3 3 3 3 3 3 3 3 3 3 3 3 3 3 3 3 3 3 3 3 3 3 3 3 3 3 3 3 3 3 3 3 3 3 3 3 3 3 3 3 3 3 3 3 3 3 3 3 3 3 3 3 3 3 3 3 3 3 3 3 3 3 3 3 3 3 3 3 3 3 3 3 3 3 3 3 3 3 3 3 3 3 3 3 3 3 3 3 3 3 3 3 3 3 3 3 3 3 3 3 3 3 3 3 3 3 3 3 3 3 3 3 3 3 3 3 3 3 3 3 3 3 3 3 3 3 3 3 3 3 3 3 3 3 3 3 3 3 3 3 3 3 3 3 3 ",
"3 3 3 3 3 3 3 3 3 3 3 3 3 3 3 3 3 3 3 3 3 3 3 3 3 3 3 3 3 3 3 3 3 3 3 3 3 3 3 3 3 3 3 3 3 3 3 3 3 3 3 3 3 3 3 3 3 3 3 3 3 3 3 3 3 3 3 3 3 3 3 3 3 3 3 3 3 3 3 3 3 3 3 3 3 3 3 3 3 3 3 3 3 3 3 3 3 3 3 3 3 3 3 3 3 3 3 3 3 3 3 3 3 3 3 3 3 3 3 3 3 3 3 3 3 3 3 3 3 3 3 3 3 3 3 3 3 3 3 3 3 3 3 3 3 3 3 3 3 3 3 3 3 3 3 3 w d 3 3 3 3 3 3 3 3 3 3 3 3 3 3 3 3 3 3 3 3 3 3 3 3 3 3 3 3 3 3 3 3 3 3 3 3 3 3 3 3 3 3 3 3 3 3 3 3 3 3 3 3 3 3 3 3 3 3 3 3 3 3 3 3 3 3 3 3 3 3 3 3 3 3 3 3 3 3 3 3 3 3 3 3 3 3 3 3 3 3 3 3 3 3 3 3 3 3 ",
"3 3 3 3 3 3 3 3 3 3 3 3 3 3 3 3 3 3 3 3 3 3 3 3 3 3 3 3 3 3 3 3 3 3 3 3 3 3 3 3 3 3 3 3 3 3 3 3 3 3 3 3 3 3 3 3 3 3 3 3 3 3 3 3 3 3 3 3 3 3 3 3 3 3 3 3 3 3 3 3 3 3 3 3 3 3 3 3 3 3 3 3 3 3 3 3 3 3 3 3 3 3 3 3 3 3 3 3 3 3 3 3 3 3 3 3 3 3 3 3 3 3 3 3 3 3 3 3 3 3 3 3 3 3 3 3 3 3 3 3 3 3 3 3 3 3 3 3 3 3 3 3 3 3 3 3 w d 3 3 3 3 3 3 3 3 3 # 3 3 3 3 3 3 3 3 3 3 3 3 3 3 3 3 3 f x x x x x x x k x x x x x x x x x x x x x x x x x x x x x x x x x x x x x x k x x x x x x x x x x x x x x k x x x x x x x k k x k k k x k k ",
"3 3 3 3 3 3 3 3 3 3 3 3 3 3 3 3 3 3 3 3 3 3 3 3 3 3 3 3 3 3 3 3 3 3 3 3 3 3 3 3 3 3 3 3 3 3 3 3 3 3 3 3 3 3 3 3 3 3 3 3 3 3 3 3 3 3 3 3 3 3 3 3 3 3 3 3 3 3 3 3 3 3 3 3 3 3 3 3 3 3 3 3 3 3 3 3 3 3 3 3 3 3 3 3 3 3 3 3 3 3 3 3 3 3 3 3 3 3 3 3 3 3 3 3 3 3 3 3 3 3 3 3 3 3 3 3 3 3 3 3 3 3 3 3 3 3 3 3 3 3 3 3 3 3 3 3 w d 3 3 3 3 3 3 3 3 m ' d 3 3 w # ' d 3 3 3 3 3 3 3 3 3 f b d d d d d d d d d d d d d d d d d d d d d d d d d d d d d d d d d d d d d d d d d d d d d d d d d d d d d d d d d d d d d j d d u j d d v k ",
"# 3 3 3 3 3 3 3 3 3 3 3 3 3 3 3 3 3 3 3 3 3 3 3 3 3 3 3 3 3 3 3 3 3 3 3 3 3 3 3 3 3 3 3 3 3 3 3 3 3 3 3 3 3 3 3 3 3 3 3 3 3 3 3 3 3 3 3 3 3 3 3 3 3 3 3 3 3 3 3 3 3 3 3 3 3 3 3 3 3 3 3 3 3 3 3 3 3 3 3 3 3 3 3 3 3 3 3 3 3 3 3 3 3 3 3 3 3 3 3 3 3 3 3 3 3 3 3 3 3 3 3 3 3 3 3 3 3 3 3 3 3 3 3 3 3 3 3 3 3 3 3 3 3 3 3 w d 3 3 3 3 3 3 3 3 { s.b 5.{ [ ' n.d # 3 3 3 3 3 3 3 3 x 3 3 w 3 3 3 w 3 j w 3 3 3 w 3 d d 3 w 3 3 w 3 f d 3 w 3 3 w 3 f w 3 3 3 w 3 w j 3 w 3 3 w 3 s f 3 w 3 3 w 3 f d 3 w 3 3 w 3 2.y 6 3.G d 3 ,XS.",
"# 3 3 3 3 3 3 3 3 3 3 3 3 3 3 3 3 3 3 3 3 3 3 3 3 3 3 3 3 3 3 3 3 3 3 3 3 3 3 3 3 3 3 3 3 3 3 3 3 3 3 3 3 3 3 3 3 3 3 3 3 3 3 3 3 3 3 3 3 3 3 3 3 3 3 3 3 3 3 3 3 3 3 3 3 3 3 3 3 3 3 3 3 3 3 3 3 3 3 3 3 3 3 3 3 3 3 3 3 3 3 3 3 3 3 3 3 3 3 3 3 3 3 3 3 3 3 3 3 3 3 3 3 3 3 3 3 3 3 3 3 3 3 3 3 3 3 3 3 3 3 3 3 3 3 # 3 d 3 3 3 3 3 3 3 # { 5.n.V.] m { { d 3 3 3 3 3 3 3 3 3 x 3 3 3 3 3 3 3 3 f 3 3 3 3 3 3 3 s 3 3 3 3 3 # d s # 3 3 3 3 3 d 3 3 3 3 3 3 3 f 3 3 3 3 3 3 3 d 3 3 3 3 3 # d w 3 3 3 3 3 + ^ e 3 2.G m b R.B.",
"d d d d d d d d d d d d d d d d d d d d d d d d d d d d d d d d d d d d d d d d d d d d d d d d d d d d d d d d d d d d d d d d d d d d d d d d d d d d d d d d d d d d d d d d d d d d d d d d d d d d d d d d d d d d d d d d d d d d d d d d d d d d d d d d d d d d d d d d d d d d d d d d d d d d d d d d d d d d d d 3 3 3 3 3 3 3 3 d f d d w 3 d j 3 3 3 3 3 3 3 3 3 3 x 3 3 3 3 3 3 3 3 f 3 3 3 3 3 3 w d 3 3 3 3 3 3 d d 3 3 3 3 3 3 d 3 3 3 3 3 3 3 f 3 3 3 3 3 3 3 d 3 3 3 3 3 3 d s 3 3 3 3 3 + ^ e 3 2.#.{ ] U.C.",
"w w w w s w w 3 s w w w w w w w w w w w w w w w w w w w w w w w w w s w s w w w s 3 w w s w w w 3 w w w w w w w 3 w w w w w w s s w w s w w w w w w 3 w s w s w s s w w w w s w w w w w w w w w w w w w w w w w w w w w 3 w 3 w w w w w w w w w w w w w w w w w w w w w w w w w w w w w w w 3 w w w w w w w w w w w w w s d 3 3 3 3 3 3 3 3 3 # 3 3 3 3 3 # 3 3 3 3 3 3 3 3 3 3 x 3 3 3 3 3 # 3 3 f 3 3 3 3 # 3 3 d 3 3 3 3 # @ d d 3 3 3 3 3 # d 3 3 3 3 3 # 3 f 3 3 3 3 3 # 3 d 3 3 3 3 3 # d s 3 3 3 # 3 + ^ e 3 2.&.m k R.C.",
"3 3 3 3 @ 3 # 3 # # 3 3 3 3 3 3 3 3 3 3 3 3 3 3 3 3 3 3 3 3 3 3 3 3 @ 3 O 3 3 # # 3 # 3 # # # # 3 3 3 3 3 3 3 3 3 # # # # # # @ O # # @ 3 3 3 3 3 3 3 3 # # # 3 @ O 3 3 3 3 O # # 3 3 3 3 3 3 3 3 3 3 3 3 3 3 3 3 3 3 # 3 3 3 3 3 3 3 3 3 3 3 3 3 3 3 3 3 3 3 3 3 3 3 3 3 3 3 3 3 3 3 # 3 3 3 3 3 3 3 3 3 3 3 3 3 3 3 3 3 d 3 3 3 3 3 3 3 3 3 3 3 3 3 3 3 3 3 3 3 3 3 3 3 3 3 3 x 3 3 3 3 3 k f d d 3 3 3 3 k w j w 3 3 3 j x j f s 3 3 # d f k d 3 3 3 # f k f d 3 3 3 s k f d d 3 3 3 d j s k 3 3 3 3 j f f ^ e 3 2.G 6 @ ,XC.",
"j ] k ] f w k [ d d 3 3 3 3 3 3 3 3 3 3 3 3 3 3 3 3 3 3 3 3 # j k 3 k 3 j k b s d [ x 3 j d d d 5.3 3 3 3 3 # j n.x d d d d d j k d f j 3 3 3 3 3 d s.b d d f w k ' k s d k ' s d 3 3 3 3 3 3 3 3 3 3 3 3 3 3 3 3 m 3 m m [ b 3 3 3 3 3 3 3 3 3 3 3 3 3 3 3 3 3 3 3 3 3 3 3 3 3 3 b f ' ' m { w 3 3 3 3 3 3 3 3 3 3 3 3 w d 3 3 6 s 6 6 6 s s s s s s s s s s s 6 6 6 s 6 3 3 3 x 3 m [ d d [ n.k d 3 3 3 j { [ ] 3 3 3 3 f b k k w 3 3 w ] ' m k 3 3 3 d { { ' d 3 3 3 w ] { j d 3 3 3 w m { m 3 3 3 3 m f k 2.e 3 2.G 8 @ ,.Q.",
"j M.{ M.' { [ { V.[ # 3 3 3 3 3 3 3 3 3 3 3 3 3 3 3 3 3 3 3 @ x j x [ 5.' 5.V.j n.n.[ n.n.' V.{ { 3 3 3 3 3 @ b 5.] ' 5.n.] V.5.5.] [ { d 3 3 3 # f V.[ V.[ { M.x { [ { [ { { [ ] 3 3 3 3 3 3 3 3 3 3 3 3 3 3 3 # ' d { $ 5.b 3 3 3 3 3 3 3 3 3 3 3 3 3 3 3 3 3 3 3 3 3 3 3 3 3 3 5.{ C.3 j n.3 3 3 3 3 3 3 3 3 3 3 3 3 w d X F qX7X0X0X0X0X0X7X7X7X0X7X0X0X0X0X0X0X0X0X0X6 3 3 x 3 ' b j d m ] m f 3 3 3 k ] ' m 3 3 3 d k j ' d s 3 3 f m ] m j 3 3 3 k ] ] b d 3 3 w j m ] x s 3 3 w b m m m 3 3 3 d f b b ^ e 3 2.G 8 @ ,.m.",
"d [ [ ' ] m ] [ { x 3 3 3 3 3 3 3 3 3 3 3 3 3 3 3 3 3 3 3 3 # k { m ] m ] ' [ [ n.] j { ] { n.] { 3 3 3 3 3 # k f d j ' ] 5.s.b x b 5.[ w 3 3 3 # d ' ' { ' n.{ m ' m ] ' m b { b O 3 3 3 3 3 3 3 3 3 3 3 3 3 3 @ ] m ' m m 3 3 3 3 3 3 3 3 3 3 3 3 3 3 3 3 3 3 3 3 3 3 3 3 3 3 3 m j ] ' m k # 3 3 3 3 3 3 3 3 3 3 3 3 w d X L 0X%X$X$X$X$X&X&X<X&X$X&X$X$X&X&X$X$X$X$X0Xs 2 3 x 3 3 3 3 3 w 3 w f 3 3 3 3 s # s d 3 3 3 3 3 d d d 3 3 3 3 3 w d 3 3 3 3 3 w w f 3 3 3 3 s 3 w d 3 3 3 w d # d d 3 3 3 3 d 6 2.y 3 2.G d 2 ,X/.",
"3 3 3 3 w 3 3 3 3 3 3 3 3 3 3 3 3 3 3 3 3 3 3 3 3 3 3 3 3 3 3 3 d 3 3 3 w 3 3 3 3 3 3 3 3 3 3 3 3 3 3 3 3 3 3 3 3 3 3 3 3 3 3 3 3 3 m 3 3 3 3 3 3 3 3 3 3 3 3 3 w 3 3 3 3 3 w ' 3 3 3 3 3 3 3 3 3 3 3 3 3 3 3 3 3 3 d 3 d 3 3 3 3 3 3 3 3 3 3 3 3 3 3 3 3 3 3 3 3 3 3 3 3 3 3 3 3 3 3 3 w 3 3 3 3 3 3 3 3 3 3 3 3 3 3 3 w d X L 0X%X$X$X&X0X<X$X<X<X<X7X$X0X<X<X$X$X$X$X0Xs 3 3 k j M.n.M.M.n.M.n.V.M.M.M.M.n.M.V.V.n.M.M.M.M.n.V.V.n.M.M.n.n.n.V.M.M.M.M.M.n.M.V.M.M.M.n.n.n.M.V.M.M.M.n.n.M.V.V.n.M.M.M.M.n.i.V.n.i.U.C.n.8XKX",
"3 3 3 3 3 3 3 3 3 3 3 3 3 3 3 3 3 3 3 3 3 3 3 3 3 3 3 3 3 3 3 3 # 3 3 3 3 3 3 3 3 3 3 3 3 3 3 3 3 3 3 3 3 3 3 3 3 3 3 3 3 3 3 3 3 3 # 3 3 3 3 3 3 3 3 3 3 3 3 3 3 3 3 3 3 3 3 3 3 3 3 3 3 3 3 3 3 3 3 3 3 3 3 3 3 3 # 3 # 3 3 3 3 3 3 3 3 3 3 3 3 3 3 3 3 3 3 3 3 3 3 3 3 3 3 3 3 3 3 3 # 3 3 3 3 3 3 3 3 3 3 3 3 3 3 3 3 d X L 0X%X$X$X&X<X<X$X&X&X&X<X$X<X$X&X$X$X$X$X0Xs 3 3 x 3 3 3 3 3 3 3 3 j 3 3 3 3 3 3 s d 3 3 3 3 3 3 d d 3 3 3 3 3 3 d 3 3 3 3 3 3 3 f 3 3 3 3 3 3 3 d 3 3 3 3 3 3 d s 3 3 3 3 3 # 2.y 3 2.G 9 2 jXsX",
"w w w w w w w w w w w w w w w w w w w w w w w w w w w w w w w w s w w w s w w w w w w w s w w w w w w w w w w w w w w w w w w w w w s w w w w w w w w w w w w w w w w w w w w w s w w w w w w w w w w w w w w w w w s w s w w w w w w w w w w w w w w w w w w w w w w w w w w w w w w w s w w w w w w w w w w w w w w w s d X L 0X$X$X$X$X$X$X$X$X$X$X$X$X$X$X$X$X$X$X$X0Xs 2 3 x 3 3 3 3 3 3 3 3 f 3 3 3 3 3 3 w s 3 3 3 3 3 3 d s 3 3 3 3 3 3 d 3 3 3 3 3 3 3 f 3 3 3 3 3 3 3 d 3 3 3 3 3 3 d w 3 3 3 3 3 + ^ e 3 2.G 7 iXzXz.",
"d d d d d d d d d d d d d d d d d d d d d d d d d d d d d d d d d d d d d d d d d d d d d d d d d d d d d d d d d d d d d d d d d d d d d d d d d d d d d d d d d d d d d d d d d d d d d d d d d d d d d d d d d d d d d d d d d d d d d d d d d d d d d d d d d d d d d d d d d d d d d d d d d d d d d d d d d d d s d d X D 0X7X7X7X7X7X7X7X7X7X7X7X7X7X7X7X7X7X7X7X7X6 3 3 x 3 3 3 3 3 3 3 3 f 3 3 3 3 3 3 w d 3 3 3 3 3 3 d d 3 3 3 3 3 3 d 3 3 3 3 3 3 3 f 3 3 3 3 3 3 3 d 3 3 3 3 3 3 d s 3 3 3 3 3 + ^ e 3 2.G y.KX.Xm.",
"3 3 3 3 3 3 3 3 3 3 3 3 3 3 3 3 3 3 3 3 3 3 3 3 3 3 3 3 3 3 3 3 3 3 3 3 3 3 3 3 2 3 3 3 3 3 3 3 3 3 3 3 3 3 3 3 3 3 3 3 3 2 2 3 3 3 3 3 3 3 3 3 3 3 3 3 3 3 3 3 3 2 3 3 3 3 3 3 3 3 3 3 3 3 3 3 3 3 3 3 3 3 3 3 3 3 3 3 3 3 3 3 3 3 3 3 3 3 3 3 3 3 3 3 3 3 3 3 3 3 3 3 3 3 3 3 3 3 3 3 3 3 3 3 3 3 3 3 3 3 3 3 3 3 3 # 3 d 3 3 3 3 3 3 3 3 3 3 3 3 3 3 3 3 3 3 3 3 3 3 3 3 3 3 x 3 3 3 3 3 3 3 3 f 3 3 3 3 3 3 w d 3 3 3 3 3 3 d d 3 3 3 3 3 3 d 3 3 3 3 3 3 3 f 3 3 3 3 3 3 3 d 3 3 3 3 3 3 d s 3 3 3 3 3 + ^ e 3 ^ !.pX9.zXm.",
"d d d d d d d d d d d d d d d d d d d d d d d s d w d 3 3 3 3 3 3 3 3 3 3 3 2 6 7 3 2 3 3 3 3 3 3 3 3 3 3 3 3 3 3 3 3 2 2 7 6 2 2 3 3 3 3 3 3 3 3 3 3 3 3 3 3 2 3 7 3 2 3 3 3 3 3 3 3 3 3 3 2 2 2 2 2 2 2 2 2 2 2 2 2 2 2 2 2 2 2 2 2 2 2 2 2 2 2 2 2 3 3 3 3 3 3 3 3 3 3 3 3 3 3 3 3 3 3 3 3 3 3 3 3 3 3 3 3 3 3 3 3 3 w d # 3 3 3 3 3 3 3 3 3 3 3 3 3 3 3 3 3 3 3 3 3 3 3 3 3 x 3 3 3 3 3 3 3 3 f 3 3 3 3 3 3 w d 3 3 3 3 3 3 d d 3 3 3 3 3 3 d 3 3 3 3 3 3 3 f 3 3 3 3 3 3 3 d 3 3 3 3 3 3 d s 3 3 3 3 3 + ^ e + 3.sXd r.zXm.",
"f f f f f f f f f f f f f f f f f f f f f f f d f [ k w 3 3 3 3 3 3 3 3 3 6 F +XS +XA 2 3 3 3 3 3 3 3 3 3 3 3 3 3 3 2 D $X%X$X%X7 2 3 3 3 3 3 3 3 3 3 3 3 3 3 F $X%X&XP 3 3 3 3 3 3 3 3 3 3 D D D D D D D D D D D D D D D D D D D D D D D D D D D D g 3 3 3 s d d d d d d d d d d d d d d d d d d d d d d d d d d d 3 3 w d w s s s s s s s s s s s s s s s s s s s s s s s w 3 x 3 3 3 3 3 3 3 3 f 3 3 3 3 3 3 w d 3 3 3 3 3 3 d d 3 3 3 3 3 3 d 3 3 3 3 3 3 3 f 3 3 3 3 3 3 3 d 3 3 3 3 3 3 d s 3 3 3 3 3 + ^ e & y.sX- iXzXm.",
"f f f f f f f f f f f f f f f f f f f f f f f s b oX5.3 3 3 3 3 3 3 3 3 3 +XA o % & S F 2 3 3 3 3 3 3 3 3 3 3 3 3 2 F &X* % o F *X7 3 3 3 3 3 3 3 3 3 3 3 2 %X%X& % & %X%X2 3 3 3 3 3 3 2 0 qX0X0X0X0X0X0X0X0X0X0X0X0X0X0X0X0X0X0X0X0X0X0X0X0X0X0XqX#XX 3 3 ' m b b b b b b b b m b b b b b b b b b b b b b b b b m x # w d w s s s s s s s s s s s s s s s s s s s s s s s w 3 x 3 3 3 3 3 3 3 3 f 3 3 3 3 3 3 w d 3 3 3 3 3 3 d d 3 3 3 3 3 3 d 3 3 3 3 3 3 3 f 3 3 3 3 3 3 3 d 3 3 3 3 3 3 d s 3 3 3 3 3 + ^ y N u.sX- iXjXm.",
"f f f f f f f f f f f f f f f f f f f f f f f s m M.[ w 3 3 3 3 3 3 3 2 F F . @ d X $ S 0 2 3 3 3 3 3 3 3 3 3 3 2 7 $X& . d 3   I S 2 3 3 3 3 3 3 3 3 3 2 F %X. X d @ . %XF 5 3 3 3 3 3 2 N 0X#X%X#X#X#X#X#X#X%X#X%X$X$X&X&X%X#X%X#X#X#X#X#X#X%X#X&X#XX 3 3 m d d d d d d d d d d f b b m ] k d d d d d d d d d d j k # w d # 3 3 3 3 3 3 3 3 3 3 3 3 3 3 3 3 3 3 3 3 3 3 3 3 3 x 3 3 3 3 3 3 3 3 f 3 3 3 3 3 3 3 s # 3 3 3 3 # d s # 3 3 3 3 3 d 3 3 3 3 3 3 3 f 3 3 3 3 3 3 3 d 3 3 3 3 3 # d w # 3 3 3 3 + ^ ' & iXsX- HX.Xm.",
"f f f f f f f f f f f f f f f f f f f f f f f s k zX{ 3 3 3 3 3 3 3 3 3 S & X m ] m . F F 2 3 3 3 3 3 3 3 3 3 3 5 F %X  f m d O % S 6 3 3 3 3 3 3 3 3 3 5 %XA . b ' k . A %X2 3 3 3 3 3 2 N 0X%X$X$X$X$X$X$X$X$X$X$X&X&X&X-X%X$X$X$X$X$X$X$X$X$X%X-X#XX 3 3 m f f f f f f f f f f k n.M.m { b d f f f f f f f f f k x # w d 3 3 3 3 # 3 3 3 3 3 3 3 3 3 3 # 3 3 3 3 3 3 3 3 3 3 x 3 d d d d d d d k d d d d d d f f d d d d d d j j d d d d d d j d d d d d d d k d d d d d d d j d d d d d d j f d d d d d 6 7.n & HXsX7 HX.XS.",
"f f f f f f f f f f f f f f f f f f f f f f f d d k f w 3 3 3 3 3 3 3 3 S o @ j k m . I F 2 3 3 3 3 3 3 3 3 3 3 5 F P . j b m d % S 7 2 3 3 3 3 3 3 3 3 2 %XB . x x f . = S 2 3 3 3 3 3 2 N 0X#X%X%X%X%X%X%X%X%X%X%X&X&X&X%X%X%X%X%X%X%X%X%X%X%X#X&XP X 3 3 m d f d d d d d d d d f k k m x d d d d d d d d d f d j k # w d 3 3 3 d ] f 3 3 w 3 w 3 3 3 3 b d d d f d 3 3 3 3 3 x 3 3 3 3 3 3 3 3 j 3 3 3 3 3 3 s d 3 3 3 3 3 3 d d 3 3 3 3 3 3 d 3 3 3 3 3 3 3 j 3 3 3 3 3 3 w d 3 3 3 3 3 3 d d 3 3 3 3 3 j 7.y & iXi.d HXR.C.",
"w w w w w w w w w w w w w w w w w w w w w w w 3 w 3 w 3 3 3 3 3 3 3 3 2 S =   O f # . S A 2 3 3 3 3 3 3 3 3 3 3 2 D $X. $ j f . & S 3 3 3 3 3 3 3 3 3 3 5 P P   3 j s . F F 2 3 3 3 3 3 2 N qX&X&X&X&X&X&X&X&X&X&X&X&X&X&X&X&X&X&X&X&X&X&X&X&X&X&X0X#XX 3 3 m j k k k k k k k k k j j j j j k k k k k k k k k k j x x # w d 3 3 # k C.b ' { { ' [ ] n.x d { { { ' { m # 3 3 3 3 x 3 3 3 3 3 3 3 3 f 3 3 3 3 3 3 w s 3 3 3 3 3 3 d s 3 3 3 3 3 3 d 3 3 3 3 3 3 3 f 3 3 3 3 3 3 3 d 3 3 3 3 3 3 d w 3 3 3 # j d ^ y o iX/.f HX,.C.",
"3 3 3 3 3 3 3 3 3 3 3 3 3 3 3 3 3 3 3 3 3 3 3 3 3 3 3 3 3 3 3 3 3 3 3 2 0 +X*   % . F S 3 3 3 3 3 3 3 3 3 3 3 3 3 2 %X%X. . . o +XB 2 3 3 3 3 3 3 3 3 3 3 6 &XF . % . = +X6 3 3 3 3 3 3 2 7 $X$X$X$X$X$X$X$X$X$X$X$X$X$X$X$X$X$X$X$X$X$X$X$X$X$X$X<XF 2 3 3 k x x x x x x x x x x x x x x x x x x x x x x x x x x b f # w d 3 3 # j 5.] n.M.k 5.' 5.M.k f { m ' 5.x m # 3 3 3 3 x 3 3 3 3 3 3 3 3 f 3 3 3 3 3 3 w d 3 3 3 3 3 3 d d 3 3 3 3 3 3 d 3 3 3 3 3 3 3 f 3 3 3 3 3 3 3 d 3 3 3 3 3 3 d s 3 3 3 d k + ^ y o iXV.n HX,.C.",
"d d d d d d d d d d d d d d d d d d d d d d d d d w d 3 3 3 3 3 3 3 3 3 2 A A 2 3 3 F 7 2 3 3 3 3 3 3 3 3 3 3 3 3 2 7 P 6 3 2 0 A 2 3 3 3 3 3 3 3 3 3 3 3 2 D P 2 3 2 A 0 2 3 3 3 3 3 3 3 3 X X X X X X X X X X X X X X X X X X X X X X X X X X X X 2 3 3 3 3 3 3 3 3 3 3 3 3 3 3 3 3 3 3 3 3 3 3 3 3 3 3 3 3 3 3 # 3 3 w d 3 3 3 3 3 d j d w s 5.m d w 3 m 3 w k b j # 3 3 3 3 x 3 3 3 3 3 3 3 3 f 3 3 3 3 3 3 w d 3 3 3 3 3 3 d d 3 3 3 3 3 3 d 3 3 3 3 3 3 3 f 3 3 3 3 3 3 3 d 3 3 3 3 3 3 d w 3 3 s k 3 + ^ e + HX;.` HX,.C.",
"f f f f f f f f f f f f f f f f f f f f f f f d f n.k w 3 3 3 3 3 3 3 3 3 2 2 3 3 3 2 3 3 3 3 3 3 3 3 3 3 3 3 3 3 3 3 2 3 3 3 2 2 3 3 3 3 3 3 3 3 3 3 3 3 3 2 2 3 3 3 2 2 3 3 3 3 3 3 3 3 3 3 3 3 3 3 3 3 3 3 3 3 3 3 3 3 3 3 3 3 3 3 3 3 3 3 3 3 3 3 3 3 3 3 3 3 3 3 3 3 3 3 3 3 3 3 3 3 3 3 3 3 3 3 3 3 3 3 3 3 3 3 3 w d 3 3 3 3 3 3 # 3 3 3 f 3 # 3 3 3 3 3 @ 3 3 3 3 3 3 3 x 3 3 3 3 3 3 3 3 f 3 3 3 3 3 3 w d 3 3 3 3 3 3 d d 3 3 3 3 3 3 d 3 3 3 3 3 3 3 f 3 3 3 3 3 3 3 d 3 3 3 3 3 3 d s # w x 3 3 + ^ e 3 HX&.3.iX,.C.",
"f f f f f f f f f f f f f f f f f f f f f f f s b oX5.3 3 3 3 3 3 3 3 3 3 3 3 3 3 3 3 3 3 3 3 3 3 3 3 3 3 3 3 3 3 3 3 3 3 3 3 3 3 3 3 3 3 3 3 3 3 3 3 3 3 3 3 3 3 3 3 3 3 3 3 3 3 3 3 3 3 3 3 3 3 3 3 3 3 3 3 3 3 3 3 3 3 3 3 3 3 3 3 3 3 3 3 3 3 3 3 3 3 3 3 3 3 3 3 3 3 3 3 3 3 3 3 3 3 3 3 3 3 3 3 3 3 3 3 3 3 3 3 3 w d 3 3 3 3 3 3 3 3 3 3 # 3 3 3 3 3 3 3 3 3 3 3 3 3 3 3 x 3 3 3 3 3 3 3 3 f 3 3 3 3 3 3 w d 3 3 3 3 3 3 d d 3 3 3 3 3 3 d 3 3 3 3 3 3 3 f 3 3 3 3 3 3 3 d 3 3 3 3 3 3 d w 3 x 3 3 3 + ^ e w HXG 4.t.,.C.",
"f f f f f f f f f f f f f f f f f f f f f f f s m C.[ w 3 3 3 3 3 3 3 3 3 3 3 3 3 3 3 3 3 3 3 3 3 3 3 3 3 3 3 3 3 3 3 3 3 3 3 3 3 3 3 3 3 3 3 3 3 3 3 3 3 3 3 3 3 3 3 3 3 3 3 3 3 3 3 3 3 3 3 3 3 3 2 2 2 3 3 3 3 3 3 3 3 3 3 3 3 3 3 3 3 3 3 3 3 3 3 3 3 3 3 3 3 3 3 2 2 3 3 3 3 3 3 3 3 3 3 3 3 3 3 3 3 3 3 3 3 3 3 3 w d 3 3 3 3 3 3 3 3 3 3 3 3 3 3 3 3 3 3 3 3 3 3 3 3 3 3 x 3 3 3 3 3 3 3 3 f 3 3 3 3 3 3 w d 3 3 3 3 3 3 d d 3 3 3 3 3 3 d 3 3 3 3 3 3 3 f 3 3 3 3 3 3 3 d 3 3 3 3 3 3 d w k d 3 3 3 + ^ e e HXG 0.t.,XC.",
"f f f f f f f f f f f f f f f f f f f f f f f d k oX] 3 3 3 3 3 3 3 3 3 3 w 3 3 3 3 3 w 3 3 3 3 3 3 3 3 3 3 3 3 3 3 3 w 3 3 w 3 w 3 3 3 3 3 3 3 3 3 3 3 3 3 3 3 3 3 3 w 3 3 3 3 3 3 3 3 3 3 3 3 3 2 7 0 0 3 2 3 3 3 3 3 3 3 3 3 d w d 3 3 s 3 3 3 3 3 3 3 3 3 3 3 2 s f g 3 2 3 3 3 3 3 3 3 3 3 3 3 3 3 3 3 3 3 3 3 3 3 w d 3 3 3 3 3 3 3 3 3 3 3 3 w 3 3 3 3 3 3 3 3 3 3 3 3 3 x 3 3 3 3 3 3 3 3 f 3 3 3 3 3 3 w d 3 3 3 3 3 3 d d 3 3 3 3 3 3 d 3 3 3 3 3 3 3 f 3 3 3 3 3 3 3 d 3 3 3 3 3 3 d b d 3 3 3 3 + 2.e y HXD y.r.,XC.",
"f f f f f f f f f f f f f f f f f f f f f f f d d f d w 3 3 3 3 3 3 3 # k 5.s ' { [ [ { x # 3 3 3 3 3 3 3 3 3 3 3 3 w { x f { ] { d 3 3 3 3 3 3 3 3 3 3 3 # x ] ' ' w 5.x # 3 3 3 3 3 3 3 3 3 3 3 F +XS +XS 0 2 3 3 3 3 3 3 3 3 m { ' x s 5.d 3 3 3 3 3 3 3 3 3 3 v a.J $.$.g 3 3 3 3 3 3 3 3 # d m b j d ' d 3 3 3 3 3 w d 3 3 3 3 3 3 3 3 3 3 # k 5.d 3 3 3 3 3 3 3 3 3 3 3 3 x w f f f f f f f x f f f f f f j k f f f f f d k k d f f f f f k f f f f f f f k f f f f f f j k f f f f f d b x d f f f j d 7.j 2.HXG pXr.,X~.",
"3 3 3 3 3 3 3 3 3 3 3 3 3 3 3 3 3 3 3 3 3 3 3 3 3 3 3 3 3 3 3 3 3 3 3 # m m b x 5.] n.' m 3 3 3 3 3 3 3 3 3 3 3 3 # j ' m b m M.m k @ 3 3 3 3 3 3 3 3 3 3 3 d { m m x m ' 3 3 3 3 3 3 3 3 3 3 2 S S $ . . = +X7 2 3 3 3 3 3 3 @ k j k j # 5.f # 3 3 3 3 3 3 3 2 v J $ . . 6 j.g 3 3 3 3 3 3 3 3 ' { k k j k j # 3 3 3 3 w d 3 3 3 3 3 3 3 3 3 3 # m ' k @ 3 3 3 3 3 3 3 3 3 3 3 x 3 3 3 3 3 3 3 3 f 3 3 3 3 3 3 w d 3 3 3 3 3 3 d d 3 3 3 3 3 3 d 3 3 3 3 3 3 3 f 3 3 3 3 3 3 3 d 3 3 3 3 3 f b 3 3 3 3 3 3 + 2.3 ^ iXA pX4.,XC.",
"3 3 3 3 3 3 3 3 3 3 3 3 3 3 3 3 3 3 3 3 3 3 3 3 3 3 3 3 3 3 3 3 3 3 3 # j { k m ] ] ' [ k # 3 3 3 3 3 3 3 3 3 3 3 3 3 [ m x [ m { w 3 3 3 3 3 3 3 3 3 3 3 3 s k m ] k [ k # 3 3 3 3 3 3 3 3 2 B S . $ k d . I S 2 3 3 3 3 3 3 3 b j n.x x ] d 3 3 3 3 3 3 3 3 d a.$ $ j f . g J 2 3 3 3 3 3 3 3 j b x k j m d 3 3 3 3 3 w d 3 3 3 3 3 3 3 3 3 3 3 j { d 3 3 3 3 3 3 3 3 3 3 3 3 x 3 3 3 3 3 3 3 3 f 3 3 3 3 3 3 w d 3 3 3 3 3 3 d d 3 3 3 3 3 3 d 3 3 3 3 3 3 3 f 3 3 3 3 3 3 3 d 3 3 3 # d k d s 3 3 3 3 3 + 2.3 3.iXA pX4.,.C.",
"d d d d d d d d d d d d d d d d d d d d d d d d d w d 3 3 3 3 3 3 3 3 3 3 3 3 3 3 3 3 3 3 3 3 3 3 3 3 3 3 3 3 3 3 3 3 3 3 # # # 3 3 3 3 3 3 3 3 3 3 3 3 3 3 3 3 3 3 3 3 3 3 3 3 3 3 3 3 3 3 5 P S   3 x [ 3 - S 3 3 3 3 3 3 3 3 3 3 3 3 3 3 3 3 3 3 3 3 3 3 @ v M   s b [ d $ $.s 3 3 3 3 3 3 3 # # 3 3 3 3 3 3 3 3 3 3 w d 3 3 3 3 3 3 3 3 3 3 3 3 # 3 3 3 3 3 3 3 3 3 3 3 3 3 x 3 3 3 3 3 3 3 3 f 3 3 3 3 3 3 w d 3 3 3 3 3 3 d d 3 3 3 3 3 3 d 3 3 3 3 3 3 3 f 3 3 3 3 3 3 3 d 3 3 3 d k 3 d s 3 3 3 3 3 + 2.3 4.iXA HX2.,.C.",
"f f f f f f f f f f f f f f f f f f f f f f f d f Q.b w 3 3 3 3 3 3 3 3 3 3 # @ # # 3 3 3 3 3 3 3 3 3 3 3 3 3 3 3 3 3 3 3 f f d 3 3 3 3 3 3 3 3 3 3 3 3 3 3 3 # @ # # 3 3 3 3 3 3 3 3 3 3 3 5 P S . f x ' 2 - S 3 3 3 3 3 3 3 3 3 3 3 3 O 3 3 3 3 3 3 3 3 3 @ M a.  3 k ' 3 $ $.s 3 3 3 3 3 3 3 3 3 3 3 # 3 3 3 3 3 3 3 w d 3 3 3 3 3 3 3 3 3 3 d 3 d 3 d 3 3 3 3 3 3 3 3 3 3 3 x 3 3 3 3 3 3 3 3 f 3 3 3 3 3 3 w d 3 3 3 3 3 3 d d 3 3 3 3 3 3 d 3 3 3 3 3 3 3 f 3 3 3 3 3 3 3 d 3 3 w x 3 # d w 3 3 3 3 3 + 2.3 8.iXA HXp ,.C.",
"f f f f f f f f f f f f f f f f f f f f f f f s m {.{ 3 3 3 3 3 3 3 3 3 3 3 m ] k x k 3 3 3 3 3 3 3 3 3 3 3 3 3 3 3 3 3 ' 5.5.{ 3 3 3 3 3 3 3 3 3 3 3 3 3 3 3 ' ] k b j 3 3 3 3 3 3 3 3 3 3 2 D %X. $ d 3 . I S 2 3 3 3 3 3 3 3 3 ' b ' ' 3 3 3 3 3 3 3 3 3 2 f Y.$ . d 3   g J 3 3 3 3 3 3 3 3 3 x j x x w 3 3 3 3 3 3 w d 3 3 3 3 3 3 3 3 3 3 { m { { [ s 3 3 3 3 3 3 3 3 3 3 x 3 3 3 3 3 3 3 3 f 3 3 3 3 3 3 w d 3 3 3 3 3 3 d d 3 3 3 3 3 3 d 3 3 3 3 3 3 3 f 3 3 3 3 3 3 3 d 3 3 k 3 3 3 d s 3 3 3 3 3 + 2.3 r.iXA HXa ,.C.",
"f f f f f f f f f f f f f f f f f f f f f f f s m (.{ w 3 3 3 3 3 3 3 3 3 s { { ] ] ] # 3 3 3 3 3 3 3 3 3 3 3 3 3 3 # j { { 5.5.3 3 3 3 3 3 3 3 3 3 3 3 3 3 d 5.{ ] [ m # 3 3 3 3 3 3 3 3 3 3 2 %X%X. . . = +X7 3 3 3 3 3 3 3 3 3 { { { ] 3 3 3 3 3 3 3 3 3 3 @ $.Y.$ . . 6 j.g 3 3 3 3 3 3 3 3 # b ' b x 3 3 3 3 3 3 3 w d 3 3 3 3 3 3 3 3 3 # m ' ' n.m j # 3 3 3 3 3 3 3 3 3 x 3 3 3 3 3 3 3 3 f 3 3 3 3 3 3 w d 3 3 3 3 3 3 d d 3 3 3 3 3 3 d 3 3 3 3 3 3 3 f 3 3 3 3 3 3 3 d 3 k d 3 3 3 d s 3 3 3 3 3 + 2.3 u.iXG HXt ,.C.",
"f f f f f f f f f f f f f f f f f f f f f f f d j {.' w 3 3 3 3 3 3 3 3 3 3 k j j x m 3 3 3 3 3 3 3 3 3 3 3 3 3 3 3 3 3 ] m ' m 3 3 3 3 3 3 3 3 3 3 3 3 3 3 w k j j x m # 3 3 3 3 3 3 3 3 3 3 3 6 F 3 3 2 0 0 2 3 3 3 3 3 3 3 3 3 k 3 [ ' 3 3 3 3 3 3 3 3 3 3 3 3 M 3 3 3 d f 2 3 3 3 3 3 3 3 3 3 f 3 x x 3 3 3 3 3 3 3 w d 3 3 3 3 3 3 3 3 3 3 k j ] x ' 3 3 3 3 3 3 3 3 3 3 3 x 3 3 3 3 3 3 3 3 f 3 3 3 3 3 3 w s 3 3 3 3 3 3 d s 3 3 3 3 3 3 d 3 3 3 3 3 3 3 f 3 3 3 3 3 3 3 d k d # 3 3 3 d w 3 3 3 3 3 + 2.3 t.iXG HXr ,.C.",
"f f f f f f f f f f f f f f f f f f f f f f f d d d d w 3 3 3 3 3 3 3 3 3 3 3 3 3 3 # 3 3 3 3 3 3 3 3 3 3 3 3 3 3 3 3 3 # # 3 # 3 3 3 3 3 3 3 3 3 3 3 3 3 3 3 3 3 3 3 # 3 3 3 3 3 3 3 3 3 3 3 3 3 2 3 3 3 2 2 3 3 3 3 3 3 3 3 3 3 3 3 # 3 3 3 3 3 3 3 3 3 3 3 3 3 @ 3 3 3 3 3 3 3 3 3 3 3 3 3 3 3 3 3 3 3 3 3 3 3 3 3 3 w d 3 3 3 3 3 3 3 3 3 3 3 3 # # # 3 3 3 3 3 3 3 3 3 3 3 x 3 3 3 3 3 3 3 3 j 3 3 3 3 3 3 s d 3 3 3 3 3 3 d d 3 3 3 3 3 3 d 3 3 3 3 3 3 3 j 3 3 3 3 3 3 3 b j 3 3 3 3 3 d d 3 3 3 3 3 # 2.w iXu.&.HXr ,.C.",
"3 3 3 3 3 3 3 3 3 3 3 3 3 3 3 3 3 3 3 3 3 3 3 3 3 3 3 3 3 3 3 3 3 3 3 3 3 3 3 3 3 3 3 3 3 3 3 3 3 3 3 3 3 3 3 3 3 3 3 3 3 3 3 3 3 3 3 3 3 3 3 3 3 3 3 3 3 3 3 3 3 3 3 3 3 3 3 3 3 3 3 3 3 3 3 3 3 3 3 3 3 3 3 3 3 3 3 3 3 3 3 3 3 3 3 3 3 3 3 3 3 3 3 3 3 3 3 3 3 3 3 3 3 3 3 3 3 3 3 3 3 3 3 3 3 3 3 3 3 3 3 3 3 3 3 3 w d 3 3 3 3 3 3 3 3 3 3 3 3 3 3 3 3 3 3 3 3 3 3 3 3 3 3 x 3 d d d d d d d k d d d d d d f f d d d d d d j j d d d d d d j d d d d d d d k d d d d d s k x s d d d d d j f d d d d d 6 7.j iXy.-.HXw ,XS.",
"3 3 3 3 3 3 3 3 3 3 3 3 3 3 3 3 3 3 3 3 3 3 3 3 3 3 3 3 3 3 3 3 3 3 3 3 3 3 3 3 3 3 3 3 3 3 3 3 3 3 3 3 3 3 3 3 3 3 3 3 3 3 3 3 3 3 3 3 3 3 3 3 3 3 3 3 3 3 3 3 3 3 3 3 3 3 3 3 3 3 3 3 3 3 3 3 3 3 3 3 3 3 3 3 3 3 3 3 3 3 3 3 3 3 3 3 3 3 3 3 3 3 3 3 3 3 3 3 3 3 3 3 3 3 3 3 3 3 3 3 3 3 3 3 3 3 3 3 3 3 3 3 3 3 3 3 3 w 3 3 3 3 3 3 3 3 3 3 3 3 3 3 3 3 3 3 3 3 3 3 3 3 3 3 x 3 3 3 3 3 3 3 3 f 3 3 3 3 3 3 3 s # 3 3 3 3 # d s # 3 3 3 3 3 d 3 3 3 3 3 3 3 f 3 3 3 3 # d k d 3 3 3 3 3 # d w # 3 3 3 3 + ^ e HX8.;.HX$ ,.C.",
"3 3 3 3 3 3 3 3 3 3 3 3 3 3 3 3 3 3 3 3 3 3 3 3 3 3 3 3 3 3 3 3 3 3 3 3 3 3 3 3 3 3 3 3 3 3 3 3 3 3 3 3 3 3 3 3 3 3 3 3 3 3 3 3 3 3 3 3 3 3 3 3 3 3 3 3 3 3 3 3 3 3 3 3 3 3 3 3 3 3 3 3 3 3 3 3 3 3 3 3 3 3 3 3 3 3 3 3 3 3 3 3 3 3 3 3 3 3 3 3 3 3 3 3 3 3 3 3 3 3 3 3 3 3 3 3 3 3 3 3 3 3 3 3 3 3 3 3 3 3 3 3 3 3 3 3 3 3 3 3 3 3 3 3 3 3 3 3 3 3 3 3 3 3 3 3 3 3 3 3 3 3 3 3 x 3 3 3 3 3 3 3 3 f 3 3 3 3 3 3 w d 3 3 3 3 3 3 d d 3 3 3 3 3 3 d 3 3 3 3 3 3 3 f 3 3 3 3 d k 3 d 3 3 3 3 3 3 d s 3 3 3 3 3 + ^ e HX4.Z.HX$ ,.C.",
"3 3 3 3 3 3 3 3 3 3 3 3 3 3 3 3 3 3 3 3 3 3 3 3 3 3 3 3 3 3 3 3 3 3 3 3 3 3 3 3 3 3 3 3 3 3 3 3 3 3 3 3 3 3 3 3 3 3 3 3 3 3 3 3 3 3 3 3 3 3 3 3 3 3 3 3 3 3 3 3 3 3 3 3 3 3 3 3 3 3 3 3 3 3 3 3 3 3 3 3 3 3 3 3 3 3 3 3 3 3 3 3 3 3 3 3 3 3 3 3 3 3 3 3 3 3 3 3 3 3 3 3 3 3 3 3 3 3 3 3 3 3 3 3 3 3 3 3 3 3 3 3 3 3 3 3 3 3 3 3 3 3 3 3 3 3 3 3 3 3 3 3 3 3 3 3 3 3 3 3 3 3 3 3 x 3 3 3 3 3 3 3 3 f 3 3 3 3 3 3 w d 3 3 3 3 3 3 d d 3 3 3 3 3 3 d 3 3 3 3 3 3 3 f 3 3 3 w x 3 3 d 3 3 3 3 3 3 d s 3 3 3 3 3 + ^ y HX3.Z.pX$ ,.C.",
"3 3 3 3 3 3 3 3 3 3 3 3 3 3 3 3 3 3 3 3 3 3 3 3 3 3 3 3 3 3 3 3 3 3 3 3 3 3 3 3 3 3 3 3 3 3 3 3 3 3 3 3 3 3 3 3 3 3 3 3 3 3 3 3 3 3 3 3 3 3 3 3 3 3 3 3 3 3 3 3 3 3 3 3 3 3 3 3 3 3 3 3 3 3 3 3 3 3 3 3 3 3 3 3 3 3 3 3 3 3 3 3 3 3 3 3 3 3 3 3 3 3 3 3 3 3 3 3 3 3 3 3 3 3 3 3 3 3 3 3 3 3 3 3 3 3 3 3 3 3 3 3 3 3 3 3 3 3 3 3 3 3 3 3 3 3 3 3 3 3 3 3 3 3 3 3 3 3 3 3 3 3 3 3 x 3 3 3 3 3 3 3 3 f 3 3 3 3 3 3 w d 3 3 3 3 3 3 d d 3 3 3 3 3 3 d 3 3 3 3 3 3 3 f 3 3 3 k w 3 3 d 3 3 3 3 3 3 d s 3 3 3 3 3 + ^ p HX2.Z.y.$ ,.C.",
"3 3 3 3 3 3 3 3 3 3 3 3 3 3 3 3 3 3 3 3 3 3 3 3 3 3 3 3 3 3 3 3 3 3 3 3 3 3 3 3 3 3 3 3 3 3 3 3 3 3 3 3 3 3 3 3 3 3 3 3 3 3 3 3 3 3 3 3 3 3 3 3 3 3 3 3 3 3 3 3 3 3 3 3 3 3 3 3 3 3 3 3 3 3 3 3 3 3 3 3 3 3 3 3 3 3 3 3 3 3 3 3 3 3 3 3 3 3 3 3 3 3 3 3 3 3 3 3 3 3 3 3 3 3 3 3 3 3 3 3 3 3 3 3 3 3 3 3 3 3 3 3 3 3 3 3 3 3 3 3 3 3 3 3 3 3 3 3 3 3 3 3 3 3 3 3 3 3 3 3 3 3 3 3 x 3 3 3 3 3 3 3 3 f 3 3 3 3 3 3 w d 3 3 3 3 3 3 d d 3 3 3 3 3 3 d 3 3 3 3 3 3 3 f 3 3 k s 3 3 3 d 3 3 3 3 3 3 d s 3 3 3 3 3 + ^ ^ HX^ V.y.% ,.C.",
"3 3 3 3 3 3 3 3 3 3 3 3 3 3 3 3 3 3 3 3 3 3 3 3 3 3 3 3 3 3 3 3 3 3 3 3 3 3 3 3 3 3 3 3 3 3 3 3 3 3 3 3 3 3 3 3 3 3 3 3 3 3 3 3 3 3 3 3 3 3 3 3 3 3 3 3 3 3 3 3 3 3 3 3 3 3 3 3 3 3 3 3 3 3 3 3 3 3 3 3 3 3 3 3 3 3 3 3 3 3 3 3 3 3 3 3 3 3 3 3 3 3 3 3 3 3 3 3 3 3 3 3 3 3 3 3 3 3 3 3 3 3 3 3 3 3 3 3 3 3 3 3 3 3 3 3 3 3 3 3 3 3 3 3 3 3 3 3 3 3 3 3 3 3 3 3 3 3 3 3 3 3 3 3 x 3 3 3 3 3 3 3 3 f 3 3 3 3 3 3 w d 3 3 3 3 3 3 d d 3 3 3 3 3 3 d 3 3 3 3 3 3 3 f 3 k d 3 3 3 3 d 3 3 3 3 3 3 d s 3 3 3 3 3 # ^ ^ HX^ !.0.% ,.C.",
"d d d d d d d d d d d d d d d d d d d d d d d d d d d d d d d d d d d d d d d d d d d d d d d d d d d d d d d d d d d d d d d d d d d d d d d d d d d d d d d d d d d d d d d d d d d d d d d d d d d d d d d d d d d d d d d d d d d d d d d d d d d d d d d d d d d d d d d d d d d d d d d d d d d d d d d d d d d d d d d d d d d d d d d d d d d d d d d d d d d d d d s 3 x 3 3 3 3 3 3 3 3 f 3 3 3 3 3 3 w s 3 3 3 3 3 3 d s 3 3 3 3 3 3 d 3 3 3 3 3 3 3 d j f # 3 3 3 3 d 3 3 3 3 3 3 d w 3 3 3 3 3 + ^ 2.HXp /.3.$ ,.C.",
"3 3 3 3 3 3 3 3 3 3 3 3 3 3 3 3 3 3 3 3 3 3 3 3 3 3 3 3 3 3 3 3 3 3 3 3 3 3 3 3 3 3 3 3 3 3 3 3 3 3 3 3 3 3 3 3 3 3 3 3 3 3 3 3 3 3 3 3 3 3 3 3 3 3 3 3 3 3 3 3 3 3 3 3 3 3 3 3 3 3 3 3 3 3 3 3 3 3 3 3 3 w 3 3 w w w w w w w 3 3 3 3 3 3 3 3 3 3 3 3 3 3 3 3 3 3 3 3 3 3 3 3 w 3 3 3 w 3 3 3 3 3 3 3 3 w 3 w 3 3 w 3 3 3 3 3 3 3 3 3 3 3 3 3 3 3 3 3 3 3 3 3 3 3 3 3 3 3 w 3 3 x 3 3 3 3 3 3 3 3 j 3 3 3 3 3 3 s d 3 3 3 3 3 3 d d 3 3 3 3 3 3 d 3 3 3 3 3 3 3 b k 3 3 3 3 3 3 d 3 3 3 3 3 3 d d 3 3 3 3 3 # ` 4.iX3.sX0.# ,.C.",
"3 3 3 3 3 3 3 3 3 3 3 3 3 3 3 3 3 3 3 3 3 3 3 3 3 3 3 3 3 3 3 3 3 3 3 3 3 3 3 3 3 3 3 3 3 3 3 3 3 3 3 3 3 3 3 3 3 3 3 3 3 3 3 3 3 3 3 3 3 3 3 3 3 3 3 3 3 3 3 3 3 3 3 3 3 3 3 3 3 3 3 3 3 3 3 3 3 3 3 3 3 # 3 3 # # @ # 3 # # 3 3 3 3 3 3 3 3 3 3 3 3 3 3 3 3 3 3 3 3 3 3 3 3 # d 3 f 3 3 3 f 3 3 3 3 3 3 3 s 3 3 3 3 3 3 3 3 3 3 3 3 3 3 3 3 3 3 3 3 3 3 3 3 3 3 3 3 3 3 3 3 3 x w f f f f f f f k f f f f f d j k d f f f f d k k d f f f f f k f f f f f d k m d f f f f f f k d f f f f d k j d f f f f d ` 0.HXy.i.0.^ ,XS.",
"3 3 3 3 3 3 3 3 3 3 3 3 3 3 3 3 3 3 3 3 3 3 3 3 3 3 3 3 3 3 3 3 3 3 3 3 3 3 3 3 3 3 3 3 3 3 3 3 3 3 3 3 3 3 3 3 3 3 3 3 3 3 3 3 3 3 3 3 3 3 3 3 3 3 3 3 3 3 3 3 3 3 3 3 3 3 3 3 3 3 3 3 3 3 3 3 3 3 3 3 3 d [ k s d k f w j j 3 3 3 3 3 3 3 3 3 3 3 3 3 3 3 3 3 3 3 3 3 3 3 3 O m { n.m [ [ 5.] 5.{ m 5.{ ] m { d 3 3 3 3 3 3 3 3 3 3 3 3 3 3 3 3 3 3 3 3 3 3 3 3 3 3 3 3 3 3 3 x 3 3 3 3 3 3 3 3 f 3 3 3 3 3 3 3 s # 3 3 3 3 # d s # 3 3 3 3 3 d 3 3 3 3 # s k f 3 3 3 3 3 3 3 d 3 3 3 3 3 # d w # 3 3 3 3 # p 8.iXt.JX8.^ ,.C.",
"3 3 3 3 3 3 3 3 3 3 3 # # 3 3 3 3 3 3 3 3 3 3 3 3 3 3 3 3 3 3 3 # 3 # 3 3 3 3 3 3 3 3 3 3 3 3 3 3 3 3 3 3 3 # 3 # 3 3 3 3 3 3 3 3 3 3 3 3 3 3 # # 3 3 3 3 3 3 3 3 3 3 3 3 3 3 3 3 3 3 3 3 3 3 3 3 3 3 3 O m j d ' { [ ' { M.n.3 3 3 3 3 3 3 3 3 3 3 3 3 3 3 3 3 3 3 3 3 3 3 3 @ m ' ' n.b { { { n.[ j V.m 5.{ ] m @ 3 3 3 3 3 3 3 3 3 3 3 3 3 3 3 3 3 3 3 3 3 3 3 3 3 3 3 3 3 3 x 3 3 3 3 3 3 3 3 f 3 3 3 3 3 3 w d 3 3 3 3 3 3 d d 3 3 3 3 3 3 d 3 3 3 3 w x 3 f 3 3 3 3 3 3 3 d 3 3 3 3 3 3 d s 3 3 3 3 3 # n u.t.8.i.4.a ,.C.",
"k d 3 3 3 3 3 3 3 3 3 m x 3 3 3 m 3 3 3 d f w 3 3 3 3 3 3 3 3 3 b w b 3 d k # 3 3 3 3 3 3 3 3 3 3 3 3 3 3 d j d f d 3 # d x 3 3 3 3 3 3 3 3 # k m 3 3 x 3 3 3 3 3 3 3 3 3 3 3 3 3 3 3 3 3 3 3 3 3 3 3 3 3 d [ k { { f j ] m ' 3 3 3 3 3 3 3 3 3 3 3 3 3 3 3 3 3 3 3 3 3 3 3 3 3 s 3 d [ d j f d f d 3 f d j d j d 3 3 3 3 3 3 3 3 3 3 3 3 3 3 3 3 f w d 3 f j d b # 3 3 3 3 3 3 x 3 3 3 3 3 3 3 3 f 3 3 3 3 3 3 w d 3 3 3 3 3 3 d d 3 3 3 3 3 3 d 3 3 3 3 k 3 3 f 3 3 3 3 3 3 3 d 3 3 3 3 3 3 d s 3 3 3 3 3 # p iX8.4.sXn 2 ,.C.",
"] { x # 3 3 3 3 3 3 3 n.{ [ { ] n.x x ' [ { m ] m { ' 3 3 3 3 3 V.' n.x 5.5.b s.[ j [ { j # 3 3 3 3 3 3 O ] n.] n.b ' [ m n.k 3 3 3 3 3 3 3 @ [ n.' 5.{ [ [ b { ] ' 5.3 3 3 3 3 3 3 3 3 3 3 3 3 3 3 3 3 3 3 3 3 3 3 3 3 3 3 3 3 3 3 3 3 3 3 3 3 3 3 3 3 3 3 3 3 3 3 3 3 3 3 3 3 3 3 3 d # # 3 3 # 3 3 # 3 # @ O 3 3 3 3 3 3 3 3 3 3 3 3 3 3 3 3 # { [ { ' ] ] { ' O 3 3 3 3 3 3 x 3 3 3 3 3 3 3 3 f 3 3 3 3 3 3 w d 3 3 3 3 3 3 d d 3 3 3 3 3 3 d 3 3 3 k s 3 3 f 3 3 3 3 3 3 3 d 3 3 3 3 3 3 d s 3 3 3 3 3 # p iX3.4.sX& 2 ,.C.",
"{ ' [ 3 3 3 3 3 3 3 3 5.[ n.5.[ { [ 5.{ k ] { ] { ' ' 3 3 3 3 3 { n.{ n.V.M.{ n.{ { 5.{ b @ 3 3 3 3 3 3 3 { { { ' ] M.V.k V.m # 3 3 3 3 3 3 # ' { 5.5.{ n.{ n.n.[ V.{ 3 3 3 3 3 3 3 3 # @ 3 3 3 3 3 3 3 3 3 3 3 3 3 3 3 3 3 3 3 # # 3 3 3 3 3 3 3 3 3 3 3 3 3 3 3 3 @ 3 3 3 3 3 3 3 # 3 3 3 3 3 3 3 3 3 3 3 d d # # # # 3 # 3 3 3 3 3 3 3 3 3 3 # ] m n.' { { [ ' @ 3 3 3 3 3 3 x 3 3 3 3 3 3 3 3 f 3 3 3 3 3 3 w d 3 3 3 3 3 3 d d 3 3 3 3 3 3 d 3 3 k d 3 3 3 f 3 3 3 3 3 3 3 d 3 3 3 3 3 3 d s 3 3 3 3 3 # ^ HX^ 8.sX& 2 ,.C.",
"w j f 3 3 3 3 3 3 3 3 s s f d j j f j d k j s j d s d 3 3 3 3 3 d d d k f d d j d j ' ] 3 3 3 3 3 3 3 3 3 w 3 j j k k d k d d 3 3 3 3 3 3 3 3 s w d j d d f j f j d j 3 3 3 3 3 3 3 3 x ] m 3 3 3 3 3 3 m 3 3 3 3 3 3 3 3 3 3 3 m b 3 3 3 3 3 3 3 3 3 3 3 3 3 3 3 j ] ' w 3 3 3 3 3 m w 3 3 3 3 3 3 3 3 3 3 x s.x j b k j x 3 3 3 3 3 3 3 3 3 3 3 d 3 d k d s k d 3 3 3 3 3 3 3 x 3 3 3 3 3 3 3 3 f 3 3 3 3 3 3 w d 3 3 3 3 3 3 d d 3 3 3 3 3 3 d 3 j f # 3 3 3 f 3 3 3 3 3 3 3 d 3 3 3 3 3 3 d s 3 3 3 3 3 + ^ KXy u.sX& 2 ,.C.",
"3 # # 3 3 3 3 3 3 3 3 3 3 # 3 # # # # 3 # # 3 # 3 3 3 3 3 3 3 3 3 3 3 # # 3 3 # 3 O 3 3 3 3 3 3 3 3 3 3 3 3 3 # # # # 3 # 3 3 3 3 3 3 3 3 3 3 3 3 3 # 3 3 # # # # 3 # 3 3 3 3 3 3 3 # k ] { ] ] m { { ' s.[ 3 3 3 3 3 3 3 3 3 # b [ ' m { m { ' # 3 3 3 3 3 3 3 3 d ] [ { ] m [ { ] { 5.s 3 3 3 3 3 3 3 3 # b b ] { { [ V.5.3 3 3 3 3 3 3 3 3 3 3 3 3 3 # 3 3 # 3 3 3 3 3 3 3 3 x 3 3 3 3 3 3 3 3 f 3 3 3 3 3 3 3 s 3 3 3 3 3 # d s # 3 3 3 3 3 d f j # 3 3 3 3 f 3 3 3 3 3 3 3 d 3 3 3 3 3 # d w 3 3 3 3 3 + 2.KX3 iXsX& 2 ,.C.",
"3 3 3 3 3 3 3 3 3 3 3 3 3 3 3 3 3 3 3 3 3 3 3 3 3 3 3 3 3 3 3 3 3 3 3 3 3 3 3 3 3 3 3 3 3 3 3 3 3 3 3 3 3 3 3 3 3 3 3 3 3 3 3 3 3 3 3 3 3 3 3 3 3 3 3 3 3 3 3 3 3 3 3 3 3 3 3 3 3 3 # f ' m ' { j V.' 5.[ ' d 3 3 3 3 3 3 3 3 3 { b ] { m [ V.m 3 3 3 3 3 3 3 3 3 w ' m m n.j M.] { { m j # 3 3 3 3 3 3 3 3 { m ' m j k ' x 3 3 3 3 3 3 3 3 3 3 3 3 3 3 3 3 3 3 3 3 3 3 3 3 3 3 x 3 3 w w w w w w j w w w w w 3 d d 3 w w w w 3 f d 3 w w w w 3 k b 3 w w w 3 w j 3 w w w w 3 s f 3 w w w w 3 f d 3 w w w w + 4.HXp HXm.7 3 ,.C.",
"3 3 3 3 3 3 3 3 3 3 3 3 3 3 3 3 3 3 3 3 3 3 3 3 3 3 3 3 3 3 3 3 3 3 3 3 3 3 3 3 3 3 3 3 3 3 3 3 3 3 3 3 3 3 3 3 3 3 3 3 3 3 3 3 3 3 3 3 3 3 3 3 3 3 3 3 3 3 3 3 3 3 3 3 3 3 3 3 3 3 3 3 d d d d 3 j f k d d 3 3 3 3 3 3 3 3 3 3 m j k d d d f d 3 3 3 3 3 3 3 3 3 3 d d d f 3 f f k f d w 3 3 3 3 3 3 3 3 3 3 3 3 3 3 3 # 3 3 3 3 3 3 3 3 3 3 3 3 3 3 3 3 3 3 3 3 3 3 3 3 3 3 3 x 3 d d d d d d d k d d d d d s d f s d d d d s j f s d d d w j m s d d d d d d k d d d d d d d j s d d d d s j f s d d d d & 0.KXHXu.G j w ,XS.",
"3 3 3 3 3 3 3 3 3 3 3 3 3 3 3 3 3 3 3 3 3 3 3 3 3 3 3 3 3 3 3 3 3 3 3 3 3 3 3 3 3 3 3 3 3 3 3 3 3 3 3 3 3 3 3 3 3 3 3 3 3 3 3 3 3 3 3 3 3 3 3 3 3 3 3 3 3 3 3 3 3 3 3 3 3 3 3 3 3 3 3 3 # # # # 3 @ # @ # # 3 3 3 3 3 3 3 3 3 3 O @ O # # # # # 3 3 3 3 3 3 3 3 3 3 # # # # 3 # # @ # # 3 3 3 3 3 3 3 3 3 3 3 3 3 3 3 3 3 3 3 3 3 3 3 3 3 3 3 3 3 3 3 3 3 3 3 3 3 3 3 3 3 3 3 3 x 3 3 3 3 3 3 3 3 f 3 3 3 3 3 # 3 s # 3 3 3 3 # d s # 3 3 # 3 k d 3 3 3 3 3 3 3 d 3 3 3 3 3 3 3 d # 3 3 3 3 # d w # 3 3 3 3 o 3.PX8.^ G 6 @ ,.C.",
"d d d d d d d d d d d d d d d d d d d d d d d d d d d d d d d d d d d d d d d d d d d d d d d d d d d d d d d d d d d d d d d d d d d d d d d d d d d d d d d d d d d d d d d d d d d d d d d d d d d d d d d d d d d d d d d d d d d d d d d d d d d d d d d d d d d d d d d d d d d d d d d d d d d d d d d d d d d d d d d d d d d d d d d d d d d d d d d d d d d d d d s 3 x 3 3 3 3 3 3 3 3 f 3 3 3 3 3 3 w d 3 3 3 3 3 3 d d 3 3 3 3 k 3 d 3 3 3 3 3 3 3 f 3 3 3 3 3 3 3 d 3 3 3 3 3 3 d s 3 3 3 3 3 + pXu.o 2.G 8 @ ,.C.",
"w w w w w w w w w w w w w w w w s w w w w s w w w w w w w w w w w w w w s 3 3 w w w w w w w w w w w w w w w w s 3 3 3 w s w w w w w w w w w w w w 3 w w 3 6 3 w w w w w w w w w w w w w w w s 3 3 3 w s w w w w w w w w w w w w w s 3 2 3 w s w w w w w w w w w w w w w s 3 3 3 w s w w w w w w w w w w w w w s 3 3 3 w s w w w w w w w w w w w w w s w w w w s w w w w w w 3 3 x 3 3 3 3 3 3 3 3 f 3 3 3 3 3 3 w d 3 3 3 3 3 3 d d 3 3 3 k d 3 d 3 3 3 3 3 3 3 f 3 3 3 3 3 3 3 d 3 3 3 3 3 3 d s 3 3 3 3 o t.KX3 3 2.G 8 @ ,.C.",
"3 3 # # # # # 3 3 3 3 3 3 3 3 3 2 3 7 0 3 2 3 3 3 3 3 3 3 3 3 3 3 3 3 2 2 7 0 6 2 3 3 3 3 3 3 3 3 3 3 3 3 3 3 @ 3 v N 3 @ 3 3 3 3 3 3 3 3 3 3 3 3 3 3 # r a w + 3 3 3 3 3 3 3 3 3 3 3 3 3 3 @ 6 v g @ @ 3 3 3 3 3 3 3 3 3 3 3 3 3 2 6 0 0 2 2 3 3 3 3 3 3 3 3 3 3 3 3 3 @ 3 v N 3 @ 3 3 3 3 3 3 3 3 3 3 3 3 3 2 3 0 0 3 2 3 3 3 3 3 3 3 3 3 3 3 3 3 2 3 7 0 3 2 3 3 3 3 3 3 3 3 x 3 3 3 3 3 3 3 3 f 3 3 3 3 3 3 w d 3 3 3 3 3 3 d d 3 3 k d 3 3 d 3 3 3 3 3 3 3 f 3 3 3 3 3 3 3 d 3 3 3 3 3 3 d s 3 3 3 o 8.HX2.e 3 2.G 8 @ ,.C.",
"s 3 f f f f f s 3 3 3 3 3 3 3 2 0 S S S +XB 2 3 3 3 3 3 3 3 3 3 3 3 3 6 P &XS +XF 6 3 3 3 3 3 3 3 3 3 3 3 3 @ G ,X,.,X,Xv 2 3 3 3 3 3 3 3 3 3 3 3 3 r p.p.p.p.Y 3 3 3 3 3 3 3 3 3 3 3 3 3 3 @.1X,.1X,.g 2 3 3 3 3 3 3 3 3 3 3 3 2 F $X%X$X%X0 2 3 3 3 3 3 3 3 3 3 3 3 @ G 1X,.,X,Xv @ 3 3 3 3 3 3 3 3 3 3 3 2 D $X%X%X$XD 2 3 3 3 3 3 3 3 3 3 3 3 2 0 S S S +XB 2 3 3 3 3 3 3 3 x 3 3 3 3 3 3 3 3 f 3 3 3 3 3 3 w d 3 3 3 3 3 3 d d # j f # 3 3 d 3 3 3 3 3 3 3 f 3 3 3 3 3 3 3 d 3 3 3 3 3 3 d s 3 3 o 2.KXw ^ y 3 2.G 8 @ ,.C.",
"x s ] k x k m x # 3 3 3 3 3 2 0 +X* . . & +XA 2 3 3 3 3 3 3 3 3 3 3 3 %XP $ . $ F +X3 3 3 3 3 3 3 3 3 3 3 @ @.1X6 . . v ,X0 2 3 3 3 3 3 3 3 3 3 3 r p.a % . $ p.p.+ 3 3 3 3 3 3 3 3 3 3 @ <.,.O . $ G 1X6 3 3 3 3 3 3 3 3 3 3 2 P %X+ . . A *X0 2 3 3 3 3 3 3 3 3 3 @ @.,X& . . v 1Xv @ 3 3 3 3 3 3 3 3 3 2 D &X& . . * *XD 2 3 3 3 3 3 3 3 3 3 2 0 +X& . . & +XA 2 3 3 3 3 3 3 x 3 3 3 3 3 3 3 3 f 3 3 3 3 3 3 w d 3 3 3 3 3 3 d w f k 3 3 3 3 d 3 3 3 3 3 3 3 f 3 3 3 3 3 3 3 d 3 3 3 3 3 3 d s 3 o ^ KXp o 2.e 3 2.G 8 @ ,.C.",
"k d k k [ m f x 3 3 3 3 3 3 3 S * . d j X o +X6 3 3 3 3 3 3 3 3 3 5 F P . O # 3 . S A 2 3 3 3 3 3 3 3 3 2 d ,X+ . f 3   0 <.2 3 3 3 3 3 3 3 3 3 + p.a   3 j + % p.a 3 3 3 3 3 3 3 3 3 @ G ,X. $ j s   @.<.@ 3 3 3 3 3 3 3 3 2 0 $X$ . f d   F %X2 3 3 3 3 3 3 3 3 2 g ,X+ . f d   v ,X@ 3 3 3 3 3 3 3 3 3 6 $X& . d f . * $X3 3 3 3 3 3 3 3 3 3 3 S * . d f . & +X6 3 3 3 3 3 3 x 3 3 3 3 3 3 3 3 d 3 3 3 3 3 # 3 w # 3 3 3 3 # w k j # 3 3 3 3 d 3 3 3 3 3 3 3 d # 3 3 3 3 3 3 d # 3 3 3 3 # d w + y KX^ o # ^ e # 2.G 6 @ ,.C.",
"k d b b S.{ j x # 3 3 3 3 2 7 S $ 3 b ] k . S B 2 3 3 3 3 3 3 3 3 2 %XA . x j ' X = S 2 3 3 3 3 3 3 3 3 @ G ,.  f m f 3 $ <.9 3 3 3 3 3 3 3 3 3 3 p.X O m m d   Y Y + 3 3 3 3 3 3 3 3 @ <.@.  k ' [ @ 7 ,X3 3 3 3 3 3 3 3 3 5 F P . j ' ] 3 o %X6 3 3 3 3 3 3 3 3 @ G ,.  f ' [ d $ ,Xg 2 3 3 3 3 3 3 3 2 D %X. d m ] f . %X0 2 3 3 3 3 3 3 3 2 0 S . 3 ' ] k . S 0 2 3 3 3 3 3 x 3 d d d d d d d k d d d d d d f j d d d d d d j m d d d d d d j d d d d d d d k d d d d d d d j d d d d d d k d e KX0.& f 6 7.z d 3.@.j w ,XS.",
"k d b d b k j k 3 3 3 3 3 2 7 S . $ f m k . S B 2 3 3 3 3 3 3 3 3 2 %XB . x m m X = S 2 3 3 3 3 3 3 3 3 @ G <.  d b ' d . <.9 2 3 3 3 3 3 3 3 3 3 p.X O b x d   a a 3 3 3 3 3 3 3 3 3 @ <.@.  k k j # & ,X3 3 3 3 3 3 3 3 3 5 F P   j b d O o %X6 3 3 3 3 3 3 3 3 @ G <.  f b f 3 $ ,Xg 2 3 3 3 3 3 3 3 2 D %X. d m f 3 . %X0 2 3 3 3 3 3 3 3 2 0 S . 3 f m j . S 0 2 3 3 3 3 3 x 3 s s s s s s s j s s s s s w d f w s s s w d m d w s s s s s j s s s s s s d j w s s s s s d f w s s s s w f d HXr.& d d 6 2.j 6 3.G f 3 ,.S.",
"b d ] k k k m m # 3 3 3 3 3 3 %X*   s d $ $ +X7 3 3 3 3 3 3 3 3 3 5 P P   # f # . F A 2 3 3 3 3 3 3 3 3 2 g ,X$ . d d   9 <.3 3 3 3 3 3 3 3 3 3 + p.a   3 f O % Y a 3 3 3 3 3 3 3 3 3 @ G ,.  $ d $   G ,.@ 3 3 3 3 3 3 3 3 2 D %X. $ d 3   B %X2 3 3 3 3 3 3 3 3 @ N ,X$ . d 3   0 ,X2 3 3 3 3 3 3 3 3 2 7 $X+ . d d   & $X3 3 3 3 3 3 3 3 3 3 3 +X&   O d . o +X6 3 3 3 3 3 3 x 3 3 3 3 3 3 3 3 f 3 3 3 3 3 # 3 s # 3 3 3 3 k f w # 3 3 3 3 3 d 3 3 3 3 3 3 3 d 3 3 3 3 3 3 3 d # 3 3 3 3 2 6 iXt.o 3 3 3 + ^ e # 2.G 6 @ ,.C.",
"r 5 y y y y y e 3 3 3 3 3 3 2 D *X& . . $ S A 2 3 3 3 3 3 3 3 3 3 3 3 &XF . % . I +X3 3 3 3 3 3 3 3 3 3 3 @ @.1X$ . . + <.v 2 3 3 3 3 3 3 3 3 3 3 r p.a   . % Y Y 3 3 3 3 3 3 3 3 3 3 3 @ ,.<.. %   0 1Xg 2 3 3 3 3 3 3 3 3 3 2 %X%X. . . * +X0 2 3 3 3 3 3 3 3 3 3 @ <.,X$ . . + ,XG @ 3 3 3 3 3 3 3 3 3 2 F &X$ . . + +XA 2 3 3 3 3 3 3 3 3 3 2 A +Xo . . $ +XA 2 3 3 3 3 3 3 x 3 3 3 3 3 3 3 3 f 3 3 3 3 3 3 w d 3 3 3 3 k w s d 3 3 3 3 3 3 d 3 3 3 3 3 3 3 f 3 3 3 3 3 3 3 d 3 3 3 3 3 o t.HX+ 3 3 3 3 + ^ e 3 2.G 8 @ ,.C.",
"P P L L L L L D 2 3 3 3 3 3 3 2 F 0 2 3 6 A 3 3 3 3 3 3 3 3 3 3 3 3 2 0 F 2 3 2 A 7 2 3 3 3 3 3 3 3 3 3 3 3 3 @.8 3 3 g G @ 3 3 3 3 3 3 3 3 3 3 3 3 a a 3 3 3 a 3 3 3 3 3 3 3 3 3 3 3 3 2 d @.3 3 2 v v @ 3 3 3 3 3 3 3 3 3 3 3 6 F 3 3 2 0 B 2 3 3 3 3 3 3 3 3 3 3 3 3 @.6 3 3 N v @ 3 3 3 3 3 3 3 3 3 3 3 3 F 7 3 3 7 A 2 3 3 3 3 3 3 3 3 3 3 3 2 A 7 3 3 6 A 2 3 3 3 3 3 3 3 x 3 3 3 3 3 3 3 3 f 3 3 3 3 3 3 w d 3 3 3 k d @ d d 3 3 3 3 3 3 d 3 3 3 3 3 3 3 f 3 3 3 3 3 3 3 d 3 3 3 3 o 8.KX3 # 3 3 3 3 + ^ e 3 2.G 8 @ ,.C.",
"0X0X0X0X0X-XqX<XX 3 3 3 3 3 3 3 2 2 3 3 3 2 3 3 3 3 3 3 3 3 3 3 3 3 3 2 2 3 3 3 2 3 3 3 3 3 3 3 3 3 3 3 3 3 3 @ 3 3 3 3 2 3 3 3 3 3 3 3 3 3 3 3 3 3 3 3 3 3 3 3 3 3 3 3 3 3 3 3 3 3 3 3 3 3 @ 3 3 3 @ @ 3 3 3 3 3 3 3 3 3 3 3 3 3 2 3 3 3 2 2 3 3 3 3 3 3 3 3 3 3 3 3 3 @ 3 3 3 3 2 3 3 3 3 3 3 3 3 3 3 3 3 3 2 3 3 3 3 2 3 3 3 3 3 3 3 3 3 3 3 3 3 2 3 3 3 3 2 3 3 3 3 3 3 3 3 x 3 3 3 3 3 3 3 3 f 3 3 3 3 3 3 w d 3 3 j f 3 3 d d 3 3 3 3 3 3 d 3 3 3 3 3 3 3 f 3 3 3 3 3 3 3 d 3 3 3 o 3.KXz 6 3 3 3 3 3 + ^ e 3 2.G 8 @ ,.C.",
"&X&X%X#X#X#X&X$XX 3 3 3 3 # 3 # 3 3 3 # # 3 3 3 3 # 3 3 3 3 3 3 3 # 3 3 # # # 3 3 3 3 # 3 3 3 3 3 3 3 3 3 # 3 3 3 # 3 3 3 3 3 3 3 3 3 3 3 3 3 3 # 3 # # # 3 3 3 3 3 3 3 3 3 3 3 3 3 3 3 @ 3 3 3 3 # 3 3 3 3 # 3 3 3 3 3 3 3 3 # 3 3 # # # 3 3 3 3 # 3 3 3 3 3 3 3 3 # 3 3 # 3 # 3 3 3 3 # 3 3 3 3 3 3 3 3 # 3 3 # # # 3 3 3 3 # 3 3 3 3 3 3 3 3 # 3 3 # 3 3 3 3 3 3 3 3 3 3 3 3 x 3 3 3 3 3 3 3 3 f 3 3 3 3 3 3 w d # f j 3 3 3 d d 3 3 3 3 3 3 d 3 3 3 3 3 3 3 f 3 3 3 3 3 3 3 d 3 3 + ^ KXp 6 e 3 3 3 3 3 + ^ e 3 2.G 8 @ ,.C.",
"-X&X&X%X$X%X&X$XX 3 3 3 @ ] j m d w ] ' ' 3 3 m m ] d 3 3 3 3 3 3 ] f d ] k ' 3 3 ' m ' w 3 3 3 3 3 3 # j k w ] 3 m 3 3 d w 3 d 3 3 3 3 3 3 3 w m j ' x m 3 w d 3 3 s 3 3 3 3 3 3 3 # 3 ' # b m 3 m @ d ' ' m 3 3 3 3 3 3 3 3 m 3 f ' x ' # w ' m ' 3 3 3 3 3 3 3 O k j s ' x [ s 3 ' m ' 3 3 3 3 3 3 3 # m d s ] k ] 3 3 m m ] s 3 3 3 3 3 3 3 ' k 3 [ d 3 d s 3 s 3 3 3 3 3 3 x 3 3 3 3 3 3 3 3 f 3 3 3 3 3 3 s w d k 3 3 3 3 d d 3 3 3 3 3 3 d 3 3 3 3 3 3 3 f 3 3 3 3 3 3 3 d 3 + y KX2.o f s 3 3 3 3 3 + ^ e 3 2.G 8 @ ,.C.",
"$X$X%X#X%X#X&X$XX 3 3 3 d ] m ' k $ m 5.m k m 5.{ n.k # 3 3 3 # j ] b x ' n.m k ' 5.{ n.f # 3 3 3 3 3 3 s.m f 5.{ n.s ] n.[ ' ] 3 3 3 3 3 3 3 3 [ ' ] n.m j { n.] [ m # 3 3 3 3 3 3 d d { # x ] ] 5.3 { { 5.5.3 3 3 3 3 3 3 m n.d b ] n.m j ] 5.5.n.d 3 3 3 3 3 s d n.b O 5.j ] s ] 5.{ n.d # 3 3 3 3 3 k M.j k ' n.m k m 5.{ n.j # 3 3 3 3 3 d ] m k ] x x n.{ m { 3 3 3 3 3 3 x 3 3 3 3 3 3 3 3 f 3 3 3 3 3 3 3 j k 3 3 3 3 # d s # 3 3 3 3 3 d 3 3 3 3 3 3 3 f 3 3 3 3 3 3 3 d + w KX4.o 3 d w 3 3 3 3 3 + ^ e # 2.G 8 @ ,.C.",
"&X&X-X-X-X&X0X<XX 3 3 3 j j ] k x d m k 5.f ' { { n.k # 3 3 3 3 d { ' m { { [ f ] { { n.j # 3 3 3 3 3 s s.n.d 5.{ M.j m m m m { 3 3 3 3 3 3 3 3 m m { { ] d ' m m m [ 3 3 3 3 3 3 3 f w m j d { n.n.d { [ { 5.s 3 3 3 3 3 d b { ] m { { ] d [ [ { s.d 3 3 3 3 3 d k n.{ f [ ' x 3 [ [ { n.f # 3 3 3 3 w k { [ m { { { f ' { { n.j # 3 3 3 3 3 3 [ ] b { k k ' m b { j # 3 3 3 3 x w d d d d d d d k d d d d d d f m d d d d d d j j d d d d d d j d d d d d d d k d d d d d d d j 6 HXu.& d d j f d d d d d 6 7.z d 3.@.j w ,XS.",
"#X#X#X#X#XP #XF 2 3 3 3 # j s 3 s d 3 3 j 3 s f d j 3 3 3 3 3 3 3 f d s f w f # d f d j 3 3 3 3 3 3 3 3 3 d d d @ 3 3 w w w d d 3 3 3 3 3 3 3 3 w 3 d w d 3 s w 3 d d 3 3 3 3 3 3 3 3 3 w s f d @ w 3 f d d d 3 3 3 3 3 3 3 # f d d d w f # d d d f 3 3 3 3 3 3 3 # 3 d d f w 3 3 d f d j 3 3 3 3 3 3 3 @ d d w f 3 f # d f d j 3 3 3 3 3 3 3 3 d d w f 3 3 w w s f 3 3 3 3 3 3 x 3 3 3 3 3 3 3 3 j 3 3 3 3 3 3 m d 3 3 3 3 3 3 d d 3 3 3 3 3 3 d 3 3 3 3 3 3 3 j 3 3 3 3 3 3 w 6 iXt.o 3 3 3 d d 3 3 3 3 3 # 2.y 3 2.G d 2 ,.C.",
"X X X X X X X @ 3 3 3 3 3 # 3 3 3 3 3 3 # 3 3 # 3 # 3 3 3 3 3 3 3 # 3 3 # 3 # 3 # # # # 3 3 3 3 3 3 3 3 3 3 3 # 3 3 3 3 3 3 3 # 3 3 3 3 3 3 3 3 3 3 # 3 # 3 3 3 3 # 3 3 3 3 3 3 3 3 3 3 3 3 # # 3 3 3 # # # # 3 3 3 3 3 3 3 3 # 3 3 # 3 # 3 # # # # 3 3 3 3 3 3 3 3 3 3 # # 3 3 3 # # # # 3 3 3 3 3 3 3 3 # # 3 # 3 # 3 3 # 3 # 3 3 3 3 3 3 3 3 # # 3 # 3 3 3 3 3 # 3 3 3 3 3 3 x 3 3 3 3 3 3 3 3 f 3 3 3 3 3 k f w 3 3 3 3 3 3 d s 3 3 3 3 3 3 d 3 3 3 3 3 3 3 f 3 3 3 3 3 3 o u.HX+ 3 3 3 3 d w 3 3 3 3 3 + ^ e 3 2.G 8 @ ,.C.",
"6 6 6 6 6 6 6 3 3 3 3 3 3 3 3 3 3 3 3 3 3 3 3 3 3 3 3 3 3 3 3 3 3 3 3 3 3 3 3 3 3 3 3 3 3 3 3 3 3 3 3 3 3 3 3 3 3 3 3 3 3 3 3 3 3 3 3 3 3 3 3 3 3 3 3 3 3 3 3 3 3 3 3 3 3 3 3 3 3 3 3 3 3 3 3 3 3 3 3 3 3 3 3 3 3 3 3 3 3 3 3 3 3 3 3 3 3 3 3 3 3 3 3 3 3 3 3 3 3 3 3 3 3 3 3 3 3 3 3 3 3 3 3 3 3 3 3 3 3 3 3 3 3 3 3 3 3 3 3 3 3 3 3 3 3 3 3 3 3 3 3 3 3 3 3 3 3 3 3 3 3 3 3 3 x 3 3 3 3 3 3 3 3 f 3 3 3 3 k d 3 d 3 3 3 3 3 3 d d 3 3 3 3 3 3 d 3 3 3 3 3 3 3 f 3 3 3 3 3 o 8.HX3 3 3 3 3 3 d s 3 3 3 3 3 + ^ e 3 2.G 8 @ ,.C.",
"d d d d d d d d d d d d d d d d d d d d d d d d d d d d d d d d d d d d d d d d d d d d d d d d d d d d d d d d d d d d d d d d d d d d d d d d d d d d d d d d d d d d d d d d d d d d d d d d d d d d d d d d d d d d d d d d d d d d d d d d d d d d d d d d d d d d d d d d d d d d d d d d d d d d d d d d d d d d d d d d d d d d d d d d d d d d d d d d d d d d d d d 3 x 3 3 3 3 3 3 3 3 f 3 3 3 j f # w d 3 3 3 3 3 3 d d 3 3 3 3 3 3 d 3 3 3 3 3 3 3 f 3 3 3 3 o 3.KXj + 3 3 3 3 3 d s 3 3 3 3 3 + ^ e 3 2.G 8 @ ,.C.",
"3 3 3 3 3 3 3 3 3 3 3 3 3 3 3 3 3 3 3 3 3 3 3 3 3 3 3 3 3 3 3 3 3 3 3 3 3 3 3 3 3 3 3 3 3 3 3 3 3 3 3 3 3 3 3 3 3 3 3 3 3 3 3 3 3 3 3 3 3 3 3 3 3 3 3 3 3 3 3 3 3 3 3 3 3 3 3 3 3 3 3 3 3 3 3 3 3 3 3 3 3 3 3 3 3 3 3 3 3 3 3 3 3 3 3 3 3 3 3 3 3 3 3 3 3 3 3 3 3 3 3 3 3 3 3 3 3 3 3 3 3 3 3 3 3 3 3 3 3 3 3 3 3 3 3 3 3 3 3 3 3 3 3 3 3 3 3 3 3 3 3 3 3 3 3 3 3 3 3 3 3 3 3 3 x 3 3 3 3 3 3 3 3 f 3 # f j 3 3 w d 3 3 3 3 3 3 d d 3 3 3 3 3 3 d 3 3 3 3 3 3 3 f 3 3 3 o ^ KXp 6 3 3 3 3 3 3 d s 3 3 3 3 3 + ^ e 3 2.G 8 @ ,.C.",
"3 3 3 3 3 3 3 3 3 3 3 3 3 3 3 3 3 3 3 3 3 3 3 3 3 3 3 3 3 3 3 3 3 3 3 3 3 3 3 3 3 3 3 3 3 3 3 3 3 3 3 3 3 3 3 3 3 3 3 3 3 3 3 3 3 3 3 3 3 3 3 3 3 3 3 3 3 3 3 3 3 3 3 3 3 3 3 3 3 3 3 3 3 3 3 3 3 3 3 3 3 3 3 3 3 3 3 3 3 3 3 3 3 3 3 3 3 3 3 3 3 3 3 3 3 3 3 3 3 3 3 3 3 3 3 3 3 3 3 3 3 3 3 3 3 3 3 3 3 3 3 3 3 3 3 3 3 3 3 3 3 3 3 3 3 3 3 3 3 3 3 3 3 3 3 3 3 3 3 3 3 3 3 3 x 3 3 3 3 3 3 3 3 f 3 d k 3 3 3 w d 3 3 3 3 3 3 d d 3 3 3 3 3 3 d 3 3 3 3 3 3 3 f 3 3 + y KX2.+ d 3 3 3 3 3 3 d s 3 3 3 3 3 + ^ e 3 2.G 8 @ ,.C.",
"3 3 3 3 3 3 3 3 3 3 3 3 3 3 3 3 3 3 3 3 3 3 3 3 3 3 3 3 3 3 3 3 3 3 3 3 3 3 3 3 3 3 3 3 3 3 3 3 3 3 3 3 3 3 3 3 3 3 3 3 3 3 3 3 3 3 3 3 3 3 3 3 3 3 3 3 3 3 3 3 3 3 3 3 3 3 3 3 3 3 3 3 3 3 3 3 3 3 3 3 3 3 3 3 3 3 3 3 3 3 3 3 3 3 3 3 3 3 3 3 3 3 3 3 3 3 3 3 3 3 3 3 3 3 3 3 3 3 3 3 3 3 3 3 3 3 3 3 3 3 3 3 3 3 3 3 3 3 3 3 3 3 3 3 3 3 3 3 3 3 3 3 3 3 3 3 3 3 3 3 3 3 3 3 x 3 3 3 3 3 3 3 3 d d k 3 3 3 3 w d 3 3 3 3 3 3 d d 3 3 3 3 3 3 d 3 3 3 3 3 3 3 f 3 # w KX4.o w d 3 3 3 3 3 3 d s 3 3 3 3 3 + ^ e 3 2.G 8 @ ,.C.",
"3 3 3 3 3 3 3 3 3 3 3 3 3 3 3 3 3 3 3 3 3 3 3 3 3 3 3 3 3 3 3 3 3 3 3 3 3 3 3 3 3 3 3 3 3 3 3 3 3 3 3 3 3 3 3 3 3 3 3 3 3 3 3 3 3 3 3 3 3 3 3 3 3 3 3 3 3 3 3 3 3 3 3 3 3 3 3 3 3 3 3 3 3 3 3 3 3 3 3 3 3 3 3 3 3 3 3 3 3 3 3 3 3 3 3 3 3 3 3 3 3 3 3 3 3 3 3 3 3 3 3 3 3 3 3 3 3 3 3 3 3 3 3 3 3 3 3 3 3 3 3 3 3 3 3 3 3 3 3 3 3 3 3 3 3 3 3 3 3 3 3 3 3 3 3 3 3 3 3 3 3 3 3 3 x 3 3 3 3 3 3 3 # j k 3 3 3 3 # 3 w # 3 3 3 3 # d s # 3 3 3 3 3 d 3 3 3 3 3 3 3 f # + HXr.o 3 3 d # 3 3 3 3 # d 3 # 3 3 3 3 + ^ e # 2.G 6 @ ,.C.",
"3 3 3 3 3 3 3 3 3 3 3 3 3 3 3 3 3 3 3 3 3 3 3 3 3 3 3 3 3 3 3 3 3 3 3 3 3 3 3 3 3 3 3 3 3 3 3 3 3 3 3 3 3 3 3 3 3 3 3 3 3 3 3 3 3 3 3 3 3 3 3 3 3 3 3 3 3 3 3 3 3 3 3 3 3 3 3 3 3 3 3 3 3 3 3 3 3 3 3 3 3 3 3 3 3 3 3 3 3 3 3 3 3 3 3 3 3 3 3 3 3 3 3 3 3 3 3 3 3 3 3 3 3 3 3 3 3 3 3 3 3 3 3 3 3 3 3 3 3 3 3 3 3 3 3 3 3 3 3 3 3 3 3 3 3 3 3 3 3 3 3 3 3 3 3 3 3 3 3 3 3 3 3 3 x w d d d d d d d m j d f d d d j j d d d d d d k j d d d d d d k d d d d d d f k 6 iXpX7 f d f k d d d d d d k j d d d d f s 7.z d 3.@.k e ,XS.",
"3 3 3 3 3 3 3 3 3 3 3 3 3 3 3 3 3 3 3 3 3 3 3 3 3 3 3 3 3 3 3 3 3 3 3 3 3 3 3 3 3 3 3 3 3 3 3 3 3 3 3 3 3 3 3 3 3 3 3 3 3 3 3 3 3 3 3 3 3 3 3 3 3 3 3 3 3 3 3 3 3 3 3 3 3 3 3 3 3 3 3 3 3 3 3 3 3 3 3 3 3 3 3 3 3 3 3 3 3 3 3 3 3 3 3 3 3 3 3 3 3 3 3 3 3 3 3 3 3 3 3 3 3 3 3 3 3 3 3 3 3 3 3 3 3 3 3 3 3 3 3 3 3 3 3 3 3 3 3 3 3 3 3 3 3 3 3 3 3 3 3 3 3 3 3 3 3 3 3 3 3 3 3 3 x 3 3 3 3 3 3 3 b k 3 3 3 3 3 3 d d 3 3 3 3 3 3 d d 3 3 3 3 3 3 f 3 3 3 3 3 3 w 7 u.HX+ 3 w 3 w f 3 3 3 3 3 3 f d 3 3 3 3 w 3 2.y 3 2.G d 3 ,.C.",
"3 3 3 3 3 3 3 3 3 3 3 3 3 3 3 3 3 3 3 3 3 3 3 3 3 3 3 3 3 3 3 3 3 3 3 3 3 3 3 3 3 3 3 3 3 3 3 3 3 3 3 3 3 3 3 3 3 3 3 3 3 3 3 3 3 3 3 3 3 3 3 3 3 3 3 3 3 3 3 3 3 3 3 3 3 3 3 3 3 3 3 3 3 3 3 3 3 3 3 3 3 3 3 3 3 3 3 3 3 3 3 3 3 3 3 3 3 3 3 3 3 3 3 3 3 3 3 3 3 3 3 3 3 3 3 3 3 3 3 3 3 3 3 3 3 3 3 3 3 3 3 3 3 3 3 3 3 3 3 3 3 3 3 3 3 3 3 3 3 3 3 3 3 3 3 3 3 3 3 3 3 3 3 3 x 3 3 3 3 3 3 k d d 3 3 3 3 3 3 w s 3 3 3 3 3 # d s # 3 3 3 3 3 d 3 3 3 3 3 3 o 0.HX3 # 3 3 3 3 d 3 3 3 3 3 # d w 3 3 3 3 3 + ^ e # 2.G 8 @ ,.C.",
"3 3 3 3 3 3 3 3 3 3 3 3 3 3 3 3 3 3 3 3 3 3 3 3 3 3 3 3 3 3 3 3 3 3 3 3 3 3 3 3 3 3 3 3 3 3 3 3 3 3 3 3 3 3 3 3 3 3 3 3 3 3 3 3 3 3 3 3 3 3 3 3 3 3 3 3 3 3 3 3 3 3 3 3 3 3 3 3 3 3 3 3 3 3 3 3 3 3 3 3 3 3 3 3 3 3 3 3 3 3 3 3 3 3 3 3 3 3 3 3 3 3 3 3 3 3 3 3 3 3 3 3 3 3 3 3 3 3 3 3 3 3 3 3 3 3 3 3 3 3 3 3 3 3 3 3 3 3 3 3 3 3 3 3 3 3 3 3 3 3 3 3 3 3 3 3 3 3 3 3 3 3 3 3 x 3 3 3 3 3 k f # f 3 3 3 3 3 3 w d 3 3 3 3 3 3 d d 3 3 3 3 3 3 d 3 3 3 3 3 o 3.KXe + 3 3 3 3 3 d 3 3 3 3 3 3 d s 3 3 3 3 3 + ^ e 3 2.G 8 @ ,.C.",
"3 3 3 3 3 3 3 3 3 3 3 3 3 3 3 3 3 3 3 3 3 3 3 3 3 3 3 3 3 3 3 3 3 3 3 3 3 3 3 3 3 3 3 3 3 3 3 3 3 3 3 3 3 3 3 3 3 3 3 3 3 3 3 3 3 3 3 3 3 3 3 3 3 3 3 3 3 3 3 3 3 3 3 3 3 3 3 3 3 3 3 3 3 3 3 3 3 3 3 3 3 3 3 3 3 3 3 3 3 3 3 3 3 3 3 3 3 3 3 3 3 3 3 3 3 3 3 3 3 3 3 3 3 3 3 3 3 3 3 3 3 3 3 3 3 3 3 3 3 3 3 3 3 3 3 3 3 3 3 3 3 3 3 3 3 3 3 3 3 3 3 3 3 3 3 3 3 3 3 3 3 3 3 3 x 3 3 3 # f j 3 3 f 3 3 3 3 3 3 w d 3 3 3 3 3 3 d d 3 3 3 3 3 3 d 3 3 3 3 o ^ KX` + 3 3 3 3 3 3 d 3 3 3 3 3 3 d s 3 3 3 3 3 + ^ e 3 2.G 8 @ ,.C.",
"3 3 3 3 3 3 3 3 3 3 3 3 3 3 3 3 3 3 3 3 3 3 3 3 3 3 3 3 3 3 3 3 3 3 3 3 3 3 3 3 3 3 3 3 3 3 3 3 3 3 3 3 3 3 3 3 3 3 3 3 3 3 3 3 3 3 3 3 3 3 3 3 3 3 3 3 3 3 3 3 3 3 3 3 3 3 3 3 3 3 3 3 3 3 3 3 3 3 3 3 3 3 3 3 3 3 3 3 3 3 3 3 3 3 3 3 3 3 3 3 3 3 3 3 3 3 3 3 3 3 3 3 3 3 3 3 3 3 3 3 3 3 3 3 3 3 3 3 3 3 3 3 3 3 3 3 3 3 3 3 3 3 3 3 3 3 3 3 3 3 3 3 3 3 3 3 3 3 3 3 3 3 3 3 x 3 3 3 d k 3 3 3 f 3 3 3 3 3 3 w d 3 3 3 3 3 3 d d 3 3 3 3 3 3 d 3 3 3 + y KX2.6 3 3 3 3 3 3 3 d 3 3 3 3 3 3 d s 3 3 3 3 3 + ^ e 3 2.G 8 @ ,.C.",
"3 3 3 3 3 3 3 3 3 3 3 3 3 3 3 3 3 3 3 3 3 3 3 3 3 3 3 3 3 3 3 3 3 3 3 3 3 3 3 3 3 3 3 3 3 3 3 3 3 3 3 3 3 3 3 3 3 3 3 3 3 3 3 3 3 3 3 3 3 3 3 3 3 3 3 3 3 3 3 3 3 3 3 3 3 3 3 3 3 3 3 3 3 3 3 3 3 3 3 3 3 3 3 3 3 3 3 3 3 3 3 3 3 3 3 3 3 3 3 3 3 3 3 3 3 3 3 3 3 3 3 3 3 3 3 3 3 3 3 3 3 3 3 3 3 3 3 3 3 3 3 3 3 3 3 3 3 3 3 3 3 3 3 3 3 3 3 3 3 3 3 3 3 3 3 3 3 3 3 3 3 3 3 3 x 3 # d k 3 3 3 3 f 3 3 3 3 3 3 w d 3 3 3 3 3 3 d d 3 3 3 3 3 3 d 3 3 # w KX4.o j 3 3 3 3 3 3 3 d 3 3 3 3 3 3 d s 3 3 3 3 3 + ^ e 3 2.G 8 @ ,.C.",
"3 3 3 3 3 3 3 3 3 3 3 3 3 3 3 3 3 3 3 3 3 3 3 3 3 3 3 3 3 3 3 3 3 3 3 3 3 3 3 3 3 3 3 3 3 3 3 3 3 3 3 3 3 3 3 3 3 3 3 3 3 3 3 3 3 3 3 3 3 3 3 3 3 3 3 3 3 3 3 3 3 3 3 3 3 3 3 3 3 3 3 3 3 3 3 3 3 3 3 3 3 3 3 3 3 3 3 3 3 3 3 3 3 3 3 3 3 3 3 3 3 3 3 3 3 3 3 3 3 3 3 3 3 3 3 3 3 3 3 3 3 3 3 3 3 3 3 3 3 3 3 3 3 3 3 3 3 3 3 3 3 3 3 3 3 3 3 3 3 3 3 3 3 3 3 3 3 3 3 3 3 3 3 3 x 3 3 k 3 3 3 3 3 f 3 3 3 3 3 3 w d 3 3 3 3 3 3 d d 3 3 3 3 3 3 d 3 # + HXr.o 3 f 3 3 3 3 3 3 3 d 3 3 3 3 3 3 d w 3 3 3 3 3 + ^ e 3 2.G 8 @ ,.C.",
"3 3 3 3 3 3 3 3 3 3 3 3 3 3 3 3 3 3 3 3 3 3 3 3 3 3 3 3 3 3 3 3 3 3 3 3 3 3 3 3 3 3 3 3 3 3 3 3 3 3 3 3 3 3 3 3 3 3 3 3 3 3 3 3 3 3 3 3 3 3 3 3 3 3 3 3 3 3 3 3 3 3 3 3 3 3 3 3 3 3 3 3 3 3 3 3 3 3 3 3 3 3 3 3 3 3 3 3 3 3 3 3 3 3 3 3 3 3 3 3 3 3 3 3 3 3 3 3 3 3 3 3 3 3 3 3 3 3 3 3 3 3 3 3 3 3 3 3 3 3 3 3 3 3 3 3 3 3 3 3 3 3 3 3 3 3 3 3 3 3 3 3 3 3 3 3 3 3 3 3 3 3 3 3 x w k w 3 3 3 3 3 j 3 3 3 3 3 3 w d 3 3 3 3 3 3 d d 3 3 3 3 3 3 d 3 3 iXt.o 3 3 f 3 3 3 3 3 3 3 d 3 3 3 3 3 3 d s 3 3 3 3 3 + 2.y 3 2.G 8 @ ,XS.",
"3 3 3 3 3 3 3 3 3 3 3 3 3 3 3 3 3 3 3 3 3 3 3 3 3 3 3 3 3 3 3 3 3 3 3 3 3 3 3 3 3 3 3 3 3 3 3 3 3 3 3 3 3 3 3 3 3 3 3 3 3 3 3 3 3 3 3 3 3 3 3 3 3 3 3 3 3 3 3 3 3 3 3 3 3 3 3 3 3 3 3 3 3 3 3 3 3 3 3 3 3 3 3 3 3 3 3 3 3 3 3 3 3 3 3 3 3 3 3 3 3 3 3 3 3 3 3 3 3 3 3 3 3 3 3 3 3 3 3 3 3 3 3 3 3 3 3 3 3 3 3 3 3 3 3 3 3 3 3 3 3 3 3 3 3 3 3 3 3 3 3 3 3 3 3 3 3 3 3 3 3 3 3 3 j m s # 3 3 3 3 3 3 3 3 3 3 3 3 3 3 3 3 3 3 3 3 3 3 3 3 3 3 3 3 w + 2.t.+ 3 3 3 3 3 3 3 3 3 3 3 3 3 3 3 3 3 3 3 3 3 3 3 3 3 # y 3 3 y g 3 3 G x ",
"3 3 3 3 3 3 3 3 3 3 3 3 3 3 3 3 3 3 3 3 3 3 3 3 3 3 3 3 3 3 3 3 3 3 3 3 3 3 3 3 3 3 3 3 3 3 3 3 3 3 3 3 3 3 3 3 3 3 3 3 3 3 3 3 3 3 3 3 3 3 3 3 3 3 3 3 3 3 3 3 3 3 3 3 3 3 3 3 3 3 3 3 3 3 3 3 3 3 3 3 3 3 3 3 3 3 3 3 3 3 3 3 3 3 3 3 3 3 3 3 3 3 3 3 3 3 3 3 3 3 3 3 3 3 3 3 3 3 3 3 3 3 3 3 3 3 3 3 3 3 3 3 3 3 3 3 3 3 3 3 3 3 3 3 3 3 3 3 3 3 3 3 3 3 3 3 3 3 3 3 3 3 3 3 3 j x x x x x x x k x x x x x x x x x x x x x x x x x x x x x x k x k N x x x x k x x x x x x x x x x x x x x k x x x x x x x k k x k k x x k k ",
"3 3 3 3 3 3 3 3 3 3 3 3 3 3 3 3 3 3 3 3 3 3 3 3 3 3 3 3 3 3 3 3 3 3 3 3 3 3 3 3 3 3 3 3 3 3 3 3 3 3 3 3 3 3 3 3 3 3 3 3 3 3 3 3 3 3 3 3 3 3 3 3 3 3 3 3 3 3 3 3 3 3 3 3 3 3 3 3 3 3 3 3 3 3 3 3 3 3 3 3 3 3 3 3 3 3 3 3 3 3 3 3 3 3 3 3 3 3 3 3 3 3 3 3 3 3 3 3 3 3 3 3 3 3 3 3 3 3 3 3 3 3 3 3 3 3 3 3 3 3 3 3 3 3 3 3 3 3 3 3 3 3 3 3 3 3 3 3 3 3 3 3 3 3 3 3 3 3 3 3 3 3 3 3 3 3 3 s w w w w w s w w w w w w w s w w w w w w s s w w w w w w s w w w w w w w s w w w w w w w s w w w w w w s w w w w w w w w w w w s s w s s ",
"k k k k k k k k k k k k k k k k k k k k k k k k k k k k k k k k k k k k k k k k k k k k k k k k k k k k k k k k k k k k k k k k k k k k k k k k k k k k k k k k k k k k k k k k k k k k k k k k k k k k k k k k k k k k k k k k k k k k k k k k k k k k k k k k k k k k k k k k k k k k k k k k k k k k k k k k k k k k k k k k k k k k k k k k k k k k k k k k k k k k k k k k k k k k k k k k k k k k k k k k k k k k k k k k k k k k k k k k k k k k k k k k k k k k k k k k k k k k k k k k k k k k k k k k k k k k k k k k ",
"s s s s s s s s s s s s s s s s s s s s s s s s s s s s s s s s s s s s s s s s s s s s s s s s s s s s s s s s s s s s s s s s s s s s s s s s s s s s s s s s s s s s s s s s s s s s s s s s s s s s s s s s s s s s s s s s s s s s s s s s s s s s s s s s s s s s s s s s s s s s s s s s s s s s s s s s s s s s s s s s s s s s s s s s s s s s s s s s s s s s s s s s s s s s s s s s s s s s s s s s s s s s s s s s s s s s s s s s s s s s s s s s s s s s s s s s s s s s s s s s s s s s s s s s s s s s s s s s ",
"k k k k k k k k k k k k k k k k k k k k k k k k k k k k k k k k k k k k k k k k k k k k k k k k k k k k k k k k k k k k k k k k k k k k k k k k k k k k k k k k k k k k k k k k k k k k k k k k k k k k k k k k k k k k k k k k k k k k k k k k k k k k k k k k k k k k k k k k k k k k k k k k k k k k k k k k k k k k k k k k k k k k k k k k k k k k k k k k k k k k k k k k k k k k k k k k k k k k k k k k k k k k k k k k k k k k k k k k k k k k k k k k k k k k k k k k k k k k k k k k k k k k k k k k k k k k k k k k ",
"# # O O O @ 3 # # 3 # # # # # # # # # # @ # @ # # # # 3 # # # # # # # # # # # # # # # # # # # # # # # # # # # # # # # # # # # # # # # # # # # # # # # # # # # # # # # # # # # # # # # # # # # # # # # # # # # # # # # # # # # # # # # # # # # # # # # # # # # # # # # # # # # # # # # # # # # # # # # # # # # # # # # # # # # # # # # # # # # # # # # # # # # # # # # # # # # # # # # # # # # # # # # # # # # # # # # # # # # # # # # # # # # # # # # # # # # # # # # # # # # # # # # # # # # # # # # # # # # 3 3 # # 3 # # # # ",
"3 3 k k k d 3 3 3 3 3 3 3 3 3 3 3 3 3 w d d d w 3 3 3 3 3 3 3 3 3 3 3 3 3 3 3 3 3 3 3 3 3 3 3 3 3 3 3 3 3 3 3 3 3 3 3 3 3 3 3 3 3 3 3 3 3 3 3 3 3 3 3 3 3 3 3 3 3 3 3 3 3 3 3 3 3 3 3 3 3 3 3 3 3 3 3 3 3 3 3 3 3 3 3 3 3 3 3 3 3 3 3 3 3 3 3 3 3 3 3 3 3 3 3 3 3 3 3 3 3 3 3 3 3 3 3 3 3 3 3 3 3 3 3 3 3 3 3 3 3 3 3 3 3 3 3 3 3 3 3 3 3 3 3 3 3 3 3 3 3 3 3 3 3 3 3 3 3 3 3 3 3 3 3 3 3 3 3 3 3 3 3 3 3 3 3 3 3 3 3 3 3 3 3 3 3 3 3 3 3 3 3 3 3 3 3 3 3 3 3 3 3 3 3 3 3 3 3 3 3 3 3 3 3 3 3 3 3 3 3 3 3 3 3 3 3 3 3 3 3 3 3 3 ",
"# j n.' n.b # 3 + y 3 3 3 + + 3 3 3 3 d { 5.n.k # 3 # y 3 3 3 + + 3 3 3 3 3 3 3 3 3 3 3 3 3 3 3 3 3 3 3 3 3 3 3 3 3 3 3 3 3 3 3 3 3 3 3 3 3 3 3 3 3 3 3 3 3 3 3 3 3 3 3 3 3 3 3 3 3 3 3 3 3 3 3 3 3 3 3 3 3 3 3 3 3 3 3 3 3 3 3 3 3 3 3 3 3 3 3 3 3 3 3 3 3 3 3 3 3 3 3 3 3 3 3 3 3 3 3 3 3 3 3 3 3 3 3 3 3 3 3 3 3 3 3 3 3 3 3 3 3 3 3 3 3 3 3 3 3 3 3 3 3 3 3 3 3 3 3 3 3 3 3 3 3 3 3 3 3 3 3 3 3 3 3 3 3 3 3 3 3 3 3 3 3 3 3 3 3 3 3 3 3 3 3 3 3 3 3 3 3 3 3 3 3 3 3 3 3 3 3 3 3 3 3 3 3 3 3 3 3 3 3 3 w f j d k k j j d 3 3 ",
"# j ] { [ x 3 3 y y.2.# e 3.2.e 3 3 3 d f [ { d 3 3 p y.^ + y 3.2.3 3 3 3 3 3 3 3 3 3 3 3 3 3 3 3 3 3 3 3 3 3 3 3 3 3 3 3 3 3 3 3 3 3 3 3 3 3 3 3 3 3 3 3 3 3 3 3 3 3 3 3 3 3 3 3 3 3 3 3 3 3 3 3 3 3 3 3 3 3 3 3 3 3 3 3 3 3 3 3 3 3 3 3 3 3 3 3 3 3 3 3 3 3 3 3 3 3 3 3 3 3 3 3 3 3 3 3 3 3 3 3 3 3 3 3 3 3 3 3 3 3 3 3 3 3 3 3 3 3 3 3 3 3 3 3 3 3 3 3 3 3 3 3 3 3 3 3 3 3 3 3 3 3 3 3 3 3 3 3 3 3 3 3 3 3 3 3 3 3 3 3 3 3 3 3 3 3 3 3 3 3 3 3 3 3 3 3 3 3 3 3 3 3 3 3 3 3 3 3 3 3 3 3 3 3 3 3 3 3 3 3 s x ' ' k O { k w 4 : ",
"# j 5.[ 3 j 3 3 3 3.u # w y y 3 3 3 3 f 3 ] [ s 3 3 e 3.y # w y y 3 3 3 3 3 3 3 3 3 3 3 3 3 3 3 3 3 3 3 3 3 3 3 3 3 3 3 3 3 3 3 3 3 3 3 3 3 3 3 3 3 3 3 3 3 3 3 3 3 3 3 3 3 3 3 3 3 3 3 3 3 3 3 3 3 3 3 3 3 3 3 3 3 3 3 3 3 3 3 3 3 3 3 3 3 3 3 3 3 3 3 3 3 3 3 3 3 3 3 3 3 3 3 3 3 3 3 3 3 3 3 3 3 3 3 3 3 3 3 3 3 3 3 3 3 3 3 3 3 3 3 3 3 3 3 3 3 3 3 3 3 3 3 3 3 3 3 3 3 3 3 3 3 3 3 3 3 3 3 3 3 3 3 3 3 3 3 3 3 3 3 3 3 3 3 3 3 3 3 3 3 3 3 3 3 3 3 3 3 3 3 3 3 3 3 3 3 3 3 3 3 3 3 3 3 3 3 3 3 3 3 3 3 ' j x b f k k f 3 w ",
"3 s x k j d 3 3 3 3 3 3 3 # # 3 3 3 3 s j k k s 3 3 3 3 3 3 3 # # 3 3 3 3 3 3 3 3 3 3 3 3 3 3 3 3 3 3 3 3 3 3 3 3 3 3 3 3 3 3 3 3 3 3 3 3 3 3 3 3 3 3 3 3 3 3 3 3 3 3 3 3 3 3 3 3 3 3 3 3 3 3 3 3 3 3 3 3 3 3 3 3 3 3 3 3 3 3 3 3 3 3 3 3 3 3 3 3 3 3 3 3 3 3 3 3 3 3 3 3 3 3 3 3 3 3 3 3 3 3 3 3 3 3 3 3 3 3 3 3 3 3 3 3 3 3 3 3 3 3 3 3 3 3 3 3 3 3 3 3 3 3 3 3 3 3 3 3 3 3 3 3 3 3 3 3 3 3 3 3 3 3 3 3 3 3 3 3 3 3 3 3 3 3 3 3 3 3 3 3 3 3 3 3 3 3 3 3 3 3 3 3 3 3 3 3 3 3 3 3 3 3 3 3 3 3 3 3 3 3 3 3 f k @ 3 3 s 3 3 3 3 3 ",
"3 3 # # 3 3 3 3 3 3 3 3 3 3 3 3 3 3 3 3 3 # # 3 3 3 3 3 3 3 3 3 3 3 3 3 3 3 3 3 3 3 3 3 3 3 3 3 3 3 3 3 3 3 3 3 3 3 3 3 3 3 3 3 3 3 3 3 3 3 3 3 3 3 3 3 3 3 3 3 3 3 3 3 3 3 3 3 3 3 3 3 3 3 3 3 3 3 3 3 3 3 3 3 3 3 3 3 3 3 3 3 3 3 3 3 3 3 3 3 3 3 3 3 3 3 3 3 3 3 3 3 3 3 3 3 3 3 3 3 3 3 3 3 3 3 3 3 3 3 3 3 3 3 3 3 3 3 3 3 3 3 3 3 3 3 3 3 3 3 3 3 3 3 3 3 3 3 3 3 3 3 3 3 3 3 3 3 3 3 3 3 3 3 3 3 3 3 3 3 3 3 3 3 3 3 3 3 3 3 3 3 3 3 3 3 3 3 3 3 3 3 3 3 3 3 3 3 3 3 3 3 3 3 3 3 3 3 3 3 3 3 3 3 3 3 3 3 3 3 3 3 3 3 3 3 ",
"3 3 3 3 3 3 3 3 3 3 3 3 3 3 3 3 3 3 3 3 3 3 3 3 3 3 3 3 3 3 3 3 3 3 3 3 3 3 3 3 3 3 3 3 3 3 3 3 3 3 3 3 3 3 3 3 3 3 3 3 3 3 3 3 3 3 3 3 3 3 3 3 3 3 3 3 3 3 3 3 3 3 3 3 3 3 3 3 3 3 3 3 3 3 3 3 3 3 3 3 3 3 3 3 3 3 3 3 3 3 3 3 3 3 3 3 3 3 3 3 3 3 3 3 3 3 3 3 3 3 3 3 3 3 3 3 3 3 3 3 3 3 3 3 3 3 3 3 3 3 3 3 3 3 3 3 3 3 3 3 3 3 3 3 3 3 3 3 3 3 3 3 3 3 3 3 3 3 3 3 3 3 3 3 3 3 3 3 3 3 3 3 3 3 3 3 3 3 3 3 3 3 3 3 3 3 3 3 3 3 3 3 3 3 3 3 3 3 3 3 3 3 3 3 3 3 3 3 3 3 3 3 3 3 3 3 3 3 3 3 3 3 3 3 3 3 3 3 3 3 3 3 3 3 3 3 "
};
