/* XPM */
static char *sc_mb_gate_ms[] = {
/* columns rows colors chars-per-pixel */
"256 256 256 2 ",
"   c #0B0B0D",
".  c #070808",
"X  c #0D0D12",
"o  c #080914",
"O  c #0D161A",
"+  c #121315",
"@  c #15161B",
"#  c #1B161B",
"$  c #16191D",
"%  c #19191F",
"&  c #1A1416",
"*  c #120B0F",
"=  c #2D1A1F",
"-  c #24181C",
";  c #34191E",
":  c #1C261D",
">  c #15371A",
",  c #24291D",
"<  c #2A3719",
"1  c #35371C",
"2  c #303411",
"3  c #1C1524",
"4  c #151B21",
"5  c #1B1C22",
"6  c #171725",
"7  c #151A2B",
"8  c #251D25",
"9  c #3C1F26",
"0  c #2E1D38",
"q  c #1E2026",
"w  c #1D222A",
"e  c #16272A",
"r  c #143A2D",
"t  c #1A2A33",
"y  c #192934",
"u  c #1A333A",
"i  c #0E2D2E",
"p  c #222225",
"a  c #22242B",
"s  c #26292E",
"d  c #292728",
"f  c #3F2027",
"g  c #36272B",
"h  c #29342A",
"j  c #252631",
"k  c #272931",
"l  c #292B34",
"z  c #2D2E39",
"x  c #282638",
"c  c #372B35",
"v  c #2C3234",
"b  c #2E313B",
"n  c #283737",
"m  c #31333D",
"M  c #3A3639",
"N  c #36332C",
"B  c #532F0F",
"V  c #68231A",
"C  c #643902",
"Z  c #461B27",
"A  c #44242B",
"S  c #552C29",
"D  c #42353B",
"F  c #46383B",
"G  c #4C2E3A",
"H  c #6B312D",
"J  c #571A20",
"K  c #0F5313",
"L  c #3D580E",
"P  c #2F4218",
"I  c #344617",
"U  c #375211",
"Y  c #086809",
"T  c #037704",
"R  c #17771B",
"E  c #107114",
"W  c #256E1D",
"Q  c #024A2C",
"!  c #075B38",
"~  c #0F4D30",
"^  c #264637",
"/  c #364B37",
"(  c #365139",
")  c #385539",
"_  c #2F542D",
"`  c #187727",
"'  c #136D33",
"]  c #256925",
"[  c #2C6B33",
"{  c #415B0C",
"}  c #495013",
"|  c #704504",
" . c #49670B",
".. c #51710E",
"X. c #46463F",
"o. c #464B3D",
"O. c #494B3B",
"+. c #4A533C",
"@. c #4C5A39",
"#. c #495639",
"$. c #53553D",
"%. c #57583C",
"&. c #4E4D35",
"*. c #714B3E",
"=. c #4D6833",
"-. c #586438",
";. c #4A6C2F",
":. c #6A6C16",
">. c #193A46",
",. c #123A57",
"<. c #2A2947",
"1. c #2C2B49",
"2. c #2D2448",
"3. c #312D4C",
"4. c #263846",
"5. c #343641",
"6. c #363944",
"7. c #393B46",
"8. c #31304E",
"9. c #3B3D4A",
"0. c #353C48",
"q. c #332E55",
"w. c #293757",
"e. c #333252",
"r. c #34325A",
"t. c #3A375F",
"y. c #343B56",
"u. c #2C2B54",
"i. c #182A76",
"p. c #393965",
"a. c #2E3A67",
"s. c #221C53",
"d. c #521B46",
"f. c #741B53",
"g. c #473A42",
"h. c #512D4A",
"j. c #6A3449",
"k. c #413C76",
"l. c #542A67",
"z. c #682C73",
"x. c #184A57",
"c. c #144A55",
"v. c #2A4946",
"b. c #3E414D",
"n. c #354648",
"m. c #2C574A",
"M. c #325D4C",
"N. c #365846",
"B. c #394D55",
"V. c #394858",
"C. c #2B5555",
"Z. c #3B535B",
"A. c #365959",
"S. c #284857",
"D. c #126F48",
"F. c #34614C",
"G. c #386748",
"H. c #2B6758",
"J. c #336352",
"K. c #396857",
"L. c #2F6E48",
"P. c #0C5768",
"I. c #1A5868",
"U. c #0A5E71",
"Y. c #0F4D71",
"T. c #284765",
"R. c #375962",
"E. c #395B64",
"W. c #3B5D6A",
"Q. c #365866",
"!. c #2E516F",
"~. c #036577",
"^. c #1A6576",
"/. c #137070",
"(. c #276A66",
"). c #3C6161",
"_. c #38636A",
"`. c #376979",
"'. c #2A7171",
"]. c #474640",
"[. c #4A4A43",
"{. c #494646",
"}. c #534A44",
"|. c #485946",
" X c #535B47",
".X c #424452",
"XX c #484B5A",
"oX c #535655",
"OX c #675246",
"+X c #56614A",
"@X c #466757",
"#X c #4A6B55",
"$X c #485865",
"%X c #545769",
"&X c #4A5173",
"*X c #43676B",
"=X c #446575",
"-X c #516C6C",
";X c #646669",
":X c #812B1E",
">X c #883436",
",X c #973738",
"<X c #902F27",
"1X c #AB3937",
"2X c #864237",
"3X c #BA413E",
"4X c #966028",
"5X c #B23C41",
"6X c #8E1A66",
"7X c #85325B",
"8X c #945147",
"9X c #B04141",
"0X c #CA4645",
"qX c #07890A",
"wX c #029604",
"eX c #0B8816",
"rX c #0F8918",
"tX c #0B8A2B",
"yX c #208D15",
"uX c #078D50",
"iX c #0A8A70",
"pX c #24865C",
"aX c #629730",
"sX c #AAAB0C",
"dX c #102A8F",
"fX c #243097",
"gX c #1831A5",
"hX c #703485",
"jX c #004B86",
"kX c #06579A",
"lX c #364F87",
"zX c #047689",
"xX c #047C94",
"cX c #117186",
"vX c #297389",
"bX c #015BA5",
"nX c #2C68AD",
"mX c #4C4788",
"MX c #544C96",
"NX c #4F4E97",
"BX c #4F698A",
"VX c #5453A8",
"CX c #655BB5",
"ZX c #6159AE",
"AX c #636A9E",
"SX c #1339C6",
"DX c #5363CB",
"FX c #2D4EC6",
"GX c #843691",
"HX c #078697",
"JX c #0A878B",
"KX c #22859A",
"LX c #038FA5",
"PX c #2393AA",
"IX c #23A3BC",
"UX c #28A4C6",
/* pixels */
"5 5 5 5 5 5 5 5 5 5 5 5 5 5 5 5 5 5 5 5 5 5 5 5 5 5 5 5 5 5 5 5 5 5 5 5 5 5 5 5 5 5 5 5 5 5 5 5 5 5 5 5 5 5 5 5 5 5 5 5 5 5 5 5 5 5 5 5 5 5 5 5 5 5 5 5 5 5 5 5 5 5 5 5 5 5 5 5 5 5 5 5 5 5 5 5 5 5 5 5 5 5 5 5 5 5 5 5 5 5 5 5 5 5 5 5 5 5 5 5 5 5 5 5 5 5 5 5 5 5 5 5 5 5 5 5 5 5 5 5 5 5 5 5 5 5 5 5 5 5 5 5 5 5 5 5 5 5 5 5 5 5 5 5 5 5 5 5 5 5 5 5 5 5 5 5 5 5 5 5 5 5 5 5 5 5 5 5 5 5 5 5 5 5 5 5 5 5 5 5 5 5 5 5 5 5 5 5 5 5 5 5 5 5 5 5 5 5 5 5 5 5 5 5 5 5 5 5 5 5 5 5 5 5 5 5 5 5 5 5 5 5 5 5 5 5 5 5 5 5 5 5 5 5 5 5 ",
"5 5 5 5 5 5 5 5 5 5 5 5 5 5 5 5 5 5 5 5 5 5 % % 6 % % 5 5 5 5 5 5 5 5 5 5 5 5 5 5 5 5 5 5 5 5 5 5 5 5 5 5 5 5 5 5 5 5 5 5 5 5 5 5 5 5 5 5 5 5 5 5 5 5 5 5 5 5 5 5 5 5 5 5 5 5 5 5 5 5 5 5 5 5 5 5 5 5 5 5 5 5 5 5 5 5 5 5 5 5 5 5 5 5 5 5 5 5 5 5 5 5 5 5 5 5 5 5 5 5 5 5 5 5 5 5 5 5 5 5 5 5 @ % $ % @ $ 5 @ 5 @ @ % 5 % % % % % $ 5 % 5 @ 5 $ % 5 % % 5 % @ $ $ % @ 5 % % % % 5 $ @ % 5 5 @ % 5 $ 5 @ $ @ % 5 @ 5 $ $ % $ @ 5 $ $ $ % @ @ 5 @ 5 5 $ % % @ 5 5 5 5 5 # % % # # % 5 # % # 5 # # 5 # % # 5 # % # 5 5 5 5 5 5 5 5 ",
"# 5 5 5 5 % # # # # # 5 5 # # # # # % 5 5 5 >.v.M.>.7 % 5 5 5 5 5 5 5 5 5 5 5 5 5 5 5 5 5 5 5 5 5 5 5 5 5 5 5 5 5 5 5 5 5 5 5 5 5 5 5 5 5 5 5 5 5 5 5 5 5 5 5 5 5 5 5 5 5 5 5 5 5 5 5 5 5 5 5 5 5 5 5 5 5 5 5 5 5 5 5 5 5 5 5 5 5 5 5 5 5 5 5 5 5 5 5 5 5 5 5 5 5 5 5 5 5 5 5 5 5 5 5 5 5 5 5 b.5.b.z XXb k XXa 9.9.z a l k z 5.5.6.s z % 9.5 7.m k z m a b XX.X7.m XXa k z b z l 5.XXk $ a .Xz 5 5.l $X7..Xm % 9.5 6.7.5.7.XXq 7.6.9.z .X9.q XXz a m b m b.p 5 z 5 5 >.>.t x.>.u w >.>.x.5 >.x.w x.t >.q >.u x.w 5 5 5 : K K K ",
"PX>.# 5 % w vXKXKXKXvX& x.KXKXKXKX^.w % 7 S.aXaXaXaX#Xy % 5 5 5 5 5 5 5 5 5 5 5 5 5 5 5 5 5 5 5 5 5 5 5 5 5 5 5 5 5 5 5 5 5 5 5 5 5 5 5 5 5 5 5 5 5 5 5 5 5 5 5 5 5 5 5 5 5 5 5 5 5 5 5 5 5 5 5 5 5 5 5 5 5 5 5 5 5 5 5 5 5 5 5 5 5 5 5 5 5 5 5 5 5 5 5 5 5 5 5 5 5 5 5 5 5 5 5 5 5 5 5 5 % s ;Xb XX.X.XXXXX%Xb.XXq %X%Xb.XX;X9.9.;X%X.X@ AXb.;X%Xm .XXXz 5 %X6.XX.XAX5.XX;X.X;X.X%X9.%X@ XXXX7.m AXa %X6.;X5.@ BXb.;XXX.XXXb.XX%X6.XXb.XX.XXX;Xb @ ;XXXb.AXl $ b 5 5 ^.>.I.t x.^.x.^.I.^.x.I.x.>.vXx.^.x.^.x.I.w 5 5 5 : K K K ",
"UXc.# q & ^.UXPXKXPXvX& I.UXKXKXPXUX^.& v.aX;.5 6 I aX^.w % 5 5 5 5 5 5 5 5 5 5 5 5 5 5 5 5 5 5 5 5 5 5 5 5 5 5 5 5 5 5 5 5 5 5 5 5 5 5 5 5 5 5 5 5 5 5 5 5 5 5 5 5 5 5 5 5 5 5 5 5 5 5 5 5 5 5 5 5 5 5 5 5 5 5 5 5 5 5 5 5 5 5 5 5 5 5 5 5 5 5 5 5 5 5 5 5 5 5 5 5 5 5 5 5 5 5 5 5 5 5 5 5 5 XX%XXX.XXXXXXX%X9.$Xs %X.X$X%X;X%Xb..X%X%X@ %X;X%XXXXXXXXXXX5 XXb XX.X;XXX%X;X%XXX;XXXXX%X@ XXXX%X%X;X9..Xb ;Xz 5 %X;X%XXX.XXXXXXX5.%X$Xb.XXXX.X%Xl 5 %XXXXX;Xm @ m 5 5 >.^.I.u >.^.^.x.I.^.x.x.I.x.^.x.I.^.^.u I.x.# 5 5 : K K K ",
"UX>.# 5 # vXPXq & # # & I.IXw & 5 PXvX7 pX;.o 5 w >.y vX>.5 5 5 5 5 5 5 5 5 5 5 5 5 5 5 5 5 5 5 5 5 5 5 5 5 5 5 5 5 5 5 5 5 5 5 5 5 5 5 5 5 5 5 5 5 5 5 5 5 5 5 5 5 5 5 5 5 5 5 5 5 5 5 5 5 5 5 5 5 5 5 5 5 5 5 5 5 5 5 5 5 5 5 5 5 5 5 5 5 5 5 5 5 5 5 5 5 5 5 5 5 5 5 5 5 5 5 5 5 5 5 5 5 p 9.z 6.k .Xl a .Xa 6.6.k 5 m s 5 b.z k s z 5 z z z a 9.l s .Xs l k 5.z 9.z s q 6.q b z .Xa % q b.m l 5 z l p 9.b 5 l z l 5.b m b.5 6.b 6.l 9.5.5 b.l a l l b 7.q 5 k 5 5 >.u w x.t t u t >.>.5 u v.w >.t t u t u >.w 5 5 5 q > K > ",
"UX>.# q # I.UXPXPXPXx.& I.IX>.w u IXvX# x.KXv.# w t & ^.I.5 5 5 5 5 5 5 5 5 5 5 5 5 5 5 5 5 5 5 5 5 5 5 5 5 5 5 5 5 5 5 5 5 5 5 5 5 5 5 5 5 5 5 5 5 5 5 5 5 5 5 5 5 5 5 5 5 5 5 5 5 5 5 5 5 5 5 5 5 5 5 5 5 5 5 5 5 5 5 5 5 5 5 5 5 5 5 5 5 5 5 5 5 5 5 5 5 5 5 5 5 5 5 5 5 5 5 5 5 5 5 5 5 5 @ % @ % @ % 5 @ 5 @ @ % 5 $ 5 5 @ % 5 5 $ 5 % $ % 5 @ % % @ 5 % % $ % @ % 5 5 @ 5 $ % @ 5 5 5 @ $ % 5 % % 5 @ $ 5 % $ % $ $ $ @ 5 @ $ @ % @ @ 5 @ % 5 % % $ @ 5 5 5 5 5 # % 5 # % % % % # # 5 # # 5 # % % % % % # 5 5 5 5 5 5 3 5 ",
"UX>.& 5 5 5 I.KXvXPXIXq I.IXIXIXIXUXx.5 vXUX^.* # 5 # ^.I.5 5 5 5 5 5 5 5 5 5 5 5 5 5 5 5 5 5 5 5 5 5 5 5 5 5 5 5 5 5 5 5 5 5 5 5 5 5 5 5 5 5 5 5 5 5 5 5 5 5 5 5 5 5 5 5 5 5 5 5 5 5 5 5 5 5 5 5 5 5 5 5 5 5 5 5 5 5 5 5 5 5 5 5 5 5 5 5 5 5 5 5 5 5 5 5 5 5 5 5 5 5 5 5 5 5 5 5 5 5 5 5 5 5 5 5 5 5 5 5 % 5 5 5 5 5 5 5 5 5 5 5 5 5 5 5 5 5 5 5 5 5 5 5 5 5 5 5 5 5 5 5 5 5 5 5 5 5 5 5 5 5 5 5 5 5 5 5 5 5 5 5 5 5 5 5 5 5 5 5 5 5 5 q 5 5 5 5 5 5 5 5 5 5 5 % # 5 5 5 5 4 4 5 4 5 5 5 5 5 5 5 5 5 5 5 % 5 4 5 5 $ % 5 5 % $ ",
"UX>.# 5 5 5 # # & x.IXt I.IX^.I.^.x.# t ^.vXIXI.u & u vX>.% 5 5 5 5 5 5 5 5 5 5 5 5 5 5 5 5 5 5 5 5 5 5 5 5 5 5 5 5 5 5 5 5 5 5 5 5 5 5 5 5 5 5 5 5 5 5 5 5 5 5 5 5 5 5 5 5 5 5 5 5 5 5 5 5 5 5 5 5 5 5 5 5 5 5 5 5 5 5 5 5 5 5 5 5 5 5 5 5 5 5 5 5 5 5 5 5 5 w 5 5 5 5 5 5 5 5 5 5 5 5 5 5 5 5 5 5 5 5 k b 5 5 z 5 5 5 l a 5 p 5 5 5 5 5 5 5 s a 5 5 5 5 5 5 5 5 5 5 5 5 5 5 5 5 5 5 5 w 5 5 5 5 5 5 5 5 5 5 5 q K 5 5 5 5 # # % 5 5 5 c.P.e % 5 5 5 5 5 5 5 w >.>.e s k a z b z l a l a k 5 5 w u u w % l a 5.l a 5.k a a z 7.",
"UXPXPXIXx.t IXPXPXIXPX5 I.UXw & & # 5 # 5 PXKXIXPX>.vXI.w % 5 5 5 5 5 5 5 5 5 5 5 5 5 5 5 5 5 5 5 5 5 5 5 5 5 5 5 5 5 5 5 5 5 5 5 5 5 5 5 5 5 5 5 5 5 5 5 5 5 5 5 5 5 5 5 5 5 5 5 5 5 5 5 5 5 5 5 5 5 5 5 5 5 5 5 5 5 5 5 5 5 5 5 5 5 5 5 5 5 5 5 5 5 5 5 % u u % 5 5 5 5 5 5 5 5 5 5 5 5 5 5 5 5 5 5 $ m 5.5..Xb..Xb.m .Xl k 9.7.7.9..X9.m .XXXl % 5 5 5 5 5 5 5 5 5 5 5 5 5 5 5 5 5 5 w >.5 5 5 5 5 5 5 5 5 3 K qX> 3 % t c.P.P.% 5 5 P.U.u # 5 5 5 5 5 5 % t I.I.t z .X7..X9.m XX5.9.a 6.% 5 w >.>.w 5 XX5..X9.7.a .Xm z b 7.",
"vXvXvXvX>.t vXvXvXvX>.& x.vXt 5 5 5 5 5 t >.x.PXI.vXI.t % 5 5 5 5 5 5 5 5 5 5 5 5 5 5 5 5 5 5 5 5 5 5 5 5 5 5 5 5 5 5 5 5 5 5 5 5 5 5 5 5 5 5 5 5 5 5 5 5 5 5 5 5 5 5 5 5 5 5 5 5 5 5 5 5 5 5 5 5 5 5 5 5 5 5 5 5 5 5 5 5 5 5 5 5 5 5 5 5 5 5 5 5 5 5 5 5 % t u % 5 5 5 5 5 5 5 5 5 5 5 5 5 5 5 5 5 5 5 a 9.XX6.b..X9.5.m k z 9..Xb .X5.6.XX9.7.k % 5 5 5 5 5 5 5 5 5 5 5 5 5 5 5 5 5 5 w >.5 5 5 5 5 5 5 5 5 5 K K K 3 5 w t u u 5 5 5 c.P.t % 5 5 5 5 5 5 % t I.I.t s .X.X6.9.z m XX6.6.m % 5 t >.>.w z .X.Xb.7.7.b 9.5.7.s 5.",
"# # & & % 5 & & & & # 5 % # 5 5 5 5 5 5 5 & t >.w >.5 5 5 5 5 5 5 5 5 5 5 5 5 5 5 5 5 5 5 5 5 5 5 5 5 5 5 5 5 5 5 5 5 5 5 5 5 5 5 5 5 5 5 5 5 5 5 5 5 5 5 5 5 5 5 5 5 5 5 5 5 5 5 5 5 5 5 5 5 5 5 5 5 5 5 5 5 5 5 5 5 5 5 5 5 5 5 5 5 5 5 5 5 5 5 5 5 5 5 5 5 5 5 5 5 5 5 5 5 5 5 5 5 5 5 5 5 5 5 5 5 5 a k q k p s a k k p z 7.5 5 a s k a s a a 5 5 5 5 5 5 5 5 5 5 5 5 5 5 5 5 5 5 5 5 5 5 5 5 5 5 5 5 5 5 5 5 3 5 5 5 5 % # # 5 5 5 w w 5 5 5 5 5 5 5 5 5 w t t w 5 a a a l s 5 a q z 5 5 5 w t t 5 a 5 a z a 5 z 5 a k 5 a ",
"5 5 5 5 5 5 5 5 5 5 5 5 5 5 5 5 5 5 5 5 5 5 % # % # % 5 5 5 5 5 5 5 5 5 5 5 5 5 5 5 5 5 5 5 5 5 5 5 5 5 5 5 5 5 5 5 5 5 5 5 5 5 5 5 5 5 5 5 5 5 5 5 5 5 5 5 5 5 5 5 5 5 5 5 5 5 5 5 5 5 5 5 5 5 5 5 5 5 5 5 5 5 5 5 5 5 5 5 5 5 5 5 5 5 5 5 5 5 5 5 5 5 5 5 5 % 5 5 5 5 5 5 5 5 5 5 5 5 5 5 5 5 5 5 5 5 % $ % $ % $ % $ $ $ q 5 $ 5 % $ $ % $ % % 5 5 5 5 5 5 5 5 5 5 5 5 5 5 5 5 5 5 5 % 5 5 5 5 5 5 5 5 5 5 5 5 5 5 5 5 5 5 5 5 5 5 5 % % 5 5 5 5 5 5 5 5 5 % % % % % % % % $ $ 5 % % @ % 5 5 % % % % % 5 % @ % % @ 5 $ $ 5 % ",
"a a a a a a a a a a a a a a a a a a a a a a a a a a a a a a a a a a a a a a a a a a a a a a a a a a a a a a a a a a a a a a a a a a a a a a a a a a a a a a a a a a a a a a a a a a a a a a a a a a a a a a a a a a a a a a a a a a a a a a a a a a a a a a a a a a a a a a a a a a a a a a a a a a a a a a a a a a a a a a a a a a a a a a a a a a a a a a a a a a a a a a a a a a a a a a a a a a a a a a a a a a a a a a a a a a a a a a a a a a a a a a a a a a a a a a a a a a a a a a a a a a a a a a a a a a a a a a a a ",
"l l l l l l l l l l l l k l k l l l l l l l l l l k k k k k k k k k k k k k k k k k k k k k k k k k k k k k k k k k k k k k k k k k k k k k k k k k k k k k k k k k k k k k k k k k k k k k k k k k k k k k k k k k k k k k k k k k k k k k k k k k k k k k k k k k k k k k k k k k k k k k k k k k k k k k k k k k k k k k l l k k k k k k k k k k k k k k k k k k k k k k k k k k k k k k k k k k k k k k l l l l k k k k k k l l k k k k k k l k k k k l k s s s s s s s s s s s s s k k k k k k k k k k k k k k k k k k k s ",
"% % % % % $ % % % % % % % % 5 % % % % % % % % % % % % % % % % % % % % % % % % % % % % % % % % % % % % % % % % % % % % % % % % % % % % % % % % % % % % % % % % % % % % % % % % % % % % % % % % % % % % % % % % % % % % % % % % % % % % % % % % % % % % % % % % % % % % % % % % % % % % % % % % % % % % % % % % % % % % % % % % % % % % % % % % % % % % % % % % % % % % % % % % % % % % % % % % % % % % % % % $ @ @ $ % % % % % % % % 5 % % % % 5 % % 5 5 5 % q l l l l l l l l l l l l l k k k k k k k k k k k k k k k k k k k k ",
"q 5 5 5 5 a a q 5 5 5 5 5 5 5 q q q 5 5 5 q 5 5 5 5 5 5 5 5 5 5 5 5 5 5 5 5 5 5 5 5 5 5 5 5 5 5 5 5 5 5 5 5 5 5 5 5 5 5 5 5 5 5 5 5 5 5 5 5 5 5 5 5 5 5 5 5 5 5 5 5 5 5 5 5 5 5 5 5 5 5 5 5 5 5 5 5 5 5 5 5 5 5 5 5 5 5 5 5 5 5 5 5 5 5 5 5 5 5 5 5 5 5 5 5 5 5 5 5 5 5 5 5 5 5 5 5 5 5 5 5 5 5 5 5 5 5 5 5 5 5 5 5 5 5 5 5 5 5 5 5 5 5 5 5 5 5 5 5 5 5 5 5 5 5 5 5 5 5 5 5 5 5 5 5 5 5 5 5 5 5 5 5 5 5 5 5 s 6.7.z 5 5 5 5 5 5 5 5 $ 5 5 5 5 5 a 5 5 5 5 5 k .Xb..Xb.9.9.9.9.9..Xb.b.9.a p a p p p p p p p p p p p p p p p p a ",
"5.9.7.b m z 9.7.9.b k .Xl 7.p 6.l b.z 5.b b.5.z z % 5 5 5 5 5 5 5 5 5 5 5 5 5 5 5 5 5 5 5 5 5 5 5 5 5 5 5 5 5 5 5 5 5 5 5 5 5 5 5 5 5 5 5 5 5 5 5 5 5 5 5 5 5 5 5 5 5 5 5 5 5 5 5 5 5 5 5 5 5 5 5 5 5 5 5 5 5 5 5 5 5 5 5 5 5 5 5 5 5 5 5 5 5 5 5 5 5 5 5 5 5 5 5 5 5 5 5 5 5 5 5 5 5 5 5 5 5 5 5 5 5 5 5 5 5 5 5 5 5 5 5 5 5 5 5 5 5 5 5 5 5 5 5 5 5 5 5 5 5 5 5 5 5 5 5 5 5 5 5 5 5 5 5 5 5 5 5 5 5 5 5 $ 7.%XXXb.5 5 5 5 5 % z m z 5 5 5 % k 6.m q z m $ k 9.$XXX.XXXXXXXb.XX$X7.9.7.5 5 5 5 5 5 5 5 5 5 5 5 5 5 5 5 5 5 5 5 ",
".Xz 9.6.b 5 m 7..Xm m .X.X7.l 5.7..X7..X.Xm m .Xm $ 5 5 5 5 5 5 5 5 5 5 5 5 5 5 5 5 5 5 5 5 5 5 5 5 5 5 5 5 5 5 5 5 5 5 5 5 5 5 5 5 5 5 5 5 5 5 5 5 5 5 5 5 5 5 5 5 5 5 5 5 5 5 5 5 5 5 5 5 5 5 5 5 5 5 5 5 5 5 5 5 5 5 5 5 5 5 5 5 5 5 5 5 5 5 5 5 5 5 5 5 5 5 5 5 5 5 5 5 5 5 5 5 5 5 5 5 5 5 5 5 5 5 5 5 5 5 5 5 5 5 5 5 5 5 5 5 5 5 5 5 5 5 5 5 5 5 5 5 5 5 5 5 5 5 5 5 5 5 5 5 5 5 5 5 5 5 5 5 5 5 5 @ 9..Xb.%X$ 5 5 5 5 % l 9.9.l % 5 $ m l 9.6..Xm @ k 9.XX%X%X%X%X%X%X;X%X7.9.7.5 5 5 5 5 5 5 5 5 5 5 5 5 5 5 5 5 5 5 5 ",
"l $ z k b s s a s l z s z s 5 b m a b p z 5 a a a 5 5 5 5 5 5 5 5 5 5 5 5 5 5 5 5 5 5 5 5 5 5 5 5 5 5 5 5 5 5 5 5 5 5 5 5 5 5 5 5 5 5 5 5 5 5 5 5 5 5 5 5 5 5 5 5 5 5 5 5 5 5 5 5 5 5 5 5 5 5 5 5 5 5 5 5 5 5 5 5 5 5 5 5 5 5 5 5 5 5 5 5 5 5 5 5 5 5 5 5 5 5 5 5 5 5 5 5 5 5 5 5 5 5 5 5 5 5 5 5 5 5 5 5 5 5 5 5 5 5 5 5 5 5 5 5 5 5 5 5 5 5 5 5 5 5 5 5 5 5 5 5 5 5 5 5 5 5 5 5 5 5 5 5 5 5 5 5 5 5 5 5 % z .X;X;X% 5 5 5 5 5 k z a a 5 5 5 q 5.a b z l % k 9..X$XXX%X%X.XXX%XXX9.b.z 5 5 5 5 5 5 5 5 5 5 5 5 5 5 5 5 5 5 5 5 ",
"5 q 5 5 5 5 5 5 5 5 5 5 5 5 5 5 5 5 5 5 5 5 5 5 5 5 5 5 5 5 5 5 5 5 5 5 5 5 q q 5 5 5 5 5 5 5 5 q q 5 5 5 5 5 5 5 5 5 5 5 5 5 5 5 5 5 5 5 5 5 5 5 5 5 5 5 5 5 5 5 5 5 5 5 5 5 5 5 5 5 5 5 5 5 5 5 5 5 5 5 5 5 5 5 5 5 5 5 5 5 5 5 5 5 5 5 5 5 5 5 5 5 5 5 5 5 5 5 5 5 5 5 5 5 5 5 5 5 5 5 5 5 5 5 5 5 5 5 5 5 5 5 5 5 5 5 5 5 5 5 5 5 5 5 5 5 5 5 5 5 5 5 5 5 5 5 5 5 5 5 5 5 5 5 5 5 5 5 5 5 5 5 5 5 5 5 5 5 q 5 5 5 5 5 5 5 5 5 % 5 5 5 5 5 5 % 5 % % 5 5 k 7.5.m 5..X6.m m m m 5.z 5 5 5 5 5 5 5 5 5 5 5 5 5 5 5 5 5 5 5 5 5 ",
"l l z l z l z z z z z z z z l z l l z l z l l l l l l l l l l l l l l l l l k d l l l z b l l l k l l l l l l l l l l l l l l l l l l l l l l l l l l l l l l l l l l l l l l l l l l l l l l l l l l l l l l l l l l l l l l l l l l l l l l l l l l l l l l l l l l l l l l l l l l l l l l l l l l k l l l l l l l l l l l l l l l l l l l l l l l l l l l l l l l l l l l l l l l l l l l l s 5 5 5 5 5 5 z z a 5 5 5 5 5 5 5 5 5 5 5 5 5 5 5 5 5 5 5 % k a % 5 5 % 5 5 5 5 5 5 5 5 5 5 5 5 5 5 5 5 5 5 5 5 5 5 5 5 5 5 5 5 ",
"g 8 - 5 5 5 5 5 5 5 5 5 5 5 5 5 5 5 5 5 5 5 5 5 5 5 5 5 5 5 5 5 5 5 5 5 % w >.>.P.n s >.x.P.% w P.P.s 8 % 8 8 8 < , : % 5 5 5 5 5 5 5 5 5 5 5 5 5 5 5 5 5 5 5 5 5 5 5 5 5 5 5 5 5 5 5 5 5 5 5 5 5 5 5 : , t u e e 5 5 5 5 % 5 5 5 q 5 5 5 5 5 5 5 5 5 5 5 5 5 5 5 5 5 5 5 5 5 5 5 5 5 5 5 5 5 5 5 e e <.x a 5 5 5 5 5 5 5 5 5 5 5 5 5 5 5 5 5 5 5 5 q 5 5 5 5 5 5 5 5 5 5 5 5 5 5 5 5 5 5 5 a x e.a 5 5 5 5 a k 5 z 5 5 5 5 5 = ; = = ; = 5 5 = ; = = ; = % k a 5 5 5 5 5 5 5 5 5 5 5 5 5 5 5 5 5 5 5 5 5 5 5 5 5 5 5 5 5 5 5 5 ",
"A g c 8 5 5 5 5 5 5 5 5 5 5 5 5 a 5 5 5 5 5 5 5 5 5 a 5 5 5 5 5 5 a 5 5 # c.^.I.x.n n b b P.# c.I.I.^.u % d g f } < , , 5 5 5 5 5 5 5 5 5 5 5 5 5 a 5 5 5 5 5 5 5 5 5 a 5 5 5 5 5 5 a 5 5 5 5 5 a 5 q , , ^ c.y u w 5 a 5 5 a 5 5 s 5 5 5 5 5 5 5 5 5 5 5 5 5 5 5 5 a 5 5 5 5 5 5 5 5 5 a 5 5 5 e y i T.r.x j 5 5 a 5 5 5 a 5 5 5 a 5 5 a 5 5 a 5 5 s 5 5 5 5 5 5 5 5 5 5 5 5 5 5 5 5 a 5 x x r.t.s 5 5 5 5 a k 5 l 5 5 5 5 5 = ; = = ; = 5 5 = ; = = ; 8 % k a 5 5 5 5 5 5 & % 5 5 & 5 5 5 5 5 5 5 5 5 5 5 5 5 5 5 5 5 5 5 5 5 ",
"g.g.g.p 5 5 5 5 5 5 5 5 5 5 5 5 a 5 5 5 5 5 5 5 5 5 a 5 5 5 5 5 5 a 5 5 # c.v.l k v l n v U.t c.x.l I./.% d g f I < , , 5 5 5 5 5 5 5 5 5 5 5 5 5 a 5 5 5 5 5 5 5 5 5 a 5 5 5 5 5 5 a 5 5 5 5 5 a 5 q : , ^ c.y u w 5 a 5 5 a 5 5 a 5 5 5 5 5 5 5 5 5 5 5 5 5 5 5 5 a 5 5 5 5 5 5 5 5 5 a 5 5 5 w y i a.e.x j 5 5 a 5 5 5 a 5 5 5 a 5 5 a 5 5 a 5 5 a 5 5 5 5 5 5 5 5 5 5 5 5 5 5 5 5 a 5 j x r.r.s 5 5 5 5 a m z l % 5 5 5 5 = ; = = ; = 5 5 = ; = = ; 8 % k a 5 5 5 5 % w I.vXvXKXI.w % 5 5 5 5 5 5 5 5 5 5 5 5 5 5 5 5 5 5 5 ",
"g.D 7.p 5 5 5 5 5 5 5 5 5 5 5 5 a 5 5 5 5 5 5 5 5 5 a 5 5 5 5 5 5 a 5 5 # c.x.b n n v n v x.^.^.4.l v I.5 d g f } < , , 5 5 5 5 5 5 5 5 5 5 5 5 5 a 5 5 5 5 5 5 5 5 5 a 5 5 5 5 5 5 a 5 5 5 5 5 a 5 q : , ^ c.y u w 5 a 5 5 a 5 5 a 5 5 5 5 5 5 5 5 5 5 5 5 5 5 5 5 a 5 5 5 5 5 5 5 5 5 a 5 5 5 w y i a.e.x j 5 5 a 5 5 5 a 5 5 5 a 5 5 a 5 5 a 5 5 a 5 5 5 5 5 5 5 5 5 5 5 5 5 5 5 5 a 5 j x r.r.s 5 5 5 5 a k q l 5 5 5 5 5 = ; = = ; = 5 5 = ; = = ; 8 % k a 5 5 5 % t KXvX^.>.I.vXKXu % 5 5 5 5 5 a $ % % % 5 5 5 5 5 5 5 5 ",
"A g d 5 5 5 5 5 5 5 5 5 5 5 5 5 a 5 5 5 5 5 5 5 5 5 a 5 5 5 5 5 5 a 5 5 # c.v.b n n v n n l l b v n n U.5 d g 9 } < , , 5 5 5 5 5 5 5 5 5 5 5 5 5 a 5 5 5 5 5 5 5 5 5 a 5 5 5 5 5 5 a 5 5 5 5 5 a 5 q : , ^ c.y u w 5 a 5 5 a 5 5 a 5 5 5 5 5 5 5 5 5 5 5 5 5 5 5 5 a 5 5 5 5 5 5 5 5 5 a 5 5 5 w y i a.e.x j 5 5 a 5 5 5 a 5 5 5 a 5 5 a 5 5 a 5 5 a 5 5 5 5 5 5 5 5 5 5 5 5 5 5 5 5 a 5 j x r.r.s 5 5 5 5 a k 5 l 5 5 5 5 5 = ; = = ; = 5 5 = ; = = ; 8 % k a 5 5 5 5 vXvX+   & * X vXKXw 5 5 5 % a 6.m z m z a 9.k % 5 5 5 5 ",
"A g 8 8 5 5 5 5 5 5 5 5 5 5 5 5 a 5 5 5 5 5 5 5 5 5 a 5 5 5 5 5 5 a 5 5 # P.v.b n n v n n n n n n v b ^.n g g c } < , , 5 5 5 5 5 5 5 5 5 5 5 5 5 a 5 5 5 5 5 5 5 5 5 a 5 5 5 5 5 5 a 5 5 5 5 5 a 5 q : , ^ c.y u w 5 a 5 5 a 5 5 a 5 5 5 5 5 5 5 5 5 5 5 5 5 5 5 5 a 5 5 5 5 5 5 5 5 5 a 5 5 5 w y i a.e.x j 5 5 a 5 5 5 a 5 5 5 a 5 5 a 5 5 a 5 5 a 5 5 5 5 5 5 5 5 5 5 5 5 5 5 5 5 a 5 j x r.r.s 5 5 5 5 a k 5 l 5 5 5 5 5 = ; = = ; = 5 5 = ; = = ; 8 % k a 5 5 & x.KX@ + b 5.6.5 X KXI.& 5 5 5 a 9.5.b.9.b.7..Xa 5 5 5 5 5 ",
"g.g 8 8 5 5 5 5 5 5 5 5 5 5 5 5 a 5 5 5 5 5 5 5 5 5 a 5 5 5 5 5 5 a 5 # & P.4.b v n v n n v v n n n b I.4.g g D &.< , , 5 5 5 5 5 5 k k 5 5 5 5 5 a 5 5 5 5 5 5 5 5 5 a 5 5 5 5 5 5 a 5 5 5 5 5 a 5 q : , ^ c.y u w 5 a 5 5 a 5 5 a 5 5 5 5 5 5 5 5 5 5 5 5 5 5 5 5 a 5 5 5 5 5 5 5 5 5 a 5 5 5 w y i a.e.x j 5 5 a 5 5 5 a 5 5 5 a 5 5 a 5 5 a 5 5 a 5 5 5 5 5 5 5 5 5 5 5 5 5 5 5 5 a 5 j x r.r.s 5 5 5 5 a k 5 l 5 5 5 5 5 = ; = = ; = 5 5 = ; = = ; 8 % k a 5 5 # vXvX  l m m m b   ^.vX# 5 5 5 q l 5 z 5.q z s a 5 5 5 5 5 ",
"g.c 8 8 5 5 5 5 5 5 5 5 5 5 5 5 a 5 5 5 5 5 5 5 5 5 a q 5 5 5 5 5 p u c.c.~.n n n n n n n v v b n n v ^.v.g g D #.^ , p 5 5 5 5 5 5 l l 5 5 5 5 5 a 5 5 5 5 5 5 5 5 5 a 5 5 5 5 5 5 a 5 5 5 5 5 a 5 q , , ^ c.y u w 5 a 5 5 a 5 5 a 5 5 5 5 5 5 5 5 5 5 5 5 5 5 5 5 a 5 5 5 5 5 5 5 5 5 a 5 5 5 w y i a.e.x j 5 5 a 5 5 5 a q 5 5 a 5 5 a q 5 a 5 5 a 5 5 5 5 5 5 5 5 5 5 5 5 5 5 5 5 a q j x r.r.s 5 5 5 5 a k 5 l 5 5 5 5 5 = ; = = ; = 5 5 = ; = = ; 8 % k a 5 5 # vXx.  l z m a a   >.^.5 5 5 5 5 $ 5 5 5 % @ 5 5 5 5 5 5 5 ",
"G 9 8 8 3 3 3 3 3 3 3 3 3 3 3 3 8 3 3 3 3 3 3 3 3 3 8 3 3 3 3 3 3 8 ^.x.x.w.x 1.x x x <.z t u n n l v x./.I.g M #.^ , : 5 5 5 5 5 5 l k 5 5 5 5 5 a 5 5 5 5 5 5 5 5 % p 5 5 5 5 5 % a 5 5 5 5 5 a 4 5 : , ^ c.y t w 4 p 5 % p 5 5 a 5 5 5 5 5 5 5 5 5 5 5 5 5 5 5 5 a 5 5 5 5 5 5 5 5 5 a 5 5 5 w y i a.e.x j 5 5 a % $ + % 5 3 3 8 3 3 8 3 3 8 3 3 j 3 3 3 3 3 3 3 3 3 3 3 3 3 3 3 3 8 8 0 0 r.r.s 5 5 5 5 a k 5 l 5 5 5 5 5 = ; = = ; = 5 5 = ; = = ; 8 % k a 5 5 # ^.vX. a b b m l   I.I.% 5 5 a 9.a m 6.7.a s 9.9.m 5 5 5 5 ",
"E Y Y Y Y Y Y Y Y Y Y Y Y Y Y Y Y Y Y Y Y Y Y Y Y Y Y Y Y Y Y Y Y E tXE Y E E E E E ] _ / F G h.g.m 4.n 4.^.D g.#./ h d a a s v a l m b a a a a a k a a a a a a a a a k a a a a a a k a a a a a k a a d h ^ c.u n t a k a a k a a l a a a a a a a a a a a a a a a a k a a a a a a a a a k a a a t u u T.r.z x a : a j 2.q.r.v.^ K K Y Y Y Y Y Y Y Y E Y Y Y Y Y Y Y Y Y Y Y Y Y Y Y Y Y Y E E ` y.s 5 5 5 5 a k 5 l 5 5 5 5 5 = ; = = ; = 5 5 = ; = = ; 8 % k a 5 5 # c.KXy . a k s * 4 ^.>.# 5 % l 6.m m .X7.z 6.9..X7.5 5 5 5 ",
"} I I P P P P P P P P P P P P P I P P P P P P P P P I P P P P 1 2 I D._ _ _ _ _ ] ] W R R yXyX;.*.7Xj.j.5.^.M g.#./ h h a q n n q v n n a p p p p s p p p p p p p p q s a p p p p q s a q p q a s 5 p p d ^ c.u u w q s a 5 s a q k q q q q q q q q q q q q q q q q s p q q q q q q q p s q q q w t u T.r.z a j p.MXMXBXpXtX` ` ] ] ~ ~ ^ ^ ^ ^ ^ ^ ^ ^ ^ ^ ^ ^ ^ ^ ^ ^ ^ ^ ^ ^ ^ ^ ^ ^ ^ v.v.A.t.s 5 5 5 5 a k 5 l 5 5 5 5 5 = ; = = ; = 5 5 = ; = = ; 8 % k a 5 5 5 # vXPXy   +   4 ^.I.5 5 5 5 q 5.l b z m q z m m z 5 5 5 5 ",
"H J Z Z Z Z Z Z Z Z Z Z Z Z Z Z A Z Z Z Z Z Z Z Z Z A Z Z Z A 0.0.S.^.G g.G g.g.G g.G g.g.M ^ ] eXR X.j.OX`.M D &.^ n n k a n l 5 k l l t 6 6 6 6 7 6 6 6 6 6 6 6 6 6 7 6 6 6 6 6 6 7 6 6 6 5 5 a 5 5 : , ^ c.y t w 4 p 5 % a 5 5 a 5 5 5 5 5 5 5 5 5 5 5 5 5 5 5 5 a 5 5 5 5 5 5 5 5 5 a 5 5 5 w y i a.3.a p.NXmXy.E E K n <.2.2.q.2.2.q.2.2.q.2.2.q.2.2.2.2.2.2.2.2.2.2.2.2.2.2.2.2.q.u.q.r.k.t.s 5 5 5 5 a k 5 l 5 5 5 5 5 = ; = = ; = 5 5 = ; = = ; 8 % k a 5 5 5 5 5 ^.u % 5 % t I.5 5 5 5 5 5 % 5 % % % 5 5 % 5 % 5 5 5 5 ",
"H S A A f f f f f f f f f f f f A f f f f f f f f f A A f Z v.^.C.Q.n.D D D D g.D D D F F D D h.g.] qX_ G `.;XB.) / n n n z x z v n ^ / _ < < P P I P P P P P P P P P I P P P P < < < < , , q 5 7 6 q , , ^ c.y u w 5 a 5 5 a 5 5 a 5 5 5 5 5 5 5 5 5 5 5 5 5 5 5 5 a 5 5 5 5 5 5 5 5 5 a 5 5 5 w y i a.e.NXmXu.~ qX~ 2.2.q.1.<.<.8.1.<.8.1.<.8.1.1.e.<.<.<.<.<.<.<.<.<.<.<.<.<.<.<.<.8.1.e.r.k.t.s 5 5 5 5 a k 5 l 5 5 5 5 5 = ; = = ; = 5 5 = ; = = ; 8 % k a 5 5 5 5 5 & & 5 w 5 & # 5 5 5 5 5 5 5 5 5 5 5 5 5 5 5 5 5 5 5 5 ",
"H S A A f f f f f f f f f f f 9 A A f f f f f f f 9 A A f Z S.B.A F D D D D D g.D D D g.F D D F D G / eX_ V._.-X'.h n n n ^ _ _ _ _ _ _ _ I P P P I P P < < < < < < < I P P P P P P I I U U U U I , 5 q , ^ c.y u w 5 a 5 5 a 5 5 a 5 5 5 5 5 5 5 5 5 5 5 5 5 5 5 5 a 5 5 5 5 5 5 5 5 5 a 5 5 5 w y i a.ZX&X2.^ eX4.2.1.<.8.1.<.<.8.1.<.8.1.<.8.1.1.e.<.1.<.<.<.<.<.<.<.<.<.<.<.<.<.1.8.1.q.r.k.t.s 5 5 5 5 a k 5 l 5 5 5 5 5 8 = 8 8 = 8 5 5 = ; = = ; 8 % k a 5 5 5 5 % w I.KXKXKX^.w % 5 5 5 5 5 % 5 5 5 5 5 5 5 5 5 5 5 5 5 ",
"H S A A f f f f f f f f f f f 9 A A f f f f f f f 9 A A f Z S.B.D g.D D D D D g.M _ _ X.h.D D g.D D g.g.eX_ G H `.m.n / _ _ / ^ n n n n n l w q 5 a q q q q q q q q q a q q q q 5 q l q q q , , I U L < , ^ c.y u w 5 a 5 5 a 5 5 a 5 5 5 5 5 5 5 5 5 5 5 5 5 5 5 5 a 5 5 5 5 5 5 5 5 5 a 5 5 5 w y i VXmXq.v.qX1.q.<.1.<.8.1.<.<.8.1.<.8.1.<.8.1.1.e.<.1.<.<.<.<.<.<.<.<.<.<.<.<.<.1.8.1.q.r.k.t.s 5 5 5 5 a k 5 l 5 5 5 5 5 } } } } } } 5 5 , 1 < < 1 h % k a 5 5 5 % u KXvXI.u I.vXPX>.# 5 5 5 5 k a % 5 5 5 % 5 5 5 5 5 5 5 ",
"H S G A 9 f f f f f f f f f f 9 A A f f f f f f f 9 A A 9 Z S.n.D g.D D D D D g._ W ] R _ _ D g._ / F D M eX_ h.|.`.[ ;.^ n n / n n n n n n n h , h , , , , , , , , , d p , , , , h n , , , p p a q < L U u c.y u w 5 a 5 5 a 5 5 a 5 5 5 5 5 5 5 5 5 5 5 5 5 5 5 5 a 5 5 5 5 5 5 5 5 5 a 5 5 5 w e lXVXp.v.qX4.2.8.<.1.<.8.1.<.<.8.1.<.8.1.<.8.1.1.e.<.1.<.<.<.<.<.<.<.<.<.<.<.<.<.1.8.1.q.r.k.t.s 5 5 5 5 a k 5 l 5 5 5 5 6 sXsXsXsXsXsXp 5 , 1 < < 1 1 % k a 5 5 5 w vXvX+ * & *   vXKXw 5 5 % k m 5.l z 9.m m s 5.5.% 5 5 5 ",
"H G G G 9 f f f f f f f f f f 9 A A f f f f f f f 9 A c c g I.n.D g.D D D D D g.] ) g.o.[ R D / R R / F G X.qX&.*.K.+Xh n n n / n n / / n n n n h v : , , , , p p , : d p , , , : h / , , p d p d , , , L ] c.y u w 5 a 5 5 a 5 5 a 5 5 5 5 5 5 5 5 5 5 5 5 5 5 5 5 a 5 5 5 5 5 5 5 5 5 a 5 5 5 4 a.NX!.k.qX^ u.1.8.<.1.<.8.1.<.<.8.1.<.8.1.<.8.1.1.e.<.1.<.<.<.<.<.<.<.<.<.<.<.<.<.1.8.1.q.r.k.t.s 5 5 5 5 a k 5 l 5 5 5 5 5 d 1 < , 1 , 5 5 d 1 < , 1 d % k a 5 5 & x.KX+ @ b 6.7.5 * KXI.& 5 % l m 5.9.9.7.9.9.9.b.m % 5 5 5 ",
"H G g.A 9 f f f f f f f f f f 9 A f 9 f f f f f f 9 ^.(.I.I.I.D D g.D D D D D h.] ) X.[.{.W D _ ) ] ) g.D h.) eX:.H.oX&.n n / / / / / / / n n n n n s : , , : s s : : s p : , , : n / , : p h p d : , , , L ] y u w 5 a q 5 a 5 % a # # # # # # # % % # # # # # # # 8 # # # # # % % 5 5 a 5 5 5 y VXw.fX` ' q.1.1.8.<.<.<.1.1.<.<.8.<.<.8.1.<.8.1.1.e.<.<.<.<.<.<.<.<.<.<.<.<.<.<.<.<.8.1.q.r.k.t.s 5 5 5 5 a k 5 l 5 5 5 5 5 , 1 < < 1 < 5 5 < 1 1 1 1 1 % k a 5 5 # vX^.  l m m m b   ^.vX% 5 5 5 l a a s s 9.a k a a 5 5 5 5 ",
"H S S A A A A A A A A A A A A A A A A A A A A A A g ^.F D D D D D g.F D D M _ _ R o.].[.{.W _ ] ) ) yX] D F h.` yXA.A.2XM n / / / / / / / n n n n / n p h p , v h p p n h h p p p / / p p d n h d p p , < ^ [ P y w 5 p - # a w e n y u u u u >.>.>.>.>.>.>.>.>.>.>.>.u u u u u y e w 5 8 # 8 $ mX!.w.D.` t.e.1.1.e.1.1.1.8.1.1.1.e.1.1.8.1.1.e.1.1.e.1.1.1.1.1.1.1.1.1.1.1.1.1.1.1.1.e.1.r.r.k.t.s 5 5 5 5 a k 5 l 5 5 5 5 5 d 1 d d 1 d 5 6 sXsXsXsXsXsX, j a 5 5 # vXI.  l z m a a   >.^.5 5 5 5 5 % 5 % 5 5 $ 5 5 5 5 5 5 5 ",
"H S S A A A A A A A A A A A A A G A A A A A A A A M (.F g.g.g.g.F g.g.F g._ W [ _ [.[.[.{.) ] ] o.{.[.W F g.%.%.R tXR.*.OXn ( ( ( n.n.n./ n n n n / n h n h d n n d d n / h d d n ( ( h d h / v h d h h 1 ^ c.L ^ 7 8 4.x.I.^.U.U.U.P.P.P.P.P.P.P.I.P.P.P.P.P.P.P.P.P.P.P.P.P.P.P.U.U.U.^.I.u 1.NXw.S.rXp.p.r.e.8.e.1.8.1.e.e.8.8.e.8.1.e.e.1.e.8.8.e.1.8.8.8.8.8.8.8.8.8.8.8.8.8.8.8.e.e.r.t.k.t.s 5 5 5 5 a k 5 l 5 5 5 5 6 sXsXsXsXsXsXp 4 1 } } } } } % k a 5 5 # ^.vX. a b b m l   I.I.# 5 5 a 9.a m 7.7.a k 9.9.5.5 5 5 5 ",
"H S A A 9 9 9 9 9 9 9 9 9 9 9 9 A f 9 f Z Z Z Z Z g (.D D D D D D F D D h.] ) }.].X.X.[.].].].{.].X.[.] D X.;.G %.eX[ F *.F ^ / / _ E ] / ^ n n n n n n n h : h n p : n / h p p n / / p % q ^ v p : , , < ^ c.r L ,.U.U.c.>.u t e k w w w w w w 5 k t 5 w w w w w w j w w w w w w e y y >.c.P.nXlXu.qX_.k.r.q.1.1.8.<.<.<.1.1.<.<.8.<.<.1.1.<.8.1.<.e.<.<.<.<.<.<.<.<.<.<.<.<.<.<.<.<.8.1.q.r.k.t.s 5 5 5 5 a k 5 l 5 5 5 5 4 2X4X4X;X;X;X5 5 8 8 8 w y y 4 k a 5 5 # >.KXt . w k a * e ^.>.# 5 % l 7.m m .X7.z 6.9..X7.5 5 5 5 ",
"H S J Z f f f f f f f f f f f f A A f Z 5.I.S.C.S.I.Q.G D D D D D g.F / M W ) [.X.X.X.[.].X.X.[.].X.[.] D =.&.}.%.) eX( G OX_ W [ yX[ yXW =.;.;._ ;._ ;._ _ L ;.;.L L ;.;.;.L L ;.;.=.L U U ) / d 5 , , < ^ c.u /./.u k w e t t y n y y y y y y y n u y y y t y y y u y y y y y y y y t k $ q.NXlXtX' fXp.r.e.1.1.8.<.1.<.8.1.<.<.8.1.<.8.1.<.8.1.1.e.<.1.1.1.1.1.1.1.1.1.1.1.1.1.1.1.8.1.q.r.k.t.s 5 5 5 5 a k 5 l 5 5 5 5 4 OX8X8X&XAXmX5 5 8 g d w w w % k a 5 5 5 # ^.PXt   +   e cXI.% 5 5 5 q m k b z m 5 z b m z 5 5 5 5 ",
"W.Q.I.C.Z Z Z Z Z Z Z Z Z Z f f A f f Z I.C.n.B.B.n.g.D D D D D D g.W W ] ] ].[.X.X.X.[.].X.X.[.].X.[.] #.@.F }.%.$.[ eX/ -.yXR yX] o._ rX) ) / ^ / / / ^ ^ / ( ( P h ( ) ( / ^ / ) W P < I ) ;.L U h , < ^ c.~.x.L h n t y u t y n y y y y y y y ^ u y t t t y y y u y y y y y y y y y u e NXa.~ tXcXlXk.r.q.1.1.8.<.1.<.8.1.<.<.8.1.<.8.1.<.8.1.1.e.<.1.<.<.<.<.<.<.<.<.<.<.<.<.<.1.8.1.q.r.k.t.s 5 5 5 5 a k 5 l 5 5 5 5 4 *.8X8X%XAX&X5 5 8 8 8 !.lXlX5 k a 5 5 5 5 5 ^.u % 5 5 w x.5 5 5 5 5 5 % 5 % % % 5 % % % % 5 5 5 5 ",
"}.{.g.^.v.c m m m m m m m c Z Z Z Z Z Z I.D G D D D F F D D D D D F W X.g.g.].[.X.X.X.[.].X.X.[.].X.{.W ;.}.O.@.=.#.&.tXrX] W / / N.zX(.W _ / ( ( ) ( / ^ ^ / ( ( / h ( ( ( / ^ / ] qX_ d h ( / h I L L 2 ^ xXc.u ^ [ 4.t y u t y n y y y y y y u v.u y t t t y y y u y y y y y y y y y t a.MX~ eXw.Y.nXp.r.e.1.1.8.<.1.<.8.1.<.<.8.1.<.8.1.<.8.1.1.e.<.1.<.<.<.<.<.<.<.<.<.<.<.<.<.1.8.1.q.r.k.t.s 5 5 5 5 a k 5 l 5 5 5 5 4 *.8X8X%XAX&X5 4 S :XH VXDXVX5 s a 5 5 5 5 5 # 6 5 , 5 6 # 5 5 5 5 5 5 5 5 5 5 5 5 5 5 5 5 5 5 5 5 ",
"H G G b.I.I.I.I.I.I.I.I.I.^.S.S.S.S.S.S.^.D D D D D g.F D D D D D F ] o.X.X.].[.X.X.X.[.].X.X.[.].X.{.W ;.}.=.R W yX;.&.D.wX-.oX_ H.(./.` _ ( ( ( ) ( ( ( / / ( ( / h ( ( / / n ( R ] ] h h ) / h h h U  .cXP.^ v.v.[ ) y y u t y n y y y y t y n v.u t t t u y y y u y y y y y y y y t u MX' qXw.a.w.lXnXq.e.1.1.8.<.1.<.8.1.<.<.8.1.<.8.1.<.8.1.1.e.<.1.<.<.<.<.<.<.<.<.<.<.<.<.<.1.8.1.q.r.k.t.s 5 5 5 5 a k 5 l 5 5 5 5 4 *.8X8X%XAX&X5 4 <X1X1XNXDXVX5 s a 5 5 5 5 5 p }  .} :.} , 5 5 5 5 5 5 5 5 % % 5 5 5 5 5 5 5 5 5 5 ",
"j.}.oXg.G G G G G G G G G 7.C.C.A.C.C.C.n.D D D D D g.F D D D D D F ] ].X.X.].[.X.X.X.[.].X.X.[.].X.[.yX) }.[ #.%.yX_ F Q.uXeXiXN.H.H.H.' W / ( ( ) ( ( ( ( / ( ( ( / ) R ] / / _ ] [ ] v ^ ( / h ^ ^ 2 /.pXm.c.v.m.N.[ t e u t t n y t y y t y n v.n u u n n e t y u t t t t t t t y 7 y.pXT w.w.w.T.!.nX!.3.1.1.8.<.1.<.8.1.<.<.8.1.<.8.1.<.8.1.1.e.<.1.<.<.<.<.<.<.<.<.<.<.<.<.<.1.8.1.q.r.k.t.s 5 5 5 5 a k 5 l 5 5 5 5 4 *.8X8X%XAX&X5 4 :X1X<XNXDXVX5 s a 5 5 5 5 ,  .} 2 , 2 } :.2 6 5 5 5 5 5 5 k k % 5 % 5 5 5 5 5 5 5 ",
"OX}.oX{.D D D D D D D D D D G G G G G G D D D D D D g.F D D D D D X.] ].X.X.].[.X.X.X.[.].X.X.[.X.].=.W R [ W ;.-.W ] F _ R L.tXeXuX( (.C.R ] / ( ) ( ( ( ( ( ( ( ( / ] W R _ / ] ] ) ` M ^ ] / / / N m.^.) [ v.v.m.v.[ ^ 7 u t t x y u y t n y v.v.4.n 4.4.n y y y u y y y y y y y r K eX' u.w.w.a.T.lXp.vXa.<.1.8.<.1.<.8.1.<.1.3.<.<.8.1.<.8.1.1.e.<.1.1.1.1.1.1.1.1.1.1.1.1.1.1.1.8.1.q.r.k.t.s 5 5 5 5 a k 5 l 5 5 5 5 4 *.8X8X%XAX&X5 4 :X1X<XNXDXVX5 s a 5 5 5 q } } X X 4 O o } } , 5 5 5 5 5 5 5.5.7.m z p 5 5 5 5 5 5 ",
"j.g.F F D D D D D D D D D D D D g.D D D D D D D D D F D D D / W ] W ] ].X.X.X.[.X.X.X.[.].X.X.[.].o.=.[.o.[ W ;.-.;.rX#.W ) &.).pXtXeXtX` W qX_ _ _ _ _ _ _ _ _ _ _ _ R ( W ] / R _ ) R / _ wX_ / _ _ /._ F.L.[ m.m.( N.] e u u u n u ^ u u ^ t ^ m.^ ^ ^ ^ ^ i r r r r r ~ ~ K Y E T ' !.u.w.w.w.w.T.lXp.!.vX2.1.8.<.<.<.1.1.<.2.T.w.2.8.1.<.8.1.1.e.<.<.<.<.<.<.<.<.<.<.<.<.<.<.<.<.8.1.q.r.k.t.s 5 5 5 5 a k 5 l 5 5 5 5 4 *.8X8X%XAX&X5 4 :X1X<XNXDXVX5 s a 5 5 6 1  .+ $ m 5.7.q X } } 6 5 5 5 5 5 5.5.9.k .X5 5 5 5 5 5 5 ",
"OXg.g.g.g.g.g.g.g.g.g.g.g.g.g.g.g.g.g.g.g.g.g.g.g.g.g.g.g.h._ _ {.[.{.[.[.[.[.[.[.[.[.[.[.[.[.[.{.=.@.[.[.}.-.-.-.%.[ W W #.$.J.KX(.F.D.uXtXtXtXtXtXtXtXtXtXtXtXtXtXtXtXtXeXtXtXeXtXtXeXtXeXeXeXrXeXtXtXeXrXtXrXrXeXeXeXeXeXE E E E E E E E E E eXeXeXeXE eXE E E E E E E E E E ] ^ t NX!.w.y.y.a.T.T.lX!.p.vX!.3.y.e.e.e.e.e.e.3.^.^.3.y.e.e.y.e.e.y.e.e.e.e.e.e.e.e.e.e.e.e.e.e.e.e.y.e.t.p.&Xt.s 5 5 5 5 a k 5 l 5 5 5 5 4 *.8X8X%XAX&X5 4 :X1X<XNXDXVX5 s a 5 5 6 } } o l m m 5.5.X } } 5 5 5 5 5 5 k s 5 l b $ 5 5 5 5 5 5 ",
"j.G F F D D D D D D D D D D D D g.D D D D D D D D D g.F D g._ _ {.[.].X.].X.].[.X.].X.[.[.X.X.[.+.=.[.+.o.=.=.$.-.@.@.W ] +.+.+.J.OX/ / ^.m.N.` m.M.m.m.M.m.' ' ' tXL.' M.L.` L.' m.M.' ' ' ' ' N.H.'.( M.L.H.M.L.F.m.m.v.[ v.u 4.v.n v.v.4.v.v.v.v.v.v.v.v.n u 4.t t y y y y y y e w.NXw.w.w.w.w.a.T.lX!.a.a.vX1.8.<.1.<.8.1.1.2.I.xX1.8.1.<.8.1.1.e.<.1.1.1.1.1.1.1.1.1.1.1.1.1.1.1.8.1.r.r.k.t.s 5 5 5 5 a k 5 l 5 5 5 5 4 *.8X8X%XAX&X5 4 :X1X<XNXDXVX5 s a 5 5 6 } 2 X l z z m m O 2 } 5 5 5 5 5 5 @ % a 5 5 p q 5 5 5 5 5 ",
"j.G F F D D D D D D D D D D D D g.D D D D D D D D D g.D D G ] _ ].[.].X.X.X.X.[.X.X.X.[.].X.X.{.=.#.[.o.+.;.$.$.-.@.@.+.+.+.+.+.&.*.+./ (.m./ R ] o.( _ / / R ] E R ] W / / W ] W / / ] ] ] ] W / '.M./ ) G.H.M.G.;.v.N.v.) N.4.4.v.4.v.4.4.v.v.v.v.v.v.v.v.4.u 4.n n t t t t t t e NXa.w.w.w.w.w.w.T.lX!.a.r.!.!.2.1.1.<.8.1.1.2.I.LXS.3.1.<.8.1.1.e.<.<.<.<.<.<.<.<.<.<.<.<.<.<.<.<.8.1.q.r.k.t.s 5 5 5 5 a k 5 l 5 5 5 5 4 *.8X8X%XAX&X5 4 :X1X<XNXDXVX5 s a 5 5 6 } } o a a k 5.k o } } 6 5 5 5 5 l z m 7.5 6.9.b.a 5 5 5 5 ",
"j.G F F D D D D D D D D D D D D g.D D D D D D D D D g.F D D ] ) ].[.].X.X.X.].[.X.X.X.[.].X.X.[.=.o.[.[.=.-.$.$.-.@.@.#.+.+.+.+.+.+.OX/ (.(./ ( R ] _ qX] _ R ( ( ] R ] ( ( ] R ] / ) _ ] ] _ W H.(.( N.) G.H.M.M.[ ) m.v.^ [ 4.4.v.4.v.v.v.v.v.v.v.v.v.v.v.v.4.4.4.4.u n t y y e w.NX1.y.w.w.w.w.w.T.lX!.a.w.w.vXe.<.1.<.8.1.1.0 I.LXx.3.1.<.8.1.1.e.<.1.<.<.<.<.<.<.<.<.<.<.<.<.<.1.8.1.q.r.k.t.s 5 5 5 5 a k 5 l 5 5 5 5 4 *.8X8X%XAX&X5 4 :X1X<XNXDXVX5 s a 5 5 6 <  ., o @ s a X , } 2 6 5 5 5 l b.7.b.l l b.9..Xk % 5 5 5 ",
"j.G F F D D D D D D D D D D D D g.D D D D D D D D D F F D D ] ) ].[.].X.X.X.].[.X.X.X.[.].X.].=.@.o.[.@.;.$.$.$.-.@.@.#.+.+.+.+.+.+.OX$.( /.m.( ( R R ] ] R ] / / _ qX] ( / ] qX( m.(._ R R _ ` '.N.N.( ) G.H.M.M.N.;.N.N.v.) ( 4.v.4.v.v.v.v.v.v.v.v.v.v.v.v.4.4.4.4.4.4.n y y e mXp.1.w.w.w.w.w.w.T.lX!.a.a.1.!.!.x 1.<.1.1.1.w.I.LXT.3.1.<.3.1.1.e.<.1.<.<.1.1.<.<.<.<.<.<.<.<.<.1.8.1.q.r.k.t.s 5 5 5 5 a k 5 l 5 5 5 5 4 *.8X8X%XAX&X5 4 :X1X<XNXDXVX5 s a 5 5 5 6 } :., X + X , :.} 6 5 5 5 5 5 l a l a p m l m q 5 5 5 5 ",
"j.G F F D D D D D D D D D D D D g.D D D D D D D D D g.D D h.] ) ].[.].X.X.X.].[.X.X.X.[.].X.o.=.o.o.[.;.#.$.$.$.-.@.@.#.+.+.+.+.+.+.$.OX/ H./././ ' R ( ( qX] / ( ( ] ) ( / _ ] / /.cX/ R R ( ` H.( N.N.) G.H.M.F.N.) G.m.v.v.[ v.v.n v.v.v.v.v.v.v.v.v.v.v.v.n n n 4.n n n t e <.NX1.w.w.w.w.w.w.w.T.lX!.a.w.w.w.vX1.<.<.8.2.w.xX^.LXI.3.1.<.w.1.1.e.1.1.<.1.<.<.1.<.<.<.<.<.<.<.<.1.8.1.q.r.k.t.s 5 5 5 5 a k 5 l 5 5 5 5 4 *.8X8X%XAX&X5 4 :X1X<XNXDXVX5 s a 5 5 5 5 5 } , % & # , } 5 5 5 5 5 5 5 % 5 % 5 5 % % % 5 5 5 5 5 ",
"j.}.}.F D D D D D D D D D D D D g.D D D D D D D D D ] ] ] ] R o.X.[.].X.X.X.].[.X.X.X.[.[.].=.=.o.o.@.=.O.$.$.$.-.@.@.#.+.+.+.+.+.+.+.OX+./ / /./.zX/ ( / qX] / / ( / ) ( ( ( / ( /./.( ] ] cXtX) N.N.N.) G.H.M.F.N.N.;.) / v.G.M.C.C.C.C.C.C.C.R.' D.C.C.C.C.C.C.x.C.x.x.x.x.u lXlXw.w.e.1.1.w.w.w.T.lX!.a.w.w.1.!.T.2.2.I.8.S.cXcXHX^.3.8.I.^.w.<.e.2.<.1.<.T.w.<.1.<.<.<.<.<.<.<.1.8.1.q.r.k.t.s 5 5 5 5 a k 5 l 5 5 5 5 4 *.8X8X%XAX&X5 4 :X1X<XNXDXVX5 s a 5 5 5 5 5 @ 7 4.S.4.w @ 5 5 5 5 5 5 5 5 5 5 5 5 5 5 5 5 5 5 5 5 ",
"OX}.oXg.D D D D D D D D D D D D g.D D D D D D D D M R o.) ) o.].X.[.].X.X.X.].[.X.X.X.[.].o.;.[.o.o.;.#.+.$.$.$.-.@.@.#.+.+.+.+.+.+.+.$.*.( ( N././.M./ / ] _ C././ ( H./ ( ( / m./.(.N./ m.LXuX[ N.N.N.) G.H.M.F.N.N.K.(.'.'.'.pX'.'.'.(.(.(.(.'.' D.'.(.(.(.(.(.^.^.^.^.^.^.vXVXvXvXvXvX^.T.w.w.a.T.lX!.a.w.w.w.w.cX1.2.cXzXI.^.HXcXcXw.8.cXcXw.0 y.I.1.1.0 ^.T.2.1.1.1.1.1.1.1.1.1.8.1.q.r.k.t.s 5 5 5 5 a k 5 l 5 5 5 5 4 *.8X8X%XAX&X5 4 :X1X<XNXDXVX5 s a 5 5 5 5 # S.nXUXnXUXnXS.% 5 5 5 5 5 5 5 % % 5 5 % 5 5 5 5 5 5 5 ",
"j.g.}.g.D D D D D D D D D D D D g.D D D D D D D D M ] {.X.].X.X.X.[.].X.X.X.X.[.X.X.X.[.].@.@.[.o.@.=.+.+.$.$.$.-.@.@.#.+.+.+.+.+.+.+.+.OX+.( ( / M./.N.(.N./ /.cX/ ( JXm./ ( / H.H.(.m./ (.HXuX[ R [ N.) G.H.M.M.H.'.'.K.J.M.m.G.F.v.v.v.v.v.v.n.` ' n.v.v.v.v.v.v.v.v.v.4.u mXlXS.T.w.!.!.cXcX!.w.w.lX&Xa.w.w.y.e.!.^.I.cXLX^.!.iXuXxXI.8.xXzXI.I.cXLX1.1.w.^.x.2.<.<.<.<.<.<.<.<.<.8.1.q.r.k.t.s 5 5 5 5 a k 5 l 5 5 5 5 4 *.8X8X%XAX&X5 4 :X1X<XNXDXVX5 s a 5 5 5 # T.UXT.e + 7 T.UX!.# 5 5 5 5 5 a l l s 5 k p 5 5 5 5 5 5 ",
"j.G F F F F F F F F F F F F F F g.g.F F F F F F g./ ] [.[.[.[.[.[.[.[.[.[.[.[.[.[.[.[.[.[.=.[.|.[.;.@.+.+. X$.%.-.@.@.@.+.+.+.+.+.+.+.+. XOX( ) ) #.H./.JXH.) /.(.) M././.N.) ) /.M.(.J./ (.'.iX` eX[ N.G.G.H.J.'.'.J.F.G.G.M.M.F.G.C.C.C.C.C.C.B.` ' B.C.C.C.C.C.C.A.C.S.S.S.VX!.!.!.T.T.w.w.T.vXvXT.!.&XT.a.y.V.y.w.xXHXHXHX^.!.uX' cXHX^.cXHX^.HXHXHXw.8.HXLXT.3.w.1.1.1.1.1.1.1.1.e.e.r.t.k.t.s 5 5 5 5 a k 5 l 5 5 5 5 4 *.8X8X%XAX&X5 4 :X1X<XNXDXVX5 s a 5 5 # u nXT.. % s 5 . w.nX4.# 5 5 5 5 a .X.X7..XXXa 5 5 5 5 5 5 ",
"j.F F F F F F F F F F F F F F F g.F F F F F F F g./ ] {.].].].].].[.[.].].].[.[.].[.].{.=.=.[.[.=.=.[.+.+.$.$.%.-.@.@.@.+.+.+.+.+.+.+.+.+.OX+.( ( ) M.HXM./.N.(./.N.M.(.H.H./ H.(./ (.H./ cXM./.rX] R N.N.L.(.vX(.M.` eXM.G.F.M.m.G.M.C.C.C.C.m.B.rX' B.m.m.m.C.C.C.C.C.C.v.!.NXT.!.!.T.!.T.a.T.T.lXvXlX&XT.a.T.^.^.a.m./.LXHXcXp.uXW !.LXcXI.HXcXT.!.LXI.1.HXLXT.1.^.1.1.1.1.1.1.1.1.e.8.r.r.k.t.s 5 5 5 5 a k 5 l 5 5 5 5 4 *.8X8X%XAX&X5 4 :X1X<XNXDXVX5 s a 5 5 & !.nX. p 5.5.9.z . nXvX& 5 5 5 5 5 6.5.m 7.5.s 5 5 5 5 5 5 ",
"j.G F F D D D D D D D D D D D D g.D D D D D D D D / ] {.X.X.X.X.X.[.].X.X.X.X.[.X.X.X.[.;.o.o.[.;.#.+.+.+.$.$.$.-.@.@.#.+.+.+.+.+.+.+.+.+.%.%.( ( ) ( H./ (./.H.H.H.H.H.N.JX(.(.m./ (.H.M.JXN./.eXN.R [ ) eXuX` [ rX` ` L.G.G.m.m.F.G.m.m.m.m.m.S.eX' S.v.C.(.m.m.m.C.m.m.v.NX!.T.T.Q.T.!.T.w.T.T.!.^.vXvX!.p.T.xXcXT.~ iXHXcXzXr.[ R a.xXS.y.T.y.y.V.cXxXI.HXcXT.2.zXw.<.<.<.<.<.<.<.8.1.q.r.k.t.s 5 5 5 5 a k 5 l 5 5 5 5 4 *.8X8X%XAX&X5 4 :X1X<XNXDXVX5 s a 5 5 # vX!.  z b m l k   T.nX% 5 5 5 % 5 % % $ 5 5 5 % 5 5 5 5 5 ",
"j.G F F D D D D D D D D D D D D g.D D D D M M M D _ ] {.X.X.X.X.X.[.].X.X.X.].[.X.X.].@.=.o.o.@.=.O.+.+.+.$.$.$.-.@.@.#.+.+.+.+.+.+.+.+.+.+.OX) ( ) ( / ( ( /.M.M.H.(.M.( m.(.cX( / H.(.(./.N./.' n.` [ [ tXrXqXrXtX` ' [ M.G.M.m.M.G.M.m.m.m.m.C.eX' C.C.(./.v.C.m.C.C.v.W.BXT.Q.Q.Q.!.!.T.w.T.!.!.!.vXKX!.V.!.HXHX!.] iXcXT.cXr.' qXS.cXy.y.V.y.y.V.S.HXxXxX!.zXw.HX^.2.1.1.1.1.1.1.8.1.q.r.k.t.s 5 5 5 5 a k 5 l 5 5 5 5 4 OX8X8X%XAX&X5 4 <X1X<XNXDXVX5 s a 5 5 # vX!.  l z b l k   ,.!.5 5 5 5 l 5 k a l 5 5 k l a 5 5 5 5 ",
"j.G F F D D D D D D D D D F / / / / / / ] W ] ] ] W ) {.X.X.X.X.X.[.].X.X.X.].[.X.X.X.=.+.o.o.;.#.+.+.+.+.$.$.$.-.@.@.#.+.+.+.+.+.+.+.+.+.+.%.%.( ) ( ( ( ( / / M.(.(.M.( / ( N.( / N.JX'./.N.(.(.cXuX[ ` L.'.(.qXD.^.uX] C.G.G.m.M.F.G.C.m.m.C.D.wX' (./.C./.v.m.m.C.m.m.BXW.Q.Q.R.Q.!.!.T.T.T.!.!.!.BXuX(.V.^.xXxXxX' D.cXV.^.r.' wXm.cXy.y.V.y.y.V.y.cXHX^.T.HXcXLX^.2.1.<.<.<.<.1.8.1.q.r.k.t.s 5 5 5 5 a k 5 l 5 5 5 5 4 H 8X2X&XBX&X5 4 H <X<XlXFXFX5 s a 5 5 & !.nX  % z b m a   !.T.# 5 % k 9.l m .X7.k b b..X7.5 5 5 5 ",
"j.G G / W W W W W W W W ] R ] ] W ] ] W ] ].].].].].{.].X.X.X.X.X.[.].X.X.X.].[.X.].#.=.[.o.@.=.O.+.+.+.+.$.$.$.-.@.@.#.+.+.+.+.+.+.+.+.+.+.+.OX( ) ( ( ( ( ( ( N././.N.( ( ( / ( ( ) JXJX/.( (./.LXuXD.uX/.JXJXqXiXHXiX` M.M.G.N.M.m.G.m.m.m.C.uXuX' D.D.D.tXS.m.m.C.m.Q.BXA.Q.Q.R.Q.!.!.T.T.T.!.!.!.BXtXJX!.^./.^.LXuXD.iXv.y.t.' wXm.cXy.y.V.y.y.V.y.T.zX!._ C.LXLXcX1.<.1.<.<.<.1.8.1.q.r.k.t.s 5 5 5 5 a k 5 l 5 5 5 5 5 H 2XH XX&XV.5 4 V <XV fXSXgX6 s a 5 5 % t nX!.  @ 5 @   w.lXt % 5 % k 9.m 5.b.7.k 6.9.b.7.5 5 5 5 ",
"$.[.[.W ) X.o.o.o.o.o.o.o.X.].].{.{.].].].X.X.X.X.X.[.].X.X.X.X.X.[.].X.X.X.].[.X.].=.+.o.o.;.@.+.+.+.+.+.$.$.$.-.@.@.#.+.+.+.+.+.+.+.+.+.+.+.*.%.( ( ( ( ( ( ( / (.JX) ( ( ( ( ( / J.(././.( H./.cXD.wXrXJXJXcXqXJXcXiX` M.M.J.H.M.m.G.G.v.(.C.tXD.uXiX' iXtXS.m.m.C.m.BXW.A.R.Q.R.R.!.!.T.T.Q.Q.!.!.lXtX(.vXcXtXB.cXtXD.uXm.y.v.' wX` cXy.y.V.y.y.V.y.8.cX!.] m.LXHXLXI.2.1.<.<.<.1.8.1.q.r.k.t.s 5 5 5 5 a k 5 l 5 5 5 5 4 H 2XH XX&X&X5 4 V <X:XfXSXgX6 s a 5 5 5 # S.UX4.+ + + t vX>.% 5 5 5 5 s q a p a 5 a a a a 5 5 5 5 ",
"[ #X#X[ X.].].].].].].].].].X.X.[.X.X.X.X.X.X.X.X.X.[.].X.X.X.X.X.[.].X.X.X.].[.].+.=.[.[.#.=.[.+.+.+.+.+.$.$.$.-.@.@.#.+.+.+.+.+.+.+.+.+.+.+.+.OX) ( ( ( ( ( ( / N.H.) ( ( ( ( ( / '.N./././ M.HXC.D.wXuXcXJXcXtXL.A.iX` M.M.H.iXN.m./.G./.tX[ R _ uXiXeXtXtXC.m.m.m.A.BXA.R.R.R.R.R.Q.!.T.T.Q.Q.!.!.lXtXL.vXuXwXL.(.eXD.uX(.S.eX' wXwXm.t.y.t.y.y.V.y.y.I.T.] m.LXcXLXI.2.1.<.<.<.1.8.1.q.r.k.t.s 5 5 5 5 a k 5 l 5 5 5 5 4 H 2XH XX&X&X5 4 V <X:XfXSXgX6 s a 5 5 5 5 # 4.7 6 6 6 6 u % 5 5 5 5 5 % 5 5 5 5 5 5 5 % 5 5 5 5 5 ",
"OXoXoX}.X.X.X.X.X.X.X.X.X.X.X.X.[.X.X.X.X.X.X.X.X.X.[.].X.X.X.X.X.[.].X.X.X.X.[.].=.#.[.[.;.#.+.+.+.+.+.+.$.$.$.-.@.@.#.+.+.+.+.+.+.+.+.+.+.+.o.*. X( ( ( ( ( ( ( ( / ) ( ( ( ( / M.'.( M.M.( N./.H.iXuXHX(.JX/.iXN.M.L.` N.M.(.JXG.^.iXJXJXeX' D.m.tXtXqXtXtXC.v.m.m.BX=XA.R.R.R.R.R.R.Q.!.T.Q.E.Q.!.vXtX/.iXwXeXwXqXrXD.tXtXm.qX` qXwX[ t.y.( v.y.V.v.y.y.r.` m.LXT.cX^.2.1.<.<.<.<.8.1.q.r.k.t.s 5 5 5 5 a k 5 l 5 5 5 5 4 H 2XH XX&X&X5 4 V <X:XfXSXgX6 s a 5 5 5 5 5 @ < }  .} 1 @ 5 5 5 5 5 5 5 5 5 5 5 5 5 5 5 5 5 5 5 5 ",
"OXO.[.].].].].].].].].].].].].].[.].].].].].].].].].[.[.].].].].].[.[.].].].].[.+.=.o.[.@.;.+.+.+.+.+.+.+.$.$.$.-.@.@.#.+.+.+.+.+.+.+.+.+.+.+.+.$.OX( ( ( ( ( ( ( ( ( ) ( ( ( ( / '.J.N.N.N.N.N.N.'.(./.(.H./.H.H.F.M.L.` (.N.(.HXJXcXeXiXiXqX` D.C.qXtXwXwX` C./.C.A.BXR.E.R.R.R.R.R.E.E.Q.Q.Q.E.W.W.tXwXiXiXeXD.wXqX[ D.D.qX' R ` rXwX[ p.t.R v.t.V.` n.y.t.` [ cXT.^.cX2.1.1.1.1.1.e.1.r.r.k.t.s 5 5 5 5 a k 5 l 5 5 5 5 4 H 2XH XX&X&X5 4 V <X:XfXSXgX6 s a 5 5 5 5 5  .....} ..:. .p 5 5 5 5 q 5 % 5 5 5 5 5 5 % % 5 5 5 5 ",
"OX}.}.[.[.[.[.[.[.[.[.[.[.[.[.[.[.[.[.[.[.[.[.[.[.[.[.[.[.[.[.[.[.[.[.[.[.[.[.{.=.@.[.[.=.@.|. X|.+.|.|.+. X X X-.@.@.@.+.+.+.+.+.+.+.+.+.+.+.+.+.OX X( ) ) ) ) ) ) ) N.) ) ) ) M.'.N.N.N.N.N.N.(.'.M.J.G.K.H.J.J.J.M.G.tXHXJXJXcXpXG.qX[ L.eXtXH.C.rX/.wX` ' /.LX/.=X=XZ.W.E.E.E.E.E.E.W.Q.Q.W.W._.`.eXwX(.D.qXpXtX[ Z.qXtXrXtX[ $X` wX[ C.m.eXm.V.V.R [ p.V.qX[ p.t.V.^.3.e.e.e.e.e.e.e.t.p.&Xt.s 5 5 5 5 a k 5 l 5 5 5 5 4 H 2XH XX&X&X5 4 V <X:XfXSXgX6 s a 5 5 5 5  .:., o X o : :...5 5 % k 9.z l a a 6.5.5.l k 5.a 5 5 5 ",
"OX}.[.X.X.X.X.X.X.X.X.X.X.X.X.X.[.X.X.X.X.X.X.X.X.X.[.].X.X.X.X.X.[.].X.X.X.X.[.;.o.o.+.;.O.+.+.+.+.+.+.+.$.$.$.-.@.@.#.+.+.+.+.+.+.+.+.+.+.+.+.+. X*.( ( ( ( ( ( ( ( ) ( ( ( / (.J.N.N.N.N.N.N.'.M.M.F.G.K.(.J.J.M.M.M.tXN.zXLXL.L.[ eX[ R rXeXm.m.R m.eXm.tX/.^.zXvX_.'.Z.R.R.R.R.R.R.E.R.Q.R.Q.Q.HXtXeXL.rXqX`.`.B.Z.eXF.L.eXL.XX` eX` ` ` ` ' R ' eXR p.^ wX^ r.v.S.^.<.<.<.<.<.<.8.1.q.r.k.t.s 5 5 5 5 a k 5 l 5 5 5 5 4 H 2XH XX&X&X5 4 V <X:XfXSXgX6 s a 5 5 6 1 .., o k m b + $ ..I 6 % l z .X5.6.9.m .X.X7..X.Xa 5 5 5 ",
"OX}.[.].X.X.X.X.X.X.X.X.X.X.X.X.[.].X.X.X.X.X.X.X.X.[.].X.X.X.X.X.[.].X.X.X.].=.@.o.o.=.@.+.+.+.+.+.+.+.+.$.$.$.-.@.@.#.+.+.+.+.+.+.+.+.+.+.+.+.+.+.OX+.( ( ( ( ( ( ( ) ( ( / N.'.( N.N.N.N.( (.'.N.M.F.G.K.(.J.J.F.M.A.[ ` Q.D.rX` [ ` ' qXyXrXm.m.' m.` m.tX(.n.cXLXHXLX^.Z.R.R.R.R.R.E.R.R.R.R.'.LXtX` tX` ` R.vXZ.Z.M.R.A.eX(.Z.[ ` wXqXR [ ` wXR ` ` p.' rX_ y.R S.^.1.1.1.1.1.1.8.1.q.r.k.t.s 5 5 5 5 a k 5 l 5 5 5 5 4 H 2XH XX&X&X5 4 V <X:XfXSXgX6 s a 5 5 6  ...o s m m 7.m o ....6 5 a 6.l q 6.b p l l k z z a 5 5 5 ",
"OX}.[.X.X.X.X.X.X.X.X.X.X.X.X.X.[.].X.X.X.X.X.X.X.X.[.].X.X.X.X.X.[.].X.X.X.o.=.o.o.+.;.+.+.+.+.+.+.+.+.+.$.$.$.-.@.@.#.+.+.+.+.+.+.+.+.+.+.+.+.+.+.%.*.( ( ( ( ( ( ( ) ( ( / (.H.( N.N.N.N.N.'.J.M.M.F.G.K.H.J.J.F.M.M.F.` M.` eX` [ yXqXwX[ [ m.m.C.m.m.m.` m.C.BXHXcXcXHXR.R.R.R.R.R.E.R.R.Z.'.LXJXpX_.wXH.L.A.`.`.B.Z.Z.Z.qX(.W.V.` wX[ eXF.eXrXR ` ` ^ ' [ [ y.eXv.^.1.<.<.<.<.1.8.1.q.r.k.t.s 5 5 5 5 a k 5 l 5 5 5 5 4 H 2XH XX&X&X5 4 V <X:XfXSXgX6 s a 5 5 6 ..I o l b m m 5.+ I ..5 5 5 % % 5 s $ % $ $ $ % 5 5 5 5 5 ",
"OX}.[.X.X.X.X.X.X.X.X.X.X.X.X.X.[.].X.X.X.X.X.X.X.X.[.].X.X.X.X.X.[.].X.X.].@.=.o.o.=.=.+.+.+.+.+.+.+.+.+.$.$.$.-.@.@.#.+.+.+.+.+.+.+.+.+.+.+.+.+.+.+.OXo.( ( ( ( ( ( ) ( ( ( '.N.N.N.N.N.( (.(.N.M.M.F.G.K.H.J.J.F.M.M.M.rXrXqXwXrX` [ wX` C.G.M.m.m.m.m.m.` ' K.BXzXQ.Z.^.HXR.Z.R.R.R.E.R.Z.'.JX'.(.pX_.eXW.Q.R.E.vXZ.Z.Z.R.qXL.vXV.` qXV.B.Z.qXB.rXrXrXqX' M.qX^ wXR ^.1.<.1.<.<.1.8.1.q.r.k.t.s 5 5 5 5 a k 5 l 5 5 5 5 4 H 2XH XX&X&X5 4 V <X:XfXSXgX6 s a 5 5 6  . .o s b k k m o { ..6 5 5 5 5 b k m m s l b p 5 5 5 5 5 ",
"OX}.}.].X.X.X.X.X.X.X.X.X.X.X.X.[.].X.X.X.X.X.X.X.X.[.].X.X.X.X.X.[.].X.X.X.;.|.o.+.;.+.+.+.+.+.+.+.+.+.+.$.$.$.-.@.@.#.+.+.+.+.+.+.+.+.+.+.+.+.+.+.+.%.%.( ( ( ( ( ( ) ( / H.H.( N.N.N.N.N.'.M.M.M.M.F.G.K.H.J.J.F.M.F.A.qX[ F.` wXqXM.yXm.m.F.G.C.m.m.m.C.` qX'.&X/._.Z.R.JX^.^.'.Q.R.E.R.Z.xXHXW.H.L._.rXW.R.R.R.`._.B.Z.R.[ M.vXR.[ [ V.B.Z.` B.[ ` rXqX` m.wX' qXwX/.u.<.1.<.<.1.8.1.q.r.k.t.s 5 5 5 5 a k 5 l 5 5 5 5 4 H 2XH XX&X&X5 4 V <X:XfXSXgX6 s a 5 5 6 I ..+ X l z q + + ..U 6 5 5 5 5 6.5.b.9.z m $X5.5 5 5 5 5 ",
"OXoXoX[.X.X.X.X.X.X.X.X.X.X.X.X.[.].X.X.X.X.X.X.X.X.[.].X.X.X.X.X.[.].X.].#.=.[.o.=.=.+.+.+.+.+.+.+.+.+.+.$.$.$.-.@.@.#.+.+.+.+.+.+.+.+.+.+.+.+.+.+.+.+.OX) ( ( ( ( ( ) ( ( '.N.N.N.N.N.( (.(.N.F.M.M.F.G.K.H.J.J.F.M.M.M.[ L.M.M.rXqXM.G.M.m.m.G.m.m.m.m.S.R rX` [ ` rXR.R.R.cXcXHXxXQ.JX_.Z.JXHXW.H.L._.rXW.R.R.E.Q.vXZ.Z.Z.Z.B.`.`.V.Z.B.B.Z.B.B.Z.V.` R ] B.wXR eXwXuXu.<.1.<.<.1.8.1.q.r.k.t.s 5 5 5 5 a k 5 l 5 5 5 5 4 H 2XH XX&X&X5 4 V <X:XfXSXgX6 s a 5 5 5 5 ....@ X + X + ....q 5 5 5 5 5 l b 6.6.l q 5.5.5 5 5 5 5 ",
"OXoXoX}.X.].X.X.X.X.X.X.X.X.X.X.[.].X.X.X.X.X.X.X.X.[.].X.X.X.X.X.[.].X.].=.+.[.o.;.+.+.+.+.+.+.+.+.+.+.+.$.$.$.-.@.@.#.+.+.+.+.+.+.+.+.+.+.+.+.+.+.+.+.%.%.( ( ( ( ( ) / H.(.( N.N.N.N.N.'.M.M.M.M.M.F.G.K.H.J.J.F.M.M.M.M.M.M.A.rXeXM.G.G.m.m.G.G.C.m.m.B.E pXtXwXqXwX' Q.R.Z.^.HXiXH.LX'.R.cX_.W.H.L._.tXW.R.R.E.Z.`.W.Z.Z.Z.Z.R.vXB.Z.B.B.Z.B.B.Z.B.B.B.V.B.eXwX` ` uXu.<.1.1.1.1.8.1.q.r.k.t.s 5 5 5 5 a k 5 l 5 5 5 5 4 H 2XH XX&X&X5 4 V <X:XfXSXgX6 s a 5 5 5 5 d ..h 6 $ 4 h ..d 5 5 5 5 5 5 5 5 5 5 5 5 5 5 5 5 5 5 5 ",
"OX}.}.].X.X.X.X.X.X.X.X.X.X.X.X.[.X.X.X.X.X.X.X.X.X.[.].X.X.X.X.X.[.].].#.=.o.[.@.=.O.+.+.+.+.+.+.+.+.+.+.$.$.$.-.@.@.#.+.+.+.+.+.+.+.+.+.+.+.+.+.+.+.+.+.OX( ( ( ( ( ) ( '.M.N.N.N.N.( (.(.N.M.M.M.M.F.G.K.H.J.J.F.M.M.M.M.M.M.M.[ [ M.M.G.M.m.m.G.m.m.m.S.` L.rX` ` wXqXJ.Q.Z./.vX` iXcX'.vXiX` W.' '._.` W.R.R.E.A._.`.Z.Z.Z.Z.Z.`.Q.B.B.B.Z.B.B.Z.B.B.B.B.B.[ eX[ B.uXu.<.<.<.<.<.8.1.q.r.k.t.s 5 5 5 5 a k 5 l 5 5 5 5 4 H 2XH XX&X&X5 4 V <X:XfXSXgX6 s a 5 5 5 5 5 5 5 5 5 5 5 q 5 5 5 5 5 5 5 5 5 5 5 5 5 5 5 5 5 5 5 5 ",
"OX}.}.[.[.[.[.[.[.[.[.[.[.[.[.[.[.[.[.[.[.[.[.[.[.[.[.[.[.[.[.[.[.[.[.{.=.@.[.[.;.@.+.|.|.+.+.|.+.+.|.|.+. X%. X-.@.@.@.+.+.+.+.+.+.+.+.+.+.+.+.+.|.+.+.+.OX%.( ) ) ) ) J.'.N.N.N.N.N.N.'.J.M.F.J.M.F.F.G.K.(.J.J.J.M.J.F.M.J.F.F.J.M.F.M.G.G.M.M.G.G.C.C.m.BX=XeXJ.W.[ wXqXJ.W.tX(.rXiX`.JXLXuXeX` eXBX=XL.W.E.E.W.E.E.vXW.Z.Z.Z.Z.W.`.XXZ.Z.Z.Z.Z.$XZ.Z.Z.Z.Z.XX` [ B.uXw.3.8.8.8.8.e.e.r.t.k.t.s 5 5 5 5 a k 5 l 5 5 5 5 4 H 2XH XX&X&X5 4 V <X:XfXSXgX6 s a 5 5 5 5 5 5 5 5 5 5 5 5 5 5 5 5 5 5 5 5 5 5 5 5 5 5 5 5 5 5 5 5 ",
"OX}.[.].X.].].].].].].].].].].X.[.].X.].].].].].].X.[.].X.].].].X.[.].+.=.o.o.@.=.O.+.+.+.+.+.+.+.+.+.+.+.$.$.$.-.@.@.#.+.+.+.+.+.+.+.+.+.+.+.+.+.+.+.+.+.$.OX( ( ( ( ) '.M.N.N.N.N.N.H.'.N.M.M.F.M.M.F.G.K.(.J.J.F.M.M.M.M.M.M.M.F.M.M.M.M.G.M.m.M.G.m.m.C.BXR.rXA.W.J.eXrXrXR.` rXwXL.$XcXLXuXqXwXrXBX=XW.W.E.R.E.R.Z._.`.Z.Z.Z.R.Z.`.R.B.B.Z.B.B.Z.B.B.B.B.B.V.` [ V.' I.w.<.1.1.1.8.1.r.r.k.t.s 5 5 5 5 a k 5 l 5 5 5 5 4 H 2XH XX&X&X5 4 V <X:XfXSXgX6 s a 5 5 5 5 5 5 5 5 5 5 5 5 5 5 5 5 5 5 5 5 5 5 5 5 5 5 5 5 5 5 5 5 ",
"OX}.[.X.X.X.X.X.X.X.X.X.X.X.X.X.[.].X.X.X.X.X.X.X.X.[.].X.X.X.X.X.[.].=.#.o.o.=.@.+.+.+.+.+.+.+.+.+.+.+.+.$.$.$.-.@.@.#.+.+.+.+.+.+.+.+.+.+.+.+.+.+.+.+.+.+.OX+.( ( / M.'.( N.N.N.N.N.'.J.M.M.M.M.M.M.F.G.K.H.J.J.F.M.M.M.M.M.M.M.F.M.M.M.m.G.G.m.m.G.F.v.=X=XA.L.A.E.A.Q.[ wXJ.rXwXwXL.$X'.cX' [ L.' BX=XW.W.R.R.E.R.R.R.vXZ.Z.Z.R.B._.`.B.B.Z.B.B.Z.B.B.B.B.B.V.m.m.V.` /.T.2.1.<.<.8.1.q.r.k.t.s 5 5 5 5 a k 5 l 5 5 5 5 4 H 2XH XX&X&X5 4 V <X:XfXSXgX5 a k $ 5 5 5 5 5 5 5 5 5 5 5 5 5 5 5 5 5 5 5 5 5 5 5 5 5 5 5 5 5 5 5 ",
"OX}.[.X.X.X.X.X.X.X.X.X.X.X.X.X.[.].X.X.X.X.X.X.X.X.[.].X.X.X.X.X.[.+.=.o.o.#.=.O.+.+.+.+.+.+.+.+.+.+.+.+.$.$.$.-.@.@.#.+.+.+.+.+.+.+.+.+.+.+.+.+.+.+.+.+.+.$.OX( ( / (.J.( N.N.N.( H.'.N.M.M.M.M.M.M.F.G.K.H.J.J.F.M.M.M.M.M.M.M.J.M.M.M.M.M.G.M.m.M.G.C.BXR.R.Q.R.E.R.Q.L.wXeX` L.wXL.W.Q.W.` R.W._.`.=XW.W.R.R.E.R.R.Z.`.`.B.Z.Z.Z.R.vXB.B.Z.B.B.Z.B.B.B.B.B.B.B.B.V.` /.T.2.1.<.1.8.1.q.r.k.t.s 5 5 5 5 a k 5 l 5 5 5 5 4 H 2XH XX&X&X5 4 V <X:XfXSXgX7 5 z k a a a a a a a a a a a a a a a a a a a a a a a a a a a a a a a ",
"OX}.[.].X.X.X.X.X.X.X.X.X.X.X.X.[.].X.X.X.X.X.X.X.X.[.].X.X.X.X.X.{.=.@.o.o.=.=.+.+.+.+.+.+.+.+.+.+.+.+.+.$.$.$.-.@.@.#.+.+.+.+.+.+.+.+.+.+.+.+.+.+.+.+.+.+.+.OX+./ N.'.( N.N.N.N.( '.J.M.M.M.M.M.M.M.F.G.K.H.J.J.F.M.M.M.M.M.M.M.J.M.M.M.M.m.G.G.m.m.[ *XBXA.R.R.R.E.R.R.A.' wXrXJ.qXL.W.R.L.` Q.W.Q.`.=XW.W.R.R.E.R.R.R.W.vXZ.Z.Z.Z.B.`.R.B.Z.B.B.Z.B.B.B.B.B.B.B.B.V.] JXT.2.<.<.1.8.1.q.r.k.t.s 5 5 5 5 a k 5 l 5 5 5 5 4 H 2XH XX&X&X5 4 V <X:XfXSXgX7 % 5 a k k k k k k k k k k k k k k k k k k k k k k k k k k k k k k k ",
"OX}.[.X.X.X.X.X.X.X.X.X.X.X.X.X.[.].X.X.X.X.X.X.X.X.[.].X.X.X.X.X.[.;.o.o.+.;.+.+.+.+.+.+.+.+.+.+.+.+.+.+.$.$.$.-.@.@.#.+.+.+.+.+.+.+.+.+.+.+.+.+.+.+.+.+.+.+.%.OX/ (.H.( N.N.N.( J.'.N.M.M.M.M.M.M.M.F.G.K.H.J.J.F.M.M.M.M.M.M.M.J.M.M.M.M.M.M.G.m.m.M.BXQ.R.R.R.R.E.R.R.R.Q.` ` J.rX` L.rXqXrXW.Q._.`.=XW.W.R.R.E.R.R.R.R.`.W.B.R.Z.B._.`.B.Z.B.B.Z.B.B.B.B.B.B.B.B.V.] JXT.x w.1.<.8.1.q.r.k.t.s 5 5 5 5 a k 5 l 5 5 5 5 4 H 2XH XX&X&X5 4 V <X:XfXSXgX7 p l k k k k k k k k k k k k k k k k k k k k k k k k k k k k k k k k ",
"OXoXoX[.X.X.X.X.X.X.X.X.X.X.X.X.[.].X.X.X.X.X.X.X.X.[.].X.X.X.X.].=.@.o.o.=.@.[.+.+.+.+.+.+.+.+.+.+.+.+.+.$.$.$.-.@.@.#.+.+.+.+.+.+.+.+.+.+.+.+.+.+.+.+.+.+.+.+.*.|.'.N.N.N.N.N.( '.H.M.M.M.M.M.M.M.M.F.G.K.H.J.J.F.M.M.M.M.M.M.M.J.M.M.M.M.M.m.G.G.m.W.BXK.Q.R.R.R.E.R.R.R.Q.L.` J.` rXqXwXqX` W.Q._.`.=XW.W.R.R.E.R.R.R.E._.`.B.R.Z.Z.Z.vXB.Z.B.B.Z.B.B.B.B.B.B.B.B.V.' JXI.w.^.1.<.8.1.q.r.k.t.s 5 5 5 5 a k 5 l 5 5 5 5 4 H 2XH XX&X&X5 4 V <X:XfXSXgX6 s .X9.9.9.9.9.b.b.9.9.b.9.9.b..X5.p a a a a a a a a a a a a a a a a ",
"OXoXoX[.X.].X.X.X.X.X.X.X.X.X.X.[.].X.X.X.X.X.X.X.X.[.].X.X.X.X.X.=.o.o.+.;.+.+.+.+.+.+.+.+.+.+.+.+.+.+.+.$.$.$.-.@.@.#.+.+.+.+.+.+.+.+.+.+.+.+.+.+.+.+.+.+.+.+.%.-XH.N.N.N.N.( J.'.M.M.M.M.M.M.M.M.M.F.G.K.(.J.J.F.M.M.M.M.M.M.M.J.M.M.M.M.M.M.F.G.m.BX*X@XR.R.R.R.E.R.R.R.R.A.J.A.J.A.J.wXeXQ.Q.W._.`.=XW.W.R.R.E.R.R.R.E.R.vXR.Z.Z.Z.Z.`.Q.B.B.B.Z.B.B.B.B.B.B.B.B.V.[ JX^.^.cX8.<.8.1.q.r.k.t.s 5 5 5 5 a k 5 l 5 5 5 5 4 H 2XH XX&X&X5 4 V <X:XfXSXgX6 s 9..X$X.X.Xb.$XXXb.XX.XXXb.7.9.m % 5 5 5 5 5 5 5 5 5 5 5 5 5 5 5 % ",
"OX}.oX[.X.X.X.X.X.X.X.X.X.X.X.X.[.X.X.X.X.X.X.X.X.X.[.].X.X.X.].@.=.o.o.=.=.O.+.+.+.+.+.+.+.+.+.+.+.+.+.+.$.$.$.-.@.@.#.+.+.+.+.+.+.+.+.+.+.+.+.+.+.+.+.+.+.+.+.+.=XN.N.N.N.N.( '.H.M.M.M.M.M.M.M.M.M.F.G.K.H.J.J.M.M.M.M.M.M.M.M.F.M.M.M.M.M.M.m.[ K.BXA.#XE.R.R.R.E.R.R.R.R.R.R.R.Q.R.W.rX` Q.Q.Q.Q.`.=XW.W.R.R.E.R.R.R.E.Z.`.`.Z.Z.Z.Z.Q.`.B.B.B.Z.B.B.B.B.B.B.B.B.V.[ iXcX^./.4.<.8.1.q.r.k.t.s 5 5 5 5 a k 5 l 5 5 5 5 4 H 2XH XX&X&X5 4 V <X:XfXSXgX6 s 9.%X;X%X%X%X;X%X%X%X%X%XXX7.b.m 5 5 5 5 5 5 5 5 5 5 5 5 5 5 5 5 5 ",
"OX}.}.[.[.[.[.[.[.[.[.[.[.[.[.[.[.[.[.[.[.[.[.[.[.[.[.[.[.[.[.[.=.|.[.+.;.+.+.|.+.+.+.|.|.+.+.|.+.+.|.|.+. X$.%.-.@.@.@.+.+.+.+.+.+.+.+.+.+.+.+.+.|.+.+.+.+.+.+.K.-X XM.N.N.N.M.'.M.J.M.M.M.M.M.J.M.F.F.G.K.(.J.J.J.M.J.F.M.J.F.M.J.M.M.M.M.M.M.M.G.BX=XE.*X@XQ.E.E.W.E.E.E.E.E.E.E.E.E.W.E.E.E.W._._.BX=XW.W.E.E.W.E.E.E.W.E.E.vXE.Z.Z.E.Z.vXE.B.Z.$XZ.Z.Z.Z.Z.Z.Z.Z.XX[ /.cXHX' 4.3.e.e.r.t.k.t.s 5 5 5 5 a k 5 l 5 5 5 5 4 H 2XH XX&X&X5 4 V <X:XfXSXgX6 s b.XXXXXXXX%XXX$X%XXX$XXXXX9.b.s 5 5 5 5 5 5 5 5 5 5 5 5 5 5 5 5 5 ",
"OX}.}.[.[.[.[.[.[.[.[.[.[.[.[.[.[.[.[.[.[.[.[.[.[.[.[.[.[.[.{.@.=.[.[.=.=.+.+.|.+.+.+.|.+.+.+.|.+.+.|.+.+. X$.%.-.@.@.@.+.+.+.+.+.+.+.+.+.+.+.+.+.|.+.+.+.+.+.+.'.|.OXN.N.N.) '.(.M.J.M.M.M.M.M.J.M.F.F.G.K.(.J.J.J.M.J.F.M.J.M.M.J.M.M.M.M.M.M.M.A.BXK.E.E.#XE.E.E.W.E.E.E.E.E.E.E.E.E.W.E.E.E.W._._.BX=XW.W.E.E.W.E.E.E.W.E.R.`.`.Z.Z.E.Z._.`.B.Z.$XB.Z.Z.Z.Z.Z.Z.B.XX[ D.p.HXuX8.3.e.e.r.t.k.t.s 5 5 5 5 a k 5 l 5 5 5 5 4 H 2XH XX&X&X5 4 V <X:XfXSXgX6 s 7.5.5.5.5.5.m b.7.5.5.5.5.5.k 5 5 5 5 % # % # % 5 5 3 3 3 3 5 5 5 ",
"OX}.[.X.X.X.X.X.X.X.X.X.X.X.X.X.[.X.X.X.X.X.X.X.X.X.[.].X.X.X.=.+.[.o.;.#.+.+.+.+.+.+.+.+.+.+.+.+.+.+.+.+.$.$.$.-.@.@.#.+.+.+.+.+.+.+.+.+.+.+.+.+.+.+.+.+.+.&.K._.+. X Xm.N.N.'.M.M.M.M.M.M.M.M.M.M.M.F.G.K.H.J.J.M.M.M.M.M.M.M.M.F.M.M.M.M.M.M.m.=X-X@XR.R.K.K.R.R.E.R.R.R.R.R.R.R.R.R.E.R.R.R.Q.Q.Q.`.=XW.W.R.R.E.R.R.R.E.R.A._.vXB.Z.Z.Z.R.`.B.B.Z.B.B.B.B.B.B.B.B.V.[ tXn.cXuXx.2.8.1.q.r.k.t.s 5 5 5 5 a k 5 l 5 5 5 5 4 H 2XH XX&X&X5 4 V <X:XfXSXgX6 s a 5 5 5 5 5 5 5 5 5 5 5 5 5 5 5 5 5 5 t t t t t 5 : : : : : q 5 5 ",
"OX}.[.].X.X.X.X.X.X.X.X.X.X.X.X.[.].X.X.X.X.X.X.X.X.[.].X.].+.=.o.[.@.=.O.+.+.+.+.+.+.+.+.+.+.+.+.+.+.+.+.$.$.$.-.@.@.#.+.+.+.+.+.+.+.+.+.+.+.+.+.+.+.+.+.+.+.'.|.|.|.OXN.( (.(.N.M.M.M.M.M.M.M.M.M.M.F.G.K.H.J.J.F.M.M.M.M.M.M.M.J.M.M.M.M.M.M.A.BXA.#X).E.E.#XR.R.E.R.R.R.R.R.R.R.R.R.E.R.R.R.Q.W._.`.=XW.W.R.R.E.R.R.R.E.E.R.A.vXR.Z.Z.Z.B.`.R.B.Z.B.B.B.B.B.B.B.B.V.M.tXv.cXuXI.2.e.1.q.r.k.t.s 5 5 5 5 a k 5 l 5 5 5 5 5 S H H y.V.y.5 4 J V V dXgXdX6 s a 5 5 % % % $ 5 % 5 5 5 5 5 5 5 5 5 5 zXJXzXzXHX>.Y qXqXT wXK 3 5 ",
"OX}.[.].X.X.X.X.X.X.X.X.X.X.X.X.[.].X.X.X.X.X.X.X.X.[.].X.].=.#.o.[.;.#.+.+.+.+.+.+.+.+.+.+.+.+.+.+.+.+.+.$.$.$.-.@.@.#.+.+.+.+.+.+.+.+.+.+.+.+.+.+.+.+.+.&.K.'.+.|.N.OX|.m.'.M.M.M.M.M.M.M.M.M.M.M.M.F.G.K.H.J.J.F.M.M.M.M.M.M.M.J.M.M.M.M.M.m.=X=XA.@X@XR.R.@XK.R.E.R.R.R.R.R.R.R.R.R.E.R.R.R.Q.W._.`.=XW.W.R.R.E.R.R.R.E.R.R.Z.`.`.B.R.Z.B._.`.B.Z.B.B.B.B.B.B.B.B.V.m.eXv.I.uXI.2.e.1.q.r.k.t.s 5 5 5 5 a k 5 l 5 5 5 5 5 S H S 0.y.y.5 5 J V V i.dXdX5 k a $ k z z z 5.a z 5 5 5 5 5 5 5 5 5 5 zX~.~.~.zX>.Y Y T Y T K 3 5 ",
"OXO.O.X.X.X.X.X.X.X.X.X.X.X.X.X.[.].X.X.X.X.X.X.X.X.[.].].+.=.o.o.@.=.O.+.+.+.+.+.+.+.+.+.+.+.+.+.+.+.+.+.$.$.$.-.@.@.#.+.+.+.+.+.+.+.+.+.+.+.+.+.+.+.+.+.&.'.K.|.|.|. XOXH.(.N.M.M.M.M.M.M.M.M.M.M.M.F.G.K.H.J.J.F.M.M.M.M.M.M.M.J.M.M.M.M.M.M.BX).).).#XE.E.).#XR.E.R.R.R.R.R.R.R.R.R.E.R.R.R.Q.W._.`.=XW.W.R.R.E.R.R.R.E.R.R.R.W.vXZ.Z.Z.Z.R.`.B.Z.B.B.B.B.B.B.B.B.V.m.qXv.y.tXI.2.8.1.q.r.k.t.s 5 5 5 5 a k 5 l 5 5 5 5 5 S H S y.V.y.5 4 J V V i.dXdX5 k a @ 6.6.b.l 6.5 6.9.5.5 5 5 5 5 5 5 5 zX~.HX~.zX>.Y T T Y T K 3 5 ",
"OX}.}.[.X.X.X.X.X.X.X.X.X.X.X.X.[.].X.X.X.X.X.X.X.X.[.].].=.@.o.o.=.@.+.+.+.+.+.+.+.+.+.+.+.+.+.+.+.+.+.+.$.$.$.-.@.@.#.+.+.+.+.+.+.+.+.+.+.+.+.+.+.+.+.+.|.'.|.|.|.|.|.OX'.M.M.M.M.M.M.M.M.M.M.M.M.M.F.G.K.H.J.J.F.M.M.M.M.M.M.M.J.M.M.M.M.m.=XBXA.).E.@X@XR.R.@XK.E.R.R.R.R.R.R.R.R.R.E.R.R.R.Q.W._.`.=XW.W.R.R.E.R.R.R.E.R.R.R.E.`.W.Z.Z.Z.Z.`.R.B.B.B.B.B.B.B.B.B.V.m.qXm.y.tXI.2.8.1.q.r.k.t.s 5 5 5 5 a k 5 l 5 5 5 5 5 S H S y.t.y.5 4 J V V i.dXdX5 k a $ b k m q b 5 7.m b 5 5 5 5 5 5 5 5 zXU.~.P.zX>.Y Y Y Y T K 3 5 ",
"OXoXoX}.X.].X.X.X.X.X.X.X.X.X.X.[.].X.X.X.X.X.X.X.X.[.].o.=.o.o.#.=.+.+.+.+.+.+.+.+.+.+.+.+.+.+.+.+.+.+.+.$.$.$.-.@.@.#.+.+.+.+.+.+.+.+.+.+.+.+.+.+.+.+.&._.K.|.|.|.|.|.@X`.N.M.M.M.M.M.M.M.M.M.M.M.M.F.G.K.H.J.J.F.M.M.M.M.M.M.M.J.M.M.M.M.M.BX).K.).).K.#XE.E.).@XE.R.R.R.R.R.R.R.R.R.E.R.R.R.Q.W._.`.=XW.W.R.R.E.R.R.R.E.R.R.R.E._.`.Z.Z.Z.Z._.`.B.B.B.B.B.B.B.B.B.V.m.eX` ] tXI.2.8.1.q.r.k.t.s 5 5 5 5 a k 5 l 5 5 5 5 5 S H S y.t.y.5 4 J V V i.dXdX5 k a 5 5 5 5 5 5 5 q 5 5 5 5 5 5 5 5 5 5 zXJXzXzXHX>.Y qXT T wXK 3 5 ",
"OXoXoX[.X.X.X.X.X.X.X.X.X.X.X.X.[.X.X.X.X.X.X.X.X.X.[.].=.@.o.o.=.=.+.+.+.+.+.+.+.+.+.+.+.+.+.+.+.+.+.+.+.$.$.$.-.@.@.#.+.+.+.+.+.+.+.+.+.+.+.+.+.+.+.+.|.'.|.|.|.|.|.|.'.;XN.M.M.M.M.M.M.M.M.M.M.M.M.F.G.K.H.J.J.F.M.M.M.M.M.M.M.F.M.M.M.m.).BXA.).).).E.@XK.R.R.#X).R.R.R.R.R.R.R.R.R.E.R.R.R.Q.W._.`.=XW.W.R.R.E.R.R.R.E.R.R.R.E.R.vXE.Z.Z.Z.Z.vXZ.B.B.B.B.B.B.B.B.V.m.qX` qXeXI.2.8.1.q.r.k.t.s 5 5 5 5 a k 5 l 5 5 5 5 5 S H S y.t.y.5 4 J V V i.dXdX5 k a % 5 5 5 5 5 5 % 5 5 5 5 5 5 5 5 5 5 e t t t t 5 : : : : : q 5 5 ",
"OX}.O.].].].].].].].].].].].].].[.].].].].].].].].X.[.[.;.o.o.+.;.+.+.+.+.+.+.+.+.+.+.+.+.+.+.+.+.+.+.+.+.$.$.$.-.@.@.#.+.+.+.+.+.+.+.+.+.+.+.+.+.+.+.&.).K.|.|.|.|.|.K.'. X+Xm.M.M.F.M.M.M.M.M.F.M.M.F.G.K.(.J.J.F.M.M.M.M.F.M.M.J.M.M.M.M.BX*XK.).).).E.K.#XE.E.).@XR.R.R.R.R.R.R.R.R.E.R.R.R.Q.W._.=X=XW.W.E.E.E.R.R.R.E.E.R.R.E.Z.`.`.Z.Z.R.Z.`._.B.B.B.B.B.B.B.B.V.M.qX` eXeX^.2.e.1.r.r.k.t.s 5 5 5 5 a k 5 l 5 5 5 5 5 S H S y.t.y.5 4 J V V i.dXdX5 s a q a a a a a a a a a a a a a a a a a a p p p p a a a a a a a a a ",
"OX}.}.[.[.[.[.[.[.[.[.[.[.[.[.[.[.[.[.[.[.[.[.[.[.[.{.=.=.[.[.=.=.|.+.+.+.+.+.|.+.+.+.|.|.+.+.|.+.+.|.+.+. X%.%.-.@.@.@.+.+.+.+.+.+.+.+.+.+.+.+.+.|.+.|.'.|.|.|.|.|.|.'.K.|.+XF.M.M.J.F.M.M.M.F.J.M.F.F.G.K.(.J.J.J.M.J.F.M.J.F.M.J.M.M.M.).BXK.).).).).).).#X).E.E.#X).E.E.E.E.E.E.E.E.W.E.E.E.W._._.BX=XW.W.E.E.W.E.E.E.W.E.E.E.W.E.W.vXZ.Z.E.Z.W.`.B.Z.Z.Z.Z.Z.Z.Z.Z.M.wX` R wXI.3.e.e.r.t.k.t.s 5 5 5 5 a k 5 l 5 5 5 5 5 S H S y.t.y.5 4 J V V i.dXdX5 s a 5 5 5 5 5 5 5 5 5 5 5 5 5 5 5 5 5 5 # # # # # 5 3 3 3 3 3 5 5 5 ",
"OX}.[.X.X.X.X.X.X.X.X.X.X.X.X.X.[.X.X.X.X.X.X.X.X.X.[.;.o.o.o.;.+.+.+.+.+.+.+.+.+.+.+.+.+.+.+.+.+.+.+.+.+.$.$.$.-.@.@.#.+.+.+.+.+.+.+.+.+.+.+.+.+.+.&.K.).+.|.|.|.|.J.'.|.M.+X+Xm.M.M.M.M.M.M.M.M.M.M.F.G.K.H.J.J.F.M.M.M.M.M.M.M.F.M.M.m.BX*XA.).).).).).E.K.#XR.R.*X@XR.R.R.R.R.R.R.R.E.R.R.R.Q.Q.Q.`.=XW.W.R.R.E.R.R.R.E.R.R.R.E.R.Z.`.Q.B.Z.Z.Z.`.B.B.B.B.B.B.B.B.V.m.wXR R wX' 2.8.1.q.r.k.t.s 5 5 5 5 a k 5 l 5 5 5 5 5 S H S y.t.y.5 4 J V V i.dXdX5 k a % 5 5 5 5 5 5 5 5 5 5 5 5 5 5 5 5 5 c.P.P.P.U.y K Y K K Y > 3 5 ",
"OX}.[.X.X.X.X.X.X.X.X.X.X.X.X.X.[.].X.X.X.X.X.X.X.].@.=.o.o.=.=.O.+.+.+.+.+.+.+.+.+.+.+.+.+.+.+.+.+.+.+.+.$.$.$.-.@.@.#.+.+.+.+.+.+.+.+.+.+.+.+.+.+.+.'.|.|.|.|.|.+.'.).|.N.|.+XM.M.M.M.M.M.M.M.M.M.M.F.G.K.H.J.J.F.M.M.M.M.M.M.M.F.M.m.A.BXA.).).).).).).).E.#X).E.).#XR.R.R.R.R.R.R.R.E.R.R.R.Q.W._.`.=XW.W.R.R.E.R.R.R.E.E.R.R.E.R.A._.`.B.Z.Z.B.`.Q.B.B.B.B.B.B.B.B.m.wXR ` wXD.u.8.1.q.r.k.t.s 5 5 5 5 a k 5 l 5 5 5 5 5 S H S y.t.y.5 4 J V V i.dXdX5 k a 5 5 q 5 p p 5 5 5 % 5 % 5 5 5 5 5 5 JXzXzX~.HX>.T qXT T wXK 3 5 ",
"OX}.[.X.X.X.X.X.X.X.[.[.[.X.X.X.[.].X.X.X.X.X.X.X.].=.+.[.[.;.+.+.+.+.+.+.+.+.+.+.+.+.+.+.|.|.|.+.+.+.+.+.$.$.$.-.@.@.#.+.+.|.|.+.+.+.+.+.+.+.+.+.+.K._.+.|.|.|.|.@X'.|.|.|.M.+X+Xm.M.M.M.M.M.M.K.J.F.F.G.K.H.J.J.F.M.M.M.M.M.M.M.J.J.M.=X=XA.).).).).).).).E.K.@XR._.*X*XQ.R.R.R.R.R.R.E.R.R.R.Q.W._.=X=X_.W.R.R.E.R.R.R.E.R.R.R.E.R.R.W.vXE.R.Z.Z._.`.B.B.B.B.B.B.B.B.m.wXrX` wXuXw.3.1.q.r.k.t.s 5 5 5 5 a k 5 l 5 5 5 5 5 S H S y.V.y.5 4 J V V i.dXdX5 k a @ m 5.7.b 9.q m 5.k p 6.a 5 5 5 5 5 ~.~.zX~.zX>.Y Y T Y T K 3 5 ",
"OX}.[.X.X.X.X.X.X.].}.[.oX[.X.X.[.].X.X.X.X.X.X.].#.=. X[.+X=.O.+.+.+.+.+.+.+.+.+.+.+.+. X+. X X+.+.+.+.+.$.$.$.-.@.@.#.+. X+. X X+.+.+.+.+.+.+.+.+.'.|.|.|.|.|. X`.).|.|.|.N.|.+XM.M.M.M.M.M.J.K.J.K.F.G.K.H.J.J.F.M.M.M.M.M.M.M.K.J.*XBXK.).).).).).).).).).E.#X).*X).#XE.R.R.R.R.R.R.E.R.R.R.Q.W._.BX=X=XW.R.R.E.R.R.R.E.R.R.R.E.R.R.$X`.`.$XZ.Z.R.`.B.B.B.B.B.B.B.B.B.wXrX[ wXuXw.3.1.q.r.k.t.s 5 5 5 5 a k 5 l 5 5 5 5 5 S H S y.V.y.5 4 J V V i.dXdX5 k a @ 6.m 9.a m q 5.z b.6..Xq 5 5 5 5 5 zX~.~.~.zX>.Y Y T Y T K 3 5 ",
"OX}.[.].X.X.X.X.X.X.}.[.oX].X.X.[.].X.X.X.X.X.X.].=.@. X[.;.#.+.+.+.+.+.+.+.+.+.+.+.+.+. X X X|.+.+.+.+.+.$.$.$.-.@.@.#.+.|. X X|.+.+.+.+.+.+.+.&.@X'.+.|.|.|.|.@X'.N.@X|.|.|.M.+X|.M.M.M.M.M.M.K.J.J.F.G.K.H.J.J.F.M.M.M.M.M.M.M.K.F.BX=XA.).).).).).).).).).E.@X@X_.W.@XK.R.R.R.R.R.R.E.R.R.R.Q.W._.BX=X=XW.R.R.E.R.R.R.E.R.R.R.E.R.R.W._.vXE.Z.Z.Z.`.Q.B.B.B.B.B.B.B.B.wXR [ wXuXw.3.1.q.r.k.t.s 5 5 5 5 a k 5 l 5 5 5 5 5 S H S y.V.y.5 4 J V V i.dXdX5 k a % s q s 5 k % z b s m l a 5 5 5 5 5 JX~.~.~.HX>.T T T T qXK 3 5 ",
"OXoXoX[.X.X.X.X.X.X.X.].X.X.X.X.[.].X.X.X.X.X.].+.=.[.o.@.=.O.+.+.+.+.+.+.+.+.+.+.+.+.+.+.+.+.+.+.+.+.+.+.$.$.$.-.@.@.#.+.+.+.+.+.+.+.+.+.+.+.+.&.'.K.|.|.|.|.|.)._.|.@X|.|.|.N.|.+XM.M.M.M.M.M.F.M.M.F.G.K.H.J.J.F.M.M.M.M.M.M.M.F.M.BX).).).).).).).).).).).).).#X).E.).#XR.R.R.R.R.R.E.R.R.R.Q.W._.`.=XW.W.R.R.E.R.R.R.E.E.R.R.E.R.R.E.R.vXE.Z.Z.Z.W.`.B.B.B.B.B.B.B.B.wX` [ wXuXw.3.1.q.r.k.t.s 5 5 5 5 a k 5 l 5 5 5 5 5 S H S y.V.y.5 4 J V V i.dXdX5 k a 5 5 5 5 5 % 5 % % % % % 5 5 5 5 5 5 P.~.U.U./.y K Y Y Y E > 3 5 ",
"OXoXoX{.X.].X.X.X.X.].oX[.[.oX].[.oXoX[.].oX[.{.-.#.[. X=.@.+. X+.+. X X X+. X X+. X+.+. X X X+. X|.+. X X X$. X-.@.+X X+. X X X+. X X+. X X X&.@X'.|.#X+X|.+X|.'.M.@X@X|.@X@X#XM.+X#XM.K.K.M.K.J.K.M.J.K.J.(.K.K.J.F.K.M.J.K.M.K.F.=X=XK.*X).).*X*X).).*X).).*XE.@X*X*X_.@X*XE.E.*X=XW.R.=XW.E.=X_._.BX=X=XW.=XW.E.*X*X*XR.=X_.R.=XW.E._.$XvX`.$X$XZ.$XvX$XB.$X$XZ.B.B.B.wX` [ wXqX4.3.1.q.r.k.t.s 5 5 5 5 a k 5 l 5 5 5 5 5 S H S y.V.y.5 4 J V V i.dXdX5 s a 5 5 5 5 5 5 5 5 5 5 5 5 5 5 5 5 5 5 # # # # # 5 3 3 3 3 3 5 5 5 ",
"OX}.}.[.X.X.X.X.X.X.].oX[.[.oX].[.oXoX}.].oX[.O.-.[.[. X=. X+.+X|.+. X+X X+.+X X+.+X|.+. X X X+.+X X+. X X X$.+X-.@.+X X+. X X X+. X X+. X X+X&.'.@X|.#X+X|. X).'.|.@X#XN.@X@X#XM.#X;Xm.K.K.M.K.K.@XF.J.@XJ.'.K.K.J.J.@XM.J.@XM.K.K.BX).).*X).*X*X*X).).*X).).*X).*X#X*X_.K.-XW.E.=X=X_.R.=XW.E.=X_._.BXBX=XW.=XW.E.=X=X=XR.=X_.R.=XW.E.*X*X=XvX$X$XZ.$XvX=XB.$X$XZ.B.B.B.wX` [ wXwX4.3.1.q.r.k.t.s 5 5 5 5 a k 5 l 5 5 5 5 5 S H S y.t.y.5 4 J V V i.dXdX5 s a p a a a a 8 a k p 8 a a a a a a a a a a a a a a a a a a a a a a ",
"OX}.}.[.[.[.[.[.[.[.[.oX[.[.oX].[.oXoX}.].oX{.=.+X[.[.-.+X X+.+X|.+. X X X+.+X X+.+X|.+. X X X+.+X X+. X X X$. X-.@.+X X+. X X X+. X X+. X X X|.'.+X|.#X+X|.+X'.@X|.@X#X|.@X@X#X|.@X;XN.K.K.M.K.K.K.F.J.@XJ.'.K.K.J.J.@XM.J.K.M.F.*XBXK.).*X).*X*X*X).).*X).).*X).).-X-X_.E.-X).W.=X=X_.R.=XW.E.=X_._.BXBX=XW.=XW.E.=X=X*XR.=X_.R.=XW.E.*X*X*X`.=X$XZ.$X`.`.B.$X$XZ.Z.Z.Z.wX` L.wXwXv.r.e.t.p.&Xt.s 5 5 5 5 a k 5 l 5 5 5 5 5 S H S y.t.y.5 4 J V V i.dXdX5 k a % 5 5 % q I.KXvXKXI.5 % 5 5 5 5 5 5 % % % 5 $ % 5 5 5 $ % 5 5 5 ",
"OX}.}.].].].].].].X.[.oX[.[.oX].[.oXoX}.X.oX[.=.+X[.+.;. X X+.+X+.+. X X X+.+X X+.+X+.+. X X X+.+X X+. X X X$. X-.@.+X X+. X X X+. X X+. X X X_.*X+X|.#X#X|.*X'.#XN.@X#XN.@X@X#X|.@X#X+XJ.K.M.K.K.K.M.J.@XJ.'.K.K.J.F.@XM.J.K.M.J.BX=X).).*X).*X*X*X).).*X).).*X).).*X-X_.E.-X@XE.=X=X_.R.=XW.R.=X_._.BXBX=XW.=XW.R.=X=X*XR.=X_.R.=XW.R.*X*X*X_.vX$XZ.$X*XvXB.$X$XZ.B.B.V.qX` M.qXwX4.q.1.r.r.k.t.s 5 5 5 5 a k 5 l 5 5 5 5 5 S H S y.t.y.5 4 J V V i.dXdX5 k a 5 5 % w KXvXI.u I.KXvXw 5 5 5 % z 6.a a a q l z a 5 k b p q 5 5 ",
"OX}.[.X.X.X.X.X.X.X.].oX}.oXoX}.oXoXoXoX}.oX-.-.oX X=.=. X X X+X X X X X X X+X X X+X X X X X X X+X X X X X X X+X-.-.+X X X X X X X X X X X X+X'.+X#X|.#X#X X'.@X#X@X#X#X@X#X@X#X@X@X@X+X@XK.J.K.J.K.J.K.@XK.'.K.K.K.K.K.J.K.K.F.*XBX*X*X*X*X*X*X*X*X*X*X*X*X*X*X*X*X*X#X*X*X=X#X*X=X=X*X_.=X_._.=X_.`.BXBX=X=X=X_._.=X=X=XW.=X*X_.=X_._.*X*X=X_.vX$X$X*X$XvXE.$X$XZ.B.B.V.qX` m.qXwX4.3.1.q.r.k.t.s 5 5 5 5 a k 5 l 5 5 5 5 5 S H S y.t.y.5 4 J V V i.dXdX5 k a 5 5 % ^.vX4 . # . e KXI.% 5 5 $ 6..X.X9.9..Xm 9.9.9.9.9.7.m % 5 ",
"OX}.[.X.X.X.X.X.X.X.[.oXoXoXoXoXoXoXoXoXoXoX=. X+X X=. X X X+X+X X+X X X+X X+X X+X+X X+X X X+X X+X X+X+X X+X X+X-.+X+X+X+X X X+X X+X X+X+X X*X_.+X#X#X#X+X@X'.@X#X#X#X#X#X#X@X#X@X#X@X+X;XK.K.@XJ.@XK.@X@XK.'.K.K.K.K.@XK.@X@XK.BX=X*X*X*X*X*X*X*X*X*X*X*X*X*X*X*X*X*X*X-X=X=X*X-X=X=X=X=X=X=X=X=X`.`.BXBX=X=X=X=X=X=X=X=X=X=X=X=X=X=X=X*X*X=X*XvX`.$X=X$X=X`.$X$XZ.B.B.V.qX` m.qXwXv.3.1.q.r.k.t.s 5 5 5 5 a k 5 l 5 5 5 5 5 S H S y.t.y.5 4 J V V i.dXdX5 k a 5 % t PXu * b 6.6.* >.PXw % 5 5 l b 5.m 9.6.z m z 5.z z 9.k % 5 ",
"OX}.[.X.X.X.X.X.X.X.].}.[.[.}.[.}.[.}.[.{.+X=.[. X=.=.|. X X|. X|. X X X X|. X X|. X|. X|.|. X X X|. X X X X X X-.-. X X X|.|. X|. X X|. X|.'.|.|.|.|.|.|.'.).|.@X@X@X@X@X@X@X@X@X@X@X@X+XK.J.J.J.J.J.K.G.K.(.K.K.J.J.K.J.J.J.).BX).*X).*X*X).*X).*X).*X*X).*X*X).*X).).#X*X*X).#X_.W.W._._.W.W._._._.BX=X=X_._.W._.W.W.W.W._.W.W.*XW.W.W.W._.W.`.`.$XE.E.W.vX$X$XB.B.B.V.eX` V.` wX^ q.1.r.r.k.t.s 5 5 5 5 a k 5 l 5 5 5 5 5 S H S y.t.y.5 4 J V V i.dXdX5 k a 5 # >.KX$ 5 m b l % e KX>.# 5 5 5 $ $ 5 $ @ 5 $ 5 % % 5 l 5 5 5 ",
"OXO.O.X.X.X.X.X.X.X.X.X.X.X.X.X.[.X.X.X.X.;.+.o.o.;.+.+.+.+.+.+.+.+.+.+.+.+.+.+.+.+.+.+.+.+.+.+.+.+.+.+.+.$.$.$.-.@.#.#.+.+.+.+.+.+.+.+.&.K._.+.|.|.|.|.M.'.|.N.N.N.N.@X|.N.N.N.N.N.@XM.+X Xm.M.M.m.M.F.G.K.H.J.J.M.M.M.M.M.M.BX=XK.A.A.A.A.A.A.A.A.A.A.A.A.A.A.A.A.).E.K.@XR.R.@XK.R.R.E.R.R.R.Q.Q.Q.`.=XW.W.R.R.E.R.R.R.E.R.R.R.E.R.R.E.R.R.E.R.vXR.B.Z.B.`.Z.B.B.B.B.V.[ [ XX] wXv.q.1.q.r.k.t.s 5 5 5 5 a k 5 l 5 5 5 5 5 S H S y.t.y.5 4 J V V i.dXdX5 k a 5 # >.PXe @ b b l + e vXt % 5 5 5 l k p z l l z q 5 q 5 5 5 5 5 ",
"OX}.}.].X.X.X.X.X.X.X.X.X.X.X.X.[.[.oX{.#.=.o.o.@.=.+.|. X X+.+.+.+.+.+.+.+.+.|. X X|.+.+.+.+.+.+.+.+.+.+.$.$.$.-. X X X X+.+.+.+.+.+.+.+.'.|.|.|.|.|.oX_.*X|.N.|.|.|.@X@X@X@X@X|.|.@X|.|.+XM.M.J.A.K.K.@XK.(.J.J.F.M.M.M.M.K.BXK.).*X*X).).).).).).).).).).).).).).).*X*X#X).E.).#XR.R.E.W.$XE.Q.W._.`.=XW.W.E.R.W.$XE.R.E.E.R.R.E.R.R.E.E.R.E.Z.`._.$X$X$X`.W.B.B.B.B.B.V.B.V.] wX^ q.y.p.p.k.t.s 5 5 5 5 a k 5 l 5 5 5 5 5 S H S y.t.y.5 4 J V V i.dXdX5 k a 5 5 w KXx.. 5 s q   c.I.5 5 5 5 5 6.5.5 7.7.b.9.l 5..X5.7.s 5 5 ",
"oXoXoX[.X.X.X.X.X.X.X.X.X.X.X.X.[.[.oXoX=.#.o.o.;.#.+.|.oXoX+.+.+.+.+.+.+.+.+.|.oXoX|.+.+.+.+.+.+.+.+.+.+.$.$.$.-. X XoXoX+.+.+.+.+.+.&.K.'.+.|.|.|.|.@X`.@X@XN.|.|.|.@X@X-X@X@X@XN.@X|.M.+X|.m.J.@X@X@X@XK.H.J.J.F.M.M.M.m.=X=XA.).*X-X*XK.).).).).).).).).).).).).).*X-X-XK.E.R.@XK.R.E.E.%X$XQ.W._.`.=XW.W.R.R.W.$X-XE.E.R.R.R.E.R.R.E.R.R.E.R._.`.$X$X%X=X`.B.B.B.B.B.B.B.V.[ wX^ 3.y.XXXX&Xt.s 5 5 5 5 a k 5 l 5 5 5 5 5 S H S y.t.y.5 4 J V V i.dXdX5 k a 5 5 # x.PXx.  +   >.cXu % 5 5 5 5 5.5.b 7.m 9.7.k b m m 6.z % 5 ",
"OX}.oX[.X.].].].].].].].].].].X.[.[.{. X=.o.o.@.=.O.+.|. X X+.+.+.+.+.+.+.+.+.|.|. X|.+.+.+.+.+.+.+.+.+.+.$.$.%.-.@. X X X+.+.+.+.+.+.+.'.@X|.|.|.|. X_._.@X@X|.|.|.|.@X@X@X@X@X@X|.@X|.N.|.+XM.J.A.K.K.@XK.(.J.J.F.M.F.M.M.BX).).).).*X*X).).).).).).).).).).).).).).*X*X*X#XE.E.).#XR.E.W.$XW.Q.W._.BX=XW.W.E.R.W.$X$XE.E.E.R.R.E.R.R.E.E.R.E.E.R.vXR.$X$XE.`.B.B.B.B.B.B.B.V.[ ` ^ q.y.t.p.&Xp.s 5 5 5 5 a k 5 l 5 5 5 5 5 S H S y.t.y.5 4 J V V i.dXdX5 k a 5 5 5 # I.>.& # & >.c.# 5 5 5 5 5 5 q a a p 5 q 5 5 5 5 p 5 5 5 ",
"$.O.X.X.X.X.X.X.X.X.X.X.X.X.X.X.].X.X.=.#.o.o.;.#.o.+.+.O.O.+.+.O.+.+.O.+.+.+.+.O.O.O.+.+.O.O.+.+.O.+.+.O.+.+.$.%.#.#.#.+.+.+.+.+.+.&.N.'.+.|.|.|.|.|.'.N.N.N.N.N.N.N.|.N.N.N.N.N.N.|.N.N.N. X|.m.m.M.M.F.F.H.M.J.M.m.M.m.*X=XA.A.).A.A.A.A.A.A.A.A.A.A.A.A.A.A.A.A.).A.A.A.@XK.R.R.@XA.R.A.A.A.R.Q.Q.`.W.Q.Q.R.R.R.A.A.A.R.R.A.A.R.A.A.R.R.A.R.R.Z.`.Q.B.B.B.`.R.n.B.B.B.B.B.V.[ ` ^ 2.<.u.u.p.t.a 5 5 5 5 a s 5 l 5 5 5 5 5 S H S y.t.y.5 4 J V V i.dXdX5 k a 5 5 5 5 & 5 >.x.>.5 & 5 5 5 5 5 5 5 5 5 % % 5 5 5 5 5 5 5 5 5 5 ",
"v z z z z z z z z z z z z z z z z z z v z z v v v v v v v v v v v v v v v v v v v v v v v v v v v v v v v v v v v v v v v v v v v v v b b v v v v v b n v v v v v v v v v v v v v v v v v v b b v v v v v v v v v v v v v 5.b b b b b b b b b b b b b b b b b b b b b b b b b b b b b b b b b b b b b b b b b b b b b b b b b b b b b b b b b b b b b b b b b b b z b b b b b z v n l l l l l z z 5 5 5 5 5 p z k k 5 5 5 5 5 S H S y.t.y.5 4 J V V i.dXdX5 k a 5 5 5 # v.vXPXvXPXvX>.# 5 5 5 5 5 5 5 5 p s 5 5 a a 5 5 5 5 5 5 ",
"a a a a a a a a a a a a a a a a a a a a a a a a a a a a a a a a a a a a a a a a a a a a a a a a a a a a a a a a a a a a a a a a a a a a a a a a a a a a a a a a a a a a a a a a a a a a a a a a a a a a a a a a a a a a a a a a a a a a a a a a a a a a a a a a a a a a a a a a a a a a a a a a a a a a a a a a a a a a a a a a a a a a a a a a a a a a a a a a a a a a a a a a a a a a a a a a 5 5 5 5 5 5 % a s 5 % 5 5 5 5 S H S y.V.y.5 4 J V V i.dXdX5 s a 5 5 # >.PXI.e + e ^.PXt % 5 5 5 5 5 5 5 7.m 9.k 9..Xs % 5 5 5 5 ",
"5 5 5 5 5 5 5 5 5 5 5 % % % % % % % % % % % % % % % % % % 5 5 5 5 5 5 5 5 5 5 5 5 5 5 5 5 5 5 5 5 5 5 % % % % % % % % % % % % % 5 % 5 5 5 5 5 % $ $ $ $ $ $ $ $ $ $ $ $ $ % 5 5 5 5 5 5 5 5 5 5 5 5 % & & & & & & 5 3 3 3 3 3 3 5 5 5 5 5 5 5 5 5 5 5 5 5 5 5 5 5 5 5 5 $ $ $ $ $ $ $ $ $ $ $ $ $ $ % 5 5 5 % % % % % % % % % % % % % % % % % % % % % % % % % % % % % % % % % % % % % % % % % % 5 5 5 5 5 a s 5 s a s 5 5 5 5 S H S y.V.y.5 4 J V V i.dXdX6 k a 5 5 5 vXI.. # l # . x.I.5 5 5 5 5 5 5 5 z .X5.b.6.7.k % 5 5 5 5 ",
"5 5 5 5 5 5 5 5 5 5 5 5 5 5 5 5 5 5 5 5 5 5 5 5 5 5 5 5 5 5 5 5 5 5 5 5 5 5 5 5 5 5 5 5 5 5 5 5 5 5 5 5 5 5 5 5 5 5 5 5 5 5 5 5 5 5 5 5 5 5 5 5 l l l l l l l l l l l l l 5 5 5 5 5 5 5 5 5 5 5 5 5 e P.P.P.P.P.c.: K K K K K K 5 5 5 5 5 5 5 5 5 5 5 5 5 5 5 5 5 5 5 5 k l l l l l l l l l l l l l 5 a p 5 z b z z z z z z z z z z z z z z z z z z z z z z z z z z z z z z z z z z z z z z z b q 5 5 5 5 5.5.k 7.b.5.5 5 5 5 8 5 8 6 7 5 5 5 8 3 5 7 7 7 5 k a 5 # u PXe & 5.m s + e cXt % 5 5 5 5 5 5 k k a s a a a 5 5 5 5 5 ",
"5 5 % 5 5 5 % % 5 5 a a a s s a s s s a s s s s s s s a a s s p 5 5 5 5 5 5 5 5 5 5 % 5 % 5 % % 5 5 a a s a s s s a a a s s s s a a k a 5 5 5 a m l l l l l l l l l l l m a 5 5 5 5 5 % 5 % % % 5 # u HX~.~.~.zXzX> wXT T T qXT 3 5 5 5 5 5 5 5 5 5 5 5 5 5 5 5 5 5 5 5 m l l l l l l l l k l l l m a q q 5 m k k k k k k k k k k k k k k k s k k s s s s k k k k k k k k k k k k k k k k k s m a 5 5 5 5 m 6.m 7.b.5.5 5 5 5 6 } d } } 1 6 5 6 } 1 1 1 I 4 k a 5 # c.vX@ 5 m z m a $ ^.u % 5 5 5 5 5 5 % % % 5 % % 5 5 5 5 5 5 ",
"z 5.l a k 6.a k 5 a 6.b m k a 6.z s l l l s s s s s s s q XX$Xq 5 5 % 5.z m s l m q k a k a b z 5 5 9.6.l k m z s 9.6.b.z a s s a k ;X6.5 5 5 a l z 6.5.5.5.k m m 6.m l l a $ s 7.k 6.b s k k k 5 # u zXU.~.~.U.~.> T Y T Y Y Y 3 5 5 5 5 5 5 5 5 5 5 5 5 5 5 5 5 5 5 q z l m m z 6.l l m 7.z m l z a q q 5 b s s s s s s s s s s s s s s a 5.z 9.b.m 7.7.k a s s s s s s s s s s s s s s s a z a 5 5 5 5 a k p a a a 5 5 5 5 d :.} :.:.} 4 5 d :.} 1 :.:.6 k a 5 % u PXy * z m b * y cXw % 5 5 5 5 m b a 7.6.m 5 m 7.9.a 5 5 5 ",
".X.X9.9.9.b.XX5.5 a XX.XXX9.b..X.XXXb.9..Xk s s s s s a a .X.Xa 5 5 5 l b.5.@ b b.b.7.9.7.7..Xb 5 q XX9.b..X.X.Xs XXb.9.l s s s a z XX7.5 5 5 a l 6..X.X.X9.m XXXX9.XXm l s @ l 7.5.b.9..X.Xb 9.a # >.zX~.HXzX~.~.> qXY T Y T T 3 5 5 5 5 5 5 5 5 5 5 5 5 5 5 5 5 5 5 q z m XX.X6.9.5.5.6.XXXX$Xz z a q q 5 b s s s s s s s s s s s s s s a 9.z 9..XXXXXXXs l k s s s s s s s s s s s s s s a b a 5 5 5 5 5 $ 5 5 5 % 5 5 5 5 5 , d < , d 5 5 5 , d q p d % k a 5 5 5 vXvX+ + 5 + @ I.x.5 5 5 5 5 5 5.5.b 7..Xm z 9.9..Xl % 5 5 ",
"m z b z b m b l 5 a b.b.9.9.9.b.b.b.m m 6.l a s s s s s q XX$Xq 5 5 5 k b m k a 5.l b z b l m z 5 p 6.k b.m b.b.k .X7.5.k s s s a k ;X6.5 5 5 a z z k b 5.5.l 6.m 6.5.l l a $ a a k z z m z q m a # u zXU.~.~.U.~.> T Y T Y Y Y 3 5 5 5 5 5 5 5 5 5 5 5 5 5 5 5 5 5 5 q z k 6.5.z m b 5.7.m 6.5.l z a q q 5 b s s s s s s s s s s s s s s a 5.7.7.z 7.m m 5.m z a s s s s s s s s s s s s s a z a 5 5 5 5 5 a 9.9.9.5 5 5 5 5 6 p p p 1 1 4 5 6 1 1 1 I d 4 k a 5 5 # t PXI.* @ + x.^.w % 5 5 5 5 5 z m l m m z p 5.b 6.a 5 5 5 ",
"% % % % % % % 5 5 5 s s s k s k a k s s s s s s s s s s a k k p 5 5 5 5 % % 5 5 % % 5 % 5 5 % 5 5 5 s s s s s s s k s s s s s s a a l s 5 5 5 a m k l k k l l k k l k k m a 5 5 5 5 % 5 5 5 5 5 5 # >.HX~.~.~.zXzX> wXT T T qXT 3 5 5 5 5 5 5 5 5 5 5 5 5 5 5 5 5 5 5 5 m l k k l l l l l l k k k m a q q 5 m k s s s s s s s s s s s s s k s s s s a s s s s s k s s s s s s s s s s s s k s b a 5 5 5 5 % 5.9.b..Xp 5 5 5 5 p :.} :.:.} 6 5 p } } :.:.} 6 s k $ 5 5 # u e % 5 5 w e # 5 5 5 5 5 5 % % % % $ % % % % % % 5 5 5 ",
"5 5 5 5 5 5 5 5 5 5 5 5 5 5 5 5 5 5 5 5 5 5 5 5 5 5 5 5 5 5 5 5 5 5 5 5 5 5 5 5 5 5 5 5 5 5 5 5 5 5 5 5 5 5 5 5 5 5 5 5 5 5 5 5 5 5 5 5 5 5 5 5 l l l l l l l l l l l l l q 5 5 5 5 5 5 5 5 5 5 5 5 e P.P.P.P.P.c.: K K K K Y K 5 5 5 5 5 5 5 5 5 5 5 5 5 5 5 5 5 5 5 5 l l l l l l l l l l l l l l 5 a p 5 z b b b b b b b b b b b b b b b b b b b b b b b b b b b b b b b b b b b b b b b z m p 5 5 5 5 5 s m z m 5 5 5 5 5 p 1 1 1 } 1 5 5 p 1 p 1 1 1 6 5 z s q p a 8 8 p p p 8 8 a p p p p p p a a a a a a p a a a p p p p ",
"5 % % % % % % % % % % % % % % % % % % % % % % % % % % % % % % % % % % % % % % % % % % % % % % % % % % % % % % % % % % % % % % % % % % % % % % % $ $ $ $ $ $ $ $ $ $ $ $ $ % % % % % % % % % % % % 4 % & & & & & & 4 3 3 3 3 3 3 % % % % % % % % % % % % % % % % % % % % $ $ $ $ $ $ $ $ $ $ $ $ $ $ % 5 5 % % % % % % % % % % % % % % % % % % % % % % % % % % % % % % % % % % % % % % % % % % % % % % % % 5 $ @ $ @ % % % % % % 6 6 6 6 4 % % % 4 % 6 4 4 % % 5 s k k k l k k k k k k k k k k k k k k k k k k k k k k k k k k k ",
"k k k k k l k k k k k k k k k l k k k k k k k k k k k k k k k k k k k k k k k k k k k k k k k k k k k k k k k k k k k k k k k k k k k k k k k k l l l l l l l l l l l l l k k k k k k k k k k k k k k l l l l l l k k k k k k k k k k k k k k k k k k k k k k k k k k k l l l l l l l l l l l l l l k k k k k k k k k k k k k k k k k k k k k k k k k k k k k k k k k k k k k k k k k k k k k k k k k k k k l l l l k k k k k k l l l l l k k k l k l l l k k k s k k s s s s s s s s s s s s s s s s s s s s s s s s s s s k s ",
".X9.b.9.b.9.9..X9.9.9.b.b.9.b.9.9.9.b.b a a a a a a a a a a a a a a a a a a a a a a a a a a a a a a a a a a a a a a a a a a a a a a a a a a a a a a a a a a a a a a a a a a a a a a a a a a a a a a a a a a a a a a a a a a a a a a a a a a a a a a a a a a a a a a a a a a a a a a a a a a a a a a a a a a a a a a a a a a a a a a a a a a a a a a a a a a a a a a a a a a a a a a a a a a a a a a a a a a a a a a a a a a a a a a a a a a a a a a a a a a a a a a a a a a a a a a a a a a a a a a a a a a a a a a a a a a a a ",
"BX.X6.XXXX.XXXXXXX.XXX$Xb.XX$X.X9.7.9.l $ 5 5 5 5 5 5 5 5 5 5 5 5 5 5 5 5 5 5 5 5 5 5 5 5 5 5 5 5 5 5 5 5 5 5 5 5 5 5 5 5 5 5 5 5 5 5 5 5 5 5 5 5 5 5 5 5 5 5 5 5 5 5 5 5 5 5 5 5 5 5 5 5 5 5 5 5 5 5 5 5 5 5 5 5 5 5 5 5 5 5 5 5 5 5 5 5 5 5 5 5 5 5 5 5 5 5 5 5 5 5 5 5 5 5 5 5 5 5 5 5 5 5 5 5 5 5 5 5 5 5 5 5 5 5 5 5 5 5 5 5 5 5 5 5 5 5 5 5 5 5 5 5 5 5 5 5 5 5 5 5 5 5 5 5 5 5 5 5 5 5 5 5 5 5 5 5 5 5 5 5 5 5 5 5 5 5 5 5 5 5 5 5 5 5 5 5 5 5 5 5 5 5 5 5 5 5 5 5 5 5 5 5 5 5 5 5 5 5 5 5 5 5 5 5 5 5 5 5 5 5 5 5 5 5 % ",
";XXX6..X%X%X%X%X%XXX.X%X%X%X%X;X.X7.b.l 5 5 5 5 5 5 5 5 5 5 5 5 5 5 5 5 5 5 5 5 5 5 5 5 5 5 5 5 5 5 5 5 5 5 5 5 5 5 5 5 5 5 5 5 5 5 5 5 5 5 5 5 5 5 5 5 5 5 5 5 5 5 5 5 5 5 5 5 5 5 5 5 5 5 5 5 5 5 5 5 5 5 5 5 5 5 5 5 5 5 5 5 5 5 5 5 5 5 5 5 5 5 5 5 5 5 5 5 5 5 5 5 5 5 5 5 5 5 5 5 5 5 5 5 5 5 5 5 5 5 5 5 5 5 5 5 5 5 5 5 5 5 5 5 5 5 5 5 5 5 5 5 5 5 5 5 5 5 5 5 5 5 5 5 5 5 5 5 5 5 5 5 5 5 5 5 5 5 5 5 5 5 5 5 5 5 5 5 5 5 5 5 5 5 5 5 5 5 5 5 5 5 5 5 5 5 5 5 5 5 5 5 5 5 5 5 5 5 5 5 5 5 5 5 5 5 5 5 5 5 5 5 5 5 5 5 ",
";X.X7..X%X%XXXXXXX.X.X%XXX$XXX$Xb.9.9.p 5 5 5 5 5 5 5 5 5 5 5 5 5 5 5 5 5 5 5 5 5 5 5 5 5 5 5 5 5 5 5 5 5 5 5 5 5 5 5 5 5 5 5 5 5 5 5 5 5 5 5 5 5 5 5 5 5 5 5 5 5 5 5 5 5 5 5 5 5 5 5 5 5 5 5 5 5 5 5 5 5 5 5 5 5 5 5 5 5 5 5 5 5 5 5 5 5 5 5 5 5 5 5 5 5 5 5 5 5 5 5 5 5 5 5 5 5 5 5 5 5 5 5 5 5 5 5 5 5 5 5 5 5 5 5 5 5 5 5 5 5 5 5 5 5 5 5 5 5 5 5 5 5 5 5 5 5 5 5 5 5 5 5 5 5 5 5 5 5 5 5 5 5 5 5 5 5 5 5 5 5 5 5 5 5 5 5 5 5 5 5 5 5 5 5 5 5 5 5 5 5 5 5 5 5 5 5 5 5 5 5 5 5 5 5 5 5 5 5 5 5 5 5 5 5 5 5 5 5 5 5 5 5 5 5 5 ",
"m 6.7.6.6.b.5.6.6.6.7.6.5.6.5.6.6.5.s 5 5 5 5 5 5 5 5 5 5 5 5 5 5 5 5 5 5 5 5 5 5 5 5 5 5 5 5 5 5 5 5 5 5 5 5 5 5 5 5 5 5 5 5 5 5 5 5 5 5 5 5 5 5 5 5 5 5 5 5 5 5 5 5 5 5 5 5 5 5 5 5 5 5 5 5 5 5 5 5 5 5 5 5 5 5 5 5 5 5 5 5 5 5 5 5 5 5 5 5 5 5 5 5 5 5 5 5 5 5 5 5 5 5 5 5 5 5 5 5 5 5 5 5 5 5 5 5 5 5 5 5 5 5 5 5 5 5 5 5 5 5 5 5 5 5 5 5 5 5 5 5 5 5 5 5 5 5 5 5 5 5 5 5 5 5 5 5 5 5 5 5 5 5 5 5 5 5 5 5 5 5 5 5 5 5 5 5 5 5 5 5 5 5 5 5 5 5 5 5 5 5 5 5 5 5 5 5 5 5 5 5 5 5 5 5 5 5 5 5 5 5 5 5 5 5 5 5 5 5 5 5 5 5 5 5 5 ",
"5 5 5 5 5 5 5 5 5 5 5 5 5 5 5 5 5 5 p 5 5 O O O O O O O O O O O O O O O O O O O O O O O O O 4 5 q q 5 5 5 5 5 5 5 5 5 5 5 5 5 5 5 5 5 5 5 5 5 5 5 5 5 5 5 5 5 a 5 6 6 6 6 6 6 6 6 6 6 6 6 6 6 6 6 6 6 6 6 6 6 6 6 6 6 5 5 a 5 5 5 5 5 5 5 5 5 5 5 5 5 5 5 5 5 5 5 5 5 5 5 5 5 5 5 5 5 a 5 % & & & & & & & & & & & & & & & & & & & & & & & & # 5 q p 5 5 5 5 5 5 5 5 5 5 5 5 5 5 5 5 5 5 5 5 5 5 5 5 5 5 5 5 a 5 5 + + + + + + + + + + + + + + + + + + + + + + + + + % 5 a 5 5 5 5 5 5 5 5 5 5 5 5 5 5 5 5 5 5 5 5 5 5 5 5 5 5 5 ",
"5 5 5 5 5 % 5 5 5 5 5 5 5 5 5 5 5 5 a 5 5 H >X>X>X>X>X>X>X>X>X>X>XH >XH >X>X>X>X>X>X>X>XH >XH 4 p p 5 a a a a a a a a a a a a a a a a a a a a a a a a a a 5 5 a 6 < { L { { { { { { { { { L L L { { { { { { { { { { { , 5 a 5 5 a a a a a a a a a a a a a a a a a a a a a a a a a 5 5 a # u ^.U.U.U.U.U.U.U.U.U.U.U.U.U.U.U.U.U.U.U.U.U.U.^.x.% q p 5 a a a a a a a a a a a a a a a a a a a a a a a a a q 5 a 5 5 mXmXmXmXmXmXmXmXmXmXmXmXmXmXmXmXmXmXmXmXmXmXmXmXmXj % a 5 5 a a a a a a a a a a a a a a a a a a a a a a a a a ",
"5 5 5 5 5 s 5 % % % 5 a 5 5 5 5 5 5 a 5 8 0X5X5X5X5X5X5X5X5X5X5X5X5X5X5X5X5X5X5X5X5X5X5X5X5X9X$ p p 5 k a a a a a a a a a a a s a s a a a a a a a a a a k 5 5 a 6  ... ........................................... ...< 6 a 5 a j w a a a a a a a a a a a a a a a a a a a a a w k 5 5 a & P.LXzXxXxXxXxXxXxXxXzXxXxXxXxXxXzXxXxXxXxXxXxXzXxXHX# q p 5 k a a a a a a a a a a a a a a a a a a a a a a w a a % a % x DXZXZXZXZXZXZXZXZXZXZXCXCXCXCXZXZXZXZXZXZXZXZXZXDX3.@ a 5 a s w a a a a a a a a a a a s a a a a a a a a a a k ",
"5 5 5 % l .Xz b 5.z 5.6.$ 5 5 5 5 5 a 5 p 9X>X>X>X>X>X>X>X>X>X,X9X1X,X1X>X>X>X>X>X>X>X>X>X,X1X$ p p 5 s 5 5 5 5 5 5 5 5 5 5 5.z k l 5 5 5 5 5 5 5 5 5 5 s 5 5 a 6 {  .L { { { { { { { L .... . .{ L { { { { { { { L ..< 6 a 5 a a 5 5 5 5 5 5 5 5 5 l 5.z l a 5 5 5 5 5 5 5 5 5 a 5 5 a & P.xXU.~.~.~.~.~.~.~.~.xXxXzXzX~.~.~.~.~.~.~.~.~.~.zX% q p 5 s 5 5 5 5 5 5 5 5 5 a 6.b j l 5 5 5 5 5 5 5 5 5 a a % a % x CXmXmXmXmXmXmXmXmXmXZXCXVXZXMXmXmXmXmXmXmXmXmXmXCX1.$ a 5 a a 5 5 5 5 5 5 5 5 5 m 5.l l q 5 5 5 5 5 5 5 5 5 s ",
"5 5 5 % z .X9.XX7.9.b.m % 5 5 5 5 5 a 5 p 9X>X,X,X,X,X,X,X,X>X,X5X,X,X1X,X,X,X,X,X,X,X,X>X,X5X$ p p 5 s 5 5 5 5 5 5 5 5 5 q z z a l q 5 5 5 5 5 5 5 5 5 s 5 5 a 6 {  .L { { { { { { { {  . . . . .{ { { { { { { { L ..< 6 a 5 a a 5 5 5 5 5 5 5 5 5 k z l j j 5 5 5 5 5 5 5 5 5 a 5 5 a & P.xXU.~.~.~.~.~.~.~.~.zXzXzXzX~.~.~.~.~.~.~.~.~.~.zX% q p 5 s q 5 5 5 5 5 5 5 5 a z z s l 5 5 5 5 5 5 5 5 5 a a % a % x CXmXMXMXMXMXMXMXMXmXVXZXMXVXVXmXMXMXMXMXMXMXMXmXCX1.$ a 5 a a 5 5 5 5 5 5 5 5 5 z z k k a 5 5 5 5 5 5 5 5 5 j ",
"5 5 5 5 a l k l a p l a 5 5 5 5 5 5 a 5 p 0X1X1X1X1X1X1X1X1X1X1X1X1X1X1X1X1X1X1X1X1X1X1X1X5X9X$ p p 5 k w q q q q q q q q q 5 q w q q q q q q q q q q q k 5 5 a 6  ... . . . . . . . . . . . . . . . . . . . . . . ...< 6 a 5 a a q q q q q q q q q q 5 5 q q q q q q q q q q q j 5 5 a & P.LXzXzXzXzXzXzXzXzXzXzXzXzXzXzXzXzXzXzXzXzXzXzXzXHX% q p 5 k a q q q q q q q q q 5 q q q q q q q q q q q q a a % a % x DXVXVXVXVXVXVXVXVXVXVXVXVXVXVXVXVXVXVXVXVXVXVXMXDX3.@ a 5 a a q q q q q q q q q 5 5 q q q q q q q q q q q q k ",
"5 5 5 5 5 % % % 5 5 % 5 5 5 5 5 5 5 a 5 5 ,X,X,X,X,X,X,X,X,X,X,X,X,X,X,X,X,X,X,X,X,X,X,X,X,XH $ p p 5 a s s s s s s s s s s s s s s s s s s s s s s s s s 5 5 a 6 I  . . . . . . . . . . . . . . . . . . . . . . . . ., 5 a 5 q j s s s s s s s s s s s s s s s s s s s s s s s s 5 5 a # >.zXcXcXcXcXcXcXcXcXcXcXcXcXcXcXcXcXcXcXcXcXcXcXcXU.% q p 5 a s s s s s s s s s s s s s s s s s s s s s s s j a 5 a 5 a MXMXMXMXMXMXMXMXMXMXMXMXMXMXMXMXMXMXMXMXMXMXMXMXVXx % a 5 q j s s s s s s s s s s s s s s s s s s s s s s s a ",
"5 5 5 5 5 5 5 5 5 5 5 5 5 5 5 5 5 5 a 5 5 O O O O O O O O O O O O O O O O O O O O O O O O O 4 5 q p 5 5 5 5 5 5 5 5 5 5 5 5 5 5 5 5 5 5 5 5 5 5 5 5 5 5 5 5 5 a 5 6 6 6 6 6 6 6 6 6 6 6 6 6 6 6 6 6 6 6 6 6 6 6 6 6 6 5 5 a 5 5 5 5 5 5 5 5 5 5 5 5 5 5 5 5 5 5 5 5 5 5 5 5 5 5 5 5 5 a 5 % & # & # # # # # # # # # # # # # # # # # # & # & # 5 q p 5 5 5 5 5 5 5 5 5 5 5 5 5 5 5 5 5 5 5 5 5 5 5 5 5 5 5 5 a 5 5 + + + + + + + + + + + + + + + + + + + + + + + + + % 5 a 5 5 5 5 5 5 5 5 5 5 5 5 5 5 5 5 5 5 5 5 5 5 5 5 5 5 5 ",
"5 5 5 5 5 5 5 5 5 5 5 5 5 5 5 5 5 5 a 5 5 5 5 5 5 5 5 5 5 5 5 5 5 5 5 5 5 5 5 5 5 5 5 5 5 5 5 5 p p 5 5 5 5 5 5 5 5 5 5 5 5 5 5 5 5 5 5 5 5 5 5 5 5 5 5 5 5 5 a 5 5 5 5 5 5 5 5 5 5 5 5 5 5 5 5 5 5 5 5 5 5 5 5 5 5 5 5 5 a 5 5 5 5 5 5 5 5 5 5 5 5 5 5 5 5 5 5 5 5 5 5 5 5 5 5 5 5 5 a 5 5 5 5 5 5 5 5 5 5 5 5 5 5 5 5 5 5 5 5 5 5 5 5 5 5 5 5 q p 5 5 5 5 5 5 5 5 5 5 5 5 5 5 5 5 5 5 5 5 5 5 5 5 5 5 5 5 a 5 5 5 5 5 5 5 5 5 5 5 5 5 5 5 5 5 5 5 5 5 5 5 5 5 5 5 5 5 a 5 5 5 5 5 5 5 5 5 5 5 5 5 5 5 5 5 5 5 5 5 5 5 5 5 5 5 ",
"5 5 5 5 5 5 5 5 5 5 5 5 5 5 5 5 5 5 a 5 5 5 5 5 5 5 5 5 5 5 5 5 5 5 5 5 5 5 5 5 5 5 5 5 5 5 5 5 p p 5 5 5 5 4 5 5 4 5 5 5 5 5 5 5 5 5 5 5 5 5 5 5 5 5 5 5 5 5 a 5 5 5 5 6 5 5 6 5 5 5 5 5 5 5 5 5 5 5 5 5 5 5 5 5 5 5 5 5 a 5 5 5 5 5 5 5 5 5 5 5 5 5 5 5 5 5 5 5 5 5 5 5 5 5 5 5 5 5 a 5 5 5 5 # 5 5 # 5 5 5 5 5 5 5 5 5 5 5 q 5 q 5 5 5 5 5 5 q p 5 5 5 5 % 5 5 % 5 5 5 5 5 5 5 5 5 5 5 5 5 5 q 5 5 5 5 5 a 5 5 5 5 $ $ 5 % $ 5 5 5 5 5 5 5 5 5 5 5 5 5 5 5 5 5 5 5 5 a 5 5 5 5 % 5 5 % 5 5 5 5 5 5 5 5 5 5 5 5 5 5 5 5 5 5 5 ",
"5 5 5 a 7.k q a a a a p 5 5 5 5 5 5 a 5 5 5 5 5 5 5 5 5 5 5 5 5 5 5.m 5 5 5 5 5 5 5 5 5 5 5 5 5 p p 5 5 5 5 d N N N 5 5 5 5 5 5 5 5 5 5 z b l a b q 5 5 5 5 5 a 5 5 5 5 < I I I : 5 5 5 5 5 5 5 5 % l 5.m 7.7.a 5 5 5 5 5 a 5 5 5 5 s n v v a 5 5 5 5 5 5 5 5 5 a b 5.a z 5 5 5 5 5 5 a 5 5 5 5 c.~.U.c.w % 5 5 5 5 5 5 5 5 7.l 6.z 5.5 5 5 5 5 q p 5 5 5 q 0.0.n.b 5 5 5 5 5 5 5 5 5 z z z z z z a 5 5 5 5 a 5 5 5 $ 1.NXmXNX8.$ 5 5 5 5 5 5 5 a 9.7.6.b.l 6.5 5 5 5 5 a 5 5 5 5 c g.g.g.p 5 5 5 5 5 5 5 a z l b z b z b a 5 5 ",
"5 5 % a XXm b..X9.7.9.XXm % 5 5 5 5 a 5 5 5 5 5 5 5 5 5 5 5 5 5 5 5.5.5 5 5 5 5 5 5 5 5 5 5 5 5 p p 5 5 5 N d + + p N 5 5 5 5 5 5 5 5 a 9.m l l b a % 5 5 5 5 a 5 5 6 < P + + : U , 5 5 5 5 5 5 5 5 p 7.m .X6.k % 5 5 5 5 a 5 5 4 l / @ X $ v s 5 5 5 5 5 5 5 5 a l k z l 5 5 5 5 5 5 a 5 5 # U.P.O O i P.e % 5 5 5 5 5 5 p .Xm 6.5.z % 5 5 5 5 q p 5 5 q n.a + @ b 0.% 5 5 5 5 5 5 % l a z 6.z l 5 5 5 5 5 a 5 5 @ r.NXw @ 7 NXp.@ 5 5 5 5 5 5 5 9.9..X.X.X.X5 5 5 5 5 a 5 5 4 D M @ + d {.a 5 5 5 5 5 5 5 b l 5.b 5.m m k 5 5 ",
"5 5 5 a b 5.b.m l 7.b.6.k 5 5 5 5 5 a 5 5 5 5 5 5 5 5 5 5 5 5 5 5 z l 5 5 5 5 5 5 5 5 5 5 5 5 5 p p 5 4 d d   $ 5   p N 4 5 5 5 5 5 5 5 s k k a l 5 5 5 5 5 5 a 5 6 < U o $ l @ : I 5 5 5 5 5 5 5 5 5 s z l m 5 5 5 5 5 5 a 5 5 q n.+ . % + + v 5 5 5 5 5 5 5 5 l l s l l 5 5 5 5 5 5 a 5 # >.P.. 5 % * i c.# 5 5 5 5 5 5 5 z z z 6.l 5 5 5 5 5 q p 5 % 0.j . 5 + . z s % 5 5 5 5 5 5 a a k k k a 5 5 5 5 5 a 5 % 5 NX@ X l $ + NXj % 5 5 5 5 5 a z l l b k l 5 5 5 5 5 a 5 % l D . @ 5   d g.% 5 5 5 5 5 5 a k k k k k l q 5 5 ",
"5 5 5 5 5 5 $ 5 $ l l % 5 5 5 5 5 5 a 5 5 5 5 5 5 5 5 5 5 5 5 5 5 $ % 5 5 5 5 5 5 5 5 5 5 5 5 5 p p 5 4 N % X a l 5 + N 5 5 5 5 5 5 5 5 % % % % % 5 5 5 5 5 5 a 5 6 P 2 o a 5.z X P : 5 5 5 5 5 5 5 5 % $ $ @ 5 5 5 5 5 5 a 5 5 s n   q a k   s a 5 5 5 5 5 5 5 5 % 5 % $ 5 5 5 5 5 5 a 5 # P.>.+ b b k O c.5 5 5 5 5 5 5 5 $ $ % @ 5 5 5 5 5 5 q p 5 5 0.+ $ k a + 5 z % 5 5 5 5 5 5 5 5 % % % % 5 5 5 5 5 a 5 @ 1.mX. z m j . p.u.$ 5 5 5 5 5 % % % $ % $ $ 5 5 5 5 5 a 5 $ M d   s k 5 + g.5 5 5 5 5 5 5 5 5 % % % % 5 5 5 5 ",
"5 5 5 5 5 5 l q a 5 a 5 5 5 5 5 5 5 a 5 5 5 5 5 5 5 5 5 5 5 5 5 q a a a 5 5 5 5 5 5 5 5 5 5 5 5 p p 5 4 M p . q s + @ N 5 5 5 5 5 5 5 5 5 a 5 j a 5 5 5 5 5 5 a 5 6 P P o l m a X I q 5 5 5 5 5 5 5 5 a a a s 5 5 5 5 5 5 a 5 5 a m . 5 s 5   v p 5 5 5 5 5 5 5 5 a 5 a j 5 5 5 5 5 5 a 5 & P.,.* z m 5 O P.5 5 5 5 5 5 5 a a a p a 5 q 5 5 5 5 q p 5 5 n.@ + a a   w l % 5 5 5 5 5 5 5 p a q k a 5 5 5 5 5 a 5 $ <.mX. a b a . dXs.% 5 5 5 5 5 s 5 q a p a a a 5 5 5 5 a 5 $ M c . a p X @ g.5 5 5 5 5 5 5 5 5 a 5 s a 5 5 5 5 ",
"5 5 5 5 5 a 9.9.7.6.7.5 5 5 5 5 5 5 a 5 5 5 5 5 5 5 5 5 5 5 5 a 7.m 9.9.k % 5 5 5 5 5 5 5 5 5 5 p p 5 4 d F + X X   N d 4 5 5 5 5 5 5 5 l l m 6.z % 5 5 5 5 5 a 5 5 : L : X @ X < < 6 5 5 5 5 5 5 % m 5.m m 5.a 5 5 5 5 5 a 5 5 5 / w   +   5 v 5 5 5 5 5 5 5 5 s l z 5.6.5 5 5 5 5 5 a 5 % y ~.O X @   ,.>.# 5 5 5 5 5 5 l .X7..X9.5.m $ 5 5 5 q p 5 % b 5.  X X + b w 5 5 5 5 5 5 5 5 z l 5.7.j % 5 5 5 5 a 5 5 % mXu.  $ X s.fX5 5 5 5 5 5 5 m m b.6.9.7.9.m 5 5 5 5 a 5 5 a g.@   +   c c % 5 5 5 5 5 5 5 l l b 6.b 5 5 5 5 ",
"5 5 5 5 5 a 9.b 7.7.5.a 5 5 5 5 5 5 a 5 5 5 5 5 5 5 5 5 5 5 5 5 5.m b.9.l % 5 5 5 5 5 5 5 5 5 5 p p 5 5 4 M N @ @ p N 5 5 5 5 5 5 5 5 5 z k b z s 5 5 5 5 5 5 a 5 5 6 < U @ @ % P 5 5 5 5 5 5 5 5 % 5.9.m 7.5.5 5 5 5 5 5 a 5 5 5 a / % @ % v q 5 5 5 5 5 5 5 % k l z z l 5 5 5 5 5 5 a 5 5 # x.x.& @ e c.5 5 5 5 5 5 5 5 k 9.9..Xb.XX5.$ 5 5 5 q p 5 5 5 0.a @ @ k k % 5 5 5 5 5 5 5 q z l b z a 5 5 5 5 5 a 5 5 $ <.NX% @ $ fXx % 5 5 5 5 5 5 6.7.XX6.b.7.b.m 5 5 5 5 a 5 5 $ c M @ @ 8 c 5 5 5 5 5 5 5 5 5 z k b z k 5 5 5 5 ",
"5 5 5 5 5 5 l 5 5 a l 5 5 5 5 5 5 5 a 5 5 5 5 5 5 5 5 5 5 5 5 5 p s s l 5 5 5 5 5 5 5 5 5 5 5 5 p p 5 5 5 5 5 5 5 5 5 5 5 5 5 5 5 5 5 5 p k 5 a 5 5 5 5 5 5 5 a 5 5 5 5 5 5 5 5 5 5 5 5 5 5 5 5 5 5 a l k l z 5 5 5 5 5 5 a 5 5 5 5 5 5 5 5 5 5 5 5 5 5 5 5 5 5 5 k p q q 5 5 5 5 5 5 a 5 5 5 % 5 5 5 5 % 5 5 5 5 5 5 5 5 k s s a k q a 5 5 5 5 q p 5 5 5 5 5 5 5 5 5 5 5 5 5 5 5 5 5 5 a a 5 a 5 5 5 5 5 5 a 5 5 5 % % 5 5 5 5 % 5 5 5 5 5 5 p b q a l s k s s 5 5 5 5 a 5 5 5 5 5 5 5 5 5 5 5 5 5 5 5 5 5 5 5 k 5 p 5 5 5 5 5 ",
"5 5 5 5 5 5 5 5 5 % 5 5 5 5 5 5 5 5 a 5 5 5 5 5 5 5 5 5 5 5 5 5 5 % % % 5 5 5 5 5 5 5 5 5 5 5 5 p p 5 5 5 5 5 5 5 5 5 5 5 5 5 5 5 5 5 5 5 % 5 5 5 5 5 5 5 5 5 a 5 5 5 5 5 5 5 5 5 5 5 5 5 5 5 5 5 5 5 % % % % 5 5 5 5 5 5 a 5 5 5 5 5 5 5 5 5 5 5 5 5 5 5 5 5 5 5 % 5 5 5 5 5 5 5 5 5 a 5 5 5 5 5 5 5 5 5 5 5 5 5 5 5 5 5 4 5 5 5 % 5 5 5 5 5 5 q p 5 5 5 5 5 5 5 5 5 5 5 5 5 5 5 5 5 5 5 5 5 5 5 5 5 5 5 5 a 5 5 5 5 5 5 5 5 5 5 5 5 5 5 5 5 5 % 5 5 % 5 4 5 5 5 5 5 5 a 5 5 5 5 5 5 5 5 5 5 5 5 5 5 5 5 5 5 5 % 5 5 5 5 5 5 5 ",
"5 5 5 5 5 5 5 5 5 5 5 5 5 5 5 5 5 5 a 5 5 4 4 4 4 4 4 4 4 4 4 4 5 5 5 5 4 4 4 4 4 4 4 4 4 4 4 5 p p 5 5 5 5 5 5 5 5 5 5 5 5 5 5 5 5 5 5 5 5 5 5 5 5 5 5 4 5 5 a 5 5 5 5 5 5 5 5 5 5 5 5 5 5 5 5 5 5 5 5 5 5 5 5 5 5 5 5 5 a 5 5 5 5 5 5 5 5 5 5 5 5 5 5 5 5 5 5 5 5 5 5 5 5 5 5 5 5 5 a 5 5 % 5 5 5 5 5 5 5 5 5 5 5 5 5 5 5 5 5 5 5 5 5 5 5 % 5 q p 5 % % 5 5 5 5 5 5 5 5 5 5 5 5 5 5 5 5 5 5 5 5 % 5 % % 5 a 5 5 % % % % % % % % % % % 5 5 5 % 5 % % 5 5 5 5 % % % 5 5 a 5 5 4 5 5 5 5 5 5 5 5 5 5 5 5 5 5 5 5 5 5 5 5 5 5 5 4 ",
"5 5 5 5 5 5 5 5 5 5 5 5 5 5 5 5 5 5 a 5 8 9X9X9X9X9X9X9X9X9X9X9X5X1X1X9X9X9X9X9X9X9X9X9X5X9X,X$ p p 4 C | | | | | | | | | | | | | | | | | | | | | | | | | 5 5 a 6 U .................................................., 6 a 3 r ! ! ! ! ! ! ! ! ! ! ! ! ! ! ! ! ! ! ! ! ! ! ! ! ! e 5 a & c.HXzXxXxXxXxXxXxXxXxXxXzXzXxXxXxXxXxXxXxXxXxXxXxXcX# q a # jXbXkXkXkXkXkXkXkXkXkXkXkXkXkXkXkXkXkXkXkXkXkXkXbX,.& a 5 j CXZXZXZXZXZXZXZXZXZXZXZXZXZXZXZXZXZXZXZXZXZXZXZXCXx % a $ G 6X6X6X6X6X6X6X6X6X6X6X6X6X6X6X6X6X6X6X6X6X6X6X6Xf.",
"5 5 5 5 5 5 5 5 5 5 5 5 5 5 5 5 5 5 a 5 8 0X,X,X,X,X,X,X,X,X,X,X1X1X1X,X,X,X,X,X,X,X,X,X,X1X9X4 p p 4 | C C C C C C C C C C C | | C C C C C C C C C C C | p 5 a 6 { ..{  . . . . . . . . . . . . . . . . . . . . .{ ..< 6 a # r ! Q Q Q Q Q Q Q Q Q Q ! ! ! Q Q Q Q Q Q Q Q Q Q ! e 5 a & P.HX~.~.~.~.~.~.~.~.~.zXzXzXzX~.~.~.~.~.~.~.~.~.zXxX% q a # kXkXjXjXjXjXjXjXjXjXjXkXkXkXjXjXjXjXjXjXjXjXjXjXbXY.& a % x CXMXMXMXMXMXMXMXMXMXMXZXZXZXMXMXMXMXMXMXMXMXMXMXCX3.@ s O d.6Xf.f.f.f.f.f.f.f.f.f.6X6X6Xf.f.f.f.f.f.f.f.f.f.6X",
"5 5 5 5 5 5 5 5 5 5 5 5 5 5 5 5 5 5 a 5 8 9X,X,X,X,X,X,X,X,X,X,X1X1X0X1X>X,X,X,X,X,X,X,X,X,X1X4 p p 4 | C C C C C C C C C C C | | | C C C C C C C C C C | p 5 a 6 {  .{ { { { { { { { {  .......{ { { { { { { { { L ..< 6 a # r ! Q Q Q Q Q Q Q Q Q ! ! ! ! Q Q Q Q Q Q Q Q Q Q ! e 5 a & P.xX~.~.~.~.~.~.~.~.~.zXxXLXHX~.~.~.~.~.~.~.~.~.~.xX% q a # kXjXjXjXjXjXjXjXjXjXjXkXbXbXkXY.jXjXjXjXjXjXjXY.kXY.& a % x CXmXMXMXMXMXMXMXMXMXMXZXCXCXMXMXMXMXMXMXMXMXMXmXCX1.$ a O d.6Xf.f.f.f.f.f.f.f.f.6X6X6X6Xf.f.f.f.f.f.f.f.f.f.6X",
"5 5 5 % 5 5 5 5 % 5 5 5 5 5 5 5 5 5 a 5 8 9X>X>X>X>X>X>X>X>X>X>X,X,X,X,X>X>X>X>X>X>X>X>X>X,X1X4 p p 4 | C C C C C C C C C C C C C C C C C C C C C C C C | p 5 a 6 {  .L L L L L L L L L {  .{  .L L L L L L L L L L ..< 6 a # r ! Q Q Q Q Q Q Q Q Q Q Q Q Q Q Q Q Q Q Q Q Q Q Q ! e 5 a & P.zXU.~.U.U.U.U.U.~.U.~.zX~.~.U.~.U.U.U.U.U.~.U.~.zX% q a # kXjXY.Y.Y.Y.Y.Y.Y.Y.Y.jXjXjXjXY.Y.Y.Y.Y.Y.Y.Y.Y.kXY.& a % x CXmXmXmXmXmXmXmXmXmXmXMXMXMXmXmXmXmXmXmXmXmXmXmXCX1.$ a O d.6Xf.f.f.f.f.f.f.f.f.f.f.f.f.f.f.f.f.f.f.f.f.f.f.6X",
"5 5 a m p 5 5 q s q 5 5 l a 5 5 5 5 a 5 8 0X3X3X3X3X3X3X3X3X3X3X3X3X3X3X3X3X3X3X3X3X3X3X3X3X9X$ p p 4 | | | | | | | | | | | | | | | | | | | | | | | | | :X8 5 a 6  ...................................................< 6 a # r ' ! ! ! ! ! ! ! ! ! ! ! ! ! ! ! ! ! ! ! ! ! ! ! ' e 5 a & P.LXxXHXxXxXxXxXxXxXxXxXxXxXxXxXxXxXxXxXxXxXxXxXHXHX# q a # bXbXbXbXbXbXbXbXbXbXbXbXbXbXbXbXbXbXbXbXbXbXbXbXbXY.& a % x DXCXCXCXCXCXCXCXCXCXCXCXCXCXCXCXCXCXCXCXCXCXCXCXDX1.$ s O d.6X6X6X6X6X6X6X6X6X6X6X6X6X6X6X6X6X6X6X6X6X6X6X6X6X",
"5 % 6.a m 6.9.9.9.6.m 6.7.9.s 5 5 5 a 5 5 S H H H H H H H H H H H H H H H H H H H H H H H H A 4 p p 4 1 B B B B B B B B B B B B B B B B B B B B B B B B 1 5 5 a 6 , I I I I I I I I I I I I I I I I I I I I I I I I I q 5 a 5 e r r r r r r r r r r r r r r r r r r r r r r r r r 5 5 a % y c.c.c.c.c.c.c.c.c.c.c.c.c.c.c.c.c.c.c.c.c.c.c.c.>.% q a % >.,.,.,.,.,.,.,.,.,.,.,.,.,.,.,.,.,.,.,.,.,.,.,.,.y % a 5 5 p.p.p.p.p.p.p.p.p.p.p.p.p.p.p.p.p.p.p.p.p.p.p.p.p.w 5 a % 8 d.d.d.d.d.d.d.d.d.d.d.d.d.d.d.d.d.d.d.d.d.d.d.d.A ",
"5 % z m m 6.m b 6.z l 7.m 6.l % 5 5 a 5 5 t t t t t t t t t t t t 4 t t t t t t t t t t t t t 5 p p 5 w y w w w w w w w w w y 7 7 y w w w w w w w w w w w 5 5 a % j x x x x x x x x x x x 7 7 x x x x x x x x x x x x 5 5 a 5 5 a 8 8 8 8 8 8 8 8 8 a 8 8 a 8 8 8 8 8 8 8 8 8 8 a 5 5 a 5 p g d d d d d d d d d g - 8 g d d d d d d d d d g d 5 q p 5 p p p 8 8 8 8 8 8 p p p # 8 p p 8 8 8 8 8 8 p p p 8 5 a 5 5 s d d p p p d p a d s p @ s d d a p a p p a d d s 5 5 a 5 q e e e e e e e e e e e e e e e e e e e e e e e e w ",
"5 5 5 p 5 5 5 5 5 5 5 5 5 5 5 5 5 5 a 5 5 m l l m m m l m z l k m a m l k z m m z 5.5.l k l m 5 p p 5 k a q a s k a s s q q s a s a q a s s a k l a p p k 5 5 a % z v s z m m v v m k k v l k b s l b m v m 6.b k s m a 5 a 5 a s q w j k s a k w q a a a a q w a s a k l a w q k q 5 a % l b k l b m b z 5.l k b k l b k z b b z 5.5.z k l m 5 q p 5 k w w a j k a j j w w k w k w w a j j j l k w w a a % a 5 q m l l m m m l 5.z k l b a m k l b m z m 6.b l k m a 5 a % a s 5 a j k s a k a 8 a a a a 5 a s j a l l a p a k ",
"5 5 5 5 5 5 5 5 5 5 5 5 5 5 5 5 5 5 a 5 5 b s a 6.b.9.6.7.5.a a b a z s a m XXb.6.7..Xl a s z 5 p p 5 s q 5 k m z z l z 5 5 a a a q 5 a 6.5.l z 5.s 5 5 s 5 5 a % l l a z .X9.9.5.9.k a l k s l a s .XXX7.6..X5.a a z a 5 a 5 a a 5 q b z b l z a 5 a a a a 5 q 5.5.z l 5.l 5 5 a 5 5 a % k l a k b.9.9.5.9.l a l s k l a b XX.X6.7..Xl a s b 5 q p 5 s q 5 j m z z l z 5 5 a q s 5 5 z 7.z l b b 5 5 a a % a 5 q b a a 7.b.9.6.7.m a k z a z a s .XXX7.6..X5.a a b a 5 a 5 a a 5 q b z b l z a 5 a a a a 5 s 6.5.l z 5.a 5 5 j ",
"5 5 5 5 5 5 5 5 5 5 5 5 5 5 5 5 5 5 a 5 5 b a a b 6.m m 5.z a a z a z s a l 6.m m l 5.k a s z 5 p p 5 s 5 5 a l k k k j 5 5 a a a q 5 5 l k k a k a 5 5 s 5 5 a % l k a k 5.m m m m a a l k s l a a m m m l m b a a z a 5 a 5 a a 5 5 k l k k k q 5 a a a a 5 5 l k k a k s 5 5 a 5 5 a % k l a s 5.5.m m m s a l s k l a k 6.m m l 5.l a s z 5 q p 5 s 5 5 a l k k k j 5 5 a q a 5 5 a l k s a k 5 5 a a % a 5 q b a a b 5.m m 5.l a s z a z a a m m m l m b a a z a 5 a 5 a a 5 5 k l k k k q 5 a a a w 5 q l k k a l a 5 5 s ",
"5 5 5 5 5 5 5 5 5 5 5 5 5 5 5 5 5 5 a 5 5 m l l l k l l l l l l m a m l l l k l l l l l l z m 5 p p 5 k a a a q w w w w a w j a s a a a q w w a w a a a k 5 5 a % z b l l l l l l l l l b l k m l l l k l l l l l l m a 5 a 5 a j w a w w w w w a a s a a s a a q q w a w a a w k 5 5 a % k m l l l l l l l l l m k l b l l k l l l l l l z m 5 q p 5 k a a a q w w w w a a k q k a a w q w a a w a a s a % a 5 q m l l l k l l l l l z b a m l l k k l l l l l l m a 5 a 5 a j w a w w w w w a a s a a a a a q w w a w a a a k ",
"5 5 5 5 5 5 5 5 5 5 5 5 5 5 5 5 5 5 a 5 5 k l l l l l l l l l l l 5 k l l l l l l l l l l l s 5 p p 5 a a a a a a a a a a a a 5 q a a a a a a a a a a a a 5 5 a % a l l l l l l l l l l l a p l l l l l l l l l l l l 5 5 a 5 5 a a a a a a a a a a a 5 5 a a a a a a a a a a a a 5 5 a 5 p l l l l l l l l l l l p a l l l l l l l l l l l s 5 q p 5 a a a a a a a a a a a a 5 a a a a a a a a a a a a q 5 a 5 5 k l l l l l l l l l l s 5 l l l l l l l l l l l l 5 5 a 5 5 a a a a a a a a a a a 5 q a a a a a a a a a a a a ",
"5 5 5 5 5 5 5 5 5 5 5 5 5 5 5 5 5 5 a 5 5 % % % % % % % % % % % % 5 % % % % % % % % % % % % 5 5 p p 5 5 5 5 5 5 5 5 5 5 5 5 5 5 5 5 5 5 5 5 5 5 5 5 5 5 5 5 5 a 5 5 % % % % % % % % % % % 5 5 % % % % % % % % % % % % 5 5 a 5 5 5 5 5 5 5 5 5 5 5 5 5 5 5 5 5 5 5 5 5 5 5 5 5 5 5 5 5 a 5 5 % % % % % % % % % % % 5 5 % % % % % % % % % % % 5 5 q p 5 5 5 5 5 5 5 5 5 5 5 5 5 5 5 5 5 5 5 5 5 5 5 5 5 5 5 5 a 5 5 % % % % % % % % % % % % 5 % % % % % % % % % % % % 5 5 a 5 5 5 5 5 5 5 5 5 5 5 5 5 5 5 5 5 5 5 5 5 5 5 5 5 5 5 ",
"5 5 5 5 5 5 5 5 5 5 5 5 5 5 5 5 5 5 a 5 5 5 q a p p p p p a p p q q p p p p p p p p q p 5 q 5 5 p p 5 5 5 5 5 5 5 5 5 5 5 5 5 5 5 5 5 5 5 5 5 5 5 5 5 5 5 5 5 a 5 5 5 p p p p p p p p p p q p p p p p p p p q q q 5 5 5 5 a 5 5 5 5 5 5 5 5 5 5 5 5 5 5 5 5 5 5 5 5 5 5 5 5 5 5 5 5 5 a 5 5 5 q p p p p p p p p p q p p p p p p p p q p 5 q 5 5 q p 5 5 5 5 5 5 5 5 5 5 5 5 5 5 5 5 5 5 5 5 5 5 5 5 5 5 5 5 a 5 5 5 q a p p p p p a p a q q p p p p p p p q q q 5 5 5 5 a 5 5 5 5 5 5 5 5 5 5 5 5 5 5 5 5 5 5 5 5 5 5 5 5 5 5 5 ",
"5 5 a 5 5 a % $ 5 p % 5 5 % % 5 5 5 a 5 5 a k a a a a a a a s a k k s s s s s s s s a a 5.l 5 5 p p 5 5 q 5 5 5 5 5 5 5 5 5 q q 5 5 5 5 5 5 5 q 5 5 j a 5 5 5 a 5 5 k s a a a a a a a s s k s s s s s s s s s a z m a 5 5 a 5 5 5 5 5 5 5 5 5 5 5 5 5 w 5 5 5 5 5 5 5 5 5 5 a k 5 5 5 a 5 5 s k a a a a a a a s s l s s s s s s s s a a 5.l 5 5 q p 5 5 q 5 5 5 5 5 5 5 5 5 q q 5 5 5 5 5 5 5 5 5 q l 5 5 5 a 5 5 a k a a a a a a a s a k s s s s s s s s s a b m p 5 5 a 5 5 5 5 5 5 5 5 5 5 5 5 5 w 5 5 5 5 5 5 5 q 5 5 k a 5 ",
"% l 6.k m 9.b z m b.a z z m z 5 5 5 a 5 % s 9.m m 6.b b b m l z 9.l a s s s s s s s a s %Xb.5 5 p p 5 5 z k j l s j s k a a z a 5 5 5 5 5 5 5 5 5 5 b.7.4 5 5 a 5 5 7.5.b 6.m b b m m l 6.m a s s s s s s s s q .X%Xa 5 5 a 5 % k z s l k s j j k w k l 5 5 5 5 5 5 5 5 5 4 6.b.5 5 5 a 5 5 9.6.l 7.m b b m m k 5.6.a s s s s s s s a s %X.X5 5 q p 5 5 z k j l s j s k a a z s 5 5 5 5 5 5 5 5 5 k XXa 5 5 a 5 % k 9.b m 6.b b b m l z 9.k s s s s s s s s q XX%Xa 5 5 a 5 % k z s l k s j j k w k l 5 5 5 5 5 5 5 5 5 5 .X5.4 ",
"5 q 7..X7.b..X.Xm 5.7..X.X7.6.5 5 5 a 5 5 a b.b..X.XXXXX7..Xb.XXXXs s s s s s s s s a l $X9.5 5 p p 5 5 z 5.5.5.6.7.z b b 5.9.a 5 5 5 5 5 5 5 5 5 5 6.5.5 5 5 a 5 5 6..X.X.X.XXXb.9..Xb.$Xm a s s s s s s s s a .XXXs 5 5 a 5 % s 5.b 5.5.7.5.z 5.b 9.z 5 5 5 5 5 5 5 5 5 5 5.6.5 5 5 a 5 5 .X6.XX.X.XXX.X7..Xb.$X7.a s s s s s s s a k XX9.5 5 q p 5 5 z 5.5.5.6.7.b b b 5.9.a 5 5 5 5 5 5 5 5 5 l 9.s 5 5 a 5 5 s .Xb..X.XXXXX7..X9.XXXXs s s s s s s s s a .XXXs 5 5 a 5 % j 5.b 5.5.7.5.z 5.b 9.z 5 5 5 5 5 5 5 5 5 q 9.b 5 ",
"5 p l a k k s a l a s l s a a 5 5 5 a 5 5 s 9.b m 6.6.5.z b 6.b.6.s s s s s s s s s a a %X6.5 5 p p 5 5 z k j l l l a a k b z a 5 5 5 5 5 5 5 q 5 5 7.5.4 5 5 a 5 5 5.5.b 5.6.6.b z m 9.9.z a s s s s s s s s q b.XXp 5 5 a 5 4 s z a l l z j a s z b k 5 q 5 5 5 5 5 5 5 4 5.0.5 5 5 a 5 5 6.6.5.5.6.6.b z m 9.9.m a s s s s s s s a a %X7.5 5 q p 5 5 z k s l l l a a k b z a 5 5 5 5 5 5 5 q 5 a b.w 5 5 a 5 5 k 9.b m 6.7.5.z b 6.b.6.s s s s s s s s s q b.XXp 5 5 a 5 4 j z a l l z j a j z b j 5 q 5 5 5 5 5 q 5 5 9.z 4 ",
"5 5 % 5 % % 5 5 % 5 % % % 5 5 5 5 5 a 5 5 5 a a a a a a a a a a a a a a a a a a a a a a a a 5 5 p p 5 5 5 5 5 5 5 5 5 5 5 5 5 5 5 5 5 5 5 5 5 5 5 5 5 5 5 5 5 a 5 5 a a a a a a a a a a a a a a a a a a a a a a a a p 5 5 a 5 5 5 5 5 5 5 5 5 5 5 5 5 5 5 5 5 5 5 5 5 5 5 5 5 5 5 5 5 a 5 5 p a a a a a a a a a a a a a a a a a a a a a a a 5 5 q p 5 5 5 5 5 5 5 5 5 5 5 5 5 5 5 5 5 5 5 5 5 5 5 5 5 5 5 5 a 5 5 q a a a a a a a a a a a a a a a a a a a a a a a p 5 5 a 5 5 5 5 5 5 5 5 5 5 5 5 5 5 5 5 5 5 5 5 5 5 5 5 5 5 5 ",
"5 5 5 5 5 5 5 5 5 5 5 5 5 5 5 5 5 5 a 5 5 5 5 5 5 5 5 5 5 5 5 5 5 5 5 5 5 5 5 5 5 5 5 5 5 5 5 5 p p 5 5 5 5 5 5 5 5 5 5 5 5 5 5 5 5 5 5 5 5 5 5 5 5 5 5 5 5 5 a 5 5 5 5 5 5 5 5 5 5 5 5 5 5 5 5 5 5 5 5 5 5 5 5 5 5 5 5 5 a 5 5 5 5 5 5 5 5 5 5 5 5 5 5 5 5 5 5 5 5 5 5 5 5 5 5 5 5 5 a 5 5 5 5 5 5 5 5 5 5 5 5 5 5 5 5 5 5 5 5 5 5 5 5 5 5 5 5 q p 5 5 5 5 5 5 5 5 5 5 5 5 5 5 5 5 5 5 5 5 5 5 5 5 5 5 5 5 a 5 5 5 5 5 5 5 5 5 5 5 5 5 5 5 5 5 5 5 5 5 5 5 5 5 5 5 5 5 a 5 5 5 5 5 5 5 5 5 5 5 5 5 5 5 5 5 5 5 5 5 5 5 5 5 5 5 ",
"5 5 5 5 5 5 5 5 5 5 5 5 5 5 5 5 5 5 a 5 5 5 5 5 5 5 5 5 5 5 5 5 5 5 5 5 5 5 5 5 5 5 5 5 5 5 5 5 p p 5 5 5 5 5 5 5 5 5 5 5 5 5 5 5 5 5 5 5 5 5 5 5 5 5 5 5 5 5 a 5 5 5 5 5 5 5 5 5 5 5 5 5 5 5 5 5 5 5 5 5 5 5 5 5 5 5 5 5 a 5 5 5 5 5 5 5 5 5 5 5 5 5 5 5 5 5 5 5 5 5 5 5 5 5 5 5 5 5 a 5 5 5 5 5 5 5 5 5 5 5 5 5 5 5 5 5 5 5 5 5 5 5 5 5 5 5 5 q p 5 5 5 5 5 5 5 5 5 5 5 5 5 5 5 5 5 5 5 5 5 5 5 5 5 5 5 5 a 5 5 5 5 5 5 5 5 5 5 5 5 5 5 5 5 5 5 5 5 5 5 5 5 5 5 5 5 5 a 5 5 5 5 5 5 5 5 5 5 5 5 5 5 5 5 5 5 5 5 5 5 5 5 5 5 5 ",
"5 5 5 5 5 5 5 5 5 5 5 5 5 5 5 5 5 5 a 5 5 5 5 5 5 4 4 4 5 5 5 5 5 5 5 5 5 5 5 5 4 4 4 5 5 5 5 5 p p 5 5 5 5 5 4 4 5 5 5 5 5 5 5 5 5 5 5 5 4 4 5 5 5 5 5 5 5 5 a 5 5 5 5 5 6 6 5 5 5 5 5 5 5 5 5 5 5 5 6 6 6 5 5 5 5 5 5 5 a 5 5 5 5 5 5 % 5 5 5 5 5 5 5 5 5 5 5 5 5 % 5 5 5 5 5 5 5 5 a 5 5 5 5 5 # # % 5 5 5 5 5 5 5 5 5 5 5 # # % 5 5 5 5 5 5 q p 5 5 5 5 5 % % 5 5 5 5 5 5 5 5 5 5 5 5 % % 5 5 5 5 5 5 5 a 5 5 5 5 5 $ @ @ 5 5 5 5 5 5 5 5 5 5 5 $ @ % 5 5 5 5 5 5 5 a 5 5 5 5 5 % $ 4 5 5 5 5 5 5 5 5 5 5 5 % % 5 5 5 5 5 5 ",
"5 5 % 5 5 % 5 5 5 5 5 5 5 5 5 5 5 5 a 5 5 5 5 5 4 f S A 5 4 5 5 5 5 5 5 5 5 4 8 S Z 8 4 5 5 5 5 p p 5 5 5 4 5 d N p 4 5 5 5 5 5 5 5 5 5 5 d d p 5 5 5 5 5 5 5 a 5 5 5 6 5 < < , 6 5 5 5 5 5 5 5 5 5 6 , < , 5 5 5 5 5 5 5 a 5 5 5 5 5 s v s 5 5 5 5 5 5 5 5 5 5 5 a s a 5 5 5 5 5 5 5 a 5 5 5 # 5 u >.y # 5 5 5 5 5 5 5 5 % 5 >.>.y # 5 5 5 5 5 q p 5 5 5 % a z l 5 % 5 5 5 5 5 5 5 5 % q l j 5 5 5 5 5 5 5 a 5 5 5 % % 1.p.1.% % 5 5 5 5 5 5 5 5 @ <.r.s.5 % 5 5 5 5 5 a 5 5 5 4 5 l c a $ 5 5 5 5 5 5 5 5 5 5 l l p 5 5 5 5 5 ",
"s a k s q z 5 5 5 5 5 5 5 5 5 5 5 5 a 5 5 5 5 5 H >XV >X>X9 4 5 5 5 5 5 5 4 A >XH J V J 4 5 5 5 p p 5 5 4 d F N N F N 4 5 5 5 5 5 5 5 5 M F d N N 5 5 5 5 5 5 a 5 5 6 , L U P I < 5 5 5 5 5 5 5 5 5 I L P 2 I , 5 5 5 5 5 a 5 5 5 5 m m v m m q 5 5 5 5 5 5 5 5 n / h h v q 5 5 5 5 5 a 5 5 # >.P.c.,.P.>.% 5 5 5 5 5 5 % y U.U.,.c.c.5 5 5 5 5 q p 5 5 5 b n.b 5.n.k % 5 5 5 5 5 5 % l n.b k b j 5 5 5 5 5 a 5 5 % 5 mXmXp.mXmXj % 5 5 5 5 5 5 5 k.NXa.dXfXx % 5 5 5 5 a 5 5 4 d g.M c g.M 5 5 5 5 5 5 5 5 p g.g.g c c 5 5 5 5 ",
"5.5.5.5 z .X6.b 7.z 6.7.9.b 6.l % 5 a 5 5 5 4 H H o O o Z :X5 5 5 5 5 5 4 8 ,X- . o + V Z 4 5 5 p p 5 5 p F @   X + M p 5 5 5 5 5 5 4 M N . .   d N 5 5 5 5 5 a 5 5 5 L , o o o P < 6 5 5 5 5 5 6 P U o o o : U 5 5 5 5 5 a 5 5 5 n h . X   s v 5 5 5 5 5 5 4 v n   .   q v 5 5 5 5 5 a 5 5 w ~.i . + * c.>.# 5 5 5 5 5 5 ~.>..   * c.,.# 5 5 5 q p 5 % l 0.X     4 0.5 5 5 5 5 5 5 a n.@ . . + b a 5 5 5 5 a 5 5 $ mXp.. + . r.fX$ 5 5 5 5 5 @ p.mX. . . s.fX5 5 5 5 5 a 5 5 5 g.8 . X X M d 4 5 5 5 5 5 5 g.d . .   g c 4 5 5 ",
"k b.6.5 z l z b .X9.XX6.m 6.b.5.5 5 a 5 5 5 8 ,X+ 5 m 8 . J Z 4 5 5 5 5 O H J o s l 4 - V 4 5 5 p p 5 4 M d . a p . # N 4 5 5 5 5 5 p F   $ 5 5   N p 5 5 5 5 a 5 6 < U o s s 5 + I 5 5 5 5 5 5 5 L + 5 s l X 2 < 6 5 5 5 a 5 5 a /   % s +   v q 5 5 5 5 5 5 n.X @ 5 q   s a 5 5 5 5 a 5 & x.c.. q m 5 O P.% 5 5 5 5 # >.P.. a k a X P.q 5 5 5 q p 5 5 n.4 X s 5 . a l % 5 5 5 5 % 0.a   5 p + 5 b % 5 5 5 a 5 $ x NX. a m 5 . fXx % 5 5 5 5 5 NX+ % j l   i.s.# 5 5 5 a 5 $ c c . a a   + M 5 5 5 5 5 % l D . 5 5 5 X M 5 5 5 ",
"a q a a 5 5 5 5 a a a q 5 a m a s % a 5 5 4 9 >XX k b m O J J 4 5 5 5 5 4 H ; @ m 5.s & V 5 5 5 p p 5 4 M - + s a 5 + N 5 5 5 5 5 4 d N   p s s X d d 4 5 5 5 a 5 6 P 2 + b m z X P : 5 5 5 5 5 : U X s m 5.@ , < 6 5 5 5 a 5 5 s n   a a a X s a 5 5 5 5 5 q m   5 s k X q s 5 5 5 5 a 5 # P.>.& b 5.l O c.5 5 5 5 5 # c.c.* b m b X c.e % 5 5 q p 5 5 0.+ $ s a + 5 z % 5 5 5 5 % 0.4 + s k % @ b 5 5 5 5 a 5 @ 1.k.  z b z + i.s.$ 5 5 5 % j mXX s m 6.+ s.s.# 5 5 5 a 5 $ M d X s a 5 + c 5 5 5 5 5 $ c c   a s a   c p 5 5 ",
"5 5 5 5 5 5 5 p $ $ $ % $ % 5 5 5 5 a 5 5 5 5 ,X& O l p o V 9 4 5 5 5 5 O H V . a k O ; V 4 5 5 p p 5 4 N N . % 5   - N 4 5 5 5 5 5 p F X + q @ X N p 5 5 5 5 a 5 6 < U o 5 l @ + I 5 5 5 5 5 5 5 L & + k p o P , 6 5 5 5 a 5 5 q / X + q @ X v q 5 5 5 5 5 5 n.+ X 5 $   v a 5 5 5 5 a 5 # c.P.. a l * e c.% 5 5 5 5 # >.U.. 5 l @ @ P.5 5 5 5 q p 5 % 0.q . 5 5 . k k % 5 5 5 5 % 5.k . 5 5   w z % 5 5 5 a 5 % j NX  @ l 5   fXy % 5 5 5 5 5 NX6 + l a . dXs.% 5 5 5 a 5 $ c M . $ q X % c 5 5 5 5 5 4 s g.. @ q + + M 5 5 5 ",
"5 % l 7.6.b b 6.k m k a m k 5 5 5 5 a 5 5 5 4 S ,X+ X o J V 4 5 5 5 5 5 5 8 ,XZ o X - V 9 4 5 5 p p 5 5 5 X.p     @ N p 5 5 5 5 5 5 4 N D X   X g d 4 5 5 5 5 a 5 5 6 L P o X + I , 6 5 5 5 5 5 6 < L + X X < P 5 5 5 5 5 a 5 5 % n n X   X s s 5 5 5 5 5 5 4 k n.+     a v 5 5 5 5 5 a 5 5 5 cX>.  X @ P.y % 5 5 5 5 5 # U.c.* X + c.>.# 5 5 5 q p 5 5 a V.$     q b 5 5 5 5 5 5 5 q V.q     % 5.5 5 5 5 5 a 5 5 @ p.mX  X   i.i.$ 5 5 5 5 5 @ r.VX+ X   s.fX% 5 5 5 5 a 5 5 5 g.l     + M a 5 5 5 5 5 5 % g.M     X c d 4 5 5 ",
"5 % s .X.X9.XXXX9.XX9.9.b.6.5 5 5 5 a 5 5 5 5 5 S 8 5 5 Z 8 4 5 5 5 5 5 5 4 f A 4 5 8 9 4 5 5 5 p p 5 5 4 d d 5 5 p p 5 5 5 5 5 5 5 5 5 g 5 5 5 d 5 5 5 5 5 5 a 5 5 5 , < 5 5 q , 5 5 5 5 5 5 5 5 5 < p 5 5 , : 5 5 5 5 5 a 5 5 5 5 l 5 5 5 a 5 5 5 5 5 5 5 5 5 s q 5 5 a 5 5 5 5 5 5 a 5 5 # y >.% 5 e u % 5 5 5 5 5 5 % e >.5 5 w u 5 5 5 5 5 q p 5 5 % k a 5 5 a q 5 5 5 5 5 5 5 % j s 5 5 a a 5 5 5 5 5 a 5 5 5 5 r.5 5 5 s.5 5 5 5 5 5 5 5 % r.a 5 % s.7 % 5 5 5 5 a 5 5 4 a l 5 5 p d 5 5 5 5 5 5 5 5 8 l 5 5 5 d 5 5 5 5 ",
"5 5 5 l k z z k k k k b 9.s 5 5 5 5 a 5 5 5 5 5 4 5 5 5 4 5 5 5 5 5 5 5 5 5 4 4 5 5 4 4 5 5 5 5 p p 5 5 5 5 4 5 5 5 5 5 5 5 5 5 5 5 5 5 4 5 5 5 5 5 5 5 5 5 5 a 5 5 5 5 6 5 5 5 6 5 5 5 5 5 5 5 5 5 6 5 5 5 5 5 5 5 5 5 5 a 5 5 5 5 4 5 5 5 5 5 5 5 5 5 5 5 5 5 5 5 5 5 5 5 5 5 5 5 5 a 5 5 5 % # 5 5 5 % 5 5 5 5 5 5 5 5 5 # 5 5 5 # 5 5 5 5 5 q p 5 5 5 % 5 5 5 5 5 5 5 5 5 5 5 5 5 5 5 5 5 5 5 5 5 5 5 5 a 5 5 5 5 @ 5 5 5 % 5 5 5 5 5 5 5 5 5 @ 5 5 5 % 5 5 5 5 5 5 a 5 5 5 5 4 5 5 5 5 5 5 5 5 5 5 5 5 5 % 5 5 5 5 5 5 5 5 ",
"5 5 5 $ $ % % % 5 $ % % 5 $ 5 5 5 5 a 5 5 5 5 5 5 5 5 5 5 5 5 5 5 5 5 5 5 5 5 5 5 5 5 5 5 5 5 5 p p 5 5 5 5 5 5 5 5 5 5 5 5 5 5 5 5 5 5 5 5 5 5 5 5 5 5 5 5 5 a 5 5 5 5 5 5 5 5 5 5 5 5 5 5 5 5 5 5 5 5 5 5 5 5 5 5 5 5 5 a 5 5 5 5 5 5 5 5 5 5 5 5 5 5 5 5 5 5 5 5 5 5 5 5 5 5 5 5 5 a 5 5 5 5 5 5 5 5 5 5 5 5 5 5 5 5 5 5 5 5 5 5 5 5 5 5 5 5 q p 5 5 5 5 5 5 5 5 5 5 5 5 5 5 5 5 5 5 5 5 5 5 5 5 5 5 5 5 a 5 5 5 5 5 5 5 5 5 5 5 5 5 5 5 5 5 5 5 5 5 5 5 5 5 5 5 5 5 a 5 5 5 5 5 5 5 5 5 5 5 5 5 5 5 5 5 5 5 5 5 5 5 5 5 5 5 ",
"5 5 5 l z 7.9.k % s 7.6.5.k 5 5 5 5 a 5 5 5 5 5 q 5 5 5 5 5 5 5 5 5 5 5 5 5 5 5 5 5 5 5 5 5 5 5 p p 5 5 5 5 5 5 5 5 5 5 5 5 5 5 5 5 5 5 5 5 5 5 5 5 5 5 5 5 5 a 5 5 5 5 5 q 5 5 5 5 5 5 5 5 5 5 5 5 q 5 5 5 5 5 5 5 5 5 5 a 5 5 5 5 5 5 5 5 5 5 5 5 5 5 5 5 5 5 5 5 5 5 5 5 5 5 5 5 5 a 5 5 5 q 5 q 5 5 5 5 5 5 5 5 5 5 5 5 q 5 q 5 5 5 5 5 5 5 q p 5 5 5 5 5 5 5 5 5 5 5 5 5 5 5 5 5 5 5 5 5 5 5 5 5 5 5 5 a 5 5 5 5 q 5 5 5 5 5 5 5 5 5 5 5 5 5 q 5 5 5 5 5 5 5 5 5 5 a 5 5 5 5 5 5 5 5 5 5 5 5 5 5 5 5 5 5 5 5 5 5 5 5 5 5 5 ",
"5 5 a 9.7.b..Xl 5 9.9..X9.m 5 5 5 5 a 5 5 5 5 a 9.s m 7.7.k % 5 5 5 5 5 5 5 5.m s 7.7.m 5 5 5 5 p p 5 5 5 z l a b b l 5 5 5 5 5 5 5 5 a b p z b b p 5 5 5 5 5 a 5 5 % m m 9.5 m 7.7.s % 5 5 5 5 5 p 9.s b 7.7.l % 5 5 5 5 a 5 5 5 a b p z b b p 5 5 5 5 5 5 5 q m a l b b a 5 5 5 5 5 a 5 5 5 m m 5.a 9.m 7.a 5 5 5 5 5 % z 7.a 6.7.6.q 5 5 5 5 q p 5 5 5 b s j b b k 5 5 5 5 5 5 5 5 z k a b b l 5 5 5 5 5 a 5 5 % s 9.a 5.7.7.a 5 5 5 5 5 5 5 a 9.s b 7.7.k % 5 5 5 5 a 5 5 5 l z a b b z 5 5 5 5 5 5 5 5 j b q z b z 5 5 5 5 ",
"5 5 p 6.m m 6.m 5 b m 5.5.m % 5 5 5 a 5 5 5 % s 7.m m .X9.z % 5 5 5 5 5 5 5 5.5.b 7..X5.5 5 5 5 p p 5 5 5 z z l b 5.l 5 5 5 5 5 5 5 5 s b l l 5.b a % 5 5 5 5 a 5 5 k l z m m m .X7.l % 5 5 5 5 % s 7.m m .X9.z % 5 5 5 5 a 5 5 5 j b l l 5.b a 5 5 5 5 5 5 5 a b l l 5.b k % 5 5 5 5 a 5 5 k z 7.m a l .X6.l % 5 5 5 5 % b 6.m 5..X6.a % 5 5 5 q p 5 5 q z l l 5.m l 5 5 5 5 5 5 5 5 z z l b 5.l 5 5 5 5 5 a 5 5 % l 7.m m .X7.l % 5 5 5 5 5 % s 7.m m .X9.z % 5 5 5 5 a 5 5 5 l z l z 5.z 5 5 5 5 5 5 5 5 k z l z 5.z a 5 5 5 ",
"5 5 5 q 5 5 5 q 5 5 5 5 5 5 5 5 5 5 a 5 5 5 5 5 m k z l b a 5 5 5 5 5 5 5 5 l z k z l l 5 5 5 5 p p 5 5 5 s k a k j s 5 5 5 5 5 5 5 5 5 l a k s l 5 5 5 5 5 5 a 5 5 5 a s z k z l b p 5 5 5 5 5 5 5 b k l l b a 5 5 5 5 5 a 5 5 5 5 l a k s l 5 5 5 5 5 5 5 5 5 l a j s k q 5 5 5 5 5 a 5 5 5 l m 5.k l l b 5 5 5 5 5 5 5 a m s b l b 5 5 5 5 5 q p 5 5 5 k s s k k a 5 5 5 5 5 5 5 5 s k a k k a 5 5 5 5 5 a 5 5 5 q m s z l b 5 5 5 5 5 5 5 5 5 b k l l b a 5 5 5 5 5 a 5 5 5 a l a k s k 5 5 5 5 5 5 5 5 p l a k s k 5 5 5 5 ",
"5 5 5 5 5 5 5 5 5 5 5 5 5 5 5 5 5 5 a 5 5 5 5 5 % 5 % % % 5 5 5 5 5 5 5 5 5 % % 5 % % % 5 5 5 5 p p 5 5 5 5 5 5 5 5 5 5 5 5 5 5 5 5 5 5 % 5 5 5 % 5 5 5 5 5 5 a 5 5 5 5 5 5 % % % % 5 5 5 5 5 5 5 5 % % % % % 5 5 5 5 5 5 a 5 5 5 5 % 5 5 5 % 5 5 5 5 5 5 5 5 5 % 5 5 5 % 5 5 5 5 5 5 a 5 5 5 5 % % 5 5 % % 5 5 5 5 5 5 5 5 % 5 % % % 5 5 5 5 5 q p 5 5 5 5 5 5 5 5 5 5 5 5 5 5 5 5 5 5 5 5 5 5 5 5 5 5 5 5 a 5 5 5 5 % 5 % % % 5 5 5 5 5 5 5 5 5 % % % % % 5 5 5 5 5 5 a 5 5 5 5 % 5 5 5 5 5 5 5 5 5 5 5 5 5 % 5 5 5 5 5 5 5 5 ",
"5 5 5 5 5 5 5 5 5 5 5 5 5 5 5 5 5 5 a 5 5 5 5 5 5 5 5 5 5 5 5 5 5 5 5 5 5 5 5 5 5 5 5 5 5 5 5 5 p p 5 5 5 5 5 5 5 5 5 5 5 5 5 5 5 5 5 5 5 5 5 5 5 5 5 5 5 5 5 a 5 5 5 5 5 5 5 5 5 5 5 5 5 5 5 5 5 5 5 5 5 5 5 5 5 5 5 5 5 a 5 5 5 5 5 5 5 5 5 5 5 5 5 5 5 5 5 5 5 5 5 5 5 5 5 5 5 5 5 a 5 5 5 5 5 5 5 5 5 5 5 5 5 5 5 5 5 5 5 5 5 5 5 5 5 5 5 5 q p 5 5 5 5 5 5 5 5 5 5 5 5 5 5 5 5 5 5 5 5 5 5 5 5 5 5 5 5 a 5 5 5 5 5 5 5 5 5 5 5 5 5 5 5 5 5 5 5 5 5 5 5 5 5 5 5 5 5 a 5 5 5 5 5 5 5 5 5 5 5 5 5 5 5 5 5 5 5 5 5 5 5 5 5 5 5 ",
"5 5 5 5 5 5 5 5 5 5 5 5 5 5 5 5 5 5 a 5 5 5 5 5 5 5 5 5 5 5 5 5 5 5 5 5 5 5 5 5 5 5 5 5 5 5 5 5 p p 5 5 5 5 5 5 5 5 5 5 5 5 5 5 5 5 5 5 5 5 5 5 5 5 5 5 5 5 5 a 5 5 5 5 5 5 5 5 5 5 5 5 5 5 5 5 5 5 5 5 5 5 5 5 5 5 5 5 5 a 5 5 5 5 5 5 5 5 5 5 5 5 5 5 5 5 5 5 5 5 5 5 5 5 5 5 5 5 5 a 5 5 5 5 5 5 5 5 5 5 5 5 5 5 5 5 5 5 5 5 5 5 5 5 5 5 5 5 q p 5 5 5 5 5 5 5 5 5 5 5 5 5 5 5 5 5 5 5 5 5 5 5 5 5 5 5 5 a 5 5 5 5 5 5 5 5 5 5 5 5 5 5 5 5 5 5 5 5 5 5 5 5 5 5 5 5 5 a 5 5 5 5 5 5 5 5 5 5 5 5 5 5 5 5 5 5 5 5 5 5 5 5 5 5 5 ",
"5 5 5 5 5 5 5 5 5 5 5 5 5 5 5 5 5 5 a 5 5 5 5 5 5 4 $ $ 5 5 5 5 5 5 5 5 5 5 5 5 3 3 5 5 5 5 5 5 p p 5 5 5 5 5 5 5 5 5 5 5 5 5 5 5 5 5 5 5 5 5 5 5 5 5 5 5 5 5 a 5 5 5 5 5 $ $ 4 5 5 5 5 5 5 5 5 5 5 5 5 3 5 5 5 5 5 5 5 5 a 5 5 5 5 5 5 5 5 5 5 5 5 5 5 5 5 5 5 5 5 5 5 5 5 5 5 5 5 5 a 5 5 5 5 5 $ $ 5 5 5 5 5 5 5 5 5 5 5 5 5 3 5 5 5 5 5 5 5 q p 5 5 5 5 5 5 5 5 5 5 5 5 5 5 5 5 5 5 5 5 5 5 5 5 5 5 5 5 a 5 5 5 5 5 4 $ 4 5 5 5 5 5 5 5 5 5 5 5 5 3 5 5 5 5 5 5 5 5 a 5 5 5 5 5 5 5 5 5 5 5 5 5 5 5 5 5 5 5 5 5 5 5 5 5 5 5 ",
"5 5 5 5 5 5 5 5 5 5 5 5 5 5 5 5 5 5 a 5 5 5 5 5 $ 8 c g $ 4 5 5 5 5 5 5 5 5 5 5 e r q # 5 5 5 5 p p 5 5 5 5 5 p p 5 5 5 5 5 5 5 5 5 5 5 5 q a q 5 5 5 5 5 5 5 a 5 5 5 4 $ g c 8 $ 5 5 5 5 5 5 5 5 5 # q r e 5 5 5 5 5 5 5 a 5 5 5 5 5 8 a 8 4 5 5 5 5 5 5 5 5 5 5 5 p q 5 5 5 5 5 5 5 a 5 5 5 4 4 g c 8 $ 5 5 5 5 5 5 5 5 5 3 e r e # 5 5 5 5 5 q p 5 5 5 5 5 p p 5 5 5 5 5 5 5 5 5 5 5 5 p p 5 5 5 5 5 5 5 a 5 5 5 5 $ d c d $ 5 5 5 5 5 5 5 5 5 # w r e 5 5 5 5 5 5 5 a 5 5 5 5 5 p a 5 4 5 5 5 5 5 5 5 5 5 5 q a q 5 5 5 5 5 ",
"5 5 5 5 q 5 5 5 % % a 5 5 5 5 5 5 5 a 5 5 5 5 4 h.7Xj.7Xj.8 4 5 5 5 5 5 5 5 e D.! ! D.r 3 5 5 5 p p 5 5 5 p c c c c d 5 5 5 5 5 5 5 5 5 s n h n h 5 5 5 5 5 5 a 5 5 4 8 j.j.j.7Xh.4 5 5 5 5 5 5 5 5 ~ D.! D.! e 5 5 5 5 5 a 5 5 5 5 g c g c g 5 5 5 5 5 5 5 5 5 s n h n v 5 5 5 5 5 5 a 5 5 % d j.j.j.7XG $ 5 5 5 5 5 5 5 q ! D.! D.~ 5 5 5 5 5 q p 5 5 5 d c c c c 8 5 5 5 5 5 5 5 5 q v v v n p 5 5 5 5 5 a 5 5 5 5 j.7Xj.7Xj.5 5 5 5 5 5 5 5 5 ~ D.! D.! e 5 5 5 5 5 a 5 5 5 8 c c c c d 5 5 5 5 5 5 5 5 5 h v h n s 5 5 5 5 ",
"5 5 5 a .Xm b.l b z 9.b 5 5 5 5 5 5 a 5 5 5 $ G j.+ X X G j.4 5 5 5 5 5 5 q D.i * * $ D.r 3 5 5 p p 5 5 5 c %   X # M p 5 5 5 5 5 5 5 s h X X X h h 5 5 5 5 5 a 5 5 4 j.G   X + 7XG $ 5 5 5 5 5 3 r D.+ * * ~ D.5 5 5 5 5 a 5 5 4 g g X X X g c 4 5 5 5 5 5 5 s v X   X a v 5 5 5 5 5 a 5 5 5 7XA . X # 7XA $ 5 5 5 5 5 5 ! ~ * * + ! ~ # 5 5 5 q p 5 5 p c @   X 8 M 5 5 5 5 5 5 5 q n $     $ n q 5 5 5 5 a 5 5 $ j.j.X X X j.j.$ 5 5 5 5 5 # ~ ! + * * ~ D.5 5 5 5 5 a 5 5 5 c 8   X + c d 5 5 5 5 5 5 5 v s   X X v s 5 5 5 ",
"5 5 % m .X9.6.6.XX7.7..X5 5 5 5 5 5 a 5 5 5 5 7X& @ m a . j.g $ 5 5 5 5 # ~ ~ * l b * i D.# 5 5 p p 5 4 g d . p a . % g 4 5 5 5 5 5 q n X @ s %   n q 5 5 5 5 a 5 $ G j.. s m + & j.5 5 5 5 5 5 5 D.O @ b l * ! r # 5 5 5 a 5 5 8 c   @ s @   g 5 5 5 5 5 5 5 n + + s 5   h a 5 5 5 5 a 5 $ h.j.. l m   8 j.$ 5 5 5 5 # r ! * a m 5 + D.5 5 5 5 q p 5 5 c %   a 5 . d d 4 5 5 5 5 5 v q   p a   q v 5 5 5 5 a 5 % d 7X  5 m 5 . j.8 4 5 5 5 5 5 D.O @ m k * ! r # 5 5 5 a 5 4 d g . 5 a   @ g 5 5 5 5 5 5 a v   % s @ X n 5 5 5 ",
"5 5 5 a 5 k s l k k k k z 5 5 5 5 5 a 5 5 4 d j.X k m k X A G $ 5 5 5 5 # ! i # m z % O ~ 5 5 5 p p 5 4 c # + s a @ + d 5 5 5 5 5 5 a h   a s 5 . a q 5 5 5 5 a 5 $ h.G X m z a X h.8 4 5 5 5 5 e ! X s m k * i ~ # 5 5 5 a 5 5 d g   a a 5   p p 5 5 5 5 5 q v   5 s 5   q a 5 5 5 5 a 5 $ j.A O m z 5 + h.5 5 5 5 5 # ~ ~ * b b q   ~ e 5 5 5 q p 5 5 c + % s a X # d 5 5 5 5 5 5 v @ + k a + + s 5 5 5 5 a 5 $ c j.  z m s X G g $ 5 5 5 5 e ! X s m k X r ~ # 5 5 5 a 5 4 c 8 X s a $ X d 5 5 5 5 5 5 s s   a a %   s q 5 5 ",
"5 5 5 5 5 @ 5 $ @ $ @ % $ 5 5 5 5 5 a 5 5 5 8 7X+ @ z s . G g $ 5 5 5 5 # ~ ~ * s l & 4 ~ 5 5 5 p p 5 4 c p . 5 a X # d 5 5 5 5 5 5 q n   @ a $ X s q 5 5 5 5 a 5 $ G j.. a z 4 + j.5 5 5 5 5 5 5 D.O @ l s * ~ r 3 5 5 5 a 5 5 p c   @ a % X g 5 5 5 5 5 5 5 n + + a 5   p q 5 5 5 5 a 5 $ h.h.. s z @ - j.4 5 5 5 5 # r ! * a z 5 + ~ 5 5 5 5 q p 5 5 c #   p q   8 d 5 5 5 5 5 5 v q   5 p X % s 5 5 5 5 a 5 $ g 7X  5 z a   j.8 4 5 5 5 5 5 D.+ @ l s * ~ r 3 5 5 5 a 5 4 d d . 5 a + @ g 5 5 5 5 5 5 a v . $ a @ X s 5 5 5 ",
"5 5 5 b.m s 5.l s s l s l q 5 5 5 5 a 5 5 5 $ h.j.X +   9 j.5 5 5 5 5 5 5 e D.e   X + ~ e 5 5 5 p p 5 5 5 M #     + g 8 5 5 5 5 5 5 5 h s       q s 5 5 5 5 5 a 5 5 5 7XG   + X h.A $ 5 5 5 5 5 # ~ D.X X X i ~ 5 5 5 5 5 a 5 5 5 c g       8 d 5 5 5 5 5 5 5 s v X     5 s 5 5 5 5 5 a 5 5 8 7X9   X + j.g $ 5 5 5 5 5 5 D.~   + X ~ r 3 5 5 5 q p 5 5 d c +     # g 5 5 5 5 5 5 5 q n @     + s q 5 5 5 5 a 5 5 $ j.j.  +   A h.4 5 5 5 5 5 # ~ ! X X X i ~ 5 5 5 5 5 a 5 5 5 c 8     X d p 5 5 5 5 5 5 5 v p     X p a 5 5 5 ",
"5 5 5 .Xb.XXb..Xb..X.Xb.XXk % 5 5 5 a 5 5 5 5 5 j.8 % 4 G 8 4 5 5 5 5 5 5 # r r # % e r 5 5 5 5 p p 5 5 4 d d 4 5 p p 5 5 5 5 5 5 5 5 5 s 5 5 5 a 5 5 5 5 5 5 a 5 5 $ g h.$ % 8 G 5 5 5 5 5 5 5 5 5 ~ e % 5 r e 5 5 5 5 5 a 5 5 5 5 g 5 5 5 d 5 5 5 5 5 5 5 5 5 s 5 % 5 p 5 5 5 5 5 5 a 5 5 $ A G $ % d A 4 5 5 5 5 5 5 5 e ~ 5 % q r 5 5 5 5 5 q p 5 5 5 d p % 5 p 8 5 5 5 5 5 5 5 5 s a 5 5 q q 5 5 5 5 5 a 5 5 4 8 j.5 % 5 G 8 5 5 5 5 5 5 5 5 ~ w % 5 r e 5 5 5 5 5 a 5 5 5 a d 4 5 8 p 5 5 5 5 5 5 5 5 q s 5 5 5 p 5 5 5 5 ",
"5 5 5 k l b l z z 5.z m m q 5 5 5 5 a 5 5 5 5 5 $ 5 5 5 $ 5 5 5 5 5 5 5 5 5 3 3 5 5 5 5 5 5 5 5 p p 5 5 5 5 5 5 5 5 5 5 5 5 5 5 5 5 5 5 5 5 5 5 5 5 5 5 5 5 5 a 5 5 5 4 $ 5 5 5 $ 5 5 5 5 5 5 5 5 5 # 5 5 5 5 5 5 5 5 5 5 a 5 5 5 5 4 5 5 5 5 5 5 5 5 5 5 5 5 5 5 5 5 5 5 5 5 5 5 5 5 a 5 5 5 $ $ 5 5 5 $ 5 5 5 5 5 5 5 5 5 # 5 5 5 3 5 5 5 5 5 q p 5 5 5 4 5 5 5 5 5 5 5 5 5 5 5 5 5 5 5 5 5 5 5 5 5 5 5 5 a 5 5 5 5 $ 5 5 5 $ 5 5 5 5 5 5 5 5 5 # 5 5 5 5 5 5 5 5 5 5 a 5 5 5 5 5 5 5 5 5 5 5 5 5 5 5 5 5 5 5 5 5 5 5 5 5 5 5 ",
"5 5 5 % $ % % % 5 $ $ $ % % 5 5 5 5 a 5 5 5 5 5 5 5 5 5 5 5 5 5 5 5 5 5 5 5 5 5 5 5 5 5 5 5 5 5 p p 5 5 5 5 5 5 5 5 5 5 5 5 5 5 5 5 5 5 5 5 5 5 5 5 5 5 5 5 5 a 5 5 5 5 5 5 5 5 5 5 5 5 5 5 5 5 5 5 5 5 5 5 5 5 5 5 5 5 5 a 5 5 5 5 5 5 5 5 5 5 5 5 5 5 5 5 5 5 5 5 5 5 5 5 5 5 5 5 5 a 5 5 5 5 5 5 5 5 5 5 5 5 5 5 5 5 5 5 5 5 5 5 5 5 5 5 5 5 q p 5 5 5 5 5 5 5 5 5 5 5 5 5 5 5 5 5 5 5 5 5 5 5 5 5 5 5 5 a 5 5 5 5 5 5 5 5 5 5 5 5 5 5 5 5 5 5 5 5 5 5 5 5 5 5 5 5 5 a 5 5 5 5 5 5 5 5 5 5 5 5 5 5 5 5 5 5 5 5 5 5 5 5 5 5 5 ",
"5 5 s k a p a q 5 a a q p l 5 5 5 5 a 5 5 5 5 5 5 5 5 5 5 5 5 5 5 5 5 5 5 5 5 5 5 5 5 5 5 5 5 5 p p 5 5 5 5 5 5 5 5 5 5 5 5 5 5 5 5 5 5 5 5 5 5 5 5 5 5 5 5 5 a 5 5 5 5 5 5 5 5 5 5 5 5 5 5 5 5 5 5 5 5 5 5 5 5 5 5 5 5 5 a 5 5 5 5 5 5 5 5 5 5 5 5 5 5 5 5 5 5 5 5 5 5 5 5 5 5 5 5 5 a 5 5 5 5 5 5 5 5 5 5 5 5 5 5 5 5 5 5 5 5 5 5 5 5 5 5 5 5 q p 5 5 5 5 5 5 5 5 5 5 5 5 5 5 5 5 5 5 5 5 5 5 5 5 5 5 5 5 a 5 5 5 5 5 5 5 5 5 5 5 5 5 5 5 5 5 5 5 5 5 5 5 5 5 5 5 5 5 a 5 5 5 5 5 5 5 5 5 5 5 5 5 5 5 5 5 5 5 5 5 5 5 5 5 5 5 ",
"5 5 m 9.b.6.9.k % 9..X6.6.6.s % 5 5 a 5 5 5 5 5 z 6.6.p 5.z % 5 5 5 5 5 5 5 5 5.z 6.6.l % 5 5 5 p p 5 5 5 a z z p l l 5 5 5 5 5 5 5 5 5 z k z z k 5 5 5 5 5 5 a 5 5 5 a 6.7.k k 6.5 5 5 5 5 5 5 5 % m b 5.5.m 5 5 5 5 5 5 a 5 5 5 5 z z k p b 5 5 5 5 5 5 5 5 5 s l l z z 5 5 5 5 5 5 a 5 5 5 p 5.6.z a 7.q 5 5 5 5 5 5 5 5 m z 5.6.m 5 5 5 5 5 q p 5 5 5 a z b a k l 5 5 5 5 5 5 5 5 5 z k z z a 5 5 5 5 5 a 5 5 5 5 b 6.5.q 6.l % 5 5 5 5 5 5 % l m m 5.6.q 5 5 5 5 5 a 5 5 5 5 z z k a b 5 5 5 5 5 5 5 5 5 l k z z l 5 5 5 5 ",
"5 % m m l z m 6.5 z z z m 9.a 5 5 5 a 5 5 5 5 5 k 9.5.m 5.5.5 5 5 5 5 5 5 5 5 5.5.9.9.b 5 5 5 5 p p 5 5 5 a m z l l z 5 5 5 5 5 5 5 5 5 l z b 5.l 5 5 5 5 5 5 a 5 5 5 q 7.6.m m 7.a 5 5 5 5 5 5 5 % l 7.5..X5.p 5 5 5 5 5 a 5 5 5 5 z b l l b a % 5 5 5 5 5 5 5 a b l 6.z a 5 5 5 5 5 a 5 5 5 5 6.7.m b 7.k % 5 5 5 5 5 5 % z 6.6..Xm 5 5 5 5 5 q p 5 5 5 a m z l l z 5 5 5 5 5 5 5 5 5 z l 5.m k 5 5 5 5 5 a 5 5 5 5 z 9.5.b 5.m % 5 5 5 5 5 5 5 a 9.m .X6.k % 5 5 5 5 a 5 5 5 5 z b l l b a 5 5 5 5 5 5 5 % k b z 5.l 5 5 5 5 ",
"5 5 a q 5 5 5 a 5 5 5 5 5 a 5 5 5 5 a 5 5 5 5 5 7.z 5.l m l % 5 5 5 5 5 5 5 5 k l m m k % 5 5 5 p p 5 5 5 z l l j l k 5 5 5 5 5 5 5 5 5 a s l l j 5 5 5 5 5 5 a 5 5 % b 5.b b z m 5 5 5 5 5 5 5 5 5 a k m b m 5 5 5 5 5 5 a 5 5 5 a z k l a z 5 5 5 5 5 5 5 5 5 5 a l l l 5 5 5 5 5 5 a 5 5 % l 6.z m l 5.5 5 5 5 5 5 5 5 5 a l m m z 5 5 5 5 5 q p 5 5 5 z l l k k k 5 5 5 5 5 5 5 5 5 a k l l a 5 5 5 5 5 a 5 5 5 5 7.z 5.l 5.k 5 5 5 5 5 5 5 5 q k m b m 5 5 5 5 5 5 a 5 5 5 a z k l s z 5 5 5 5 5 5 5 5 5 a a l l k 5 5 5 5 ",
"5 5 5 5 5 5 5 5 5 5 5 5 5 5 5 5 5 5 a 5 5 5 5 5 % 5 % 5 5 5 5 5 5 5 5 5 5 5 5 5 5 % % 5 5 5 5 5 p p 5 5 5 5 5 5 5 5 5 5 5 5 5 5 5 5 5 5 5 5 5 5 5 5 5 5 5 5 5 a 5 5 5 5 5 5 5 5 % 5 5 5 5 5 5 5 5 5 5 5 % % 5 5 5 5 5 5 5 a 5 5 5 5 5 5 5 5 5 5 5 5 5 5 5 5 5 5 5 5 5 5 5 5 5 5 5 5 5 a 5 5 5 5 5 5 % 5 % 5 5 5 5 5 5 5 5 5 5 5 % % 5 5 5 5 5 5 q p 5 5 5 5 5 5 5 5 5 5 5 5 5 5 5 5 5 5 5 5 5 5 5 5 5 5 5 5 a 5 5 5 5 % 5 % 5 % 5 5 5 5 5 5 5 5 5 5 5 5 % % 5 5 5 5 5 5 a 5 5 5 5 5 5 5 5 5 5 5 5 5 5 5 5 5 5 5 5 5 5 5 5 5 5 5 ",
"5 5 5 5 5 5 5 5 5 5 5 5 5 5 5 5 5 5 a 5 5 5 5 5 5 5 5 5 5 5 5 5 5 5 5 5 5 5 5 5 5 5 5 5 5 5 5 5 p p 5 5 5 5 5 5 5 5 5 5 5 5 5 5 5 5 5 5 5 5 5 5 5 5 5 5 5 5 5 a 5 5 5 5 5 5 5 5 5 5 5 5 5 5 5 5 5 5 5 5 5 5 5 5 5 5 5 5 5 a 5 5 5 5 5 5 5 5 5 5 5 5 5 5 5 5 5 5 5 5 5 5 5 5 5 5 5 5 5 a 5 5 5 5 5 5 5 5 5 5 5 5 5 5 5 5 5 5 5 5 5 5 5 5 5 5 5 5 q p 5 5 5 5 5 5 5 5 5 5 5 5 5 5 5 5 5 5 5 5 5 5 5 5 5 5 5 5 a 5 5 5 5 5 5 5 5 5 5 5 5 5 5 5 5 5 5 5 5 5 5 5 5 5 5 5 5 5 a 5 5 5 5 5 5 5 5 5 5 5 5 5 5 5 5 5 5 5 5 5 5 5 5 5 5 5 ",
"5 5 5 5 5 5 5 5 5 5 5 5 5 5 5 5 5 5 a 5 5 5 5 5 5 5 5 5 5 5 5 5 5 5 5 5 5 5 5 5 5 5 5 5 5 5 5 5 p p 5 5 5 5 5 5 5 5 5 5 5 5 5 5 5 5 5 5 5 5 5 5 5 5 5 5 5 5 5 a 5 5 5 5 5 5 5 5 5 5 5 5 5 5 5 5 5 5 5 5 5 5 5 5 5 5 5 5 5 a 5 5 5 5 5 5 5 5 5 5 5 5 5 5 5 5 5 5 5 5 5 5 5 5 5 5 5 5 5 a 5 5 5 5 5 5 5 5 5 5 5 5 5 5 5 5 5 5 5 5 5 5 5 5 5 5 5 5 q p 5 5 5 5 5 5 5 5 5 5 5 5 5 5 5 5 5 5 5 5 5 5 5 5 5 5 5 5 a 5 5 5 5 5 5 5 5 5 5 5 5 5 5 5 5 5 5 5 5 5 5 5 5 5 5 5 5 5 a 5 5 5 5 5 5 5 5 5 5 5 5 5 5 5 5 5 5 5 5 5 5 5 5 5 5 5 ",
"5 5 5 5 5 5 5 5 5 5 5 5 5 5 5 5 5 5 a 5 5 5 5 5 5 5 $ 5 5 5 5 5 5 5 5 5 5 5 5 5 4 4 5 5 5 5 5 5 p p 5 5 5 5 5 5 5 5 5 5 5 5 5 5 5 5 5 5 5 5 5 5 5 5 5 5 5 5 5 a 5 5 5 5 5 5 $ 5 5 5 5 5 5 5 5 5 5 5 5 5 5 5 5 5 5 5 5 5 5 a 5 5 5 5 5 5 5 5 5 5 5 5 5 5 5 5 5 5 5 5 5 5 5 5 5 5 5 5 5 a 5 5 5 5 5 % % 5 5 5 5 5 5 5 5 5 5 5 5 5 % 5 5 5 5 5 5 5 q p 5 5 5 5 5 5 5 5 5 5 5 5 5 5 5 5 5 5 5 5 5 5 5 5 5 5 5 5 a 5 5 5 5 5 5 $ 5 5 5 5 5 5 5 5 5 5 5 5 5 % 5 5 5 5 5 5 5 5 a 5 5 5 5 5 5 5 5 5 5 5 5 5 5 5 5 5 5 5 5 5 5 5 5 5 5 5 ",
"5 5 5 % % 5 5 5 5 5 5 5 5 5 5 5 5 5 a 5 5 5 5 5 $ 5 x 8 $ 5 5 5 5 5 5 5 5 5 4 4 8 8 4 4 5 5 5 5 p p 5 5 5 5 5 5 5 5 5 5 5 5 5 5 5 5 5 5 4 5 p 5 4 5 5 5 5 5 5 a 5 5 5 5 $ 8 x 5 $ 5 5 5 5 5 5 5 5 5 6 5 , q 6 5 5 5 5 5 5 a 5 5 5 5 4 5 8 5 4 5 5 5 5 5 5 5 5 5 5 5 q 5 4 5 5 5 5 5 5 a 5 5 5 5 $ 8 x % $ 5 5 5 5 5 5 5 5 5 # w y 5 # 5 5 5 5 5 q p 5 5 5 5 5 5 5 4 5 5 5 5 5 5 5 5 5 5 % q q % 5 5 5 5 5 5 a 5 5 5 5 $ 5 x 5 $ 5 5 5 5 5 5 5 5 5 $ 5 x 5 @ 5 5 5 5 5 5 a 5 5 5 5 4 5 8 5 5 5 5 5 5 5 5 5 5 5 % 5 p 5 % 5 5 5 5 ",
"5 5 5 z z q % 5 5 $ a a % 5 5 5 5 5 a 5 5 5 5 $ h.GXhXGXl.5 5 5 5 5 5 5 5 4 8 H >X>X>X9 4 5 5 5 p p 5 5 5 5 c M M M p 5 5 5 5 5 5 5 5 5 N F F X.N 5 5 5 5 5 5 a 5 5 5 5 z.GXhXGXh.$ 5 5 5 5 5 5 5 6 < L U L I 5 5 5 5 5 5 a 5 5 5 5 k M c M k 5 5 5 5 5 5 5 5 5 s / m n.v 5 5 5 5 5 5 a 5 5 % 8 z.GXhXGX2.$ 5 5 5 5 5 5 5 5 c.~.U.~.>.# 5 5 5 5 q p 5 5 5 a M c M c 5 5 5 5 5 5 5 5 5 q 0.0.n.0.w 5 5 5 5 5 a 5 5 5 $ l.GXhXGXl.% 5 5 5 5 5 5 5 $ 1.NXmXNXp.5 5 5 5 5 5 a 5 5 5 5 c M M M a 5 5 5 5 5 5 5 5 5 M g.g.g.l 4 5 5 5 ",
"5 5 5 6.9.9.m m 6.5.6..Xa % 5 5 5 5 a 5 5 5 $ h.GX8 X + z.hX$ 5 5 5 5 5 5 5 <XS X X ; 1X9 4 5 5 p p 5 5 5 M a X X 5 6.8 5 5 5 5 5 5 4 N F + X + F N 4 5 5 5 5 a 5 5 $ z.z.+ X 8 GXh.$ 5 5 5 5 5 6 < L $ X + I L 6 5 5 5 5 a 5 5 4 l c + X + c l 4 5 5 5 5 5 5 s / $ X X n m 5 5 5 5 5 a 5 5 % hXl.X X 0 GXc $ 5 5 5 5 5 # P.P.+ X 4 cX>.# 5 5 5 q p 5 5 p M 5 X X d M 5 5 5 5 5 5 5 5 n.a X X w V.q 5 5 5 5 a 5 5 @ l.hX# X @ hXz.@ 5 5 5 5 5 $ 1.NX7 X + p.mX$ 5 5 5 5 a 5 5 5 c k X X % 6.a 5 5 5 5 5 5 % M M + X @ g.c % 5 5 ",
"5 5 % z m m 9.z .X5..Xm m 5 5 5 5 5 a 5 5 5 5 GX8 X z q . hX2.$ 5 5 5 5 4 H H . a z o Z >X4 5 5 p p 5 % l l . 5 p . 8 c % 5 5 5 5 5 p F X + a @ X F p 5 5 5 5 a 5 $ h.hX. 5 b + 8 GX% 5 5 5 5 5 5 L : X z s o U < 6 5 5 5 a 5 5 5 M X + a + X M 5 5 5 5 5 5 5 n.@   a 5   m s 5 5 5 5 a 5 O l.z.. a z . 0 hX$ 5 5 5 5 # u ~.. 5 b # 4 ~.5 5 5 5 q p 5 4 c 8   q 5 . l k % 5 5 5 5 % 5.l . 5 p . k 5.% 5 5 5 a 5 % 8 GX+ @ z %   GX0 % 5 5 5 5 5 NX7 X z a . mX1.@ 5 5 5 a 5 4 k c . % a   % c 5 5 5 5 5 4 d g.  @ a + @ g.5 5 5 ",
"5 5 5 q q 5 p 5 a a s 5 l a 5 5 5 5 a 5 5 $ x hXX k m k   d.d.$ 5 5 5 5 4 H ; @ m m a & >X5 5 5 p p 5 4 c 5 + k a + + l 5 5 5 5 5 4 d N   a s a X N d 4 5 5 5 a 5 O l.l.  m m a X hXj % 5 5 5 5 : L X s m m @ 2 I 6 5 5 5 a 5 5 a c   a s 5   d p 5 5 5 5 5 q m   5 s s X s v % 5 5 5 a 5 O z.d.+ 5.z 5 + z.5 5 5 5 5 # c.c.* b m l X U.y % 5 5 q p 5 5 M + $ k p X % k 5 5 5 5 5 % 0.4 + k s $ $ 0.5 5 5 5 a 5 $ 3.z.. z m a . l.2.$ 5 5 5 % j mXX k m m + a.p.+ 5 5 5 a 5 % c 8 X s a @ X l 5 5 5 5 5 $ c c   a s a   D a 4 5 ",
"5 5 5 5 5 a 5 % $ $ $ % 5 5 5 5 5 5 a 5 5 5 8 GXX % b l . l.d.$ 5 5 5 5 O H J o l k o = >X4 5 5 p p 5 % c p . p a + @ l 5 5 5 5 5 5 p F . $ a + . F d 4 5 5 5 a 5 O l.z.. k z @ X hX8 5 5 5 5 5 5 L + 4 z q o I P 6 5 5 5 a 5 5 a M   $ a 5   k 8 5 5 5 5 5 5 n.X + a $ . n k % 5 5 5 a 5 O z.l.. l b $ 3 z.5 5 5 5 5 # >.P.. j l + X ~.w 5 5 5 q p 5 5 M @ X a a   8 s 5 5 5 5 5 % 0.w . a 5 . w 0.% 5 5 5 a 5 $ c hX. p b s . z.0 $ 5 5 5 5 5 NXX % z 5 . k.p.@ 5 5 5 a 5 % l k . 5 a + + l 5 5 5 5 5 % l D . 5 a X X g.p 5 5 ",
"5 5 5 5 5 7.5.l l z l l 5 5 5 5 5 5 a 5 5 5 $ z.z.  +   0 z.5 5 5 5 5 5 4 9 ,X- X + X V A 4 5 5 p p 5 5 p M @   X X k a 5 5 5 5 5 5 5 D g   X   p N 5 5 5 5 5 a 5 5 8 GX0   @   l.l.$ 5 5 5 5 5 6 I U X + X & U q 5 5 5 5 a 5 5 5 c d   X   8 l 5 5 5 5 5 5 4 n n   X   % n 5 5 5 5 5 a 5 % x GX0   + X l.d.$ 5 5 5 5 5 5 ~.u   @   ,.c.# 5 5 5 q p 5 5 k c X X   @ l 5 5 5 5 5 5 % s n.+   X X b j % 5 5 5 a 5 5 $ z.l.. @   2.z.% 5 5 5 5 5 @ p.k.  + X 7 fXa 5 5 5 5 a 5 5 5 M %   X X d a 5 5 5 5 5 5 5 g.d . X   d c 4 5 5 ",
"5 5 5 5 q 5.5.9.9.6.XX6.% 5 5 5 5 5 a 5 5 5 5 8 z.8 @ $ l.0 $ 5 5 5 5 5 5 4 H S O @ 9 J 4 5 5 5 p p 5 5 4 l k $ $ p d 5 5 5 5 5 5 5 5 p M 5 $ 5 N 5 5 5 5 5 5 a 5 5 @ h.z.O @ 8 l.5 5 5 5 5 5 5 5 5 U , @ 6 < , 6 5 5 5 5 a 5 5 5 p c 5 $ 5 k 5 5 5 5 5 5 5 5 5 m q @ % s q 5 5 5 5 5 a 5 5 @ l.l.+ @ 0 l.% 5 5 5 5 5 5 # >.P.# @ 5 c.5 5 5 5 5 q p 5 5 5 c a @ $ a a 5 5 5 5 5 5 5 % b l @ @ a k % 5 5 5 5 a 5 5 $ x z.5 @ % l.0 % 5 5 5 5 5 5 5 mXa @ @ i.s.$ 5 5 5 5 a 5 5 4 k l $ $ 5 s 5 5 5 5 5 5 5 4 s M $ $ 5 c 5 5 5 5 ",
"5 5 5 5 a 5.l z a a l s 5 5 5 5 5 5 a 5 5 5 5 5 $ 5 5 5 $ % 5 5 5 5 5 5 5 5 4 4 5 5 5 4 5 5 5 5 p p 5 5 5 5 5 5 5 5 5 5 5 5 5 5 5 5 5 5 4 5 5 5 5 5 5 5 5 5 5 a 5 5 5 $ $ 5 5 5 $ 5 5 5 5 5 5 5 5 5 6 5 5 5 5 5 5 5 5 5 5 a 5 5 5 5 5 5 5 5 5 5 5 5 5 5 5 5 5 5 4 5 5 5 5 5 5 5 5 5 5 a 5 5 5 $ $ 5 5 5 $ 5 5 5 5 5 5 5 5 % # 5 5 5 % 5 5 5 5 5 q p 5 5 5 5 5 5 5 5 5 5 5 5 5 5 5 5 5 % 5 5 5 5 5 5 5 5 5 5 a 5 5 5 % $ 5 5 5 $ 5 5 5 5 5 5 5 5 5 @ 5 5 5 % % 5 5 5 5 5 a 5 5 5 5 5 5 5 5 5 5 5 5 5 5 5 5 5 5 4 5 5 5 5 5 5 5 5 ",
"5 5 5 5 % % % $ 5 % % 5 5 5 5 5 5 5 a 5 5 5 5 5 5 5 5 5 5 5 5 5 5 5 5 5 5 5 5 5 5 5 5 5 5 5 5 5 p p 5 5 5 5 5 5 5 5 5 5 5 5 5 5 5 5 5 5 5 5 5 5 5 5 5 5 5 5 5 a 5 5 5 5 5 5 5 5 5 5 5 5 5 5 5 5 5 5 5 5 5 5 5 5 5 5 5 5 5 a 5 5 5 5 5 5 5 5 5 5 5 5 5 5 5 5 5 5 5 5 5 5 5 5 5 5 5 5 5 a 5 5 5 5 5 5 5 5 5 5 5 5 5 5 5 5 5 5 5 5 5 5 5 5 5 5 5 5 q p 5 5 5 5 5 5 5 5 5 5 5 5 5 5 5 5 5 5 5 5 5 5 5 5 5 5 5 5 a 5 5 5 5 5 5 5 5 5 5 5 5 5 5 5 5 5 5 5 5 5 5 5 5 5 5 5 5 5 a 5 5 5 5 5 5 5 5 5 5 5 5 5 5 5 5 5 5 5 5 5 5 5 5 5 5 5 ",
"5 5 5 l l 6.7.s % a 6.6.5.k 5 5 5 5 a 5 5 5 5 5 q 5 5 5 5 5 5 5 5 5 5 5 5 5 5 5 5 5 5 5 5 5 5 5 p p 5 5 5 5 5 5 5 5 5 5 5 5 5 5 5 5 5 5 5 5 5 5 5 5 5 5 5 5 5 a 5 5 5 5 5 5 5 5 5 5 5 5 5 5 5 5 5 5 5 5 5 5 5 5 5 5 5 5 5 a 5 5 5 5 5 5 5 5 5 5 5 5 5 5 5 5 5 5 5 5 5 5 5 5 5 5 5 5 5 a 5 5 5 5 5 5 5 5 5 5 5 5 5 5 5 5 5 5 5 5 5 5 5 5 5 5 5 5 q p 5 5 5 5 5 5 5 5 5 5 5 5 5 5 5 5 5 5 5 5 5 5 5 5 5 5 5 5 a 5 5 5 5 q 5 5 5 5 5 5 5 5 5 5 5 5 5 5 5 5 5 5 5 5 5 5 5 5 a 5 5 5 5 5 5 5 5 5 5 5 5 5 5 5 5 5 5 5 5 5 5 5 5 5 5 5 ",
"5 5 a 9.7.b..Xl 5 7.9..X9.m 5 5 5 5 a 5 5 5 5 5 5.z 5.p 7.7.6.5 5 5 5 5 5 5 5 7.a l 7.7.z % 5 5 p p 5 5 5 l k z 5 z b z 5 5 5 5 5 5 5 % z s a b b l 5 5 5 5 5 a 5 5 $ m m 9.5 b m 6.s 5 5 5 5 5 5 $ z m 5 7.7.5.5 5 5 5 5 a 5 5 5 a l l s s b b j 5 5 5 5 5 5 5 a b 5 z b b q 5 5 5 5 a 5 5 % k m m k z 7.7.l % 5 5 5 5 5 $ m z a 7.7.m 5 5 5 5 q p 5 5 5 l k z q z b b q 5 5 5 5 5 5 5 b q k b b s 5 5 5 5 a 5 5 5 5 5.z m a 7.7.m 5 5 5 5 5 5 % s 7.5 5.7.7.a 5 5 5 5 a 5 5 5 a l l a s b b s 5 5 5 5 5 5 % l k q b b z 5 5 5 ",
"5 5 p 6.5.m 6.m 5 m 5.5.6.m % 5 5 5 a 5 5 5 a k b 9..Xl 6..X5.a 5 5 5 5 5 5 z .Xm b 9.b.m 5 5 5 p p 5 5 a k b 7.k z 5.z a 5 5 5 5 5 5 s 5.z k b 5.l 5 5 5 5 5 a 5 5 k l z m l s 7.5.z % 5 5 5 5 5 s 9.7.z 6..X5.a 5 5 5 5 a 5 5 a a z 6.z k 5.m l 5 5 5 5 5 5 q z 5.k l 5.z a 5 5 5 5 a 5 5 k l 5.XX5.z b.9.b % 5 5 5 5 5 k b.6.z 7..X5.q 5 5 5 q p 5 5 a k b 7.k l 5.z a 5 5 5 5 5 5 k 5.l l 5.m l 5 5 5 5 a 5 5 a k m b..Xl 7..X5.5 5 5 5 5 5 a 6.b.z m .X7.k % 5 5 5 a 5 5 a a z 7.z k 5.m l 5 5 5 5 5 5 a 5.b k b 5.z 5 5 5 ",
"5 5 5 p 5 5 5 p 5 5 5 5 5 q 5 5 5 5 a 5 5 5 5 a 6.a z l b l b 5 5 5 5 5 5 5 5 z z l z b k 5 5 5 p p 5 5 5 z a j s k j l 5 5 5 5 5 5 5 5 a k a k k s 5 5 5 5 5 a 5 5 5 a s z l a a m p 5 5 5 5 5 5 5 s m k b l b 5 5 5 5 5 a 5 5 5 k l a k s k l a 5 5 5 5 5 5 5 q l a k j l 5 5 5 5 5 a 5 5 5 m b s z l z b a 5 5 5 5 5 5 5 k b k b z z 5 5 5 5 q p 5 5 5 z a j s k j l 5 5 5 5 5 5 5 5 k j s k l a 5 5 5 5 a 5 5 5 s 6.a z k b z z 5 5 5 5 5 5 5 p m k b l m 5 5 5 5 5 a 5 5 5 l l a k s k l a 5 5 5 5 5 5 5 a l a l k k 5 5 5 ",
"5 5 5 5 5 5 5 5 5 5 5 5 5 5 5 5 5 5 a 5 5 5 5 5 % 5 % 5 % % % 5 5 5 5 5 5 5 5 % % 5 % % 5 5 5 5 p p 5 5 5 % 5 % 5 5 5 5 5 5 5 5 5 5 5 5 5 5 5 5 5 5 5 5 5 5 5 a 5 5 5 5 5 5 % 5 5 % 5 5 5 5 5 5 5 5 5 % 5 % % % 5 5 5 5 5 a 5 5 5 5 5 5 5 5 5 5 5 5 5 5 5 5 5 5 5 5 5 5 5 5 5 5 5 5 5 a 5 5 5 % 5 % % 5 % % 5 5 5 5 5 5 5 5 5 % 5 % % % 5 5 5 5 q p 5 5 5 % 5 % 5 5 5 5 5 5 5 5 5 5 5 5 5 5 5 5 5 5 5 5 5 5 a 5 5 5 5 % 5 % 5 % % % 5 5 5 5 5 5 5 5 % 5 % % % 5 5 5 5 5 a 5 5 5 5 5 5 5 5 5 5 5 5 5 5 5 5 5 5 5 5 5 5 5 5 5 5 5 ",
"5 5 5 5 5 5 5 5 5 5 5 5 5 5 5 5 5 5 a 5 5 5 5 5 5 5 5 5 5 5 5 5 5 5 5 5 5 5 5 5 5 5 5 5 5 5 5 5 q q 5 5 5 5 5 5 5 5 5 5 5 5 5 5 5 5 5 5 5 5 5 5 5 5 5 5 5 5 5 a 5 5 5 5 5 5 5 5 5 5 5 5 5 5 5 5 5 5 5 5 5 5 5 5 5 5 5 5 5 a 5 5 5 5 5 5 5 5 5 5 5 5 5 5 5 5 5 5 5 5 5 5 5 5 5 5 5 5 5 a 5 5 5 5 5 5 5 5 5 5 5 5 5 5 5 5 5 5 5 5 5 5 5 5 5 5 5 5 q q 5 5 5 5 5 5 5 5 5 5 5 5 5 5 5 5 5 5 5 5 5 5 5 5 5 5 5 5 a 5 5 5 5 5 5 5 5 5 5 5 5 5 5 5 5 5 5 5 5 5 5 5 5 5 5 5 5 5 a 5 5 5 5 5 5 5 5 5 5 5 5 5 5 5 5 5 5 5 5 5 5 5 5 5 5 5 ",
"5 5 5 5 5 5 5 5 5 5 5 5 5 5 5 5 5 5 a q 5 q q q q q q q q q q q q q q q q q q q q q q q q q q 5 a a 5 q q q q q q q q q q q q q q q q q q q q q q q q q q 5 p a 5 q q q q q q q q q q q q q q q q q q q q q q q q q q q q a 5 q q q q q q q q q q q q q q q q q q q q q q q q q q q q a 5 q q q q q q q q q q q q q q q q q q q q q q q q q q 5 a a 5 q q q q q q q q q q q q q q q q q q q q q q q q q q 5 a q 5 q q q q q q q q q q q q q q q q q q q q q q q q q q q a 5 q q q q q q q q q q q q q q q q q q q q q q q q q q ",
"5 5 5 5 5 5 5 5 5 5 5 5 5 5 5 5 5 5 a a a a a a a a a a a a a a a a a a a a a a a a a a a a a a p p a a a a a a a a a a a a a a a a a a a a a a a a a a a a a p a a a a a a a a a a a a a a a a a a a a a a a a a a a a a p a a a a a a a a a a a a a a a a a a a a a a a a a a a a a p a a a a a a a a a a a a a a a a a a a a a a a a a a a a p p a a a a a a a a a a a a a a a a a a a a a a a a a a a a p a a a a a a a a a a a a a a a a a a a a a a a a a a a a a p a a a a a a a a a a a a a a a a a a a a a a a a a a a ",
"5 5 5 5 5 5 5 5 5 5 5 5 5 5 5 5 5 5 a 5 5 5 5 5 5 5 5 5 5 5 5 5 5 5 5 5 5 5 5 5 5 5 5 5 5 5 5 5 5 5 5 5 5 5 5 5 5 5 5 5 5 5 5 5 5 5 5 5 5 5 5 5 5 5 5 5 5 5 5 5 5 5 5 5 5 5 5 5 5 5 5 5 5 5 5 5 5 5 5 5 5 5 5 5 5 5 5 5 5 5 5 5 5 5 5 5 5 5 5 5 5 5 5 5 5 5 5 5 5 5 5 5 5 5 5 5 5 5 5 5 5 5 5 5 5 5 5 5 5 5 5 5 5 5 5 5 5 5 5 5 5 5 5 5 5 5 5 5 5 5 5 5 5 5 5 5 5 5 5 5 5 5 5 5 5 5 5 5 5 5 5 5 5 5 5 5 5 5 5 5 5 5 5 5 5 5 5 5 5 5 5 5 5 5 5 5 5 5 5 5 5 5 5 5 5 5 5 5 5 5 5 5 5 5 5 5 5 5 5 5 5 5 5 5 5 5 5 5 5 5 5 5 5 5 5 5 ",
"5 5 5 5 5 5 5 5 5 5 5 5 5 5 5 5 5 5 a 5 5 5 5 5 5 5 5 5 5 5 5 5 5 5 5 5 5 5 5 5 5 5 5 5 5 5 5 5 5 5 5 5 5 5 5 5 5 5 5 5 5 5 5 5 5 5 5 5 5 5 5 5 5 5 5 5 5 5 5 5 5 5 5 5 5 5 5 5 5 5 5 5 5 5 5 5 5 5 5 5 5 5 5 5 5 5 5 5 5 5 5 5 5 5 5 5 5 5 5 5 5 5 5 5 5 5 5 5 5 5 5 5 5 5 5 5 5 5 5 5 5 5 5 5 5 5 5 5 5 5 5 5 5 5 5 5 5 5 5 5 5 5 5 5 5 5 5 5 5 5 5 5 5 5 5 5 5 5 5 5 5 5 5 5 5 5 5 5 5 5 5 5 5 5 5 5 5 5 5 5 5 5 5 5 5 5 5 5 5 5 5 5 5 5 5 5 5 5 5 5 5 5 5 5 5 5 5 5 5 5 5 5 5 5 5 5 5 5 5 5 5 5 5 5 5 5 5 5 5 5 5 5 5 5 5 5 ",
"5 5 5 5 5 5 5 5 5 5 5 5 5 5 5 5 5 5 a 5 5 5 5 5 5 5 5 5 5 5 5 5 5 5 5 5 5 5 5 5 5 5 5 5 5 5 5 5 5 5 5 5 5 5 5 5 5 5 5 5 5 5 5 5 5 5 5 5 5 5 5 5 5 5 5 5 5 5 5 5 5 5 5 5 5 5 5 5 5 5 5 5 5 5 5 5 5 5 5 5 5 5 5 5 5 5 5 5 5 5 5 5 5 5 5 5 5 5 5 5 5 5 5 5 5 5 5 5 5 5 5 5 5 5 5 5 5 5 5 5 5 5 5 5 5 5 5 5 5 5 5 5 5 5 5 5 5 5 5 5 5 5 5 5 5 5 5 5 5 5 5 5 5 5 5 5 5 5 5 5 5 5 5 5 5 5 5 5 5 5 5 5 5 5 5 5 5 5 5 5 5 5 5 5 5 5 5 5 5 5 5 5 5 5 5 5 5 5 5 5 5 5 5 5 5 5 5 5 5 5 5 5 5 5 5 5 5 5 5 5 5 5 5 5 5 5 5 5 5 5 5 5 5 5 5 5 ",
"5 5 5 5 5 5 5 5 5 5 5 5 5 5 5 5 5 5 a 5 5 5 5 5 5 5 5 5 5 5 5 5 5 5 5 5 5 5 5 5 5 5 5 5 5 5 5 5 5 5 5 5 5 5 5 5 5 5 5 5 5 5 5 5 5 5 5 5 5 5 5 5 5 5 5 5 5 5 5 5 5 5 5 5 5 5 5 5 5 5 5 5 5 5 5 5 5 5 5 5 5 5 5 5 5 5 5 5 5 5 5 5 5 5 5 5 5 5 5 5 5 5 5 5 5 5 5 5 5 5 5 5 5 5 5 5 5 5 5 5 5 5 5 5 5 5 5 5 5 5 5 5 5 5 5 5 5 5 5 5 5 5 5 5 5 5 5 5 5 5 5 5 5 5 5 5 5 5 5 5 5 5 5 5 5 5 5 5 5 5 5 5 5 5 5 5 5 5 5 5 5 5 5 5 5 5 5 5 5 5 5 5 5 5 5 5 5 5 5 5 5 5 5 5 5 5 5 5 5 5 5 5 5 5 5 5 5 5 5 5 5 5 5 5 5 5 5 5 5 5 5 5 5 5 5 5 ",
"5 5 5 5 5 5 5 5 5 5 5 5 5 5 5 5 5 5 a 5 5 5 5 5 5 5 5 5 5 5 5 5 5 5 5 5 5 5 5 5 5 5 5 5 5 5 5 5 5 5 5 5 5 5 5 5 5 5 5 5 5 5 5 5 5 5 5 5 5 5 5 5 5 5 5 5 5 5 5 5 5 5 5 5 5 5 5 5 5 5 5 5 5 5 5 5 5 5 5 5 5 5 5 5 5 5 5 5 5 5 5 5 5 5 5 5 5 5 5 5 5 5 5 5 5 5 5 5 5 5 5 5 5 5 5 5 5 5 5 5 5 5 5 5 5 5 5 5 5 5 5 5 5 5 5 5 5 5 5 5 5 5 5 5 5 5 5 5 5 5 5 5 5 5 5 5 5 5 5 5 5 5 5 5 5 5 5 5 5 5 5 5 5 5 5 5 5 5 5 5 5 5 5 5 5 5 5 5 5 5 5 5 5 5 5 5 5 5 5 5 5 5 5 5 5 5 5 5 5 5 5 5 5 5 5 5 5 5 5 5 5 5 5 5 5 5 5 5 5 5 5 5 5 5 5 5 ",
"5 5 5 5 5 5 5 5 5 5 5 5 5 5 5 5 5 5 a 5 5 5 5 5 5 5 5 5 5 5 5 5 5 5 5 5 5 5 5 5 5 5 5 5 5 5 5 5 5 5 5 5 5 5 5 5 5 5 5 5 5 5 5 5 5 5 5 5 5 5 5 5 5 5 5 5 5 5 5 5 5 5 5 5 5 5 5 5 5 5 5 5 5 5 5 5 5 5 5 5 5 5 5 5 5 5 5 5 5 5 5 5 5 5 5 5 5 5 5 5 5 5 5 5 5 5 5 5 5 5 5 5 5 5 5 5 5 5 5 5 5 5 5 5 5 5 5 5 5 5 5 5 5 5 5 5 5 5 5 5 5 5 5 5 5 5 5 5 5 5 5 5 5 5 5 5 5 5 5 5 5 5 5 5 5 5 5 5 5 5 5 5 5 5 5 5 5 5 5 5 5 5 5 5 5 5 5 5 5 5 5 5 5 5 5 5 5 5 5 5 5 5 5 5 5 5 5 5 5 5 5 5 5 5 5 5 5 5 5 5 5 5 5 5 5 5 5 5 5 5 5 5 5 5 5 5 ",
"5 5 5 5 5 5 5 5 5 5 5 5 5 5 5 5 5 5 a 5 5 5 5 5 5 5 5 5 5 5 5 5 5 5 5 5 5 5 5 5 5 5 5 5 5 5 5 5 5 5 5 5 5 5 5 5 5 5 5 5 5 5 5 5 5 5 5 5 5 5 5 5 5 5 5 5 5 5 5 5 5 5 5 5 5 5 5 5 5 5 5 5 5 5 5 5 5 5 5 5 5 5 5 5 5 5 5 5 5 5 5 5 5 5 5 5 5 5 5 5 5 5 5 5 5 5 5 5 5 5 5 5 5 5 5 5 5 5 5 5 5 5 5 5 5 5 5 5 5 5 5 5 5 5 5 5 5 5 5 5 5 5 5 5 5 5 5 5 5 5 5 5 5 5 5 5 5 5 5 5 5 5 5 5 5 5 5 5 5 5 5 5 5 5 5 5 5 5 5 5 5 5 5 5 5 5 5 5 5 5 5 5 5 5 5 5 5 5 5 5 5 5 5 5 5 5 5 5 5 5 5 5 5 5 5 5 5 5 5 5 5 5 5 5 5 5 5 5 5 5 5 5 5 5 5 5 ",
"5 5 5 5 5 5 5 5 5 5 5 5 5 5 5 5 5 5 a 5 5 5 5 5 5 5 5 5 5 5 5 5 5 5 5 5 5 5 5 5 5 5 5 5 5 5 5 5 5 5 5 5 5 5 5 5 5 5 5 5 5 5 5 5 5 5 5 5 5 5 5 5 5 5 5 5 5 5 5 5 5 5 5 5 5 5 5 5 5 5 5 5 5 5 5 5 5 5 5 5 5 5 5 5 5 5 5 5 5 5 5 5 5 5 5 5 5 5 5 5 5 5 5 5 5 5 5 5 5 5 5 5 5 5 5 5 5 5 5 5 5 5 5 5 5 5 5 5 5 5 5 5 5 5 5 5 5 5 5 5 5 5 5 5 5 5 5 5 5 5 5 5 5 5 5 5 5 5 5 5 5 5 5 5 5 5 5 5 5 5 5 5 5 5 5 5 5 5 5 5 5 5 5 5 5 5 5 5 5 5 5 5 5 5 5 5 5 5 5 5 5 5 5 5 5 5 5 5 5 5 5 5 5 5 5 5 5 5 5 5 5 5 5 5 5 5 5 5 5 5 5 5 5 5 5 5 ",
"5 5 5 5 5 5 5 5 5 5 5 5 5 5 5 5 5 5 a 5 5 5 5 5 5 5 5 5 5 5 5 5 5 5 5 5 5 5 5 5 5 5 5 5 5 5 5 5 5 5 5 5 5 5 5 5 5 5 5 5 5 5 5 5 5 5 5 5 5 5 5 5 5 5 5 5 5 5 5 5 5 5 5 5 5 5 5 5 5 5 5 5 5 5 5 5 5 5 5 5 5 5 5 5 5 5 5 5 5 5 5 5 5 5 5 5 5 5 5 5 5 5 5 5 5 5 5 5 5 5 5 5 5 5 5 5 5 5 5 5 5 5 5 5 5 5 5 5 5 5 5 5 5 5 5 5 5 5 5 5 5 5 5 5 5 5 5 5 5 5 5 5 5 5 5 5 5 5 5 5 5 5 5 5 5 5 5 5 5 5 5 5 5 5 5 5 5 5 5 5 5 5 5 5 5 5 5 5 5 5 5 5 5 5 5 5 5 5 5 5 5 5 5 5 5 5 5 5 5 5 5 5 5 5 5 5 5 5 5 5 5 5 5 5 5 5 5 5 5 5 5 5 5 5 5 5 ",
"5 5 5 5 5 5 5 5 5 5 5 5 5 5 5 5 5 5 a 5 5 5 5 5 5 5 5 5 5 5 5 5 5 5 5 5 5 5 5 5 5 5 5 5 5 5 5 5 5 5 5 5 5 5 5 5 5 5 5 5 5 5 5 5 5 5 5 5 5 5 5 5 5 5 5 5 5 5 5 5 5 5 5 5 5 5 5 5 5 5 5 5 5 5 5 5 5 5 5 5 5 5 5 5 5 5 5 5 5 5 5 5 5 5 5 5 5 5 5 5 5 5 5 5 5 5 5 5 5 5 5 5 5 5 5 5 5 5 5 5 5 5 5 5 5 5 5 5 5 5 5 5 5 5 5 5 5 5 5 5 5 5 5 5 5 5 5 5 5 5 5 5 5 5 5 5 5 5 5 5 5 5 5 5 5 5 5 5 5 5 5 5 5 5 5 5 5 5 5 5 5 5 5 5 5 5 5 5 5 5 5 5 5 5 5 5 5 5 5 5 5 5 5 5 5 5 5 5 5 5 5 5 5 5 5 5 5 5 5 5 5 5 5 5 5 5 5 5 5 5 5 5 5 5 5 5 ",
"5 5 5 5 5 5 5 5 5 5 5 5 5 5 5 5 5 5 a 5 5 5 5 5 5 5 5 5 5 5 5 5 5 5 5 5 5 5 5 5 5 5 5 5 5 5 5 5 5 5 5 5 5 5 5 5 5 5 5 5 5 5 5 5 5 5 5 5 5 5 5 5 5 5 5 5 5 5 5 5 5 5 5 5 5 5 5 5 5 5 5 5 5 5 5 5 5 5 5 5 5 5 5 5 5 5 5 5 5 5 5 5 5 5 5 5 5 5 5 5 5 5 5 5 5 5 5 5 5 5 5 5 5 5 5 5 5 5 5 5 5 5 5 5 5 5 5 5 5 5 5 5 5 5 5 5 5 5 5 5 5 5 5 5 5 5 5 5 5 5 5 5 5 5 5 5 5 5 5 5 5 5 5 5 5 5 5 5 5 5 5 5 5 5 5 5 5 5 5 5 5 5 5 5 5 5 5 5 5 5 5 5 5 5 5 5 5 5 5 5 5 5 5 5 5 5 5 5 5 5 5 5 5 5 5 5 5 5 5 5 5 5 5 5 5 5 5 5 5 5 5 5 5 5 5 5 ",
"5 5 5 5 5 5 5 5 5 5 5 5 5 5 5 5 5 5 a 5 5 5 5 5 5 5 5 5 5 5 5 5 5 5 5 5 5 5 5 5 5 5 5 5 5 5 5 5 5 5 5 5 5 5 5 5 5 5 5 5 5 5 5 5 5 5 5 5 5 5 5 5 5 5 5 5 5 5 5 5 5 5 5 5 5 5 5 5 5 5 5 5 5 5 5 5 5 5 5 5 5 5 5 5 5 5 5 5 5 5 5 5 5 5 5 5 5 5 5 5 5 5 5 5 5 5 5 5 5 5 5 5 5 5 5 5 5 5 5 5 5 5 5 5 5 5 5 5 5 5 5 5 5 5 5 5 5 5 5 5 5 5 5 5 5 5 5 5 5 5 5 5 5 5 5 5 5 5 5 5 5 5 5 5 5 5 5 5 5 5 5 5 5 5 5 5 5 5 5 5 5 5 5 5 5 5 5 5 5 5 5 5 5 5 5 5 5 5 5 5 5 5 5 5 5 5 5 5 5 5 5 5 5 5 5 5 5 5 5 5 5 5 5 5 5 5 5 5 5 5 5 5 5 5 5 5 ",
"5 5 5 5 5 5 5 5 5 5 5 5 5 5 5 5 5 5 a 5 5 5 5 5 5 5 5 5 5 5 5 5 5 5 5 5 5 5 5 5 5 5 5 5 5 5 5 5 5 5 5 5 5 5 5 5 5 5 5 5 5 5 5 5 5 5 5 5 5 5 5 5 5 5 5 5 5 5 5 5 5 5 5 5 5 5 5 5 5 5 5 5 5 5 5 5 5 5 5 5 5 5 5 5 5 5 5 5 5 5 5 5 5 5 5 5 5 5 5 5 5 5 5 5 5 5 5 5 5 5 5 5 5 5 5 5 5 5 5 5 5 5 5 5 5 5 5 5 5 5 5 5 5 5 5 5 5 5 5 5 5 5 5 5 5 5 5 5 5 5 5 5 5 5 5 5 5 5 5 5 5 5 5 5 5 5 5 5 5 5 5 5 5 5 5 5 5 5 5 5 5 5 5 5 5 5 5 5 5 5 5 5 5 5 5 5 5 5 5 5 5 5 5 5 5 5 5 5 5 5 5 5 5 5 5 5 5 5 5 5 5 5 5 5 5 5 5 5 5 5 5 5 5 5 5 5 ",
"5 5 5 5 5 5 5 5 5 5 5 5 5 5 5 5 5 5 a 5 5 5 5 5 5 5 5 5 5 5 5 5 5 5 5 5 5 5 5 5 5 5 5 5 5 5 5 5 5 5 5 5 5 5 5 5 5 5 5 5 5 5 5 5 5 5 5 5 5 5 5 5 5 5 5 5 5 5 5 5 5 5 5 5 5 5 5 5 5 5 5 5 5 5 5 5 5 5 5 5 5 5 5 5 5 5 5 5 5 5 5 5 5 5 5 5 5 5 5 5 5 5 5 5 5 5 5 5 5 5 5 5 5 5 5 5 5 5 5 5 5 5 5 5 5 5 5 5 5 5 5 5 5 5 5 5 5 5 5 5 5 5 5 5 5 5 5 5 5 5 5 5 5 5 5 5 5 5 5 5 5 5 5 5 5 5 5 5 5 5 5 5 5 5 5 5 5 5 5 5 5 5 5 5 5 5 5 5 5 5 5 5 5 5 5 5 5 5 5 5 5 5 5 5 5 5 5 5 5 5 5 5 5 5 5 5 5 5 5 5 5 5 5 5 5 5 5 5 5 5 5 5 5 5 5 5 ",
"5 5 5 5 5 5 5 5 5 5 5 5 5 5 5 5 5 5 a 5 5 5 5 5 5 5 5 5 5 5 5 5 5 5 5 5 5 5 5 5 5 5 5 5 5 5 5 5 5 5 5 5 5 5 5 5 5 5 5 5 5 5 5 5 5 5 5 5 5 5 5 5 5 5 5 5 5 5 5 5 5 5 5 5 5 5 5 5 5 5 5 5 5 5 5 5 5 5 5 5 5 5 5 5 5 5 5 5 5 5 5 5 5 5 5 5 5 5 5 5 5 5 5 5 5 5 5 5 5 5 5 5 5 5 5 5 5 5 5 5 5 5 5 5 5 5 5 5 5 5 5 5 5 5 5 5 5 5 5 5 5 5 5 5 5 5 5 5 5 5 5 5 5 5 5 5 5 5 5 5 5 5 5 5 5 5 5 5 5 5 5 5 5 5 5 5 5 5 5 5 5 5 5 5 5 5 5 5 5 5 5 5 5 5 5 5 5 5 5 5 5 5 5 5 5 5 5 5 5 5 5 5 5 5 5 5 5 5 5 5 5 5 5 5 5 5 5 5 5 5 5 5 5 5 5 5 ",
"5 5 5 5 5 5 5 5 5 5 5 5 5 5 5 5 5 5 a 5 5 5 5 5 5 5 5 5 5 5 5 5 5 5 5 5 5 5 5 5 5 5 5 5 5 5 5 5 5 5 5 5 5 5 5 5 5 5 5 5 5 5 5 5 5 5 5 5 5 5 5 5 5 5 5 5 5 5 5 5 5 5 5 5 5 5 5 5 5 5 5 5 5 5 5 5 5 5 5 5 5 5 5 5 5 5 5 5 5 5 5 5 5 5 5 5 5 5 5 5 5 5 5 5 5 5 5 5 5 5 5 5 5 5 5 5 5 5 5 5 5 5 5 5 5 5 5 5 5 5 5 5 5 5 5 5 5 5 5 5 5 5 5 5 5 5 5 5 5 5 5 5 5 5 5 5 5 5 5 5 5 5 5 5 5 5 5 5 5 5 5 5 5 5 5 5 5 5 5 5 5 5 5 5 5 5 5 5 5 5 5 5 5 5 5 5 5 5 5 5 5 5 5 5 5 5 5 5 5 5 5 5 5 5 5 5 5 5 5 5 5 5 5 5 5 5 5 5 5 5 5 5 5 5 5 5 ",
"5 5 5 5 5 5 5 5 5 5 5 5 5 5 5 5 5 5 5 5 5 5 5 5 5 5 5 5 5 5 5 5 5 5 5 5 5 5 5 5 5 5 5 5 5 5 5 5 5 5 5 5 5 5 5 5 5 5 5 5 5 5 5 5 5 5 5 5 5 5 5 5 5 5 5 5 5 5 5 5 5 5 5 5 5 5 5 5 5 5 5 5 5 5 5 5 5 5 5 5 5 5 5 5 5 5 5 5 5 5 5 5 5 5 5 5 5 5 5 5 5 5 5 5 5 5 5 5 5 5 5 5 5 5 5 5 5 5 5 5 5 5 5 5 5 5 5 5 5 5 5 5 5 5 5 5 5 5 5 5 5 5 5 5 5 5 5 5 5 5 5 5 5 5 5 5 5 5 5 5 5 5 5 5 5 5 5 5 5 5 5 5 5 5 5 5 5 5 5 5 5 5 5 5 5 5 5 5 5 5 5 5 5 5 5 5 5 5 5 5 5 5 5 5 5 5 5 5 5 5 5 5 5 5 5 5 5 5 5 5 5 5 5 5 5 5 5 5 5 5 5 5 5 5 5 5 ",
"l l l l l l l l l l l l l l l l l l l l l l l l l l l l l l l l l l l l l l l l l l l l l l l l l l l l l l l l l l l l l l l l l l l l l l l l l l l l l l l l l l l l l l l l l l l l l l l l l l l l l l l l l l l l l l l l l l l l l l l l l l l l l l l l l l l l l l l l l l l l l l l l l l l l l l l l l l l l l l l l l l l l l l l l l l l l l l l l l l l l l l l l l l l l l l l l l l l l l l l l l l l l l l l l l l l l l l l l l l l l l l l l l l l l l l l l l l l l l l l l l l l l l l l l l l l l l l l l ",
"a a a a a a a a a a a a a a a a a a a a a a a a a a a a a a a a a a a a a a a a a a a a a a a a a a a a a a a a a a a a a a a a a a a a a a a a a a a a a a a a a a a a a a a a a a a a a a a a a a a a a a a a a a a a a a a a a a a a a a a a a a a a a a a a a a a a a a a a a a a a a a a a a a a a a a a a a a a a a a a a a a a a a a a a a a a a a a a a a a a a a a a a a a a a a a a a a a a a a a a a a a a a a a a a a a a a a a a a a a a a a a a a a a a a a a a a a a a a a a a a a a a a a a a a a a a a a a a a ",
"l l l l l l l l l l l l l l l l l l l l l l l l l l l l l l l l l l l l l l l l l l l l l l l l l l l l l l l l l l l l l l l l l l l l l l l l l l l l l l l l l l l l l l l l l l l l l l l l l l l l l l l l l l l l l l l l l l l l l l l l l l l l l l l l l l l l l l l l l l l l l l l l l l l l l l l l l l l l l l l l l l l l l l l l l l l l l l l l l l l l l l l l l l l l l l l l l l l l l l l l l l l l l l l l l l l l l l l l l l l l l l l l l l l l l l l l l l l l l l l l l l l l l l l l l l l l l l l l ",
"% $ $ 5 5 5 5 5 5 5 5 5 5 5 5 5 $ $ $ % 5 5 5 5 5 5 5 5 5 5 5 5 % % $ % 5 5 5 5 5 5 5 5 5 5 5 5 5 5 5 5 5 5 5 5 5 5 5 5 5 5 5 5 5 5 5 5 5 5 5 5 5 5 5 5 5 5 5 5 5 5 5 5 5 5 5 5 5 5 5 5 5 5 5 5 5 5 5 5 5 5 5 5 5 5 5 5 5 5 5 5 5 5 5 5 5 5 5 5 5 5 5 5 5 5 5 5 5 5 5 5 5 5 5 5 5 5 5 5 5 5 5 5 5 5 5 5 5 5 5 5 5 5 5 5 5 5 5 5 5 5 5 5 5 5 5 5 5 5 5 5 5 5 5 5 5 5 5 5 5 5 5 5 5 5 5 5 5 5 5 5 5 5 5 5 5 5 5 5 5 5 5 5 5 5 5 5 5 5 5 5 5 5 5 5 5 5 5 5 5 5 5 5 5 5 5 5 5 5 5 % % % 5 % % % 5 5 5 3 5 5 5 5 5 5 % # % % 5 # % # ",
"l z l 5 5 5 % 5 5 5 % 5 5 5 5 5 b m m k 5 5 5 % 5 5 % 5 5 5 5 5 l l z a 5 5 % % 5 5 % 5 5 5 5 5 5 5 5 5 5 5 5 5 5 5 5 5 5 5 5 5 5 5 5 5 5 5 5 5 5 5 5 5 5 5 5 5 5 5 5 5 5 5 5 5 5 5 5 5 5 5 5 5 5 5 5 5 5 5 5 5 5 5 5 5 5 5 5 5 5 5 5 5 5 5 5 5 5 5 5 5 5 5 5 5 5 5 5 5 5 5 5 5 5 5 5 5 5 5 5 5 5 5 5 5 5 5 5 5 5 5 5 5 5 5 5 5 5 5 5 5 5 5 5 5 5 5 5 5 5 5 5 5 5 5 5 5 5 5 5 5 5 5 5 5 5 5 5 5 5 5 5 5 5 5 5 5 5 5 5 5 5 5 5 5 5 5 5 5 5 5 5 5 5 5 5 5 5 5 5 5 5 5 5 5 5 5 5 5 5 5 5 a 5 5 5 5 5 : 5 q 5 5 5 5 t >.>.t 5 >.u >.",
"b.5.6.5 5 5 c.w 5 w t q 5 5 5 5 9.6..Xb % 5 t >.5 5 w w 5 5 5 5 5..X.Xs 5 5 >.u % q t w 5 5 5 5 5 5 5 5 5 5 5 5 5 5 5 5 5 5 5 5 5 5 5 5 5 5 5 5 5 5 5 5 5 5 5 5 5 5 5 5 5 5 5 5 5 5 5 5 5 5 5 5 5 5 5 5 5 5 5 5 5 5 5 5 5 5 5 5 5 5 5 5 5 5 5 5 5 5 5 5 5 5 5 5 5 5 5 5 5 5 5 5 5 5 5 5 5 5 5 5 5 5 5 5 5 5 5 5 5 5 5 5 5 5 5 5 5 5 5 5 5 5 5 5 5 5 5 5 5 5 5 5 5 5 5 5 5 5 5 5 5 5 5 5 5 5 5 5 5 5 5 5 5 5 5 5 5 5 5 5 5 5 5 5 5 5 5 5 5 5 5 5 5 5 5 5 5 5 5 5 5 5 5 5 5 5 5 s l b l s m l q 3 > > K K > 5 5 5 u >.x.t 5 x.>.x.",
"6.9.XX5 % t ^.>.# u x.t % 5 5 5 6.9.l k 5 % x.I.q q c.>.5 5 5 p q m 7.5 5 5 I.x.% e x.>.5 5 5 5 5 5 5 5 5 5 5 5 5 5 5 5 5 5 5 5 5 5 5 5 5 5 5 5 5 5 5 5 5 5 5 5 5 5 5 5 5 5 5 5 5 5 5 5 5 5 5 5 5 5 5 5 5 5 5 5 5 5 5 5 5 5 5 5 5 5 5 5 5 5 5 5 5 5 5 5 5 5 5 5 5 5 5 5 5 5 5 5 5 5 5 5 5 5 5 5 5 5 5 5 5 5 5 5 5 5 5 5 5 5 5 5 5 5 5 5 5 5 5 5 5 5 5 5 5 5 5 5 5 5 5 5 5 5 5 5 5 5 5 5 5 5 5 5 5 5 5 5 5 5 5 5 5 5 5 5 5 5 5 5 5 5 5 5 5 5 5 5 5 5 5 5 5 5 5 5 5 5 5 5 5 5 5 s 5.m m 5 5.z q 3 > > K K K 5 5 5 t u >.t 5 >.c.x.",
"5.9.b.5 5 % w 5 5 % # 5 5 5 5 5 m 5.s a 5 5 5 w % 5 # % 5 5 5 5 s b 5.q 5 5 q q 5 5 # % 5 5 5 5 5 5 5 5 5 5 5 5 5 5 5 5 5 5 5 5 5 5 5 5 5 5 5 5 5 5 5 5 5 5 5 5 5 5 5 5 5 5 5 5 5 5 5 5 5 5 5 5 5 5 5 5 5 5 5 5 5 5 5 5 5 5 5 5 5 5 5 5 5 5 5 5 5 5 5 5 5 5 5 5 5 5 5 5 5 5 5 5 5 5 5 5 5 5 5 5 5 5 5 5 5 5 5 5 5 5 5 5 5 5 5 5 5 5 5 5 5 5 5 5 5 5 5 5 5 5 5 5 5 5 5 5 5 5 5 5 5 5 5 5 5 5 5 5 5 5 5 5 5 5 5 5 5 5 5 5 5 5 5 5 5 5 5 5 5 5 5 5 5 5 5 5 5 5 5 5 5 5 5 5 5 5 5 l s 5 a s q a a 5 q > q q : 5 5 5 u >.u t 5 x.u x.",
"5 5 % 5 5 5 5 5 5 5 5 5 5 5 5 5 5 5 5 5 5 5 5 5 5 5 5 5 5 5 5 5 5 5 5 5 5 5 5 5 5 5 5 5 5 5 5 5 5 5 5 5 5 5 5 5 5 5 5 5 5 5 5 5 5 5 5 5 5 5 5 5 5 5 5 5 5 5 5 5 5 5 5 5 5 5 5 5 5 5 5 5 5 5 5 5 5 5 5 5 5 5 5 5 5 5 5 5 5 5 5 5 5 5 5 5 5 5 5 5 5 5 5 5 5 5 5 5 5 5 5 5 5 5 5 5 5 5 5 5 5 5 5 5 5 5 5 5 5 5 5 5 5 5 5 5 5 5 5 5 5 5 5 5 5 5 5 5 5 5 5 5 5 5 5 5 5 5 5 5 5 5 5 5 5 5 5 5 5 5 5 5 5 5 5 5 5 5 5 5 5 5 5 5 5 5 5 5 5 5 5 5 5 5 5 5 5 5 5 5 5 5 5 5 5 5 5 5 5 5 5 q 5 5 5 5 5 5 5 5 5 3 5 5 5 5 5 5 5 5 5 5 5 % 5 5 ",
"5 5 5 5 5 5 5 5 5 5 5 5 5 5 5 5 5 5 5 5 5 5 5 5 5 5 5 5 5 5 5 5 5 5 5 5 5 5 5 5 5 5 5 5 5 5 5 5 5 5 5 5 5 5 5 5 5 5 5 5 5 5 5 5 5 5 5 5 5 5 5 5 5 5 5 5 5 5 5 5 5 5 5 5 5 5 5 5 5 5 5 5 5 5 5 5 5 5 5 5 5 5 5 5 5 5 5 5 5 5 5 5 5 5 5 5 5 5 5 5 5 5 5 5 5 5 5 5 5 5 5 5 5 5 5 5 5 5 5 5 5 5 5 5 5 5 5 5 5 5 5 5 5 5 5 5 5 5 5 5 5 5 5 5 5 5 5 5 5 5 5 5 5 5 5 5 5 5 5 5 5 5 5 5 5 5 5 5 5 5 5 5 5 5 5 5 5 5 5 5 5 5 5 5 5 5 5 5 5 5 5 5 5 5 5 5 5 5 5 5 5 5 5 5 5 5 5 5 5 5 5 5 5 5 5 5 5 5 5 5 5 5 5 5 5 5 5 5 5 5 5 5 5 5 5 5 "
};
