/* XPM */
static char *sc_mb_gate_mono[] = {
/* columns rows colors chars-per-pixel */
"256 256 256 2 ",
"   c #0B0B0D",
".  c #070708",
"X  c #0D0D12",
"o  c #070711",
"O  c #110D12",
"+  c #0E1519",
"@  c #131416",
"#  c #15161B",
"$  c #1C151C",
"%  c #151A1C",
"&  c #191A1F",
"*  c #191516",
"=  c #100B0D",
"-  c #321A1E",
";  c #32171E",
":  c #29181D",
">  c #1B261C",
",  c #23291D",
"<  c #293619",
"1  c #33341C",
"2  c #33261E",
"3  c #0D1A22",
"4  c #1A1722",
"5  c #151B21",
"6  c #1B1C22",
"7  c #171825",
"8  c #181B32",
"9  c #231D24",
"0  c #2C1D23",
"q  c #2D1D2E",
"w  c #251D2A",
"e  c #321D2C",
"r  c #2D1E31",
"t  c #361F33",
"y  c #381E37",
"u  c #1D2125",
"i  c #1C222A",
"p  c #182728",
"a  c #15352D",
"s  c #1A2932",
"d  c #182834",
"f  c #1B323C",
"g  c #15373A",
"h  c #0C2D2D",
"j  c #222224",
"k  c #2D2024",
"l  c #23252C",
"z  c #25282E",
"x  c #292827",
"c  c #36262A",
"v  c #3C322B",
"b  c #3D3B2E",
"n  c #35342C",
"m  c #242533",
"M  c #272A32",
"N  c #2A2C35",
"B  c #2C2D39",
"V  c #272639",
"C  c #332234",
"Z  c #392838",
"A  c #2E313A",
"S  c #2B3537",
"D  c #343235",
"F  c #393335",
"G  c #31333D",
"H  c #393439",
"J  c #363C3B",
"K  c #3A3B3C",
"L  c #3B3B33",
"P  c #29332C",
"I  c #5C3800",
"U  c #52241C",
"Y  c #6A241A",
"T  c #65231B",
"R  c #673707",
"E  c #4B2C2E",
"W  c #44282B",
"Q  c #552B2A",
"!  c #42332B",
"~  c #4D342B",
"^  c #493C2E",
"/  c #433C2B",
"(  c #52362D",
")  c #513A2C",
"_  c #5A362C",
"`  c #4D2D31",
"'  c #452A36",
"]  c #4E3133",
"[  c #463A34",
"{  c #513235",
"}  c #533A32",
"|  c #583936",
" . c #542A38",
".. c #62322B",
"X. c #6A372D",
"o. c #78352C",
"O. c #683735",
"+. c #7E3E35",
"@. c #773837",
"#. c #6F2C29",
"$. c #591D28",
"%. c #384F12",
"&. c #016F01",
"*. c #0C573B",
"=. c #104833",
"-. c #3B433A",
";. c #394337",
":. c #364F36",
">. c #01613F",
",. c #19623F",
"<. c #205917",
"1. c #4E5812",
"2. c #734905",
"3. c #506F0E",
"4. c #564727",
"5. c #474438",
"6. c #57453B",
"7. c #4B512C",
"8. c #6A4339",
"9. c #774439",
"0. c #674D28",
"q. c #4E652F",
"w. c #69681B",
"e. c #183946",
"r. c #17344B",
"t. c #2B2B45",
"y. c #392746",
"u. c #283548",
"i. c #343641",
"p. c #363944",
"a. c #3B3A46",
"s. c #3B3D4A",
"d. c #3A3846",
"f. c #303454",
"g. c #36386C",
"h. c #24205B",
"j. c #492745",
"k. c #542745",
"l. c #403947",
"z. c #433C4B",
"x. c #4E384D",
"c. c #4B3448",
"v. c #513145",
"b. c #54344B",
"n. c #56394A",
"m. c #533C53",
"M. c #5B3A55",
"N. c #4C3055",
"B. c #6C334E",
"V. c #4E346E",
"C. c #71336B",
"Z. c #521E4E",
"A. c #1A4955",
"S. c #134850",
"D. c #3C4242",
"F. c #3E414D",
"G. c #374746",
"H. c #34554A",
"J. c #315052",
"K. c #006541",
"L. c #066944",
"P. c #06734B",
"I. c #087953",
"U. c #33664A",
"Y. c #11566A",
"T. c #2E4E6C",
"R. c #036476",
"E. c #126774",
"W. c #2E6873",
"Q. c #444849",
"!. c #5A4944",
"~. c #49544B",
"^. c #424552",
"/. c #494858",
"(. c #55465B",
"). c #4C5454",
"_. c #57554C",
"`. c #644846",
"'. c #6D4954",
"]. c #4B4967",
"[. c #594A65",
"{. c #555668",
"}. c #50546F",
"|. c #634C65",
" X c #6F4C70",
".X c #556473",
"XX c #656678",
"oX c #49674A",
"OX c #88362B",
"+X c #98392C",
"@X c #893937",
"#X c #953836",
"$X c #902D30",
"%X c #A73B2C",
"&X c #B73D2C",
"*X c #A73B3A",
"=X c #B63D32",
"-X c #A52F35",
";X c #8A2521",
":X c #C73E2C",
">X c #E73E28",
",X c #864236",
"<X c #954532",
"1X c #B9412D",
"2X c #AE4332",
"3X c #8F571A",
"4X c #C8402C",
"5X c #D6412A",
"6X c #C74334",
"7X c #E54127",
"8X c #873955",
"9X c #8A3467",
"0X c #94336F",
"qX c #AA3953",
"wX c #985349",
"eX c #884C4A",
"rX c #B54444",
"tX c #904A6F",
"yX c #C64546",
"uX c #C83D42",
"iX c #038404",
"pX c #038556",
"aX c #01925D",
"sX c #318179",
"dX c #629021",
"fX c #A1B51B",
"gX c #6C3686",
"hX c #004984",
"jX c #005499",
"kX c #047588",
"lX c #0D6D87",
"zX c #24738B",
"xX c #045DA7",
"cX c #0361B0",
"vX c #2F6CA0",
"bX c #544A95",
"nX c #51488D",
"mX c #655290",
"MX c #5D55A7",
"NX c #534FA7",
"BX c #655CB4",
"VX c #6961BC",
"CX c #606C87",
"ZX c #6E64C6",
"AX c #5162C1",
"SX c #282990",
"DX c #893795",
"FX c #A43C98",
"GX c #BB418C",
"HX c #964A8D",
"JX c #CB4597",
"KX c #228599",
"LX c #018AA4",
"PX c #2591AB",
"IX c #108FA0",
"UX c #2EA1C3",
/* pixels */
"6 6 6 6 6 6 6 6 6 6 6 6 6 6 6 6 6 6 6 6 6 6 6 6 6 6 6 6 6 6 6 6 6 6 6 6 6 6 6 6 6 6 6 6 6 6 6 6 6 6 6 6 6 6 6 6 6 6 6 6 6 6 6 6 6 6 6 6 6 6 6 6 6 6 6 6 6 6 6 6 6 6 6 6 6 6 6 6 6 6 6 6 6 6 6 6 6 6 6 6 6 6 6 6 6 6 6 6 6 6 6 6 6 6 6 6 6 6 6 6 6 6 6 6 6 6 6 6 6 6 6 6 6 6 6 6 6 6 6 6 6 6 6 6 6 6 6 6 6 6 6 6 6 6 6 6 6 6 6 6 6 6 6 6 6 6 6 6 6 6 6 6 6 6 6 6 6 6 6 6 6 6 6 6 6 6 6 6 6 6 6 6 6 6 6 6 6 6 6 6 6 6 6 6 6 6 6 6 6 6 6 6 6 6 6 6 6 6 6 6 6 6 6 6 6 6 6 6 6 6 6 6 6 6 6 6 6 6 6 6 6 6 6 6 6 6 6 6 6 6 6 6 6 6 6 6 ",
"6 6 6 6 6 6 6 6 6 & $ $ & 6 6 6 6 6 6 6 6 6 6 6 6 6 6 6 6 6 6 6 6 6 6 6 6 6 6 6 6 6 6 6 6 6 6 6 6 6 6 6 6 6 6 6 6 6 6 6 6 6 6 6 6 6 6 6 6 6 6 6 6 6 6 6 6 6 6 6 6 6 6 6 6 6 6 6 6 6 6 6 6 6 6 6 6 6 6 6 6 6 6 6 6 6 6 6 6 6 6 6 6 6 6 6 6 6 6 6 6 6 6 6 6 6 6 6 6 6 6 6 6 6 6 6 6 6 6 6 6 6 6 6 6 6 6 6 6 6 6 6 6 & & & & & # 6 6 # & 6 # & 6 6 6 6 6 6 & 6 6 6 6 6 & 6 6 6 6 6 6 6 6 6 # # % 6 & % 6 6 6 6 6 6 6 & # 6 6 6 6 # 6 6 6 4 # % & # 6 6 & 6 & 6 6 # 6 & 6 6 6 % & 6 6 6 6 6 & 6 6 6 6 6 6 6 $ 6 & $ 6 6 6 & 6 $ 6 6 ",
"* * * & 6 6 6 & 4 d r.d 8 & 6 6 6 6 6 6 6 6 6 6 6 6 6 6 6 6 6 6 6 6 6 6 6 6 6 6 6 6 6 6 6 6 6 6 6 6 6 6 6 6 6 6 6 6 6 6 6 6 6 6 6 6 6 6 6 6 6 6 6 6 6 6 6 6 6 6 6 6 6 6 6 6 6 6 6 6 6 6 6 6 6 6 6 6 6 6 6 6 6 6 6 6 6 6 6 6 6 6 6 6 6 6 6 6 6 6 6 6 6 6 6 6 6 6 6 6 6 6 6 6 6 6 6 6 6 6 6 6 6 6 6 6 6 6 6 6 6 6 & z B N M z i.6 u i.z 6 G l 6 6 j 6 l l B l u u l 6 M 6 j l l 6 l l 6 l i.G A l N B 6 6 l 6 l 6 l M G 6 6 & l G 6 6 j l i.A M G 6 6 M & z 6 l G & z 6 l & B M # l j u l N l 6 6 M 6 6 6 f 6 i f i i 6 i i f u $ ",
"A.A.A.s $ 6 & d J.oXdXdXoXA.i & 6 6 6 6 6 6 6 6 6 6 6 6 6 6 6 6 6 6 6 6 6 6 6 6 6 6 6 6 6 6 6 6 6 6 6 6 6 6 6 6 6 6 6 6 6 6 6 6 6 6 6 6 6 6 6 6 6 6 6 6 6 6 6 6 6 6 6 6 6 6 6 6 6 6 6 6 6 6 6 6 6 6 6 6 6 6 6 6 6 6 6 6 6 6 6 6 6 6 6 6 6 6 6 6 6 6 6 6 6 6 6 6 6 6 6 6 6 6 6 6 6 6 6 6 6 6 6 6 6 6 6 6 6 6 6 4 l CXi.{.^.].{./.s.XXA {./.^.^.^.p.p..XN {.s.XXp.F.O CXA {.{./.N /./.G u XX/.{.a.{.XXG G XXl CXi./.{.{./.# M {.].u s.XXj CX^.{.{.6 M CX6 CXs.{.{.F.XXF.^.^.{.{.N u {.].a.CX/.# j G 6 $ E.A.s E.S.Y.Y.f E.A.zXA.e.",
"UXUXUXPXf $ d J.fXdXq.q.fXdXr.u 6 6 6 6 6 6 6 6 6 6 6 6 6 6 6 6 6 6 6 6 6 6 6 6 6 6 6 6 6 6 6 6 6 6 6 6 6 6 6 6 6 6 6 6 6 6 6 6 6 6 6 6 6 6 6 6 6 6 6 6 6 6 6 6 6 6 6 6 6 6 6 6 6 6 6 6 6 6 6 6 6 6 6 6 6 6 6 6 6 6 6 6 6 6 6 6 6 6 6 6 6 6 6 6 6 6 6 6 6 6 6 6 6 6 6 6 6 6 6 6 6 6 6 6 6 6 6 6 6 6 6 6 6 6 6 6 6 /.^.^.i./.6 {./.{.i.{.. G XXXXa.{.CXp.^.i..XXXs.@ XX{.XX/.{.l {./.A   /.z ^.G {.XXa.{.CXs.{..X/.].6 .X% ^.^.^.a.{.CXu /.z {./.6 M CX/.XX{.^.% .X{..X{..X6 s./.. .X.Xl CX].# u A 6 & e.A.Y.A.= A.E.Y.Y.A.E.A.Y.",
"A.A.zXUXE.* J.fXq.+ 7 + 4 U.zXe.& 6 6 6 6 6 6 6 6 6 6 6 6 6 6 6 6 6 6 6 6 6 6 6 6 6 6 6 6 6 6 6 6 6 6 6 6 6 6 6 6 6 6 6 6 6 6 6 6 6 6 6 6 6 6 6 6 6 6 6 6 6 6 6 6 6 6 6 6 6 6 6 6 6 6 6 6 6 6 6 6 6 6 6 6 6 6 6 6 6 6 6 6 6 6 6 6 6 6 6 6 6 6 6 6 6 6 6 6 6 6 6 6 6 6 6 6 6 6 6 6 6 6 6 6 6 6 6 6 6 6 6 6 6 6 6 j /.{.{.^.]..X^.s..XN {./.^.s.G {.].^.XX{.s.i.XXF.# /.{.{.s./..Xs.^.XXl /.B {.s.{.{./.{.^.XXa.].{.{..X/.# M {.{.].]./.^./.N {./.6 N {.{.].a.{.{.^.^.a.XXp.{.{.M z {././..X{.& u G 6 6 e.E.A.E.A.A.Y.E.A.A.E.A.e.",
"= = f UXY.7 sXoX7 u & f A.# zXA.u 6 6 6 6 6 6 6 6 6 6 6 6 6 6 6 6 6 6 6 6 6 6 6 6 6 6 6 6 6 6 6 6 6 6 6 6 6 6 6 6 6 6 6 6 6 6 6 6 6 6 6 6 6 6 6 6 6 6 6 6 6 6 6 6 6 6 6 6 6 6 6 6 6 6 6 6 6 6 6 6 6 6 6 6 6 6 6 6 6 6 6 6 6 6 6 6 6 6 6 6 6 6 6 6 6 6 6 6 6 6 6 6 6 6 6 6 6 6 6 6 6 6 6 6 6 6 6 6 6 6 6 6 6 6 6 6 B u l l l B & 6 A l 6 B l u 6 l 6 # M M u 6 6 u 6 j 6 u 6 6 B 6 u A l u 6 M l z N 6 6 # l u 6 j l B & 6 & l N j 6 # l j 6 l A 6 6 j 6 j 6 l N & l 6 l & N l # l 6 6 u M u 6 6 l 6 6 s s $ i s u u 6 u i f 6 $ ",
"s s Y.UXE.* e.KXzX& 6 i u * E.E.i & 6 6 6 6 6 6 6 6 6 6 6 6 6 6 6 6 6 6 6 6 6 6 6 6 6 6 6 6 6 6 6 6 6 6 6 6 6 6 6 6 6 6 6 6 6 6 6 6 6 6 6 6 6 6 6 6 6 6 6 6 6 6 6 6 6 6 6 6 6 6 6 6 6 6 6 6 6 6 6 6 6 6 6 6 6 6 6 6 6 6 6 6 6 6 6 6 6 6 6 6 6 6 6 6 6 6 6 6 6 6 6 6 6 6 6 6 6 6 6 6 6 6 6 6 6 6 6 6 6 6 6 6 6 6 6 & 6 & 6 6 % 6 6 % 6 6 # 6 6 6 4 6 6 & & 6 6 6 6 6 6 6 6 6 6 % 6 6 # 6 6 6 & 6 & & 6 6 6 & 6 6 6 & % 6 6 6 6 & 6 6 6 6 6 6 6 # 6 6 6 6 6 6 6 & 6 6 6 6 6 & & 6 6 6 6 6 & 6 6 6 6 6 6 & & 6 6 & 6 6 6 6 6 $ 6 6 ",
"UXUXUXUXA.6 W.UXPX6 $ & 6 $ E.E.i & 6 6 6 6 6 6 6 6 6 6 6 6 6 6 6 6 6 6 6 6 6 6 6 6 6 6 6 6 6 6 6 6 6 6 6 6 6 6 6 6 6 6 6 6 6 6 6 6 6 6 6 6 6 6 6 6 6 6 6 6 6 6 6 6 6 6 6 6 6 6 6 6 6 6 6 6 6 6 6 6 6 6 6 6 6 6 6 6 6 6 6 6 6 6 6 6 6 6 6 6 6 6 6 6 6 6 6 6 6 6 6 6 6 6 6 6 6 6 6 6 6 6 6 6 6 6 6 6 6 6 6 6 6 6 & 6 6 6 6 6 6 6 6 6 6 6 6 6 6 6 6 6 6 6 6 6 6 6 6 6 6 6 6 6 6 6 6 6 6 6 6 6 6 6 6 6 6 6 6 6 6 6 6 6 6 6 6 6 6 6 6 6 6 4 6 6 6 6 6 6 6 6 6 6 6 6 6 6 6 6 6 6 6 6 6 6 6 6 6 & & & 6 & 6 6 & & & & 6 6 6 6 6 6 6 6 ",
"zXzXzXA.$ s zXE.UXW.s i * s KXA.6 6 6 6 6 6 6 6 6 6 6 6 6 6 6 6 6 6 6 6 6 6 6 6 6 6 6 6 6 6 6 6 6 6 6 6 6 6 6 6 6 6 6 6 6 6 6 6 6 6 6 6 6 6 6 6 6 6 6 6 6 6 6 6 6 6 6 6 6 6 6 6 6 6 6 6 6 6 6 6 6 6 6 6 6 6 6 6 6 6 6 6 6 6 6 6 6 6 6 6 6 6 6 6 6 6 6 6 6 6 6 6 u 6 6 6 6 6 6 6 6 6 6 6 6 6 6 6 6 6 6 6 6 6 6 6 A l # 6 B & & & 6 l 6 6 6 & 6 6 & & 6 6 & l 6 6 6 6 6 6 6 6 6 6 6 6 6 6 6 6 6 6 6 6 6 6 6 i & 6 6 6 6 6 6 6 6 6 6 6 4 <.> 4 6 6 & $ $ $ 6 6 6 i Y.Y.p 6 6 6 6 6 6 6 6 6 6 s s s 6 M l u M N N N 6 l z 6 z 6 6 6 ",
"= $ * $ 6 6 * E.UXPXUXE.u E.E.f $ 6 6 6 6 6 6 6 6 6 6 6 6 6 6 6 6 6 6 6 6 6 6 6 6 6 6 6 6 6 6 6 6 6 6 6 6 6 6 6 6 6 6 6 6 6 6 6 6 6 6 6 6 6 6 6 6 6 6 6 6 6 6 6 6 6 6 6 6 6 6 6 6 6 6 6 6 6 6 6 6 6 6 6 6 6 6 6 6 6 6 6 6 6 6 6 6 6 6 6 6 6 6 6 6 6 6 6 6 6 u e.i 6 6 6 6 6 6 6 6 6 6 6 6 6 6 6 6 6 6 6 6 6 & B ^.j s.s.a.a.p.G s.^.& p.s.G p.i.s.s.B G s./.N & 6 6 6 6 6 6 6 6 6 6 6 6 6 6 6 6 6 6 6 6 & f f & 6 6 6 6 6 6 6 6 6 4 u &.<.4 6 6 s e.e.S.u 6 & p E.E.f $ 6 6 6 6 6 6 6 6 u A.Y.Y.5 s.s.i.^.^.B /.a.i.s.l s.6 6 i ",
"$ u 6 6 6 6 u zXA.KXPXzXE.zXe.6 6 6 6 6 6 6 6 6 6 6 6 6 6 6 6 6 6 6 6 6 6 6 6 6 6 6 6 6 6 6 6 6 6 6 6 6 6 6 6 6 6 6 6 6 6 6 6 6 6 6 6 6 6 6 6 6 6 6 6 6 6 6 6 6 6 6 6 6 6 6 6 6 6 6 6 6 6 6 6 6 6 6 6 6 6 6 6 6 6 6 6 6 6 6 6 6 6 6 6 6 6 6 6 6 6 6 6 6 6 & s A.6 6 6 6 6 6 6 6 6 6 6 6 6 6 6 6 6 6 6 6 6 6 6 6 G /./.a././.^.a.l p.# s.G /.A /.s.p.s./.s.^.6 6 6 6 6 6 6 6 6 6 6 6 6 6 6 6 6 6 6 6 6 6 & s S.& 6 6 6 6 6 6 6 6 6 4 <.&.&.u 6 & g S.S.Y.u 6 & s Y.Y.e.$ 6 6 6 6 6 6 6 6 u A.Y.A.6 G ^.^.a.F.M i.^.^.a.z s.6 6 i ",
"6 6 6 6 6 6 6 $ $ zXe.A.Y.f 6 6 6 6 6 6 6 6 6 6 6 6 6 6 6 6 6 6 6 6 6 6 6 6 6 6 6 6 6 6 6 6 6 6 6 6 6 6 6 6 6 6 6 6 6 6 6 6 6 6 6 6 6 6 6 6 6 6 6 6 6 6 6 6 6 6 6 6 6 6 6 6 6 6 6 6 6 6 6 6 6 6 6 6 6 6 6 6 6 6 6 6 6 6 6 6 6 6 6 6 6 6 6 6 6 6 6 6 6 6 6 6 & s i 6 6 6 6 6 6 6 6 6 6 6 6 6 6 6 6 6 6 6 6 6 6 l p.G p.B G p.N p.G p.6 ^.s.A l G G B a.i.B G N & 6 6 6 6 6 6 6 6 6 6 6 6 6 6 6 6 6 6 6 6 6 s 6 6 6 6 6 6 6 6 6 6 6 6 > 4 > u 6 6 & $ $ $ 6 6 6 6 S.e.6 6 6 6 6 6 6 6 6 6 6 A.A.A.6 M i.i.N a.G B z s.M F.N & 6 6 ",
"6 6 6 6 6 6 6 6 6 6 6 6 u & 6 6 6 6 6 6 6 6 6 6 6 6 6 6 6 6 6 6 6 6 6 6 6 6 6 6 6 6 6 6 6 6 6 6 6 6 6 6 6 6 6 6 6 6 6 6 6 6 6 6 6 6 6 6 6 6 6 6 6 6 6 6 6 6 6 6 6 6 6 6 6 6 6 6 6 6 6 6 6 6 6 6 6 6 6 6 6 6 6 6 6 6 6 6 6 6 6 6 6 6 6 6 6 6 6 6 6 6 6 6 6 6 6 6 6 6 6 6 6 6 6 6 6 6 6 6 6 6 6 6 6 6 6 6 6 6 6 6 6 & 6 6 & 6 6 6 6 6 6 p.6 & 6 6 6 6 6 4 6 6 6 6 6 6 6 6 6 6 6 6 6 6 6 6 6 6 6 6 6 6 6 6 6 & 6 6 6 6 6 6 6 6 6 6 6 6 4 6 4 6 6 6 6 6 6 6 6 6 6 6 $ $ 6 6 6 6 6 6 6 6 6 6 6 & & & 6 6 & & 6 6 6 6 6 & 6 6 6 6 6 6 ",
"& & & & & & & & & & 6 & & 6 & & & & & & & & & & & & & & & & & & & & & & & & & & & & & & & & & & & & & & & & & & & & & & & & & & & & & & & & & & & & & & & & & & & & & & & & & & & & & & & & & & & & & & & & & & & & & & & & & & & & & & & & & & & & & & & & & 6 4 & & & & & & & & & & & & & & & & & & & & & & & & 6 4 & 6 6 & 6 & 6 & 6 4 6 & 6 & & 6 6 & 6 & & & & & & & & & & & & & & & & & & & & & & & 6 & & & & & & & & & & & & & & & & & & & & & & & & & & 6 6 & & & & & & & & & & & 6 6 6 & 4 6 6 6 4 & 4 6 6 6 & 6 & & & ",
"z z z z z z z z z z z z z z z z z z z z z z z z z z z z z z z z z z z z z z z z z z z z z z z z z z z z z z z z z z z z z z z z z z z z z z z z z z z z z z z z z z z z z z z z z z z z z z z z z z z z z z z z z z z z z z z z z z z z z z z z z z z z z z z z z z z z z z z z z z z z z z z z z z z z z z z z z z z z z z z z z z z z z z z z z z z z z z z z z z z z z z z z z z z z z z z z z z z z z z z z z z z z z z z z z z z z z z z z z z z z z z z z z z z z z z z z z z z z M M M M M M M M M M M M M M M M M M M M ",
"M M M M M M M M M M M M M M M M M M M M M M M M M M M M M M M M M M M M M M M M M M M M M M M M M M M M M M M M M M M M M M M M M M M M M M M M M M M M M M M M M M M M M M M M M M M M M M M M M M M M M M M M M M M M M M M M M M M M M M M M M M M M M M M M M M M M M M M M M M M M M M M M M M M M M M M M M M M M M M M M M M M M M M M M M M M M M M M M M M M M M M M M M M M M M M M M M M M M M M M M M M M M M M M M M M M M M M M M M M M M M M M M M M M M M M M M M M M M z z z z z z z z z z z z z z z z z z z z ",
"6 & & 6 & 6 & 4 6 & & & & & & & & & & & & & & & & & & & & & & & & & & & & & & & & & & & & & & & & & & & & & & & & & & & & & & & & & & & & & & & & & & & & & & & & & & & & & & & & & & & & & & & & & & & & & & & & & & & & & & & & & & & & & & & & & & & & & & & & & & & & & & & & & & & & & & & & & & & & & & & & & & & & & & & & & & & & & & & & & & & & & & & & & & & & & & & & & & & & & & & & & & & & & & & & & & & & & & & % # # # & & & & & & & & 4 & & & & & & & 4 4 & & 4 6 & 6 M M M M M M M M M M M M M M M M M M M M ",
"6 6 6 6 6 6 6 6 & 6 6 6 6 6 6 6 6 6 6 6 6 6 6 6 6 6 6 6 6 6 6 6 6 6 6 6 6 6 6 6 6 6 6 6 6 6 6 6 6 6 6 6 6 6 6 6 6 6 6 6 6 6 6 6 6 6 6 6 6 6 6 6 6 6 6 6 6 6 6 6 6 6 6 6 6 6 6 6 6 6 6 6 6 6 6 6 6 6 6 6 6 6 6 6 6 6 6 6 6 6 6 6 6 6 6 6 6 6 6 6 6 6 6 6 6 6 6 6 6 6 6 6 6 6 6 6 6 6 6 6 6 6 6 6 6 6 6 6 6 6 6 6 6 6 6 6 6 6 6 6 6 6 6 6 6 6 6 6 6 6 6 6 6 6 6 6 6 6 6 6 6 6 6 6 6 6 6 6 6 6 6 6 6 6 6 6 6 6 6 6 6 6 6 6 6 6 6 6 l N N N u 6 6 6 6 6 6 6 6 6 6 6 6 6 6 6 6 6 6 6 6 6 6 l F.s.s.F.F.s.F.s.F.s.F.F.F.F.s.l l l l l ",
"N G N s.l A l a.G z z l 6 6 6 6 6 6 6 6 6 6 6 6 6 6 6 6 6 6 6 6 6 6 6 6 6 6 6 6 6 6 6 6 6 6 6 6 6 6 6 6 6 6 6 6 6 6 6 6 6 6 6 6 6 6 6 6 6 6 6 6 6 6 6 6 6 6 6 6 6 6 6 6 6 6 6 6 6 6 6 6 6 6 6 6 6 6 6 6 6 6 6 6 6 6 6 6 6 6 6 6 6 6 6 6 6 6 6 6 6 6 6 6 6 6 6 6 6 6 6 6 6 6 6 6 6 6 6 6 6 6 6 6 6 6 6 6 6 6 6 6 6 6 6 6 6 6 6 6 6 6 6 6 6 6 6 6 6 6 6 6 6 6 6 6 6 6 6 6 6 6 6 6 6 6 6 6 6 6 6 6 6 6 6 6 6 6 6 6 6 6 6 6 6 6 6 & i.{.{.^.M & 6 6 6 6 6 l i.u j 6 6 6 6 6 p.G 6 6 M M & l s.^.{.^.s.^.s.^.s.s./.^.a.s.p.6 & 6 6 6 ",
"a.z a./.B /.p.^.p.F.^.z & 6 6 6 6 6 6 6 6 6 6 6 6 6 6 6 6 6 6 6 6 6 6 6 6 6 6 6 6 6 6 6 6 6 6 6 6 6 6 6 6 6 6 6 6 6 6 6 6 6 6 6 6 6 6 6 6 6 6 6 6 6 6 6 6 6 6 6 6 6 6 6 6 6 6 6 6 6 6 6 6 6 6 6 6 6 6 6 6 6 6 6 6 6 6 6 6 6 6 6 6 6 6 6 6 6 6 6 6 6 6 6 6 6 6 6 6 6 6 6 6 6 6 6 6 6 6 6 6 6 6 6 6 6 6 6 6 6 6 6 6 6 6 6 6 6 6 6 6 6 6 6 6 6 6 6 6 6 6 6 6 6 6 6 6 6 6 6 6 6 6 6 6 6 6 6 6 6 6 6 6 6 6 6 6 6 6 6 6 6 6 6 6 6 6 # /./.6 {.l 6 6 6 6 6 6 l p.s.a.6 6 6 % A N B F.M ^.A # l s.^.{.].{.{.{.{./.{..X^.a.s.p.6 6 6 6 6 ",
"i.a.^.p.s.i.^.G 6 i.G z & 6 6 6 6 6 6 6 6 6 6 6 6 6 6 6 6 6 6 6 6 6 6 6 6 6 6 6 6 6 6 6 6 6 6 6 6 6 6 6 6 6 6 6 6 6 6 6 6 6 6 6 6 6 6 6 6 6 6 6 6 6 6 6 6 6 6 6 6 6 6 6 6 6 6 6 6 6 6 6 6 6 6 6 6 6 6 6 6 6 6 6 6 6 6 6 6 6 6 6 6 6 6 6 6 6 6 6 6 6 6 6 6 6 6 6 6 6 6 6 6 6 6 6 6 6 6 6 6 6 6 6 6 6 6 6 6 6 6 6 6 6 6 6 6 6 6 6 6 6 6 6 6 6 6 6 6 6 6 6 6 6 6 6 6 6 6 6 6 6 6 6 6 6 6 6 6 6 6 6 6 6 6 6 6 6 6 6 6 6 6 6 6 6 6 & a.].{.CXN & 6 6 6 6 6 l F.A G u 6 6 & z p.i.p.s.s.N % l s.s.{..X{.{.{./.{..X.X^.a.s.G 6 6 6 6 6 ",
"6 z 6 6 l # 6 6 6 6 6 6 6 6 6 6 6 6 6 6 6 6 6 6 6 6 6 6 6 6 6 6 6 6 6 6 6 6 6 6 6 6 6 6 6 6 6 6 6 6 6 6 6 6 6 6 6 6 6 6 6 6 6 6 6 6 6 6 6 6 6 6 6 6 6 6 6 6 6 6 6 6 6 6 6 6 6 6 6 6 6 6 6 6 6 6 6 6 6 6 6 6 6 6 6 6 6 6 6 6 6 6 6 6 6 6 6 6 6 6 6 6 6 6 6 6 6 6 6 6 6 6 6 6 6 6 6 6 6 6 6 6 6 6 6 6 6 6 6 6 6 6 6 6 6 6 6 6 6 6 6 6 6 6 6 6 6 6 6 6 6 6 6 6 6 6 6 6 6 6 6 6 6 6 6 6 6 6 6 6 6 6 6 6 6 6 6 6 6 6 6 6 6 6 6 6 6 & B p.s.{.M & 6 6 6 6 6 6 l 6 6 6 6 6 6 6 l l 6 z 6 l & l s.^./.F.^.XX/.F.^.^.^.F.s.s.l 6 6 6 6 6 ",
"l u j l j l j l l l l l l l l l l l l l l l l l l l l l l l l l l l l l l l l l l l l l l l l l l l l l l l l l l l l l l l l l l l l l l l l l l l l l l l l l l l l l l l l l l l l l l l l l l l l l l l l l l l l l l l l l l l l l l l l l l l l l l l l l l l l l l l l l l l l l l l l l l l l l l l l l l l l l l l l l l l l l l l l l l l l l l l l l l l l l l l l l l l l l l l l l l l l l l l l l j 6 6 6 6 6 6 6 6 & # @ 6 6 6 6 6 6 6 6 5 6 6 6 6 6 6 6 5 6 6 & 6 6 6 l i.B B B G G B A B B B A N j 6 6 6 6 6 6 ",
"N N N N N N N N N N N N N N N N N N N N N N N N N N N N N N N N N N N N N N N N N N N N N N N N N N N N N N N N N N N N N N N N N N N N N N N N N N N N N N N N N N N N N N N N N N N N N N N N N N N N N N N N N N N N N N N N N N N N N N N N N N N N N N N N N N N N N N N N N N N N N N N N N N N N N N M N N N N N N N N N N N N N N N N N N N N N N N N N M N N N N N N N N N N N N N N N N N N N N N N N N N 6 6 6 6 6 6 6 l N 6 6 6 6 6 6 6 6 6 6 6 6 6 6 6 6 6 6 6 6 6 6 6 & z M # 6 4 & & 4 & & 4 & & & 6 6 6 6 6 6 6 ",
"& 6 6 & & & & & & & & & & 6 6 & & & & & & 6 6 & & & k c c c c c c c k 6 & 6 & & 6 6 & 6 9 9 9 1 > & & & & & & & & & & & & & & & & & 6 6 & & & & > a 5 5 5 6 6 & & & & & & 6 6 & & & & & 6 6 & 5 5 u d g 5 i 6 5 & 6 6 & 6 6 & 6 6 & & & & & & & & & & & & & & & & & 6 6 & & & & & & & & & & 6 6 & & 5 5 6 5 V V 6 6 6 & 6 6 & & & 6 6 & & & 6 & & 6 6 & 6 i 6 6 Z q 6 6 6 & & & & & & & & & & & & & & 6 6 6 6 6 q j.M 6 6 6 6 6 6 G G A 6 6 6 6 6 6 0 - - - - - : 6 6 0 - - - - - - & l N 6 6 6 6 6 6 6 6 6 6 6 6 6 6 6 6 6 6 6 ",
"6 6 l 6 6 6 6 6 6 6 6 6 6 l 6 6 6 6 6 6 6 l 6 6 6 6 c ' ' c v c W ' c 6 6 l 6 6 j l 6 9 x 0 0 4., j u 6 6 6 6 6 6 6 6 6 6 6 6 6 6 6 l u 6 6 u , x =.p p u u l 6 6 6 6 6 6 6 l 6 6 6 6 6 l 6 6 u p l g S.i s i 6 6 l 6 6 l j & l l 6 6 6 6 6 6 6 6 6 6 6 6 6 6 6 6 6 6 l 6 6 6 6 6 6 6 6 6 6 l 6 6 6 6 i i p f.f.l l 6 6 u l 6 6 6 6 l 6 6 6 l 6 6 u l 6 6 M m s M.Z w w 9 6 6 6 6 6 6 6 6 6 6 6 6 6 6 l j 9 w w ' k.N 6 6 6 6 6 l G M G 6 6 6 6 6 6 0 - - - - - : 6 6 9 - - - - - 0 & l M & 6 6 6 6 6 6 6 6 & & 6 6 6 6 6 6 6 6 ",
"6 6 l 6 6 6 6 6 6 6 6 6 6 l 6 6 6 6 6 6 6 l 6 6 6 6 c ! v c c c v ' c 6 6 l 6 6 u j 6 9 x 0 0 %., u u 6 6 6 6 6 6 6 6 6 6 6 6 6 6 6 l 6 6 6 u , j =.p p u u l 6 6 6 6 6 6 6 l 6 6 6 6 6 l 6 6 u u i g S.i s i 6 6 l 6 6 j u & l l 6 6 6 6 6 6 6 6 6 6 6 6 6 6 6 6 6 6 l 6 6 6 6 6 6 6 6 6 6 l 6 6 6 6 u i p f.f.l l 6 6 6 l 6 6 6 6 l 6 6 6 l 6 6 6 l 6 6 m l i b.C w w 9 6 6 6 6 6 6 6 6 6 6 6 6 6 6 j j 9 w w Z j.N 6 6 6 6 6 l G M G 6 6 6 6 6 6 0 - - - - - : 6 6 0 - - - - - 0 & l M & 6 6 6 6 6 6 $ 6 s s 6 $ 6 6 6 6 6 6 ",
"6 6 l 6 6 6 6 6 6 6 6 6 6 l 6 6 6 6 6 6 6 l 6 6 6 6 c ! ! c c c v ' c 6 6 l 6 6 u j 6 9 x 0 0 %., u u 6 6 6 6 6 6 6 6 6 6 6 6 6 6 6 l 6 6 6 u , j =.p p u u l 6 6 6 6 6 6 6 l 6 6 6 6 6 l 6 6 u u i g S.i s i 6 6 l 6 6 j j & l l 6 6 6 6 6 6 6 6 6 6 6 6 6 6 6 6 6 6 l 6 6 6 6 6 6 6 6 6 6 l 6 6 6 6 u i p f.f.l l 6 6 u l 6 6 6 6 l 6 6 6 l 6 6 6 l 6 6 M l i M.C w w 9 6 6 6 6 6 6 6 6 6 6 6 6 6 6 j j 9 w w Z j.N 6 6 6 6 6 l G M G 6 6 6 6 6 6 0 - - - - - : 6 6 0 - - - - - 0 & l M & 6 6 6 6 6 i Y.KXKXPXKXY.u 6 6 6 6 6 ",
"6 6 l 6 6 6 6 6 6 6 6 6 6 l 6 6 6 6 6 6 6 l 6 6 6 6 c ! ! c c c v ' c 9 6 l 6 6 u j 6 9 x 0 0 %., u u 6 6 6 6 6 6 6 6 6 6 6 6 6 6 6 l 6 6 6 u , j =.p p u u l 6 6 6 6 6 6 6 l 6 6 6 6 6 l 6 6 u u i g S.i s i 6 6 l 6 6 j j & l l 6 6 6 6 6 6 6 6 6 6 6 6 6 6 6 6 6 6 l 6 6 6 6 6 6 6 6 6 6 l 6 6 6 6 u i p f.f.l l 6 6 u l 6 6 6 6 l 6 6 6 l 6 6 6 l 6 6 M l i M.C w w 9 6 6 6 6 6 6 6 6 6 6 6 6 6 6 j j 9 w w Z j.N 6 6 6 6 6 l G M G 6 6 6 6 6 6 0 - - - - - : 6 6 0 - - - - - 0 & l M & 6 6 6 6 s KXKXzXS.S.zXKXKXs & 6 6 6 ",
"6 6 l 6 6 6 6 6 6 6 6 6 6 l 6 6 6 6 6 6 6 l 6 6 6 6 c ! ! c c c v ' c 9 6 l 6 6 u j 6 9 x 0 0 %., u u 6 6 6 6 6 6 6 6 6 6 6 6 6 6 6 l 6 6 6 u , j =.p p u u l 6 6 6 6 6 6 6 l 6 6 6 6 6 l 6 6 u u i g S.i s i 6 6 l 6 6 j j & l l 6 6 6 6 6 6 6 6 6 6 6 6 6 6 6 6 6 6 l 6 6 6 6 6 6 6 6 6 6 l 6 6 6 6 u i p f.f.l l 6 6 u l 6 6 6 6 l 6 6 6 l 6 6 6 l 6 6 M l i M.C w w 9 6 6 6 6 6 6 6 6 6 6 6 6 6 6 j j 9 w w Z j.N 6 6 6 6 6 l G M G 6 6 6 6 6 6 0 - - - - - : 6 6 0 - - - - - 0 & l M & 6 6 6 u KXPXd . = = . s PXKX6 6 6 6 ",
"6 6 l 6 6 6 6 6 6 6 6 6 6 l 6 6 6 6 6 6 6 l 6 6 6 6 c ! ! c c c v ' c 9 6 l 6 6 u j 6 9 x 0 0 %., u u 6 6 6 6 6 6 6 6 6 6 6 6 6 6 6 l 6 6 6 u , j =.p p u u l 6 6 6 6 6 6 6 l 6 6 6 6 6 l 6 6 u u i g S.i s i 6 6 l 6 6 j j & l l 6 6 6 6 6 6 6 6 6 6 6 6 6 6 6 6 6 6 l 6 6 6 6 6 6 6 6 6 6 l 6 6 6 6 u i p f.f.l l 6 6 u l 6 6 6 6 l 6 6 6 l 6 6 6 l 6 6 M l i M.C w w 9 6 6 6 6 6 6 6 6 6 6 6 6 6 6 j j 9 w w Z j.N 6 6 6 6 6 l G M G 6 6 6 6 6 6 0 - - - - - : 6 6 0 - - - - - 0 & l M & 6 6 * Y.KXs . l G i.N . s KXY.* 6 6 ",
"6 6 l 6 6 6 6 6 6 6 6 6 6 l 6 6 6 6 6 6 6 l 9 j j j c ! ! c c c v ' c 9 6 l 6 6 u j 6 9 x 0 0 %., u u 6 6 6 6 6 6 6 6 6 6 6 6 6 6 6 l 6 6 6 u , j =.p p u u l 6 6 6 6 6 6 6 l 6 6 6 6 6 l 6 6 u u i g S.i s i 6 6 l 6 6 j j & l l 6 6 6 6 6 6 6 6 6 6 6 6 6 6 6 6 6 6 l 6 6 6 6 6 6 6 6 6 6 l 6 6 6 6 u i p f.f.l l 6 6 u l 6 6 6 6 l 6 6 6 l 6 6 6 l 6 6 M l i M.C w w 9 6 6 6 6 6 6 6 6 6 6 6 6 6 6 j j 9 w w Z j.N 6 6 6 6 6 l G M G 6 6 6 6 6 6 0 - - - - - : 6 6 0 - - - - - 0 & l M & 6 6 6 zXzX. i G G i.s.N . zXKX6 6 6 ",
"6 9 l 6 6 6 6 6 6 6 6 6 6 l 9 6 6 6 6 6 6 l k W W W c ! ! c v c W ' c j 6 l 6 6 j l 6 9 x 0 0 4., j u 6 6 6 6 6 6 6 6 6 6 6 6 6 6 6 l 6 6 6 u , j =.p p u u l 6 6 6 6 6 6 6 l 6 6 6 6 6 l 6 6 u u i g S.i s i 6 6 l 6 6 j j 4 l l 6 6 6 6 6 6 6 6 6 6 6 6 6 6 6 6 6 6 l 6 6 6 6 6 6 6 6 6 6 l 6 6 6 6 u i p f.f.l l w 6 j l 6 6 6 6 l 6 6 6 l 6 6 6 l 6 6 M l i M.C w w 9 6 6 6 6 6 6 6 6 6 6 6 6 6 6 l j 9 w w Z j.N 6 6 6 6 6 l G M G 6 6 6 6 6 6 0 - - - - - : 6 6 0 - - - - - 0 & l M & 6 & i KXA.. M A G B l l . A.KXi & 6 ",
"3 3 p 3 3 3 3 3 3 3 3 3 3 p 3 3 3 3 3 3 3 p u c x c x D D x c x c D x x x M 3 3 5 5 3 5 i 6 9 %.> > 6 6 6 6 6 6 6 6 6 6 6 6 6 6 6 & j 6 6 6 6 > u =.p p u 6 l 6 6 6 6 6 6 6 l & 6 6 6 6 l 6 6 6 u i g S.i s i 6 6 l 6 6 i u & j 9 $ $ $ $ $ $ $ $ $ $ $ % 5 3 3 3 3 3 p 3 3 3 3 3 3 3 3 3 3 p 3 3 3 3 3 h 3 r.u.8 8 3 3 5 i 5 5 6 6 j & & & j 6 6 6 l 6 6 m l i b.C w w 6 6 6 6 & % % % % + + + + + + u u % 6 6 C j.N 6 6 6 6 6 l G M G 6 6 6 6 6 6 0 - - - - - : 6 6 0 - - - - - 0 & l M & 6 & i KXY.. M B A B M l . S.E.u 6 6 ",
"#.#.o.#.#.#.#.#.#.#.#.#.#.o.#.#.#.#.#.#.#.o.o.OXOXOXOXOXOXOXOXOXOXOXOXOXOXo.#...#.#.#.#.#...Q 4.2 k u 5 5 u w 7 7 6 6 6 u 6 6 6 7 7 l l u j j j x =.p p i i z 6 u u u u u l z 6 u u u u z j u i i z g S.i s m u u z 9 $ 9 l i f f g e.e.e.e.e.e.r.S.e.u.D E Q Q ..#.#.#.#.#.#.#.#.#.#.#.#.#.#.Y #.#.#.#.o.#.B.@.#.#...Q Q Q - 0 6 d f d V m B l 6 & j 6 l N m m M.Z l l l u % 6 q y ' k.k.k.k.k.k.k.k.k.k.k.k.k.B.k.M 6 6 6 6 6 l G M G 6 6 6 6 6 6 0 - - - - - : 6 6 0 - - - - - 0 & l M & 6 6 $ zXKX. 5 B B A i.u = E.Y.& 6 6 ",
"OXOX+XOXOXOXOXOXOXOXOXOXOX+XOXOXOXOXOXOXOX+X+X+X+X+X+X+X+X+X+X+X+X%X%X=X=X:X>X:X%XOXOX+X%X%X%X1X&X&X=X+X..z p %.%.1.1.1.1.1.1.1.%.%.P m w z x x P =.s s z z N l l l l l l z M l l l l l N l l l s M e.S.m N M l 9 M e.Y.E.lXE.E.E.Y.Y.Y.Y.Y.Y.T.|.wXwX2X2X%X+X+X+X+XOX@XOXOXOXOXOX@X,XeX'. XXX'.OX;XOXOXOXOX@X#XOX+X+X+X+XrXyX1X&XrXHXbXnXbXbXbXbXnXg.M u B V V M.Z C M u Z C.0X9X9XC.C.B.B.B.B.B.B.B.C.C.B.C.C.9XB.M 6 6 6 6 6 l G M G 6 6 6 6 6 6 0 - - - - - : 6 6 0 - - - - - 0 & l M & 6 6 $ A.KXe.. & l l 6 . f E.e.$ 6 6 ",
"6 9 l 6 9 9 9 9 9 9 9 9 6 l w 6 9 9 9 9 6 l c W v v c ' ' c v v ' ' c W ' { Q #.@X$XW 3 i 6 9 %., k W #.%X1X3X1.< < , , , , , < < %.%.%., 4 & > , =.p p u 6 l & 6 6 6 6 & 6 j & 6 6 6 4 l 6 6 6 u i g S.u s 6 & S.E.R.S.e.f d s s i i i 3 W %X&X+X..c l p d h h h h h g h h h h h h h h h r.S.R.lXY.3 + h 3 r.u.8 8 + r.nXbXg.y.' ..+X&XOXl V V t.f.nXbXg.l w i b.C 9 6 C.9Xk.t w w w 9 9 9 9 9 9 9 9 l l w q q ' j.N 6 6 6 6 6 l G M G 6 6 6 6 6 6 0 - - - - - : 6 6 0 - - - - - 0 & l M & 6 6 6 & zXPXe.  X X   f zXY.6 6 6 6 ",
"0 k c 0 0 0 0 0 0 0 0 0 0 c c 0 0 0 0 0 0 c W E E E E { { E E E ` { E E E { E W ] O.$X$Xc 9 e %., u 5 <.%.1 OX:XQ 3 j u u j u u u 6 x < %.%.u 6 x =.p p u u l 6 6 6 6 6 6 6 l 6 6 6 6 6 l 6 6 u u i g S.p i e.lXY.e.i u s s p f f s d d OX&X..s h h h d d s s s s s s B s s s s s s s s i i M i s A.lXS.6 p f.f.w w nXNXf.m 6 s d d t.C #X:X' d m m m m nXbXm i M.C 9 0XC.w w q q q q q q q q q q r q C C t C C k.k.N 6 6 6 6 6 l G M G 6 6 6 6 6 6 0 - - - - - : 6 6 0 - - - - - 0 & l M & 6 6 6 6 6 zXS.$ 6 6 & f Y.6 6 6 6 6 ",
"0 k c 0 0 0 0 0 0 0 0 0 0 c k 0 0 0 0 0 0 c W E E E E ] ] E E E ` { E E E { E E ] ] c #.-Xc 9 4., v 1.%.j u 3 W :XOX> j , , , , , , x j 6 %.3., u =.p p u u l 6 6 6 6 6 6 6 l 6 6 6 6 6 l 6 6 u u i g S.6 S.lXe.6 M d d s s d f M d s %X+Xs h d s s s s s s s s s s s f d s s s s s s s s d f d s u d lXY.% f.f.6 NXnX6 m B m V m V B d d ..:X' d V t.m 6 V.NXi M.C 9XC.9 q q q q q q q q q q q q q q C C e t C j.k.N 6 6 6 6 6 l G M G 6 6 6 6 6 6 0 ; ; ; ; ; : 6 6 0 ; ; ; ; ; 0 & l M & 6 6 6 6 6 & 6 6 6 6 6 6 6 6 6 6 6 6 ",
"0 k c 0 0 0 0 0 0 0 0 0 0 c k 0 0 0 0 0 0 c W E E E E ] ] E E E ` { E E E { E E ` { E W  .-XW 1 < w.%.6 , , , > , &XOXx x > , , , > x x , u < 3.< =.p p u u l 6 6 6 6 6 6 6 l 6 6 6 6 6 l 6 6 u u i g e.e.kXf p d f s d s s d f f p &XOXh d s s s s s s s s s s s s s f d s s s s s s s s d f s s d p p lXS.u.t.bXV.6 V V V m m m V B m V d  .:XC V B m V M nXnXj.B.9Xw t q q q q q q q q q q q q q q C C e t C j.k.N 6 6 6 6 6 l G M G 6 6 6 6 6 6 k 2 2 2 2 2 2 6 6 k 2 2 2 2 2 k & l M & 6 6 6 6 6 6 6 $ * * $ 6 6 6 6 6 6 6 ",
"0 k c 0 0 0 0 0 0 0 0 0 0 c k 0 0 0 0 0 0 c W E E E E ] ] E E E ` { E E E { E E ` ] E ` ] ..-X4.1.4.x , > > j x x j &Xo.u , , , , > x j , , u < 3.=.p p u u l 6 6 6 6 6 6 6 l 6 6 6 6 6 l 6 6 u u i g Y.lXe.s d s f s d s s d M d %XOXh s s s s s s s s s s s s s s s f d s s s s s s s s d f s s s d d d lXY.NX].m V m V V m m m V B m m V r.o.%Xd B m V t.V bXmX0XZ t t q q q q q q q q q q q q q q C C e t C j.k.N 6 6 6 6 6 l G M G 6 6 6 6 6 6 x 1 1 1 1 1 , 6 6 x 1 1 1 1 1 1 & l M & 6 6 6 6 6 $ i e.A.Y.e.i $ 6 6 6 6 6 ",
"0 k c 0 0 0 0 0 0 0 0 0 0 c k 0 0 0 0 0 0 c W E E E E ] ] E E E ` { E E E { E E ` ] E ` | E @.3X1.! n , x x x ! ! u c 5XW > , , , > x j , , , , %.<.p p u u l 6 6 6 6 6 6 9 c 6 6 6 6 6 l 6 6 u u i g kXe.f f d d f s d s s p d @.%Xh s s s s s s s s s s s s s s s s f d s s s s s s s s d f s s s d d d g vXNXV t.V m V V m m m V B m m m B d %X@.d m V t.V f.FXB.C t t q q q q q q q q q q q q q q C C e t C j.k.N 6 6 6 6 6 l G M G 6 6 6 6 6 6 x 1 1 1 1 1 , 6 6 x 1 1 1 1 1 x & l M & 6 6 6 6 $ A.zXPXKXKXUXzXA.& 6 6 6 6 ",
"0 k c 0 0 0 0 0 0 0 0 0 0 c k 0 0 0 c W W ` E E E E E ] ] E E E ` { E E E { E E ` ] E ` | Q ) 3XX.v ! v ! ! v ! ! x x o.&X> , , , > x j , , , , , 3.< 5 u u l 6 6 6 6 6 6 j v 6 6 6 6 6 l 6 6 u p j E.Y.d e.f d d f s d s s h F 4XM d s s s s s s s s s s s s s s s s f d s s s s s s s s d f s s s d d g f AXzXV t.V m V V m m m V B m m m B d Z 4XZ s V t.t.y.FXN.e t t q q q q q q q q q q q q q q C C e t C j.k.N 6 6 6 6 6 l G M G 6 6 6 6 6 6 x 1 1 1 1 1 , 6 6 x 1 1 1 1 1 x & l M & 6 6 6 & A.PXW.f % % g W.UXA.$ 6 6 6 ",
"0 k c 0 0 0 0 0 0 0 0 0 0 c k 0 0 0 c ` E { ` E E E E ] ] E E E ` { E E E { E E ` ] E ` { Q w.0.2X~ ! ! ! ! ! ! ! v ! n &Xo.5 , , > x j > , , , < <.1.p u u l 6 6 6 6 6 6 j v 6 6 6 6 6 l 6 6 u & e.kXS.d f f d d f s d s s h %X..h s d s s s s s s s s s s s s s s s f d s s s s s s s s d f s s s d d h nXNXzXf.V V m V V m m m V B m m m B V d +XOXd V t.f C.FXMXt t t q q q q q q q q q q q q q q C C e t C j.k.N 6 6 6 6 6 l G M G 6 6 6 6 6 6 , 1 1 1 1 1 1 6 6 x 1 1 1 1 1 x & l M & 6 6 & f KXW.X   6 6 =   W.KXf & 6 6 ",
"0 k c 0 0 0 0 0 0 0 0 0 0 c k 0 0 0 c ` E { ` E E E E ] ] E E E ` { E E E { E E ` ] E E  .4.0.4.9.@Xn ! ! ! ! ! ! ! ! v ( :Xk > j > x x x , , , < =.7.%.5 u l 6 6 6 6 6 6 j ! 6 6 6 6 6 l 6 6 u u R.S.S.d f f d d f s d M h _ 2Xd s s s s s d s s d s s s s s s s s s f d s s s s s s s s d f s s s d d u.NXT.T.lXV V m V V m m m V B m m m B m d Z &XC V t.y.0XC.mXN.e t q q q q q q q q q q q q q q C C e t C j.k.N 6 6 6 6 6 l G M G 6 6 6 6 6 6 j x j j j j j 6 6 x 1 1 1 1 1 x & l M & 6 6 * E.KX@ @ A i.p.p.# O KXE.* 6 6 ",
"0 k c 0 0 0 0 0 0 0 0 0 0 c k 0 0 0 c ` E { ` E E E E ] ] E E E ` { E E E { E E ` ] E ` | w._ 0.^ <X_ v ! ! ! ! ! ! ! ! n +X+Xx v c x x c , , , < :./ 3.p 6 l 6 6 6 6 6 6 x ' 6 6 6 6 6 l 6 6 $ S.E.g S.d f f d d f s d s s &X] d p s s s s d s M d s s s s s s s s s f d s s s s s s s s d f s s s d h bXT.T.g.lXA.r m V V m m m V B m m m B m m d #Xo.d B C.C.M.V.nXe t q q q q q q q q q q q q q q C C e t C j.k.N 6 6 6 6 6 l G M G 6 6 6 6 6 7 1.w.w.w.w.w.1.6 6 x 1 1 1 1 1 x & l M & 6 6 i KXE.. z G G G p.B . E.KXu 6 6 ",
"0 k c 0 0 0 0 0 0 0 0 0 0 c k 0 0 0 W ` E { ` E E E E ] ] E E E ` { E E ` { E E ` ] E E 0.4._ 0.^ X.#Xn ! ! ! ! ! ! ! ! v ! :X_ v ! n v v x , , < :.F 7.%.7 l 6 6 6 6 6 & k ' 0 4 6 6 6 l 6 6 6 lXe.S.S.d f f d s f s s h @.+Xd M d s s s s d M M d s s s s s s s s s f d s s s s s s s s d f s s s p f.NXf T.g.f.lXV m V V m m m V B m m m B m m d { &XV t.0XN.C.N.bXZ e q q q q q q q q q q q q q q C C t C C j.k.N 6 6 6 6 6 l G M G 6 6 6 6 6 7 dXfXfXfXfXfXfX7 6 x 1 1 1 1 1 x & l M & 6 & i KXA.. M B G N u u . e.zXi 6 6 ",
"0 0 c 0 0 0 0 0 0 0 0 0 0 c k 0 0 0 W E E { E E E E E ` ] W W W ' ] E E E { E E ` ] E ( w.( _ 0.) ~ #X_ v ! v v v v v v ! n OX%Xn ! ! ! ! x > , n :.b b 1.j i & $ $ 6 p p P 5.P p u 4 $ w 6 * S.Y.p S.S.d f f d s f s d M 1Xc d s d s d d s d M M d s d d d d d d d s f d d d d d d d d d d f s d d p nXT.f T.g.t.lXr.w V V m m m V B m m m B m m V d %XQ N.0Xt.C.j.nXV.0 q q q q q q q q q q q q q q C C e t t j.k.N 6 6 6 6 6 l G M G 6 6 6 6 6 6 j x j x x x j 6 6 x 1 1 1 1 1 x & l M & 6 6 u KXE.. l B B A G M   A.E.6 6 6 ",
"k c c k c c c c c c c c k c c k c k E ] ` { ] ` ` ` ` { ] X.+X+XOX{ ` ` ] { ` ` { { ` 4.0._ _ 0.) ^ @.@Xv ! ! ! ! ! ! ! ! ! ~ 4X( v [ / ! v n v 5.:./ L 7.1.w x =.*.L.L.L.U.U.U.L.L.L.*.=.u 9 lXe.f S.S.f e.f s N S s h X.%Xh S S s s s s M s N A M M s s s s s s s s S s s s s s s s s s s S s s s u.NXu.r.T.T.u.A.lXm B t.V V V V t.V V V t.V V B t.O.+XC.C.t.C.j.V.nXe C C C C C C C C C C C C C C Z C C Z Z k.k.N 6 6 6 6 6 l G M G 6 6 6 6 6 6 k c x x x c k 6 6 9 k k k k k k & l M & 6 6 * E.KXO O M B A B @ O E.Y.$ 6 6 ",
"c c Z c c c c c c c c c c Z c c c c ` { ] { { ] ] ] ` ] ' +Xo...%X| ] { ] { ] ] { { { w.| _ _ 0.4.) ^ <X} ! ! ! ! ! ! ! ! ^ n +X+Xn [ [ ! ^ ^ ^ 5.:./ / / q.H.U.*.g a p l F [ F i s a =.L.,.Y.Y.s f S.S.f e.f f A S f s &X] S A S M B s B A M B G G N s s s s s s s f S s s s s s s s s s s S f f p nXT.e.u.T.T.f.u.lXu.V t.V V V B t.V V V t.V V B t.B =X0Xy.y.C.N.j.bXZ C C C C C C C C C C C C C C Z Z C Z Z k.k.N 6 6 6 6 6 l G M G 6 6 6 6 6 6 6 9 9 9 9 9 9 6 6 9 k 0 0 0 k 0 & l M & 6 6 & f PXW.X X & & X X A.E.s & 6 6 ",
"0 0 c 0 0 0 0 0 0 0 0 0 0 W ` W E E E E E { E E E E ..o.o.%XE W +X_ W E E { E E ] ` 4.4.| _ _ 0.) ) ! o.@Xn ! v v v v v v ! v ( :X~ ! ! v v ! ! / :.b v ;.U.U.D u u p l p F L n p p p u z x kXI.a s S.S.s f f M N M h Q =Xd M A M m M s M N N M D F M d d s s s d d s f d d d d d s s d d d f d p d NXu.r.r.T.g.u.t.Y.Y.w V m m m m V m m m B m m V B 8 +XqXt.y.C.N.Z nXN.0 q q q q q q q q q q q q q C C e t t j.k.N 6 6 6 6 6 l G M G 6 6 6 6 6 5 ] 8.O.O.O.O.| 6 6 9 k k k k k 0 & l M & 6 6 6 $ A.UXA.O @ @ @ S.zXe.& 6 6 6 ",
"0 k c 0 0 0 0 0 0 0 0 0 0 ' ] E E E E E E { ` E E Q %XOXOX#.E W +XO.W E ` { E E ` ] w.) | _ _ 0.) ) ) ~ #X~ v ! ! ! ! ! ! ! ! n %XOXF ! ! ! ! ! / :.v :.U.;.1.F P p p n z F L n p p p p z G.R.=.I.g e.S.S f S A D S d %XO.d N G G M N M N A H D H H M s M s s s s s s f d s s s d s s d s s f s p g.nXf u.r.T.g.u.u.u.lXt.V m m m V B m m m B m m V B d 8X=Xy.y.C.N.Z V.nX0 r q q q q q q q q q q q q C C t C C j.k.N 6 6 6 6 6 l G M G 6 6 6 6 6 5 9.wXwXwXwXwX'.5 6 9 k 0 k 0 k 0 & l M & 6 6 6 6 $ A.s 6 6 6 6 i e.$ 6 6 6 6 ",
"0 k c 0 0 0 0 0 0 0 0 0 0 E ` E E E E E E { ` E E _ +XF ' W E W +XO.E E E { E E ` 4.1.~ | _ _ 0.) ) ) ! @Xo.n ! ! ! ! ! ! ! ! v ..&X/ ! ! ! ! ! / :.:.U.b F q.7.N p n n x F L v P p P z x W.S.p =.P.S.S.S f G H D S ] &XA B D K K N A N B D H H H H N s N s M s d d s f d s s s d N s d s d f s p NXf.r.u.r.T.g.u.u.V Y.Y.m m m m V B m m m B m m V V V 0X:Xk.y.C.N.y.j.bXq q q q q q q q q q q q q q C C e t C j.k.N 6 6 6 6 6 l G M G 6 6 6 6 6 5 8.wXwXwXwXwX9.5 6 9 k 0 0 0 k 0 & l M & 6 6 6 6 6 $ & 6 6 6 6 6 $ 6 6 6 6 6 ",
"0 k c 0 0 0 0 0 0 0 0 0 0 ` ` E E E E E E { ` E E _ +X` { E E W +XO.c E E { E E ` w.4.( | _ _ 0.) ) ) ~ _ #Xv ! ! ! ! ! ! ! ! ! n &Xo.n ! ! ! / / :.U.;.b L 7.q.D n F F P F L v n p n n S W.s g a S.I.S.S p.K H F S +Xo.S G D K K D H A D D H H H H B M N s N s s s s f s s s s d D M d s s B p f.bXd u.u.r.T.g.u.u.t.r.lXV m m m V B m m m B m m V s Z.C.+X@Xt.C.N.y.Z bXy.0 q q q q q q q q q q q q C C e t C j.k.N 6 6 6 6 6 l G M G 6 6 6 6 6 5 8.wXwXwXwXwX9.5 6 9 k 0 0 0 k 0 & l M & 6 6 6 6 6 6 7 7 6 6 7 7 6 6 6 6 6 6 ",
"0 k c 0 0 0 0 0 0 0 0 0 0 ` ` E E E E E E { ` E E ..+X` { E E W OX%X+X_ ` { E ` ) w.~ ( | _ _ 0.) ) ) ( ! @X..v ! ! ! ! ! ! ! ! n o.2Xn ! ! ! ! / U.:.b ;.b [ q.5.F F F n F L v n i F v T.T.z S g g A.L.A a.K H H [ 4XD A G F K K D H D D H H H H H D M N M N s M s s B d s M s s D M d M s A p nXg.f u.u.r.T.g.u.u.u.V lXu.w m m V B m m m B m m V s 9XZ.B.=Xt.C.N.y.C V.V.0 r q q q q q q q q q q q C C e t C j.k.N 6 6 6 6 6 l G M G 6 6 6 6 6 5 8.wXwXwXwXwX9.5 6 9 k 0 0 0 k 0 & l M & 6 6 6 6 6 7 1 1.1.1.1.1 7 6 6 6 6 6 ",
"0 k c 0 0 0 0 0 0 0 0 0 0 ` ` E E E E E E { ` E E ..+X' { E E E ] | +Xo.W { E E 4.4.E ( | _ _ 0.) ) ) ( ! X.@Xn ! ! ! ! ! ! ! ! v ! &X_ v ! ! ! U.U.b ;.b b [ 7.7.D F F n F L v D z F v W.G.S J g g A.I.G.a.K H A @X%Xs G H F K K D H H H H H H H H D N D N N M A M s S s M M s s D M M M s A B NXt.u.r.u.r.T.g.u.u.u.V A.Y.w V m V B m m m B m m V y.0Xy.j.&Xv.C.N.y.Z N.nX0 r q q q q q q q q q q q C C e t C j.k.N 6 6 6 6 6 l i.B G 6 6 6 6 6 5 8.wXwXwXwXwX9.5 6 9 k 0 k 0 k 0 & l M & 6 6 6 6 6 1.1.1.1.1.w.1.1.6 6 6 6 6 ",
"0 k c 0 0 0 0 0 0 0 0 0 0 ` ` E E E E E E { ` E W ..OX' { E E E ` ' o.o.W { E E w.) ~ ( | _ _ 0.) ) ) ~ ~ ~ #X~ v ! ! ! ! ! ! ! ! n +X+Xn ! ! ;.U.:.;.;.b b [ b q.v F F n F L v F P v G.W.D S J g g J.A.U.a.K H D &XO.M H K F K K F H H H H H H H H D D H D A N H N M A N M A N s D N M N M D ].nXd u.u.u.r.T.g.u.u.u.t.u.lXV m m V B m m m B m m s N.C.V f.*X@XV.N.y.y.y.bXr q q q q q q q q q q q q C C e t C j.k.N 6 6 6 6 6 l G N G 6 6 6 6 6 5 8.wXwXwXwXwX9.5 6 9 k 0 k 0 k 0 & l M & 6 6 6 6 1.w.1 X X X X 1 w.1.6 6 6 6 ",
"0 k c 0 0 0 0 0 0 0 0 0 0 ` ` E E E E E E { ` E W ..OX' { E E E ` ' o.o.W { E 4.0.] ~ ( | _ _ 0.) ) ) ~ ~ ! +.@.n ! ! ! ! ! ! ! ! v _ 1X! ! ! U.:.:.;.;.b b 5.v 7.7.D F n F L n F D v W.J.F J J f g J.A.H.H.H A | &XH N H K D K K F H H H H H H H H D D H H D D H D N K D N D B s D B N N N H bXf.f u.u.u.r.T.g.u.u.u.u.V lXr.w m V B m m m B m m d 9XZ.V y.O.*XV.N.y.y.C bXy.0 q q q q q q q q q q q C C e t C j.k.N 6 6 6 6 4 l M # B 6 6 6 6 6 5 8.wXwXwXwXwX9.5 6 9 k 0 k 0 k 0 & l M & 6 6 7 1 1.1 o 6 N N u o 1 1.1 7 6 6 ",
"0 k c 0 0 0 0 0 0 0 0 0 0 ] ` E E E E E E { ` E W X.OX' { E E E ` ' o.OXW { ` 1.4.{ ~ ( | _ _ 0.) ) ) ~ ~ ~ _ #Xv ! ! ! ! ! ! ! ! ! L 1Xo.v :.U.5.:.;.;.b b 5.b 5.q.D F n F L n F v J W.D.J J K S ;.J.J.D.U.K A +X,XA D H K F K K F H H H H H H H H H H H H D D H D D K D D H D s D D A D z /.mXB u.u.u.u.r.T.T.u.u.u.u.t.A.Y.w m V B m m m B m m V 0Xy.y.y.j.&XC.N.y.y.C V.V.0 r q q q q q q q q q q C C e t C j.k.N 6 6 6 6 4 l M # B 6 6 6 6 6 5 8.wXwXwXwXwX9.5 6 9 k 0 0 0 k 0 & l M & 6 6 6 1.1.o 6 G G p.a.j o 1.1.7 6 6 ",
"0 k c 0 0 0 k E E E E E W { ` E E E E E E { ` E W X.OX' { E E E ` ' o.OXW { ~ 1.~ ) ~ ( | _ _ 0.) ) ) ~ ~ ~ ! #X_ v ! ! ! ! ! ! ! ! n o.%Xn U.;.5.:.;.;.b b 5.b b q.b F v F L n F v J.T.K J J J ;.D.J.J.J H.H.' &X| H D H K F K K F H H H H H H H H H H H H H H H D D K H D H D N H D D H x }.].B p.u.u.u.r.T.].u.u.u.t.u.u.lXt.m V B m m m B V d k.9XV y.j.t.%XqXN.j.y.C N.nX0 r q q q q q q q q q q C C e t C j.k.N 6 6 6 6 6 l G N G 6 6 6 6 6 5 8.wXwXwXwXwX9.5 6 9 k 0 0 0 k 0 & l M & 6 6 u 1.1 o M A G G i.G X 1 1.u 6 6 ",
"0 0 c 0 0 0 c ` E E E ` E { ` E E E E E E { ` E W o.OX' { E E E ` ] #.OXW  .4.4.] ) ~ ( | _ _ 0.) ) ) ~ ~ ~ ! X.@Xn ! ! ! ! ! ! ! ! [ ~ :X7.U./ 5.:.;.;.b b 5.b F 7.7.D v F L n F v W.G.-.K J J -.D.J.J.p.G.U.9.%Xi.H D H K F K K H H H H H H H H H H H H H H H H H H K H H H D D H D H H D mXs.i.a.u.p.u.r.T.].u.d.u.t.u.t.E.A.q V B m m m B V i C.M.V y.j.t.@.rXN.j.y.y.y.bXq q q q q q q q q q q q C C t C C j.k.N 6 6 6 6 6 l B j G 6 6 6 6 6 5 8.wXwXwXwXwX9.5 6 9 k 0 0 0 k 0 & l M & 6 6 u 1.1 o M B M G G A X 1 1.j 6 6 ",
"c c W c c c W E E E E E E ] ` E E E E E E { E E c #.OX' { E E E ` ' #.OXW { 1.~ ~ ( ~ ( } ( _ 0.) ) ~ ~ ~ ~ ~ ~ #X! v v v v v v v v ^ n %X9.:./ 5.:.L ;.b b [ b b b q.n n F L n v G.W.F D.J J J ;.-.J.J.J a.H.2XX.J H D H H D K K D F F F F F F F F F F F F F F F F H K F F F F D F F H n m.mXH i.d.u.p.u.r.T.].u.s.i.i.u.t.r.lXC V V m m m B m m 0Xj.C y.y.y.j.=Xj.y.y.y.C nXy.0 q q q q q q q q q q C C e t t j.k.N 6 6 6 6 4 l M # B 6 6 6 6 6 5 8.wXwXwXwXwX9.5 6 9 k 0 k 0 k 0 & l M & 6 6 6 1.1.o j M u A G l o 1.1.6 6 6 ",
"{ { | { { { { ] { { { { ] { { ] { { { { ] { { .._ OXOX] { ] { ] { { X.+X' 6.w.] } } ( } | _ _ 0.4.) ) } } } } ^ @XO.v ^ ! ! ! ! [ ! [ L X.1X5.5.5.:.;.;.5.5.5.[ [ L q.7.H L [ L v W.J.K Q.D.D.D.D.D.J.J.D.G.!.1XK l.K K a.l.K l.l.K K K K K K K K K K K K K K K K K K l.K K K K K K K a.F nX[.l.s.z.s.s.s.u.].].s.s.s.s.s.s.u.lXd.B t.V V V t.V j.0Xy.y.y.N.N.f.=XB.y.j.y.Z nXV.q C C C C C C C C C C Z Z C Z Z k.k.N 6 6 6 6 4 l N & A 6 6 6 6 6 5 8.wXwXwXwXwX9.5 6 9 k 0 k 0 k 0 & l M & 6 6 7 1 1., o # z N l o , 1.1.7 6 6 ",
"] { { ] ] ] ] { { { { { ] { { ] { { { { { { +X%X+X+XO.{ { ] { ] { { O.+X' q.4.{ } } ( } | _ _ 0.4.) ) } } } } ^ O.<Xb ^ ! ! ! ! [ ! [ ~ H.2X8.;.5.:.;.;.5.5.5.[ [ [ 7.q.H [ [ F K W.D.K Q.D.D.D.D.D.J.J.D.J.<X<XH.l.K K l.l.K l.l.K K K K K K K K K K K K K K K K K K l.K K K K K K K K l.mX^.z.z.z.s.s.F.f.].].s.s.z.s.s.s.i.T.].Z d.B V V t.s C.C.y.y.y.N.N.f.qX#Xy.j.y.Z V.nXq C C C C C C C C C C Z Z C Z Z k.k.N 6 6 6 6 4 l N & A 6 6 6 6 6 5 8.wXwXwXwXwX9.5 6 9 k 0 k 0 k 0 & l M & 6 6 6 6 1.1.,   X O X , 1.1.6 6 6 6 ",
"E E ] E E E E E E E E E E ] ` E E E E E E ] +XE W W W ` ` E E E ` ] Q %X+X<X( ~ ~ ( ~ ( } ( _ 0.) ) ~ ~ ~ ~ ~ ~ ! #X( v ! v v v v v ! / U.OX<Xn 5.:.L ;.b b [ b b b b q.v F L c J.W.F J D.J J J ;.-.J.J.J D.1X6.U.[ H D K H D K K D F F F F F F F F F F F F F F F F H K F F F F F F H n ].nXl.l.a.l.d.a.s.u.].].d.s.z.d.d.s.i.F.W.' d.V m m B s 9Xj.y.Z y.y.y.t.8X=Xy.y.y.C y.bXw q q q q q q q q q q C C e t t j.k.N 6 6 6 6 4 l N & A 6 6 6 6 6 5 8.wXwXwXwXwX9.5 6 9 k 0 0 0 k 0 & l M & 6 6 6 6 , 1.1 7 & & 7 1 1., 6 6 6 6 ",
"E ` { E E E E E E E E E E { ` E E E E E E { +XQ E E E ] ] E E E ` { E ` 4.3X..~ ( } ~ ( | _ _ 0.) ) ) ~ ~ ~ ~ ~ ! +.@.n ! ! ! ! ! v ! :.:.( 4X^ ;.:.;.;.b b 5.b b b F 7.7.F L v W.J.H J D.K J J -.D.J.J.G.8.1XJ U.G.H H K K F K K H H H H H H H H H H H H H H H H H H K H H H H H H H D mX/.z.l.l.l.l.z.s.p.].].s.s.z.d.s.z.d.d.W.l.c.B V m V j.9XB y.Z y.y.y.y.C.:Xk.y.y.y.Z bXZ q q q q q q q q q q C C t C C j.k.N 6 6 6 6 4 l N & A 6 6 6 6 6 5 8.wXwXwXwXwX9.5 6 9 k 0 0 0 k 0 & l M & 6 6 6 6 7 , 6 6 6 6 6 6 , 6 6 6 6 6 ",
"E ` { E E E E E E E E E E { ` E E E E E E { +X` E E E ] ] E E E ` { E ` 1.<X..v ~ ) ~ ( | _ _ 0.) ) ) ~ ~ ~ ~ ~ ~ _ #Xv ! ! ! ! ! v [ U.b b 2Xo.;.:.;.;.b b 5.b b b b 5.q.F L H W.J J J D.J J J -.D.J.J.G.<X9.S G.U.F H K K F K K F H H H H H H H H H H H H H H H H H K H H H H H H F l.mXd.z.l.l.l.l.z.s.p.].].s.s.z.a.s.z.d.d.T.T.' Z V V s C.C.B y.Z y.y.y.y.V.*X@.y.y.y.C nXf.0 r q q q q q q q q C C e t C j.k.N 6 6 6 6 4 l N & A 6 6 6 6 6 5 8.wXwXwXwXwX9.5 6 9 k 0 0 0 k 0 & l M & 6 6 6 6 6 6 6 & $ $ & 6 6 6 6 6 6 6 ",
"E ` { E E E E E E E E E E { ` E E E E E E { +XE E E E ] ] E E E ` { E ( 1.@X+X...._ ~ ( | _ _ 0.) ) ) ~ ~ ~ ~ ~ ~ ! @X_ v ! ! ! ! W :.H.! L o.2X;.:.;.;.b b 5.b b b b b q.b v J.T.F J J D.J J J -.D.J.J.5.6X5.J K U.J F K K F K K F H H H H H H H H H H H H H H H H H K H H H H H H n ].}.H z.l.l.l.l.z.s.s.].].z.s.z.l.z.z.d.d.F.W.] ' Z V B 0Xk.y.y.Z y.y.y.y.V.8X%Xy.y.y.C V.V.0 r q q q q q q q q C C e t C j.k.N 6 6 6 6 4 l N & A 6 6 6 6 6 5 8.wXwXwXwXwX9.5 6 9 k 0 k 0 k 0 & l M & 6 6 6 6 6 $ & i u.u.s & & 6 6 6 6 6 ",
"E ` { E E E E E E E E E E { ` E E E E E E { +XE E E E ] ] E E E ` { E 4.4.O.+X+X+X&X_ ! | _ _ 0.) ^ ~ ~ ~ ~ ~ ~ ~ ! X.@Xn ! ! ! ! ! U.;.b b ^ 4X4.:.;.;.b b 5.b b b b F 7.7.F W.G.H J J D.J J J -.D.H.A.@.2XG.K H H.H.Z K K F K K F H H H H H H H H H H H H H H H H H K H H H H H H F mXm.d.z.l.l.l.l.z.s.s.].].z.z.z.l.z.z.a.l.l.W.z.' Z V c.9XZ j.y.j.y.y.y.y.C.k.&Xj.y.y.C N.nX0 r q q q q q q q q C C e t C j.k.N 6 6 6 6 4 l N & A 6 6 6 6 6 5 8.wXwXwXwXwX9.5 6 9 k 0 k 0 k 0 & l M & 6 6 6 6 & s zXPXvXPXUXzXs & 6 6 6 6 ",
"E ` { E E E E E E E E E E { ` E E E E E E | +XE E E E ] ] E E E ` { E w.) ] ! ! ! OX%Xo.| _ _ 0.) o.X.~ ~ ~ ~ ~ ~ ~ ( #X! v ! ! ! L U./ b / b +X<X:.;.;.b b 5.b b b b b ;.q.D.W.H J J J D.J J J -.D.H.J.&X8.G.K J G.U.F K K F K K F H H H H H H H H H H H H H H H H H K H H H H H D z.mXd.l.z.l.l.l.l.z.z.s.].].z.z.z.l.z.z.a.l.l.T.T.' H N C.C.Z j.y.v.y.y.y.y.C.N.=XO.t.y.Z y.bXq q q q q q q q q q C C e t C j.k.N 6 6 6 6 4 l N & A 6 6 6 6 6 5 8.wXwXwXwXwX9.5 6 9 k 0 0 0 k 0 & l M & 6 6 6 & u.PXvXT.f f T.vXPXu.& 6 6 6 ",
"E ` { E E E E E E E E E E { ` E E E E E E | +XE E E E ] ] E E E ` ` ~ 1.~ } ~ ~ ( ( X.%X+.! _ 4.X.&X+X~ ~ ~ ~ ~ ~ ~ ! @XX.v ! ! W :.:.! b / b X.1X:.;.;.b b 5.b b b b b L 1.U.T.F J J J D.J J J -.D.J.).&XD.D.J J K U.;.H K F K K F H H H H H H H H H H H H H H H H H K H H H H H n }.].K l.z.l.l.l.l.z.z.s.].].z.z.z.l.z.z.a.l.l.F.W.' ' D 0XB.' j.c.v.j.c.y.j.C.N.@X#Xt.y.y.C bXy.q q q q q q q q q C C e t C j.k.N 6 6 6 6 4 l N & A 6 6 6 6 6 5 8.wXwXwXwXwX9.5 6 9 k 0 0 0 k 0 & l M & 6 6 6 i vXvX5 . @ @ . 5 vXvXi & 6 6 ",
"E ` { E E E E E E E E E E { ` E E E E E E O.+XE E E E ] ] E E E ` ` 4.4.E } ~ ~ ( ( v X.&X+XX.<X2Xo.+X( ~ ~ ~ ~ ~ ~ ! X.@Xn ! ! ! U.5.b b b / b 1X6.;.;.b b 5.b b b b b b 7.W.p.J J J J D.J J J -.-.J.eX#XG.D.J J K G.H.H K F K K F H H H H H H H H H H H H H H H H H K H H H H H F mXz.a.l.z.l.l.l.l.z.z.s.].].z.z.z.l.z.z.a.l.l.l.zXl.' v.0Xv.v.j.c.v.j.c.c.c.C.N.k.&Xy.y.y.C nXN.0 r q q q q q q q C C e t C j.k.N 6 6 6 6 4 l N & A 6 6 6 6 6 5 8.wXwXwXwXwX9.5 6 9 k k k k k 0 & l M & 6 6 * T.vX5   N i.p.A   5 vXW.* 6 6 ",
"E ` { E E E E E E E E E E { ` E E E W E W | +XW E E E ] ] E E E ` { 1.~ ~ } ~ ~ ( ( ~ ( | OX%X<XX._ +X~ ! ! ! ! ! ~ ~ ~ #X~ v W :.:.[ b b b / ;.<X<X;.;.b b 5.b b b b b v G.W.L J J J J D.J J J -.D.H.1X6.G.D.J J D.K U.K H F K K F H H H H H H H H H H H H H H H H H K H H H H D z.mXK l.l.z.l.l.l.l.z.z.s.].].z.z.z.l.z.z.a.l.a.l.W.J.Z B.9X' v.j.b.v.j.c.c.c.C.b.y.&X .t.y.C V.V.0 r q q q q q q q C C e t C j.k.N 6 6 6 6 4 l N & A 6 6 6 6 6 5 O.,X,X,X,X,XO.6 6 9 0 0 0 0 0 0 & l M & 6 6 6 vXvX. l G G i.a.B . vXvX6 6 6 ",
"E ` { E E E E E E E E E E { ` E E E OX+X+X%XOXW E E E ] ] E E E ` 4.1.E ~ } ~ ~ ( ( ~ ( } ~ ( 4.^ ~ %X+XOXo.o.+XOX_ ~ ! @XX.n W U.;.[ b b b / ;.4.1X;.;.b b 5.b b b b b v T.oX5.J J J J D.J J J -.G.8.2XG.D.D.J J D.H H.H.H F K K F H H H H H H H H H H H H H H H H H K H H H H n }.].K l.l.z.l.l.l.l.z.z.s.].].z.z.z.l.z.z.a.l.l.l.].W.Z 9XB.c.v.c.b.v.v.x.b.c.C.M.y.#X@Xt.y.C N.nX0 r q q q q q q q C C e t C j.k.N 6 6 6 6 4 l N & A 6 6 6 6 6 5 _ ,X+.+.+.,XO.6 6 9 0 0 0 0 0 9 & l M & 6 & i vXA.. M B G B l l . f.vXi & 6 ",
"E ` { E E E E E E E E E E { ` E E E %X_ _ O.` E E E E ] ] E E E ` 0.4.~ ~ } ~ ~ ( } ~ ( | _ _ 0.) ~ ..o.X.%X+X_ +XOX! &X+X@Xv b U.b [ b b b / / ;.2X9.;.b b 5.b b b b b b W.7.q.J J J J D.K J J -.G.<X9.G.D.D.J J D.K -.U.H F K K F H H H H H H H H H H H H H H H H H K H H H H H mXz.a.l.l.z.l.l.l.l.z.z.s.].].z.z.z.l.z.z.a.l.l.l.z.W.c.0Xn.v.v.c.b.v.v.b.b.x.C.M.y.O.%Xt.y.Z y.bXq q q q q q q q q C C t C C j.k.N 6 6 6 6 4 l N & A 6 6 6 6 6 5 ..,X+.+.+.,XO.6 6 9 0 0 0 0 0 9 & l M & 6 & i vXT.. M B A B N M . A.zXu 6 6 ",
"E ` { E E E E E E E E E E { ` E E ` +XE W ] ` E E E E ` ] E E E E w.~ ~ ~ } ~ ~ ~ ( ~ ( | _ _ 0.) ) ~ ! ! ~ ~ ! _ +X_ &XOX@XQ :.:.v 5.b b b b / ;.0.%X;.b b [ b b b b v H.W.5.q.K J J J D.J J J ;.5.1X~.G.G.D.J J D.J H U.-.F K K F H H H H H H H H H H H H H H H H H K F H H D /.mXH l.l.a.z.l.a.l.l.z.s.s.].].z.z.z.a.z.z.a.l.a.z.c.T.|.9Xc.v.v.v.b.v.v.b.b.b.C.M.j.j.&X .t.y.C bXy.q q q q q q q q C C e t t j.k.N 6 6 6 6 4 l N & A 6 6 6 6 6 5 ..,X+.+.+.,XO.6 6 9 0 0 0 0 0 9 & l M & 6 6 $ vXvX. # N B G G 6   zXT.& 6 6 ",
"{ { | { { { { { { { { { { | { { ] | +X{ { | { { { { { { { { { { 4.0.{ } } | } } } } } } | | | 0.4.} } } } } } } } %X%XOXOX+.@.U.5.[ 5.5.5.5.5.5.5.:.1X6.;.5.5.[ 5.5.5./ W.J.5.q.7.a.D.D.Q.D.D.D.G.9.<XJ.D.G.G.D.D.Q.D.K H.H.[ l.l.K K K K [ p.+.@.p.[ K K K K K K K K l.K K l.F mX].l.z.z.z.^.z.z.z.z.^.^.^.].].^.^.^.z.^.^.z.z.z.^.x.J.mXB.x.n.b.b.n.b.b.M.M.M.C.B.b.c.=X@Xt.y.Z nXN.C Z C C C C C C Z Z Z Z Z k.k.N 6 6 6 6 4 l N & A 6 6 6 6 6 5 ..,X+.+.+.,XO.6 6 9 0 0 0 0 0 9 & l M & 6 6 $ u.vXT.. # u j # . r.zXr.& 6 6 ",
"E ` { E ` ` ` ` ` ` ` ` E { ` E ` _ +X` E { ` E ` ` E ] ] E ` E 0.4.~ ~ ~ } ~ ~ ( } ~ ( | _ _ 0.) ) ) ~ ~ ~ ~ ~ ~ ( ( ( +X_ ,XU.! b [ / b b / / 5.:.<X<XS / 5.b b b b L W.-.-.5.q.J K J D.K J K ;.&X`.J.D.G.D.J J D.K J D.U.F K K H H H H H A @X+XS H H H H H H H H H K H H H K mXz.l.l.l.l.z.l.l.l.l.z.z.s.].].z.z.z.l.z.z.l.l.l.z.z.z.tXb.b.v.v.v.b.v.v.n.b.b.C.B.b.j.@X=Xt.y.C V.V.0 r q q q q q q C C t C C j.k.N 6 6 6 6 4 l N & A 6 6 6 6 6 5 ..,X+.+.+.,XO.6 6 9 0 0 0 0 0 9 & l M & 6 6 6 & zXUXA.= X X = r.vXT.& 6 6 6 ",
"E ` { E E E E E E E E E E { ` E E _ +XE E { ` E E E E ` ] E ` ~ w.} ~ ~ ~ } ~ ~ ( ( ~ ( | _ _ 0.) ) ) ~ ~ ~ ~ ~ ~ ~ ~ ~ %Xo._.:.v b [ b b b / / 5.:.4.1Xb b 5.b b b v J.W.L -.;.q.-.J J D.J K J 6.1XJ.J.J G.D.J J D.K J K U.;.H K F H H H H A @X%XD [ H H H H H H H H K H H n /.nXH l.l.l.l.z.l.l.l.l.z.z.s.].].z.z.z.l.z.z.a.l.l.l.s.b.HX^.b.v.v.v.b.v.v.n.b.b.C.B.b.j.v.:X .y.C N.nX0 r q q q q q q C C e t t j.k.N 6 6 6 6 4 l N & A 6 6 6 6 6 5 ..,X+.+.+.,XO.6 6 9 0 0 0 0 0 9 & l M & 6 6 6 6 & zXu.& 6 6 & f T.& 6 6 6 6 ",
"E ` { E E E E E E E E E E { ` E E ..+XW E { ` E E E E ] ] E E 4.4.{ ~ ~ ~ } ~ ~ ( ( ~ ( | _ _ 0.) ) ) ~ ~ ~ ~ ~ ~ ~ ~ ! X.+XU.8.n b [ b b b / / 5.:.;.1XX.L 5.b b b v W.H.-.5.J q.7.J J D.J K S <X<XJ.J.p.G.D.J J D.K J K H.H.H K F H H H H S +X+XO.@.A H H H H H H H K H H n mX].d.l.l.l.l.z.l.l.l.l.z.z.s.].].z.z.z.l.z.z.a.l.l.z.s.9X X].v.v.v.v.b.v.v.n.b.b.C.B.b.v.c.%X@Xt.Z y.bXq q q q q q q q C C e t C j.k.N 6 6 6 6 4 l N & A 6 6 6 6 6 5 ..,X+.+.+.,XO.6 6 9 0 0 0 0 0 9 & l M & 6 6 6 6 6 $ & 6 6 6 6 & & 6 6 6 6 6 ",
"E ` { E E E E E E E E E E ] ' W c _ +XW E { ` E E E E ] ] E ` 1.4.} ~ ~ ~ } ~ ~ ( ( ~ ( | _ _ 0.) ) ) ~ ~ ~ ~ ~ ~ ~ ~ ~ _ ,XU.@Xb b [ b b b / / 5.:.;.,X2XL 5.b b b -.W.;.-.-.J 5.q.J J D.K J K 1X6.J.J.p.G.D.J J D.K J K -.U.K K F H H A | [ #X&X+X@.A H H D H H H H K H F a.mXl.a.a.l.l.l.z.l.l.l.l.z.z.s.].].z.z.z.l.z.z.a.l.l.l.z.0XM.}.b.v.v.v.b.v.v.n.b.b.C.B.b.v.c.@.=Xy.j.Z bXC q q q q q q q C C e t C j.k.N 6 6 6 6 4 l N & A 6 6 6 6 6 5 ..,X+.+.+.,XO.6 6 9 0 0 0 0 0 9 & l M & 6 6 6 6 6 6 7 4 6 6 4 7 6 6 6 6 6 6 ",
"E ` { E E E E E E E E E E o.OXOXOX+XOXW E { ` E E E E ] ] E ~ 1.~ } ~ ~ ~ } ~ ~ ( ( ~ ( | _ _ 0.) ) ) ~ ~ ~ ~ ~ ~ ~ ~ ~ _ <X:.,X} n [ b b b / / 5.:.;.5.1X^ -.b b v J.W.L -.-.;.-.q.-.J D.K S @.2XG.H.J.p.G.D.J J D.K J D.K U.H.H D H H [ %XO.@X5X7X%XH A @X+.[ H H H K H n ].mXG B.O.d.l.l.z.l.l.l.l.z.z.s.].].z.z.z.l.z.z.a.l.l.a.M.0Xc.}.(.v.v.v.b.v.v.n.b.b.C.B.b.b.v.v.&XO.y.' mXy.0 q q q q q q C C e t C j.k.N 6 6 6 6 4 l N & A 6 6 6 6 6 5 ..,X+.+.+.,XO.6 6 9 0 0 0 0 0 9 & l M & 6 6 6 6 6 6 %.3.3.3.3.%.4 6 6 6 6 6 ",
"E ` { E E E E E E E E E Q %Xo.o.o.o.Q E E { ` E E E E ] ] E 4.4.~ } ~ ~ ~ } ~ ~ ( ( ~ ( | _ _ 0.) ) ) ~ ~ ~ ~ ~ ~ ~ ~ ~ ( <X^ 8.9.n [ b b b / / 5.:.;.;.<XOX;.b b v W.G.L -.-.;.J 7.7.J D.K J 2X8.G.H.J.p.G.D.J J D.K J -.K ;.U.H O.{ D +X7X@X@X&X@X4X| [ #X&X| G H H K H D mX(.i.@X@Xp.l.l.z.l.l.l.l.z.z.s.].].z.z.z.l.z.z.a.l.l.p.C.C.c.}.}. .v.v.b.v.v.n.b.b.C.B.b.b.v.c.#X*Xy.{ nXV.0 r q q q q q C C e t C j.k.N 6 6 6 6 4 l N & A 6 6 6 6 6 5 ..,X+.+.+.,XO.6 6 9 0 0 0 0 0 9 & l M & 6 6 6 6 u 3.3.3.1.%.3.3.3.u 6 6 6 6 ",
"E ` { E E E E E E E E E Q #XZ W W W E E E { ` E E E E ] ] E w.) ~ } ~ ~ ~ } ~ ~ ( ( ~ ( | _ _ 0.) ) ) ~ ~ ~ ~ ~ ~ ~ ~ Q :.,X%X<X,Xb [ b b b / / 5.:.;.;.X.1X-.b b -.W.;.-.-.-.;.-.-.q.J D.J | 1X-.D.J.J.p.G.D.J J D.K J -.-.J U.J +X%XO.5X4X:X4X%XO.&X@X%X+X:X| D D H K D a.mXd.a.=X@Xp.l.l.s.l.l.l.l.z.z.s.].].z.z.z.l.z.z.a.l.l.a.0XM.c.m..Xv.v.v.b.v.v.n.b.b.C.B.b.b.v.v.v.:Xv.] V.V.0 r q q q q q C C e t C j.k.N 6 6 6 6 4 l N & A 6 6 6 6 6 5 ..,X+.+.+.,XO.6 6 9 0 0 0 0 0 9 & l M & 6 6 6 6 3.dX< o o o o < dX3.6 6 6 & ",
"E ` { E E E E E E E E E _ +XE E E E E E E { ` E E E E ] ` ~ 1.~ ~ } ~ ~ ~ } ~ ~ ( ( ~ ( | _ _ 0.) ) ) ~ ~ ~ ~ ~ ~ ~ ~ ~ U.5.^ OX1X) L / b b / / 5.:.;.;.L 1X8.n ! J.J.L -.-.-.;.-.K q.-.a.S +X,X;.D.J.J.p.G.D.J J D.K J -.-.H H.H.+X4X#X5X:XO.+X| | :X+X&X%X5X| A | H a.D '.tX[ c.7X@Xp.a.a.B.l.l.l.l.z.z.s.].].z.z.z.l.z.z.a.l.a.m.0Xx.x.b..Xx.v.v.b.v.v.n.b.b.C.B.b.b.v.v.c.#X*Xj.M.mX0 r q q q q q C C e t C j.k.N 6 6 6 6 4 l N & A 6 6 6 6 6 5 ..,X+.+.+.,XO.6 6 9 0 0 0 0 0 9 & l M & 6 6 7 %.3.< o 6 N A l o < 3.%.7 6 6 ",
"E ` { E E E E E E E E E ..#X' E E E E E E { ` E E E E ] ` 4.4.E ~ } ~ ~ ~ } ~ ~ ( ( ~ ( | _ _ 0.) ) ) ~ ~ ~ ~ ~ ~ ~ ~ ^ U.^ ^ b X.%X^ L n b / / 5.:.;.;.L +.%Xn / W.G.;.-.-.-.;.-.J 7.7.p.[ 1X[ ;.D.J.J.p.G.D.J J D.K J -.-.G G.U.&X5X5X5X&XH G A ] 4X+X&X&X5XO.@X%X[ [ D *X2X@X@X%X@Xp.@XO.%Xc.a.l.l.z.z.s.].].z.z.z.l.z.z.a.l.p.C.9Xl.x.v.}.]. .b.b.v.v.n.b.b.C.B.b.b.v.v.v.v.:XO.c.mXq q q q q q q C C e t C j.k.N 6 6 6 6 4 l N & A 6 6 6 6 6 5 ..,X+.+.+.,XO.6 6 9 0 0 0 0 0 9 & l M & 6 6 4 3.3.o 6 G G i.a.l o 3.3.4 6 & ",
"E ` { E E E E E E E E W ..#X' E E E E E E { ` E E E E ] ` 1.~ ~ ~ } ~ ~ ~ } ~ ~ ( ( ~ ( | _ _ 0.) ) ) ~ ~ ~ ~ ~ ~ ~ Q :.:.~ ^ ^ / 1X9.^ o.b / / 5.:.;.;.b / 4X_ G.W.L -.-.-.-.;.-.-.-.q.G.@X2XS -.D.J.J.p.G.D.J J D.K J -.K @X2X1X7X5X5X4X%X[ H H H +X%X%X:X5X&X7X%X+.&Xc.2X&X#X#X#X#X#X=X@X=Xn.d.l.l.s.s.s.].].z.z.z.l.z.z.a.l.d.0XM.c.x.b.].}. .v.b.v.v.n.b.b.C.B.b.b.v.v.v.c.@.4Xv.mXZ q q q q q q C C e C C j.k.N 6 6 6 6 4 l N & A 6 6 6 6 6 5 ..,X+.+.+.,XO.6 6 9 0 0 0 0 0 9 & l M & 6 6 j 3.%.o M A G G i.G X %.3.u 6 6 ",
"E ` { E E E E E E E E E #.#X' E E E E E E { ` E E E E ` ) 1.~ ~ ~ } ~ ~ ~ } ~ ~ ( ( ~ ( | _ _ 0.) ) ) ~ ~ ~ ~ ~ ~ ~ ~ U.5.^ ^ ^ b ,X,XOX4Xb / / 5.:.;.;.b n <X+XT.J.L -.-.-.-.;.-.-.K q.5.&X| J -.D.J.J.p.G.D.J K D.K J -.5.5X7X7X4X5X7X:X%XH H H A +.&X@X5X5X5X5X4X&X7XrXyX5X5X#X@X#X4X4X=X6X@Xa.l.l.z.z.s.].].z.z.z.l.z.z.l.a.x.0Xm.x.x.x.m..Xx.v.b.v.v.n.b.b.C.B.b.b.v.v.v.v.c.#X:XtXy.7 w w w w w V m q r t j.k.N 6 6 6 6 4 l N & A 6 6 6 6 6 5 ..,X+.+.+.,XO.6 6 9 0 0 0 0 0 9 & l M & 6 6 j 3.%.o M B A N G A o %.3.j 6 6 ",
"E ` { E E E E W W W W c ..@X' E E E E E E { ` E E E E ` 0.4.E ~ ~ } ~ ~ ~ } ~ ~ ( } ~ ( | _ _ 0.) ) ) ~ ~ ~ ~ ~ ~ ~ 5.U.^ ^ ^ ^ / _ 1X+X%X^ b / ;.7.<X;.b L 5.:XW.G.-.-.-.-.-.-.-.-.K :.3X%XJ K -.D.J.J.p.G.D.J J D.K J D.6.5X4X2X&XO.4X@.{ H H H A @X%XS @X4X4X@.&X7X5X6X5X4X5X*X@.*X4X4X7X2X4X@Xd.a.*XB.s.].'.B.s.z.l.z.z.l.p.B.9Xx.b.x.x.n.}./.v.b.v.v.n.b.b.C.B.b.b.v.v.v.v.v.c.@.6X%Xo.#.Q Q Q E  . .Q  . .O.k.M 6 6 6 6 4 l N & A 6 6 6 6 6 5 ..,X+.+.+.,XO.6 6 9 0 0 0 0 0 9 & l M & 6 6 6 3.3.o 6 B A u N l o 3.3.6 6 6 ",
"E ` { E E E Q OXOXOXOXo.%X@X' E E E E E E { ` E E E E ] w.~ ~ ~ ~ } ~ ~ ~ } ~ ~ ( ( ~ ( | _ _ 0.) ) ) ~ ~ ~ ~ ~ ~ Q :.:.~ ^ ^ ^ ^ ^ <XL o.OXb / ;.0.&X9.L / L +XeX;.-.-.-.-.-.;.-.-.-.;.1XO.J K ;.D.J.J.J G.D.J O.Q.J K D.6.:X,X[ 2XS o.| A H H H A +.@XS | &X+XS +X7X6XtX:X@X=X=XO.#X5X4X5X<X5X#Xd.a.1XB.f.].6X@Xs.z.l.z.z.l.p.9XB.x.x.x.x.n.].}. .b.v.v.n.b.b.C.B.b.b.v.v.v.v.v.v.' M.9X;X%X%X%X&X&X&X&X&X&X&X=X .M 6 6 6 6 4 l N & A 6 6 6 6 6 5 ..,X+.+.+.,XO.6 6 9 0 0 0 0 0 9 & l M & 6 6 7 %.3., o 6 M z # o , 3.%.7 6 6 ",
"{ { | { { ] @X+X@.+.+.+.+.| { { { { { { { | { { { { { 4.w.{ } } | | } } } | } } | | } | 6.| O.0.4.} } } } } } } } } U.5.6.5.5.5.6.5.,X8.6.,X;.5.5.<X8.,X;.5.5.).6X5.D.Q.G.6.2XD.Q.Q.G.9.1X:.D.D.D.G.J.J.G.G.G.Q.2XQ.D.Q.<X9.1X,XQ.2XH.[ l.l.l.l.l.p.+.+.p.a.+.#Xu.#X:XtX X%XF.1X5X`.<X1X2X5XeX4X1X1X!.1XeXJ.'.7X4X(.^.^.^.^.^.(.0X(.(.m.m.m.(.(.CXn.M.n.n.M.M.M.C.B.M.M.n.n.n.n.n.n.n.[.bXm V V V C C Z Z Z Z Z k.k.N 6 6 6 6 4 l N & A 6 6 6 6 6 5 ..,X+.+.+.,XO.6 6 9 0 0 0 0 0 9 & l M & 6 6 6 6 3.dX< o X X o < dX3.6 6 6 6 ",
"E ` { E E W OX..c W W W W ] ` E E E E E E { ` E E E E 4.4.~ ~ ~ ~ } ~ ~ ~ } ~ ~ ( } ~ ( | _ _ 0.) ) ) ~ ~ ~ ~ ~ ~ 5.U.^ ^ ^ ^ ^ ^ / 6.,X/ 2X^ ;.4.<X;.2X/ b 5.W.<X<X;.5.;.8.4X5.;.-.;.&X0.q.J -.-.D.J.J.p.G.D.[ &XQ.J } 4X<X@X,Xp.,XU.H H H H H H H [ [ H G | O.S @XOXtXM.@Xp.=X7Xn.@X@Xl.&X!.1X4X4XO.1X+.f.'.7X4X<X@Xl.s.x.p.B.0Xc.m.x.x.x.m.v.}.(.v.v.v.n.b.b.C.B.b.b.v.v.v.v.v.v.v.b.bXq q q q q q C C t C C j.k.N 6 6 6 6 4 l N & A 6 6 6 6 6 5 ..,X+.+.+.,XO.6 6 9 0 0 0 0 0 9 & l M & 6 6 6 6 j 3.%.7 & & 7 %.3.j 6 6 6 6 ",
"E ` { E E W +X..E E E E E { ` E E E E E E { ` E E E E w.) ~ ~ ~ ~ } ~ ~ ~ } ~ ~ ( ( ~ ( | _ _ 0.) ) ) ~ ~ ~ ~ ~ Q :.:.~ ^ ^ ^ ^ ^ ^ 5.,X/ X.2X,X2X0.;.,X<Xn ~.W.[ 4X6.;.;.8.1X6.;.;.,X2X-.q.J J -.D.J.J.p.G.G.[ 4X8.2X%X4X2X} 6.D.H U.G.F H H H H H H H H H H H G OXB. Xd.l.d.%X4Xd.+.+.l.=Xx.1X4X@X+.=X<Xn.<X5X5X4X1X=X@.<Xa.0XuXn.m.b.x.x.m.v.].}.v.v.v.n.b.b.C.B.b.b.v.v.v.v.v.v.v.v.bXC q q q q q C C e t C j.k.N 6 6 6 6 4 l N & A 6 6 6 6 6 5 ..,X+.+.+.,XO.6 6 9 0 0 0 0 0 9 & l M & 6 6 6 6 4 u 6 6 6 6 6 6 j 6 6 6 6 6 ",
"c ' ' W W c +X_ E E E E E { ` E E E E E E { ` E E ` 4.0.] ~ ~ ~ ~ } ~ ~ ~ } ~ ~ ( ( ~ ( | _ _ 0.) ) ) ~ ~ ~ ~ ~ ~ U.^ ^ ^ ^ ^ ^ ^ ^ [ 9.O.P ^ OX4.:.;.;.<X/ W.J.J 9.1X;.;.9.2X8.;.6.4X5.D.q.7.J -.D.J.J.| G.6.%X1X4X7X1X1X1XJ D.D.H H.H.F H H H H H H H H H H H H v }.}.H l.d.n.*Xd.c.l.c.*Xz.@.=X@.4X2X4X&XrXrX7X2X1X=X7X4X*X0X4Xn.x.x.x.x.m.x.m..Xb.v.v.n.b.b.C.B.b.b.v.v.v.v.v.v.v.] bXy.0 q q q q C C e t C j.k.N 6 6 6 6 4 l N & A 6 6 6 6 6 5 ..,X+.+.+.,XO.6 6 9 0 0 0 0 0 0 & l M & 6 6 6 6 6 6 6 6 6 6 6 6 6 6 6 6 6 6 ",
"o.OXOXOXOXOX%XQ E E E E E { ` E E E E E E { ` E E E 1.4.] ~ ~ ~ ~ } ~ ~ ~ } ~ ~ ( ( ~ ( | _ _ 0.) ) ) ~ ~ ~ ~ ~ 5.H.~ ^ ^ ^ ^ ^ ^ ^ 5.6.,Xb b b ;.:.;.;.+.,XE.;.-.;.2X<X=.9.<X8.;.4X9.;.5.7.q.J -.D.J.J.%XG.9.5X+X5X5X1X2X2XJ D.D.J J U.H H H H H H H H H H H H H H mX/.a.l.a.c.O.a.a.d.c.*Xz.l.=Xc.=X1X4X>XwXrX7X2X1X#X5X5X5X:X=X6X2XB.x.x.m.n.B.CXm.v.v.n.b.b.C.B.b.b.v.v.v.v.v.v.v.] nXN.0 r q q q C C e t C j.k.N 6 6 6 6 4 l N & A 6 6 6 6 6 5 ..,X+.+.+.,XO.6 6 6 9 9 9 9 9 9 & l M & 6 6 6 6 6 6 6 6 6 6 6 6 6 6 6 6 6 6 ",
"o.o.+.o.o.o.X.E E E E E E { ` E E E E E E { ` E E ~ w.) ( ~ ~ ~ ~ } ~ ~ ~ } ~ ~ ( ( ~ ( | _ _ 0.) ) ) ~ ~ ~ ~ Q :.5.^ ^ ^ ^ ^ ^ ^ ^ 5.^ ,X} b / 5.:.;.;./ <X{.o.-.-.-.1X<X,X,X9.2X<X;.-.-.;.q.-.J -.J.).&XG.2X&X@X7X2X&X<X8.J D.D.J H U.G.F H H H H H H H H H H D m.mXl.l.l.l.a.d.l.l.a.l.O.z.l.*Xd.#X2X<X7X'.rX7X2X@X@X5X5X5X5Xn.=X7X=XB.x.m.n.%X}.]. .v.n.b.b.C.B.b.b.v.v.v.v.v.v.v.] V.V.0 r q q q C C e t C j.k.N 6 6 6 6 4 l N & A 6 6 6 6 6 5 ..,X+.+.+.,XO.6 5 Q ;X#.o.o.;X#.& l M & 6 6 6 6 6 6 6 6 6 6 6 6 6 6 6 6 6 6 ",
"W ' ' W W W W E E E E E E { ` E E E E E E { ` E E 4.4.] ) ~ ~ ~ ~ } ~ ~ ~ } ~ ~ ( ( ~ ( | _ _ 0.) ) ) ~ ~ ~ ~ ~ U.^ ^ ^ ^ ^ ^ ^ ^ ^ 5./ 9.9.b / 5.:.;.;.L 9.2X1X5.;.;.-.2X4X1X5X,X;.-.-.5.O.q.7.J D.!.`.:X!.<X@X} 8.J &X,Xu.K D.D.J K G.U.F H H H H H H H H H H n }.].l.l.l.l.l.l.l.l.l.a.d.z.l.n.d.@.B.n.:X].eX7X#Xf.@X2X2X7X*Xz.B.4X4XB.z.m.n.%X].}. .v.n.b.b.C.B.b.b.v.v.v.v.v.v.v. .V.nX0 r q q q C C e t C j.k.N 6 6 6 6 4 l N & A 6 6 6 6 6 5 ..,X+.+.+.,XO.6 5 W Q Q Q Q Q Q 6 l N & 6 6 6 6 6 6 6 6 6 6 6 6 6 6 6 6 6 6 ",
"E ` { E E E E E E E E E E { ` E E E E E E { ` E E 1.4.] ) ~ ~ ~ ~ } ~ ~ ~ } ~ ~ ( ( ~ ( | _ _ 0.) ) ) ~ ~ ~ Q 5.U.~ ^ ^ ^ ^ ^ ^ ^ ^ 5.^ } ,Xb / 5.:.;.b ;..X2X,X8.;.-.;.;.<X9.<X5.;.-.;.6.:X7.q.J G.<XeX4X5X,XJ J D.S %X,Xp.J D.D.J J J U.J H H H H H H H H H H H mXz.z.l.l.l.l.l.l.l.l.l.l.z.l.a.l.a.s.B.%XT.].&X#Xf.+.@XeX>XB.z.n.@X5X*Xx.m.@X=X@X.Xv.v.n.b.b.C.B.b.b.v.v.v.v.v.v.v.v.N.bXq q q q q C C e t C j.k.N 6 6 6 6 4 l N & A 6 6 6 6 6 5 ..,X+.+.+.,XO.6 6 6 9 9 9 9 9 9 6 6 B z 6 6 6 6 6 6 6 6 6 6 6 6 6 6 6 6 6 6 ",
"E ` { E E E E E E E E E E { ` E E E E E E { ` E ~ w.~ ( ( ~ ~ ~ ~ } ~ ~ ~ } ~ ~ ( ( ~ ( | _ _ 0.) ) ) ~ ~ ~ E U.5.^ ^ ^ ^ ^ ^ ^ ^ ^ 5.^ / ,X4.b 5.:.;.b J.W.;.8.<X;.-.-.5.<XG.,X8.;.-.;.6.4X5.q.-.G.<X<X4X<XD.J K Q.J %X,Xp.J D.D.J J H H.G.F H H H H H H H H D /.mXK z.l.l.l.l.l.l.l.l.l.l.z.l.l.l.l.s.B.%X].].@X#Xf.@.,XC.uX@.x.x.m.*X5X#XeX=X4X=X.X/.v.n.b.b.C.B.b.b.v.v.v.v.v.v.v.v.j.bXC q q q q C C e t C j.k.N 6 6 6 6 4 l N & A 6 6 6 6 6 5 ..,X+.+.+.,XO.6 6 9 0 0 0 0 0 0 6 6 6 N B B B B B B B B B B B B B B B B B B ",
"E ` { E E E E E E E E E E { ` E E E E E E { ` E 4.4.E ) ( ~ ~ ~ ~ } ~ ~ ~ } ~ ~ ( ( ~ ( | _ _ 0.) ) ) ~ ~ ~ ^ U.^ ^ ^ ^ ^ ^ ^ ^ ^ ^ 5.^ / 8.9.b 5.:.;.b W.H.5.;.<X5.;.<X2X9.;.9.8.;.5.;.6.5X[ :.7.G.2X<X1X6.G.K J D.S +X,Xp.J D.D.J J K G.U.F H H H H H H H H n }.].d.z.l.l.l.l.l.l.l.l.l.l.z.l.l.l.l.s.n.#X].].@X#Xf.n.n.0X#XB.z.n.m.n.5X=X1X4X5X=X[.'.v.m.b.x.C.B.b.b.v.v.v.v.v.v.v.v.' bXy.q q q q C C e t C j.k.N 6 6 6 6 4 l N & A 6 6 6 6 6 5 ..,X+.+.+.,XO.6 6 9 0 0 0 0 0 0 6 6 6 6 6 6 6 6 6 6 6 6 6 6 6 6 6 6 6 6 u u ",
"E ` { E E E E E E E E E E { ` E E E E E E { ` ` w.4.~ ( ( ~ ~ ~ ~ } ~ ~ ~ } ~ ~ ( ( ~ ( | _ _ 0.) ) ) ~ ~ Q 5.:.~ ^ ^ ^ ^ ^ ^ ^ ^ ^ 5.^ ^ } <X/ 5.:.b -.W.-.5.;.,X8.2X4X1X8.;.8.9.;.2X2X<X1X+.9.q.G.2X4X8.D.D.J J D.S +X,Xp.J D.D.J J J J U.J H H H H H H H F H mXz.l.z.l.l.l.l.l.l.l.l.l.l.z.l.l.l.l.s.n.#X].].@X@Xs.p.M.9Xn.n.x.x.m.B.5X5X5X4X7X2XB.6XB.B.B.B.C.B.b.b.v.v.v.v.v.v.v.v.' nXf.0 q q q C C e t C j.k.N 6 6 6 6 4 l N & A 6 6 6 6 6 5 ..,X+.+.+.,XO.6 6 6 9 9 9 9 9 9 6 l a.p.p.p.p.p.p.p.p.p.p.p.p.p.p.p.p.p.B B ",
"E ` { E E E E E E E E E E { ` E E E E E E { ` ~ w.~ ~ ( ( ~ ~ ~ ~ } ~ ~ ~ } ~ ~ ( ( ~ ( | _ _ 0.) ) ) ~ ~ ~ U.5.^ ^ ^ ^ ^ ^ ^ ^ ^ ^ 5.^ ^ / ,X4.;.:.b J.W.;.Q.;.9.4X9.9.4X6.;.6.<X-.4X5X1X2X2X&Xq.5.<X1X6.G.D.J J D.S @X9.p.J D.D.J J J H H.H.F H H H H H H D /.mXH z.z.l.l.l.l.l.l.l.l.l.l.z.l.l.l.l.s.z.x.].].@X@Xs.p.9XC.l.x.x.x.m.n.4X4X8X*X7X1X*XtXeX#X8X*X9X*Xn.b.v.v.v.v.v.v.v.v.' V.V.0 r q q C C e t C j.k.N 6 6 6 6 4 l N & A 6 6 6 6 6 5 _ ,X+.+.+.,XO.6 5 Q #.#.#.#.#.T 6 l s.s.^.s.a.s.a.F.^.a.a.s.F.a.s.s.s.a.6 6 ",
"E ` { E E E E E E E E E E { ` E E E E E E { E 4.4.E ~ ( ( ~ ~ ~ ~ } ~ ~ ~ } ~ ~ ( ( ~ ( | _ _ 0.) ) ) ~ ~ ^ U.^ ^ ^ ^ ^ ^ ^ ^ ^ ^ ^ 5.^ ^ / 8.9.;.:.b W.H.;.5.;.5.8.;.5.4X5.-.;.,X,X<X<X1X2X2X#Xq.q.eXwX| G.D.J J D.S @X9.p.J D.D.J J J J -.U.F H H H H H H n nX].d.l.z.l.l.l.l.l.l.l.l.l.l.z.l.l.l.l.z.s.s.].].@.@Xs.l.0XM.x.x.x.x.m.n.*XB.z.*X5X5X7X|.eX=X*X=X8X6XB.b.v.v.v.v.v.v.v.v.' V.V.0 r q q C C e t C j.k.N 6 6 6 6 4 l N & A 6 6 6 6 6 5 ..,X,X,X,X,XO.6 5 T +X;X;X;X+Xo.6 l s.a..X/.{./.^.{.{.^.{././.].F.a.s.a.6 6 ",
"E ` { E E E E E E E E E E { ` E E E E E E { ` 1.) ~ ~ ( ( ~ ~ ~ ~ } ~ ~ ~ } ~ ~ ( } ~ ( | _ _ 0.) ) ) ~ Q :.:.~ ^ ^ ^ ^ ^ ^ ^ ^ ^ ^ 5.^ ^ ^ 5.,X5.:.G.W.;.-.5.-.;.;.-.5.1X5.5.;.8.1X8.-.,X,X1X,X<X3XeX).[ G.D.J J D.J O.8.p.J D.D.J J J J K U.J H H H H H F d.mXl.l.l.z.l.l.l.l.l.l.l.l.l.l.z.l.l.l.l.z.z.s.].].@.@Xu.M.0Xx.b.x.x.x.m.x.x.x.m.B.=X5X%X/.tX&X5X4X8X6XB.b.v.v.v.v.v.v.v.v. .N.nX0 r q q C C t C C j.k.N 6 6 6 6 4 l N & A 6 6 6 6 6 5 _ +.@.@.@.+...6 5 Q ;X#.o.o.;XY 6 l s.^.XX.X{.{.{.XX{.{.{.{.{.{./.a.s.p.6 6 ",
"{ { | { { { { { { { { { { | { { { { { { { { } w.} } } } } } } } } | } } } | } } } } } } | | | 0.4.} } } } U.5.} 5.5.5.5.5.5.5.5.5.5.6.5.5.6.5.,X8.:.W.W.5.D.Q.-.5.5.-.5.9.Q.Q.-.8.4X6.-.G.8.2X6.:X1XH.J.G.G.G.D.D.Q.D.D.D.D.D.Q.Q.D.D.D.D.K H.H.[ K K K a.H [.mXl.z.z.^.z.z.z.z.z.z.z.z.z.z.^.z.z.z.z.^.^.^.}.].!.(.F.9XC./.m.m.m.m.(.m.m.m.(.m.#X5XB.^.eX=X=X4X1X5XB.n.n.n.b.b.b.b.b.b.b.m.bXC Z C C Z Z Z Z Z k.k.N 6 6 6 6 4 l N & A 6 6 6 6 6 5 W .._ _ _ ..E 6 5 U Y T T T Y U 6 l s./.^.]././.{.{./.{.^.{./.]./.a.F.B 6 6 ",
"E ` { E E E E E E E E E E { ` E E E E E E ` 4.4.E ~ ~ ( ( ~ ~ ~ ~ } ~ ~ ~ } ~ ~ ( ( ~ ( | _ _ 0.) ) ~ ( 5.U.^ ^ ^ ^ ^ ^ ^ ^ ^ ^ ^ ^ 5.^ ^ ^ ^ 8.9.:.W.H.;.-.5.;.-.-.-.-.;.-.5.;.8.4X5.;.-.6.2X:.9.3XU.J.-.G.D.J J D.J J -.K J D.D.J J J J J -.U.F H H H H n mX].d.l.l.z.a.l.l.l.l.l.l.l.l.a.z.l.l.l.l.z.z.s.].].z.z.z.0XM.m.x.x.x.x.m.x.x.x.m.x.B.6XB.z.'.6X*X=X5X5XB.B.%Xc.v.v.v.v.v.v.v.c.bXt q q q C C e t t j.k.N 6 6 6 6 4 l N & A 6 6 6 6 6 5 E ..........Q 6 5 U Y Y Y Y Y T 6 l s.a.s.a.a.a.a.p.^./.a.a.a.a.a.s.G 6 6 6 ",
"E ` { E E E E E E E E E E { ` E E E E E E { w.~ ~ ~ ~ ( ( ~ ~ ~ ~ } ~ ~ ~ } ~ ~ ( ( ~ ( | _ _ 0.) ) ~ ( :.:.~ ^ ^ ^ ^ ^ ^ ^ ^ ^ ^ ^ 5.^ ^ ^ 5.4.,XU.W.;.-.-.5.-.-.-.-.-.-.-.5.;.8.1X;.-.-.5.6.-.;.5.q.J.p.G.D.J J D.K J -.K J D.D.J J J J J H U.-.F H H F a.mXa.l.l.l.z.l.l.l.l.l.l.l.l.l.l.z.l.l.l.l.z.z.s.].].z.s.M.0Xx.m.x.x.x.x.m.x.x.x.m.x.z.*XB.z.(.2X#X#X5X:X#X*X=X@.v.v.v.v.v.v.v.' bXy.q q q C C e t C j.k.N 6 6 6 6 4 l N & A 6 6 6 6 6 5 E ..........Q 6 5 U Y T Y Y Y T & l N 6 j j j j j j u 6 j j j j 5 5 + % 5 3 ",
"E ` { E E E E E E E E E E { ` E E E E E ` 4.w.E ~ ~ ~ ( ( ~ ~ ~ ~ } ~ ~ ~ } ~ ~ ( ( ~ ( | _ _ 0.) ) ) ~ U.5.^ ^ ^ ^ ^ ^ ^ ^ ^ ^ ^ ^ 5.^ ^ ^ 5.5.,X.XJ.;.-.-.5.-.-.-.-.-.-.-.-.;.5.6.;.-.5.-.;.-.-.D.q.H.p.G.D.J J D.K J -.K J D.D.J J J J J H H.H.F H H n ].}.H l.l.l.z.l.l.l.l.l.l.l.l.l.l.z.l.l.l.l.z.z.s.].].z.s.9XC.z.m.x.x.x.x.m.x.x.x.m.x.z.*XB.z.m.<X#XB.*X=X5X:X%X%XO.c.v.v.v.v.v.' nXy.0 r q C C e t C j.k.N 6 6 6 6 4 l N & A 6 6 6 6 6 5 E ..........Q 6 5 U Y Y Y Y Y T & l M & 6 6 6 6 & & 6 6 6 6 6 % @.rX*X*X*X*X",
"E ` { E E E E E E E E E E { ` E E E E E E 4.4.E ~ ~ ~ ( ( ~ ~ ~ ~ } ~ ~ ~ } ~ ~ ( ( ~ ( | _ _ 0.) ) ( 5.U.~ ^ ^ ^ ^ ^ ^ ^ ^ ^ ^ ^ ^ 5.^ ^ ^ 5.5.8..XG.-.-.-.5.-.-.-.-.-.-.-.-.-.-.;.-.-.5.-.-.-.;.G.7.q.p.G.D.J J D.K J -.K J D.D.J J J J J J -.U.H H H D mX/.d.l.l.l.z.l.l.l.l.l.l.l.l.l.l.z.l.l.l.l.z.z.s.].].z.z.0XM.x.m.x.x.x.x.m.x.x.x.m.x.z.*XB.x.b.}.M.x.*X#X#X4X*X:XO.v.v.v.v.v.v.' nXV.0 r q C C e t C j.k.N 6 6 6 6 4 l N & A 6 6 6 6 6 5 E ..........Q 6 5 U Y Y Y Y Y T & l M & 6 6 6 6 j u 6 6 6 6 6 3 rXrX*X*X*X*X",
"E ` { E E E E E E E E E E { ` E E E E E E w.~ ~ ~ ~ ~ ( ( ~ ~ ~ ~ } ~ ~ ~ } ~ ~ ( ( ~ ( | _ _ 0.) ) ( :.:.~ ^ ^ ^ ^ ^ ^ ^ ^ ^ ^ ^ ^ 5.^ ^ ^ 5.^ Q..X5.;.-.-.5.-.-.-.-.-.-.-.-.;.-.-.-.-.5.-.-.-.;.-.H.q.D.G.D.J J D.K J -.K J D.D.J J J J J J H U.-.F F a.mXa.l.l.l.l.z.l.l.l.l.l.l.l.l.l.l.z.l.l.l.l.z.z.s.].].s.M.0Xc.m.m.x.x.x.x.m.x.x.x.m.x.x.8XB.x.b.}.].c.*X8XB.:X=X7X@X#XO.c.v.v.v.' V.V.0 r q C C e t C j.k.N 6 6 6 6 4 l N & A 6 6 6 6 6 5 E ..........Q 6 5 U Y Y Y Y Y T & l M & u s.A s.A ^.j 6 6 6 6 3 *X*X@X*XrXrX",
"E ` { E E E E E E E E E E { ` E E E E ` ) w.~ ~ ~ ~ ~ ( ( ~ ~ ~ ~ } ~ ~ ~ } ~ ~ ( ( ~ ( | _ _ 0.) ) ~ U.5.^ ^ ^ ^ ^ ^ ^ ^ ^ ^ ^ ^ ^ 5.^ ^ ^ 5.) W.XX6.:.-.-.5.-.-.-.-.-.-.-.-.;.-.-.-.-.5.-.-.-.-.-.H.oX:.G.D.J J D.K J -.K J D.D.J J J J J J H H.H.F n ].}.H l.l.l.l.z.l.l.l.l.l.l.l.l.l.l.z.l.l.l.l.z.z.s.].].s.9XC.z.m.m.x.x.x.x.m.x.x.x.m.x.x.x.m.x.b.}.}.c.*X8XB.=X=X=X%X%X:XO.c.v.v.] V.V.0 r q C C e t C j.k.N 6 6 6 6 4 l N & A 6 6 6 6 6 5 E ..........Q 6 5 U Y T Y Y Y T & l M & j ^.A ^.j i.6 6 6 6 6 3 *X*X#X*XrXyX",
"E ` { E E E E E E E E E E { ` E E E E E 4.4.~ ~ ~ ~ ~ ( ( ~ ~ ~ ~ } ~ ~ ~ } ~ ~ ( ( ~ ( | _ _ 0.) ( 5.U.~ ^ ^ ^ ^ ^ ^ ^ ^ ^ ^ ^ ^ ^ 5.^ ^ ^ 5.5.W.oX`.;.-.-.5.-.-.-.-.-.-.-.-.;.-.-.-.-.5.-.-.-.-.-.H.U.q.G.D.J J D.K J -.K J D.K J J J J J J J -.U.H D mXm.a.l.l.l.l.z.a.a.l.l.l.l.l.l.l.l.z.l.l.l.l.z.z.s.].].z.0XM.x.x.m.x.x.x.x.m.x.x.x.m.x.x.x.m.x.x.(.CXx.8XB.B.=X@.c.@X5X7X=X@.c.v. .N.nX0 r q C C e t C j.k.N 6 6 6 6 4 l N & A 6 6 6 6 6 5 E ..........Q 6 5 U Y T Y Y Y T & l M & j A l B 6 G 6 6 6 6 6 3 *X*X@X#X#X@X",
"E ` { E E E E E E E E E E { ` ` ` E E E w.} ~ ~ ~ ~ ~ ( ( ~ ~ ~ ~ ( ~ ( ~ } ~ ~ ( ( ~ ( | _ _ 0.) ( :.5.^ ^ ^ ^ ^ ^ ^ ^ ^ ^ ^ ^ ^ ^ 5.^ ^ ^ ^ ~.W.7.'.5.;.-.5.-.-.-.-.-.-.-.-.;.-.-.-.;.Q.-.-.-.;.-.H.H.q.G.D.J J D.K J -.K J D.D.J K J J J J J H U.;.l.mXd.l.l.l.l.l.^.z.z.l.l.l.l.l.l.l.l.z.l.l.l.l.z.z.s.].].M.0Xx.x.x.m.x.x.x.x.m.x.x.x.m.x.x.x.m.x.m.m..X(.C.M.B.=Xc.c.O.5X5X5X*Xc.v.v.j.nXq q q C C e t C j.k.N 6 6 6 6 4 l N & A 6 6 6 6 6 5 E ..........Q 6 5 U Y Y Y Y Y T & l M & 6 6 6 6 6 6 6 6 6 6 6 % rXyXyXyXyXyX",
"E ` { E E E E E E E E E E ] | | n.{ W 4.1.{ ~ ~ ~ ~ ~ ( ( ~ ~ ~ ~ | 6.} 6.} ~ ~ ( ( ~ ( | _ _ 0.) ) U.5.^ 6.6.6.6.^ ^ ^ ^ ^ ^ ^ ^ ^ 5.^ ^ ^ ) W.).~.`.`.;.-.5.-.-.-.-.-.-.-.-.;.-.-.-.-.~.Q.~.-.-.-.H.J.q.5.p.J J D.K J -.K J Q.Q.Q.Q.J J J J J H H.:.[.}.K l.l.l.l.l.(.^./.^.d.l.l.l.l.l.l.z.l.l.l.l.z.z.s.].].tX Xz.x.x.m.x.x.x.x.m.x.x.x.m.x.x.m.(.(.[.M.}.].C.M.B.#Xv.v.n.5X5X5X*Xc.v.v.Z bXC q q C C e t C j.k.N 6 6 6 6 4 l N & A 6 6 6 6 6 5 E ..........Q 6 5 U Y Y Y Y Y T & l M & 6 6 6 6 6 6 6 6 6 6 6 5 k c c c c c ",
"E ` { E E E E E E E E E E ] n.` | { W 0.4.{ ~ ~ ~ ~ ~ ( ( ~ ~ ~ ~ 6.| ~ 6.} ~ ~ ( } ~ ( | _ _ 0.) 5.U.~ ^ !.^ 6.6.^ ^ ^ ^ ^ ^ ^ ^ ^ 5.^ ^ ^ 5.W._.~._.eX;.-.5.-.-.-.-.-.-.-.-.;.-.-.;.5.~.-.~.-.;.-.H.J.:.q.p.J J D.K J -.-.J Q.D.Q.).K J J J J J J U.mXz.a.l.l.l.a.z.(.d./.z.l.l.l.l.l.l.l.z.l.l.l.l.z.z.s.}.].0X|.x.x.x.m.x.x.x.x.m.x.x.x.m.x.x.(.(.m.|.(.].}.C.B.b.b.v.v.v.4X5X@X#Xv.v.v.Z nXy.q q C C e t C j.k.N 6 6 6 6 4 l N & A 6 6 6 6 6 5 E ..........Q 6 5 U Y Y Y Y Y T & l M 6 j j j j j j j j j j j j u 6 6 6 6 6 ",
"E ` { E E E E E E E E E E ] { | ] ` ~ w.~ } ~ ~ ~ ~ ~ ( ( ~ ~ ~ ~ } | | 6.} ~ ~ ( ( ~ ( | _ _ 0.) U.5.^ ^ 6.6.6.5.^ ^ ^ ^ ^ ^ ^ ^ ^ 5.^ ^ ~ ~.W.5.oX5.eX5.;.5.-.-.-.-.-.-.-.-.-.-.-.-.;.~.Q.Q.-.;.-.H.H.-.q.-.J J D.K J -.K J D.Q.D.Q.J J J J J J D J.mXH l.l.l.l.l.a./.^.z.l.l.l.l.l.l.l.a.z.l.l.l.l.z.z.s.]. X0X(.m.x.x.m.x.x.x.x.m.x.x.x.m.x.x.x.(.m.(.m.m.CX XB.b.b.v.v.c.#X=Xl.#X:Xv.v.Z nXy.0 q C C e t C j.k.N 6 6 6 6 4 l N & A 6 6 6 6 6 5 E ..........Q 6 5 U Y Y Y Y Y T & l M 6 l j j j l l 9 9 9 j l l l l l l l l ",
"` ` { E ` ` E ` ` E ` ` E { ` E E E 4.4.E } ~ ~ ~ ~ ~ } ( ~ ~ ~ ~ } ~ ~ ~ } ~ ~ ( } ~ ( | _ _ 0.4.U.5.^ ^ ^ ^ ^ ^ ^ ^ ^ ^ ^ ^ ^ ^ ^ 5.^ ^ ~ W.~.5.~.-.`.`.;.5.-.-.-.-.-.-.-.5.;.-.-.-.-.-.-.-.-.-.-.H.H.D.q.7.J K D.K J D.K J D.K J J J K J J K K L }..XK l.l.l.l.l.l.z.l.l.l.l.l.l.l.l.l.l.z.l.l.l.l.z.z.s.].tXC.x.m.x.x.m.x.x.x.x.m.x.x.x.m.x.x.m.m.x.x.(.m..X XB.b.b.v.v.c.@.#Xc.v.*XO.c.Z nXN.0 q C C e t t j.k.N 6 6 6 6 4 l N & A 6 6 6 6 6 5 E ..........Q 6 5 U Y T Y Y Y T & l M & 6 6 6 6 $ & i f f 6 $ & 6 6 6 6 6 6 ",
"n.E n.n.`.| E !.n.E n.`.E | n.n.!.E 0.8.~ } !.!.`.~ | `.( ( `.} ~ 6.| `.} ~ `.| ~ 6.6.`.| _ `.0.7.oX6.^ 6.6.!.!.^ 6.!.^ 6.!.!.!.^ 6.!.^ 5._.W.5._.oX_.6.eX~.Q.-.~.~.).-.-.).Q.;.~.~.;.~.Q.~.~.;.~.~.H.U.~.~.q.J Q.).J D.).-.D.Q.Q.).K D.).D.K ).Q.).mXW.[.^.l.(./.d././.(./.a.(.(.d././.(./.a.(.(.d./.[.z.^.}.HX|.m.(.|.m.m.[.(.|.x.m.|.m.x.|.(.x.(.(.|.(.m.|..XmXB.'.|.M.v.(.eX#Xc.c.@X@.c.Z V.V.0 r C C t C C j.k.N 6 6 6 6 4 l N & A 6 6 6 6 6 5 E ..........Q 6 5 U Y T Y Y Y T & l M & 6 6 6 $ s E.PXKXPXKXA.6 & 6 6 6 6 6 ",
"n.E n.n.`.| E `.n.E n.`.E | n.n.!.~ w.`.~ } `.`.`.~ | `.( } `.| ~ !.| `.} ~ `.| ~ `.6.`.| _ `.0.U._.!.^ 6.6.!.!.^ 6.!.^ 6.!.!.!.^ 6.!.^ } .XW.5._.oX_.5.'._.D.-.~.~.).5.-.).Q.;.~.~.;.~.Q.~.~.;.~.~.H.U.~.).q.;.Q.).J Q.).-.D.~.Q.).K D.).D.K ).Q.}.mXH.{.x.a.[./.d.(./.[./.d.(.(.d./.(.[./.d.(.(.d./.{.z.F. XHX[.m.(.|.m.m.[.[.|.x.m.|.m.x.|.(.x.(.(.|.(.m.|.{.CX'.'.|.M.v.(.eX8Xb.x.@XB.m.j.V.nXC Z Z Z Z Z Z k.k.N 6 6 6 6 4 l N & A 6 6 6 6 6 5 E ..........Q 6 5 U Y Y Y Y Y T & l M & 6 6 $ f PXzXY.d e.E.PXE.6 6 6 6 6 6 ",
"n.E n.n.`.| E `.n.E n.`.E | n.n.n.4.0.`.~ } `.!.`.~ | `.( } `.| ~ !.| `.} ~ `.| ~ !.6.`.| _ `.0.U.6.!.^ 6.6.!.!.^ 6.!.^ 6.!.!.!.^ 6.!.^ } .X~.5._.oX_.5.8.'.G.-.~.~.).5.-.).Q.;.~.~.;.~.Q.~.~.;.~.~.H.U.~.).oX7.^.).J Q.).D.D.~.Q.).K D.).D.K ).Q.mX].G..Xx.a.[./.d.(./.(./.a.(.(.d./.(.(./.d.(.(.d./.{.z.F.tXtX[.m.(.|.m.m.[.[.|.x.m.|.m.x.|.(.x.(.(.|.(.m.|.[.CX|.M.|.M.v.'.|.b.v.c.@X@.c.Z N.nX0 q C C e t t j.k.N 6 6 6 6 4 l N & A 6 6 6 6 6 5 E ..........Q 6 5 U Y Y Y Y Y T & l M & 6 6 i zXKXp . @ = . A.PXA.$ 6 6 6 u ",
"n.W n.n.`.| E `.n.W n.`.E | n.n.n.1.6.`.~ } `.!.`.~ | `.~ ( `.} ~ !.| `.} ~ `.| ~ !.6.`.| ( `.q.:.6.!.^ 6.6.!.!./ 6.!.^ 6.!.!.!./ 6.!.^ 5.W.5.5._.oX_.5.6.eXQ.;.~.~.).-.-.).Q.;.~.~.L ~.Q.~.~.;.~.~.H.U.~.).~.q.Q.).J D.).K D.~.Q.).K D.).D.K ).~.MX^.Q..X^.d.[./.d.(./.(./.d.(.(.d./.(.[./.d.(.(.d./.{.z.^.HX X|.m.(.|.m.m.[.[.|.x.m.|.m.x.|.(.c.(.(.|.(.x.|.|..X|.B.|.M.v.(.|.b.v.c.@.@Xc.' N.bXq q C C t C C j.k.N 6 6 6 6 4 l N & A 6 6 6 6 6 5 E ..........Q 6 5 U Y Y Y Y Y T & l M & 6 $ S.PXs . M i.p.l . W.KX6 6 6 6 j ",
"n.` !.n.`.| ` `.n.` n.`.` | n.n.`.w.6.`.} | `.!.`.( 6.`.} } `.| } `.| `.} } `.6.( `.6.`.| | `.oX7.6.!.^ 6.6.!.!.^ !.!.^ 6.!.!.!.^ 6._.) )..X6.5._.oX_.Q.Q.eX!.-.~.~.).Q.-.).Q.-.~.~.-.~.Q.~.~.-.~.~.H.U.~.).~.q.~.).K Q.).D.D.~.Q.).D.Q.).D.D.~.{.mXQ.^..XJ.z.[./.l.(./.(./.z.(.(.l./.(.(./.l.(.(.z./.{.F.(.HX|.|.m.(.|.m.m.[.[.|.m.(.|.m.m.|.(.m.[.(.|.(.m.|.|.XXXXB.|.M.v.'.|.b.v.c.@.@Xc.j.j.bXr q C C e t C j.k.N 6 6 6 6 4 l N & A 6 6 6 6 6 5 E ..........Q 6 5 U Y Y Y Y Y T & l M & 6 $ Y.KX+ & G G N l . e.E.s & 6 6 6 ",
"!.n.`.n.`.!.!.`.`.n.`.`.n.`.| n.0.0.`.`.6.`.!.!.`.6.`.`.6.`.`.!.`.`.| `.!.`.`.!.!.`.6.`.8.8.`.U.6.!.!.6._.6.!.!.!.!.!.!.!.!.!.!.!.!.!.6.W.)._._._.oX_._.).'.'.~.).~.).~.~.).~.~.).~.~.).Q.~.~.~.).~.H.U.~.).).q.oX/.Q.).).Q.).Q.Q.).Q.).).Q.).~.mXXX/.[.{.W.(.[.(.(.[.^.(.(.(.[.(.(.[./.(.(.(.[.(./.[.[./.tXHX}.|.[.|.|.(.|.[.(.|.(.|.|.(.[.|.[.[.|.(.|.[.|.|.|. XCXM.|.'.(.|.|.n.v.c.@.@Xc.j.j.bXZ q C C e t C j.k.N 6 6 6 6 4 l N & A 6 6 6 6 6 5 E ..........Q 6 5 U Y T Y Y Y T & l M & 6 $ E.zXX 6 A A N N O d E.s & 6 6 6 ",
"`.n.`.n.`.!.!.`.`.n.`.`.n.`.| n.w.6.`.`.6.`.`.`.`.6.`.`.!.`.`.!.`.`.| `.!.`.`.`.`.`.6.`.`.`.oXq.6._.!.!._.6.!.!.!._.!.!._.!.!.!.!._.`._.W._._._._.oX_._._._.eX~.).~.).~.~.).~.~.).).~.).Q.~.).~.).~.H.U.~.).).~.q.).Q.).).Q.).~.Q.).Q.).).~.).).mX{./.{.{.W.{.[.(.(.[.^.[.(.(.[.(.(.[.(.[.(.(.[.[.(.[.{./.tX X X|.[.|.|.(.|.|.[.|.(.|.|.[.[.|.[.[.|.(.|.[.|.|.|. XCX|.'.'.(.|.|.n.v.c.@.#Xc.j.' bXy.0 C C e t C j.k.N 6 6 6 6 4 l N & A 6 6 6 6 6 5 E ..........Q 6 5 U Y T Y Y Y T & l M & 6 $ A.PXp   N A G z . A.E.i 6 6 6 6 ",
"{ { | ] { { { { { { { { ] | ` } w.{ } } } | } } } } } | } } } } } | ~ } } | } } } | ( | | _ U.q.4.6.6.5.5.^ 5.5.5.5.5.5.5.5.5.5.5.5.} T.W.6.Q.5.5.~.Q.Q.Q.Q.'.!.-.5.Q.-.-.Q.Q.-.Q.5.-.Q.Q.5.5.-.G.Q.H.H.G.G.Q.D.q.~.a.D.Q.D.D.D.D.D.D.D.D.D.K ].mXQ.^.^.^.J.J.z.z.z.^.^.z.z.z.z.z.z.z.z.z.z.^.^.z.z.^.^.(.0X}.[.(.m.m.m.m.(.m.m.m.m.(.m.m.m.(.m.m.m.m.m.m.(.(.(. XCX[.n.n.b.n.n.v.v.c.O.#Xc.j.' nXf.0 C C t C C j.k.N 6 6 6 6 4 l N & A 6 6 6 6 6 5 E ..........Q 6 5 U Y Y Y Y Y T & l M & 6 $ s zXW.X X 6 &   p E.A.& 6 6 6 & ",
"E E ] E E E E E E E E E E ] E 4.4.E ~ ~ ~ } ~ ~ ~ ~ ~ ~ ~ ~ ~ ~ ~ ( ~ ~ ~ } ~ ~ ~ ( ~ ~ _ 5.U.0.4.^ ^ ^ ^ ^ ^ ^ ^ ^ ^ ^ ^ ^ ^ ^ ^ ^ ^ W.Q.5.5.5.5.~.5.5.5.5.`.9.J ;.;.;.;.-.-.;.;.;.;.;.5.;.;.;.;.-.H.H.-.G.-.J 7.q.J J K K J D.K J J J J J n mX].a.s.s.s.F.U.d.a.a.a.z.d.d.a.a.a.a.a.a.a.a.z.a.d.d.l.p.C.C.].[.m.m.x.x.x.m.c.x.x.x.m.x.x.x.m.x.x.x.m.x.x.m.m.m.C.}.}. .v.v.v.v.v.v.c.B.#Xc.j.' V.V.9 C C e t t j.k.N 6 6 6 6 4 l N & A 6 6 6 6 6 5 E ..........Q 6 5 U Y Y Y Y Y T & l M & 6 6 $ A.UXY.O @ @ 6 E.E.i & 6 6 6 6 ",
"E ` { { n.n.` E E E E ` E { { q.6.] ~ ~ ~ } ~ ~ ~ ~ ~ ( | | 6.} ~ } ~ ~ ~ } ~ ~ ( } ~ ( _ 5.5.0.6.6.!.!.5.^ ^ ^ ^ ^ ^ ^ ^ ^ ^ ^ ^ ^ Q.W.!.~.~._.5.~.5.5.5.5.Q.'.Q.Q.Q.-.;.-.-.-.-.-.-.-.5.Q.Q.Q.~.Q.H.H.-.G.-.-.-.q.J J -.K J -.Q.Q.D.K K J a.mX^.F.F.F.F.z.U.F.l.l.l.z.^.^.z.l.l.l.l.l.l.l.z.z./.z.l.s.0Xm.[.[.m.m.m.x.x.(.(.m.x.x.m.x.x.x.m.x.x.x.m.x.x.m.m.m. X[.CXM.n.v.v.v.v.v.c.n.#Xv.j.' V.V.9 C Z d.l.l.k.k.N 6 6 6 6 4 l N & A 6 6 6 6 6 5 E ..........Q 6 5 U Y Y Y Y Y T & l M & 6 6 6 * A.e.$ 6 6 6 S.s $ 6 6 6 6 6 ",
"E ` { { !.n.{ E E E E E E ` } _.!.} ~ ~ ~ } ~ ~ ~ ~ ~ ( | !.!.6.~ } ~ ~ ~ } ~ ~ ( ( ~ ( | U.6.0.!.!._._.6.^ ^ ^ ^ ^ ^ ^ ^ ^ ^ ^ ^ ~ J.J.!.).)._.~.~.5.5.5.5.5.'._.).).Q.;.-.-.;.-.-.-.-.5.Q.).).).~.H.H.-.G.-.-.K q.-.J -.K J -.Q.Q.).D.J L ].mXa.^.F.F.F.l.J.J.l.l.l.z.^.[./.d.l.l.l.l.l.l.z.z./.[.s.M.0Xz.[.[.m.m.m.x.x.(.(.[.(.x.m.x.x.x.m.x.x.x.m.x.x.m.m.m. X|..X(.[.b.v.v.v.v.v.v.#Xv.j.' V.V.9 C C z.l./.M.k.N 6 6 6 6 4 l N & A 6 6 6 6 6 5 E ..........Q 6 5 U Y T Y Y Y T & l M & 6 6 6 6 $ 6 6 6 6 6 & 6 6 6 6 6 6 6 ",
"E ` ] n.n.n.` E E E E E E ` 6.6.!.} ~ ~ ~ } ~ ~ ~ ~ ~ ~ } !.!.} ~ } ~ ~ ~ } ~ ~ ~ ( ~ ( 5.U._ 0.6.!.!.!.5.^ ^ ^ ^ ^ ^ ^ ^ ^ ^ ^ ^ ^ W.~.).~.~._.5.~.5.5.5.5.Q._.'.Q.~.Q.;.-.-.;.-.-.-.-.-.Q.~.~.~.~.H.H.-.G.-.;.J 7.7.G -.K J D.D.D.^.D.J D mX].a.F.s.s.F.s.F.U.l.a.l.^./././.a.l.a.a.a.l.a.z.z././.s.C.C.z.[.[.m.m.x.x.x.m.(.(.m.x.m.x.x.x.m.x.x.x.m.x.x.m.m.m. XM.}.[.(.x.v.v.v.v.v.v.#Xv.j.' N.nX0 C d.l.l.z.M.k.N 6 6 6 6 4 l N & A 6 6 6 6 6 5 E ..........Q 6 5 U Y T Y Y Y T & l M & 6 6 6 6 6 $ $ 6 & * 6 6 6 6 6 6 6 6 ",
"E ] { ` ` ` E ` ` ` ` ` E { w.) ( ( ( ( ( } ( ( ( ( ( ) } ( ( ( ( } ( ( ( } ( ( ) } ~ _ oX7._ 0.4.4.4.5.^ ^ ^ ^ ^ ^ ^ ^ ^ ^ ^ ^ ^ ~.W.5.5.5.5.5.5.oX5.5.5.5.Q.5.eX5.-.-.-.-.Q.-.-.-.-.-.Q.-.-.-.-.-.H.U.-.G.D.-.-.5.q.K D.D.J D.D.K K K J Q.mXQ.^.^.^.^.^.^.z.U.F.l.z.^.z.z.z.z.z.z.z.z.z.z.^.z.z.l.z.0XM.m.[.[.m.m.m.m.m.m.m.x.m.m.m.x.m.m.(.m.m.m.m.x.m.(.M.m. XM.}.}.k.b.v.v.v.v.v.v.*Xb.j.j.N.bX0 C C t C t k.k.M 6 6 6 6 4 l N & B 6 6 6 6 6 5 E ..........Q 6 5 U Y T Y Y Y T & l M & 6 6 6 6 $ S.E.zXzXY.s $ 6 6 6 6 6 6 ",
"c c c c c c c c c c c c c v 7.c c c c c c v c c c c c v v c c c v v c c c v c c v v c c :.v v v v v v v v v v v v v v v v v v n c G.G.n D F F F L L D D D F F D | [ P D D D D P D D D D D P D S S D S S S S D D D D :.n N D N D D N N N P d.N.A G G G G G G A G.G.Z A G A A A A A A A A A A G A A B j.B.G H d.l.H H H Z H H Z H Z H H Z H Z H H Z H H Z H d.y.y.c.' d.F.Z Z Z Z Z Z Z Z #.' Z Z Z V.w w w w q q t l.z 6 6 6 6 6 l N & A 6 6 6 6 6 5 E ..........Q 6 5 U Y Y Y Y Y T & l M & 6 6 6 6 E.KXPXE.zXPXKXA.$ 6 6 6 6 6 ",
"B B B B B B B B B B B B B B B B B B B B B B B B B B B B B B B B B B B B B B B B B B B B N B B N B B B B B B B B B B B B B B B B B N N B N N N N N N N N N N N B N N B B B N N B B B B B N B B N N N N N N N N B B N N B N N B N N B B B B N M N N N N N N N N N N N N N N N N N N N N N N N N N N N N M N N N N N N N N N N N N N N N N N N N N N N N N N N N N N N N N N N N N N N N N N N N N N M B B B B B B B z 6 6 6 6 6 6 6 B A N 6 6 6 6 6 5 E ..........Q 6 5 U Y Y Y Y Y T & l M & 6 6 $ E.PXA.      # zXKXs & 6 6 6 6 ",
"6 6 6 6 6 6 6 6 6 6 6 6 6 6 6 6 6 6 6 6 6 6 6 6 6 6 6 6 6 6 6 6 6 6 6 6 6 6 6 6 6 6 6 6 6 6 6 6 6 6 6 6 6 6 6 6 6 6 6 6 6 6 6 6 6 6 6 6 6 6 6 6 6 6 6 6 6 6 6 6 6 u u u u u u u u u u u u u u 6 6 6 6 6 6 6 6 6 6 6 6 6 6 6 6 6 6 6 6 6 6 6 6 6 6 6 6 6 6 6 6 6 6 6 6 6 6 6 6 6 6 6 6 6 6 6 6 6 6 6 6 6 6 6 6 6 6 6 6 6 6 6 6 6 6 6 6 6 6 6 6 6 6 6 6 6 6 6 6 6 6 6 6 6 6 6 6 6 6 6 6 6 6 6 6 6 6 6 6 6 6 6 6 6 6 6 6 6 6 6 6 6 % 6 j & & & 6 6 6 5 E ..........Q 6 5 U Y Y Y Y Y T & l M & 6 $ f KXA.. & N N . @ Y.Y.6 6 6 6 6 ",
"6 6 6 6 6 6 6 6 6 6 6 6 6 6 6 6 6 6 6 6 6 6 6 6 6 6 6 6 6 6 6 6 6 6 6 6 6 6 6 6 6 6 6 6 6 6 6 6 6 6 6 6 6 6 6 6 6 6 6 6 6 6 6 6 6 & & & & & & & & & & & & & & & 6 $ * * * * * * * * * * * * * 6 6 6 6 6 6 6 6 6 6 6 6 6 6 6 6 6 6 6 6 6 6 6 6 6 6 6 6 6 6 6 6 6 6 6 6 6 6 6 6 6 6 6 6 6 6 6 6 6 6 6 6 6 6 6 6 u 6 6 6 6 6 6 6 6 6 6 6 6 6 6 6 6 6 6 6 6 6 6 6 6 6 6 6 6 6 6 6 6 6 6 6 6 6 6 6 6 6 6 6 6 6 6 6 6 6 6 6 6 6 6 6 u A 6 6 M N M 6 6 6 5 E ..........Q 6 5 U Y T Y Y Y T & l M & 6 $ A.PX5 @ G i.M i = A.zXi 6 6 6 6 ",
"6 6 6 6 6 6 6 6 6 6 6 6 6 6 6 6 6 6 6 6 6 6 6 6 6 6 6 6 6 6 6 6 6 6 6 6 6 6 6 6 6 6 6 6 6 6 6 6 6 6 6 6 6 6 6 6 6 6 6 6 6 6 6 6 6 N N N N N N N N N N N N N N M 6 S.Y.Y.Y.Y.Y.Y.Y.Y.Y.Y.Y.Y.Y.p & 6 6 6 6 6 6 6 6 6 6 6 6 6 6 6 6 6 6 6 6 6 6 6 6 6 6 6 6 6 6 6 6 6 6 6 6 6 6 6 6 6 6 6 6 6 6 6 6 6 6 6 6 6 j l & l G A A A A A A A A A A A A A A A A A A A A G A A G A A A A A A A A A A A A A A A A A A A A A G l 6 6 6 6 6 M ^.6 i.s.s.i.6 6 6 5 E ..........Q 6 5 U Y T Y Y Y T & l M & 6 $ E.zXX 6 A A M i.@ d E.s & 6 6 6 ",
"z l z z z z z z z z z z z z l l l l l 6 6 6 6 & 6 6 6 6 6 6 6 6 6 6 6 6 & 6 6 6 l l z z z l z z l l l l z z z z l l l l l 6 6 6 l i.N N N N N N N N N N N N N i.9 LXkXR.kXkXkXkXkXkXkXkXkXR.LXe.$ 6 6 6 6 6 6 6 6 6 6 6 6 6 6 6 6 6 6 6 6 6 6 6 6 6 6 6 6 6 6 6 6 6 6 6 6 6 6 6 6 6 6 6 6 6 6 6 6 6 6 6 6 6 u l & M A z M M M M M M M M M M M M M M M M z z z l z z z z M M M M M M M M M M M M M M M M M M M z G z & 6 6 6 M l G i.i.F.B a.j 6 6 5 E .._ .._ ..E 6 5 U Y T T T Y U & l M & 6 $ Y.PX5 @ A A G B   e.zXi & 6 6 6 ",
"M G l l l l l z z z z z z z z j G .XN 6 6 6 & N G M a.6 G l 6 l 6 l 6 l N l 6 6 i.G N l l G z z i.G p.i.l z z z l j {./.u 6 6 6 l A z G B G A A z N N G A N z A 9 kXR.R.R.R.R.R.R.R.R.R.R.Y.kXe.$ 6 6 6 6 6 6 6 6 6 6 6 6 6 6 6 6 6 6 6 6 6 6 6 6 6 6 6 6 6 6 6 6 6 6 6 6 6 6 6 6 6 6 6 6 6 6 6 6 6 6 6 6 6 u l & M B l z z z z z z z z z z z z z z l M G N s.s.B G G G l z z z z z z z z z z z z z z z z z z l A l 4 6 6 6 & u A M M B N N 6 6 6 5 E X.......X.Q 6 5 U Y Y Y Y Y T & l M & 6 $ e.PXe.. 6 z z @ O Y.Y.6 6 6 6 6 ",
"F.^.s.F.s.s.^.M l z z z z z z j p.{.i.6 6 6 & A i.s.6 & a.s.p.p.p.p.a.a.^.N 6 6 /./.p.F.s.^.p.z /.^.F.a.l z z z l z /./.l 6 6 6 l A B /.^.^.^.p.B /.^.F.F.^.l G 9 kXR.kXR.kXR.R.kXkXkXkXkXR.LXe.$ 6 6 6 6 6 6 6 6 6 6 6 6 6 6 6 6 6 6 6 6 6 6 6 6 6 6 6 6 6 6 6 6 6 6 6 6 6 6 6 6 6 6 6 6 6 6 6 6 6 6 6 6 6 u l & M B l z z z z z z z z z z z z z z l N s.M s./.^.s.{.N l l l z z z z z z z z z z z z z z z z l A l 4 6 6 6 6 6 & & % # & & 6 6 6 6 c W W W W W c 6 6 - U U U U U W & l M & 6 6 6 E.PXe.  X   @ Y.zXf & 6 6 6 6 ",
"F.^././.p.a.F.A l z z z z z z u s..XG 6 6 6 6 l s.s.A 6 p.s.s.p.a.p.G s.s.N 6 6 ^.N ^.^.a.{.^.l /.^.a.G l z z z l z {.].l 6 6 6 l B A a.G ^.F.p.G /.^.s.F.F.z G 9 kXR.kXR.kXR.R.R.R.kXR.kXR.LXe.$ 6 6 6 6 6 6 6 6 6 6 6 6 6 6 6 6 6 6 6 6 6 6 6 6 6 6 6 6 6 6 6 6 6 6 6 6 6 6 6 6 6 6 6 6 6 6 6 6 6 6 6 6 6 u l & M B l z z z z z z z z z z z z z z l M ^.p.^.i./.F.^.a.G i.N l z z z z z z z z z z z z z z z l A l 4 6 6 6 6 6 6 B G i.l 6 6 6 6 6 5 5 5 6 6 6 6 6 6 5 5 5 5 5 5 6 & l M & 6 6 6 i zXY.$ 6 6 6 E.S.& 6 6 6 6 6 ",
"p.G G G N B A N l z z z z z z l B ].M u 6 6 6 l l 6 M 6 j l 6 z 6 z 6 l j z 6 6 A l A A B G G M p.i.B N l z z z l j ^.F.j 6 6 6 l A l l l z N N l M z N N z l A 9 kXR.Y.R.R.R.R.R.R.R.R.R.Y.kXe.$ 6 6 6 6 6 6 6 6 6 6 6 6 6 6 6 6 6 6 6 6 6 6 6 6 6 6 6 6 6 6 6 6 6 6 6 6 6 6 6 6 6 6 6 6 6 6 6 6 6 6 6 6 6 u l & M B l l l l l l l l l l l l l l l l l A A N z z M l N N N M l l l l l l l l l l l l l l l l l A l 4 6 6 6 6 6 A F.s.^.N & 6 6 6 6 7 1.w.6 1.w.x 7 6 6 9 W W 9 W 0 5 l M & 6 6 6 & u 6 6 6 6 6 6 6 6 6 6 6 6 6 ",
"l l l l l l l l l l l l l l l l l j l 6 6 6 6 6 4 6 & 6 6 & 6 & 6 & 6 6 6 & 6 6 j z l l l l l l l l l l l l l l l l l l j 6 6 6 l i.B A A A B B A A A B B A A i.6 LXLXkXLXkXkXLXLXkXLXLXkXkXLXe.$ 6 6 6 6 6 6 6 6 6 6 6 6 6 6 6 6 6 6 6 6 6 6 6 6 6 6 6 6 6 6 6 6 6 6 6 6 6 6 6 6 6 6 6 6 6 6 6 6 6 6 6 6 6 u l & M G M N N N N N N N N N N N N N N N N M M M N N N N M M M N N N N N N N N N N N N N N N N N M G z & 6 6 6 6 6 i.a.s.^.B & 6 6 6 6 x w.w.1 1.1.4.7 6 9 W Q W k c c 5 j A 6 & 6 4 6 & & 6 6 4 6 & 6 6 6 6 6 6 6 ",
"6 6 6 6 6 6 6 6 6 6 6 6 6 6 6 6 6 6 6 6 6 6 6 6 6 6 6 6 6 6 6 6 6 6 6 6 6 6 6 6 6 6 6 6 6 6 6 6 6 6 6 6 6 6 6 6 6 6 6 6 6 6 6 6 6 l l l l l z z l l l z z l z l 6 g S.S.S.S.S.S.S.S.S.S.S.S.e.i 6 6 6 6 6 6 6 6 6 6 6 6 6 6 6 6 6 6 6 6 6 6 6 6 6 6 6 6 6 6 6 6 6 6 6 6 6 6 6 6 6 6 6 6 6 6 6 6 6 6 6 6 6 6 j l 4 l B N B B B B B B B B B B B B B B B B B B B B B B B B B B B B B B B B B B B B B B B B B B B N B j 6 6 6 6 6 6 l N l N 6 6 6 6 6 6 7 x 1 1 1 1 x 6 6 6 6 0 0 9 0 9 6 6 M A l l l l l l l l l l l l l l l l l l ",
"& & & & & & & & & & & & & & & & & & & & & & & & & & & & & & & & & & & & & & & & & & & & & & & & & & & & & & & & & & & & & & & & & % # # # # # # # # # # # # # % & * * * * * * * * * * * * * * & & & & & & & & & & & & & & & & & & & & & & & & & & & & & & & & & & & & & & & & & & & & & & & & & & & & & & & 6 6 & & # # # # # # # # # # # # # # # # # # # # # # # # # # # # # # # # # # # # # # # # # # # # # # # & & & & & & & & # % # & & & & & & & % 5 5 7 5 & & & & & % % & % & & & % 6 M M M M M M M M M M M M M M M M M M ",
"M M M M M M M M M M M M M M M M M M M M M M M M M M M M M M M M M M M M M M M M M M M M M M M M M M M M M M M M M M M M M M M M M M M M M M M M M M M M M M M M M M M M M M M M M M M M M M M M M M M M M M M M M M M M M M M M M M M M M M M M M M M M M M M M M M M M M M M M M M M M M M M M M M M M M M M M M M M M M M M M M M M M M M M M M M M M M M M M M M M M M M M M M M M M M M M M M M M M M M M M M M M M M M M M M M M M M M M M M M M M M M M M M M M M M M M M M M M M M M z z z z z z z z z z z z z z z z z z ",
"z z z z z z z z z z z z z z z z z z z z z z z z z z z z z z z z z z z z z z z z z z z z z z z z z z z z z z z z z z z z z z z z z z z z z z z z z z z z z z z z z z z z z z z z z z z z z z z z z z z z z z z z z z z z z z z z z z z z z z z z z z z z z z z z z z z z z z z z z z z z z z z z z z z z z z z z z z z z z z z z z z z z z z z z z z z z z z z z z z z z z z z z z z z z z z z z z z z z z z z z z z z z z z z z z z z z z z z z z z z z z z z z z z z z z z z z z z z z z z z z z z z z z z z z z z z z z z z z ",
"& & & & & & & & & & & & & & & & & & & & & & & & & & & & & & & & & & & & & & & & & & & & & & & & & & & & & & & & & & & & & & & & & & & & & & & & & & & & & & & & & & & & & & & & & & & & & & & & & & & & & & & & & & & & & & & & & & & & & & & & & & & & & & & & & & & & & & & & & & & & & & & & & & & & & & & & & & & & & & & & & & & & & & & & & & & & & & & & & & & & & & & & & & & & & & & & & & & & & & & & & & & & & & & & & & & & & & & & & & & & & & & & & & & & & & & & & & & & & & & & & & & & & & & & & & & & & & & & ",
"6 6 6 6 6 6 6 6 6 6 6 6 6 6 6 6 6 6 6 6 6 6 6 6 6 6 6 6 6 6 6 6 6 6 6 6 6 6 6 6 6 6 6 6 6 6 6 6 6 6 6 6 6 6 6 6 6 6 6 6 6 6 6 6 6 6 6 6 6 6 6 6 6 6 6 6 6 6 6 6 6 6 6 6 6 6 6 6 6 6 6 6 6 6 6 6 6 6 6 6 6 6 6 6 6 6 6 6 6 6 6 6 6 6 6 6 6 6 6 6 6 6 6 6 6 6 6 6 6 6 6 6 6 6 6 6 6 6 6 6 6 6 6 6 6 6 6 6 6 6 6 6 6 6 6 6 6 6 6 6 6 6 6 6 6 6 6 6 6 6 6 6 6 6 6 6 6 6 6 6 6 6 6 6 6 6 6 6 6 6 6 6 6 6 6 6 6 6 6 6 6 6 6 6 6 6 6 6 6 6 6 6 6 6 6 6 6 6 6 6 6 6 6 6 6 6 6 6 6 6 6 6 6 6 6 6 6 6 6 6 6 6 6 6 6 6 6 6 6 6 6 6 6 6 6 6 ",
"6 6 6 6 6 6 6 6 6 6 6 6 6 6 6 6 6 6 6 6 6 6 6 6 6 6 6 6 6 6 6 6 6 6 6 6 6 6 6 6 6 6 6 6 6 6 6 6 6 6 6 6 6 6 6 6 6 6 6 6 6 6 6 6 6 6 6 6 6 6 6 6 6 6 6 6 6 6 6 6 6 6 6 6 6 6 6 6 6 6 6 6 6 6 6 6 6 6 6 6 6 6 6 6 6 6 6 6 6 6 6 6 6 6 6 6 6 6 6 6 6 6 6 6 6 6 6 6 6 6 6 6 6 6 6 6 6 6 6 6 6 6 6 6 6 6 6 6 6 6 6 6 6 6 6 6 6 6 6 6 6 6 6 6 6 6 6 6 6 6 6 6 6 6 6 6 6 6 6 6 6 6 6 6 6 6 6 6 6 6 6 6 6 6 6 6 6 6 6 6 6 6 6 6 6 6 6 6 6 6 6 6 6 6 6 6 6 6 6 6 6 6 6 6 6 6 6 6 6 6 6 6 6 6 6 6 6 6 6 6 6 6 6 6 6 6 6 6 6 6 6 6 6 6 6 6 ",
"6 6 6 6 6 6 6 6 6 6 6 6 6 6 6 6 6 6 6 6 6 6 6 6 6 6 6 6 6 6 6 6 6 6 6 6 6 6 6 6 6 6 6 6 6 6 6 6 6 6 6 6 6 6 6 6 6 6 6 6 6 6 6 6 6 6 6 6 6 6 6 6 6 6 6 6 6 6 6 6 6 6 6 6 6 6 6 6 6 6 6 6 6 6 6 6 6 6 6 6 6 6 6 6 6 6 6 6 6 6 6 6 6 6 6 6 6 6 6 6 6 6 6 6 6 6 6 6 6 6 6 6 6 6 6 6 6 6 6 6 6 6 6 6 6 6 6 6 6 6 6 6 6 6 6 6 6 6 6 6 6 6 6 6 6 6 6 6 6 6 6 6 6 6 6 6 6 6 6 6 6 6 6 6 6 6 6 6 6 6 6 6 6 6 6 6 6 6 6 6 6 6 6 6 6 6 6 6 6 6 6 6 6 6 6 6 6 6 6 6 6 6 6 6 6 6 6 6 6 6 6 6 6 6 6 6 6 6 6 6 6 6 6 6 6 6 6 6 6 6 6 6 6 6 6 6 ",
"6 6 6 6 6 6 6 5 5 5 5 5 5 5 5 5 5 5 5 5 5 5 5 5 5 5 5 5 5 5 5 5 5 5 5 5 6 6 6 6 6 6 6 6 6 6 6 6 6 6 6 6 6 6 6 6 6 6 6 6 6 6 6 6 6 6 6 6 6 6 6 6 6 6 6 6 7 7 7 7 7 7 7 7 7 7 7 7 7 7 7 7 7 7 7 7 7 7 7 7 7 7 7 7 4 6 6 6 6 6 4 $ $ $ $ $ $ $ $ $ $ $ $ $ $ $ $ $ $ $ $ $ $ $ $ $ $ $ 4 6 6 6 6 6 $ $ $ $ $ $ $ $ $ $ $ $ $ $ $ $ $ $ $ $ $ $ $ $ $ $ $ $ 6 6 6 6 6 6 6 6 6 6 6 6 6 6 6 6 6 6 6 6 6 6 6 6 6 6 6 6 6 6 6 6 6 6 6 6 6 6 6 & # # # # # # # # # # # # # # # # # # # # # # # # # # # & 6 6 6 6 6 % % % % % % % % % % % ",
"6 6 6 6 l 6 6 k c c W W W W W W W W W W W W W W W W W W W W W W W W W c 9 6 u 6 6 6 u u u u u u u u u u u u u u u u u u u u u u u u u u u u 6 6 6 l 6 u < < < < < < < < < < < < < < < < < < < < < < < < < < < < , 6 6 l 6 6 a a a a a a a a a a a a a a a a a a a a a a a a a a a a p 6 6 l 6 6 f e.f f f f f f f f f f f f f f f f f f f f f f f f f f i 6 6 6 6 6 u u u u u u u u u u u u u u u u u u u u u u u u u u u 6 6 6 l 6 6 V t.t.t.t.t.t.t.t.t.t.t.t.t.t.t.t.t.t.t.t.t.t.t.t.t.t.t.V 6 6 l 6 6 Z Z Z Z Z Z Z Z Z Z Z ",
"6 6 6 6 l 6 % rXyXyXyXyXyXyXyXyXyXyXyXyXyXyXyXyXyXyXyXyXyXyXyXyXyXyXyXyXO.+ j 6 & l M z M M M M M M M M M M z l z z M M M M M M M M M M z M M 6 6 l 7 1 dX3.3.3.3.3.3.3.3.3.3.3.3.3.3.3.3.3.3.3.3.3.3.3.3.3.3.3.3.6 6 l 4 p aXpXpXpXpXpXpXpXpXpXpXpXpXpXpXpXpXpXpXpXpXpXpXpXpXpXpXaXpX4 6 l $ d LXLXLXLXLXLXLXLXLXLXLXLXLXLXLXLXLXLXLXLXLXLXLXLXLXLXLXLXY.* i 6 & l M z M M M M M M M M M M z l z M M M M M M M M M M M z N 6 6 l 6 % VXZXZXZXZXZXZXZXZXZXZXZXZXZXZXZXZXZXZXZXZXZXZXZXZXZXZXZXBX# 6 l % Z JXGXGXGXGXGXGXGXGXGXGX",
"6 6 6 6 l 6 5 rX#X@X@X@X@X@X@X@X@X@X@X@X#X*X*X@X@X@X@X@X@X@X@X@X@X#X@XrX@.+ j 6 & l l 6 6 6 6 6 6 6 6 6 6 6 u M M l 6 6 6 6 6 6 6 6 6 6 6 u z 6 6 l 7 %.3.%.1.%.%.%.%.%.%.%.%.%.%.3.3.1.%.%.%.%.%.%.%.%.%.%.%.1.3.6 6 l 4 p pX*.>.>.>.>.>.>.>.>.>.>.*.L.K.L.>.>.>.>.>.>.>.>.>.>.*.K.I.6 6 l $ f LXR.R.R.R.R.R.R.R.R.R.R.R.kXkXR.R.R.R.R.R.R.R.R.R.R.R.kXE.* i 6 & l l 6 6 6 6 6 6 6 6 6 6 6 l M m 6 6 6 6 6 6 6 6 6 6 6 6 z u 6 l 6 & BXbXnXnXnXnXnXnXnXnXnXnXnXbXMXMXnXnXnXnXnXnXnXnXnXnXnXbXBX# 6 l % ' GXC.9X9X9X9X9X9X9X9X9X",
"6 6 6 6 l 6 5 rX*X#X#X#X#X#X#X#X#X#X#X#XrXyX*X#X#X#X#X#X#X#X#X#X#X#X@XrX@.+ j 6 & l l 6 6 6 6 6 6 6 6 6 u 6 N s.N l 6 u 6 6 6 6 6 6 6 6 6 i M 6 6 l 7 %.3.%.1.1.1.1.1.1.1.1.1.1.1.3.3.3.1.1.1.1.1.1.1.1.1.1.1.1.3.6 6 l 4 p pXK.K.K.K.K.K.K.K.K.K.K.K.pXpXpXK.K.K.K.K.K.K.K.K.K.K.L.I.6 6 l $ f LXR.R.R.R.R.R.R.R.R.R.R.kXLXkXkXR.R.R.R.R.R.R.R.R.R.R.kXY.* i 6 & l l 6 6 6 6 6 6 6 6 6 u 6 A s.i.i 6 6 6 6 6 6 6 6 6 u 6 M u 6 l 6 & BXMXbXbXbXbXbXbXbXbXbXbXbXZXBXMXbXbXbXbXbXbXbXbXbXbXbXMXBX# 6 l % ' GX9X0X9X9X9X9X9X9X9X9X",
"6 6 6 6 l 6 5 rX#X@X#X#X#X#X#X#X#X#X#X@X*X#X#X#X#X#X#X#X#X#X#X#X#X#X@XrX@.+ j 6 & l l 6 6 6 6 6 6 6 6 6 6 6 l M N l 6 6 6 6 6 6 6 6 6 6 6 u z 6 6 l 7 %.3.%.1.1.1.1.1.1.1.1.1.1.1.3.3.3.%.1.1.1.1.1.1.1.1.1.1.1.3.6 6 l 4 p pX>.K.>.>.>.>.>.>.>.>.>.>.P.L.P.>.>.>.>.>.>.>.>.>.>.>.K.I.6 6 l $ f LXR.R.R.R.R.R.R.R.R.R.R.R.kXkXkXR.R.R.R.R.R.R.R.R.R.R.kXY.* i 6 & l l 6 6 6 6 6 6 6 6 6 6 6 z l N i 6 6 6 6 6 6 6 6 6 6 6 m u 6 l 6 & BXbXnXnXnXnXnXnXnXnXnXnXnXMXbXbXnXnXnXnXnXnXnXnXnXnXnXbXBX# 6 l % ' GX9X9X9X9X9X9X9X9X9X9X",
"6 6 6 6 l 6 5 rXrX*X*X*X*X*X*X*X*X*X*X*X*X*X*X*X*X*X*X*X*X*X*X*X*X*X#XyX@.+ j 6 & z l u i i i i i i i i u i u 6 6 u i u i i i i i i i i u l M 6 6 l 7 %.3.1.3.3.3.3.3.3.3.3.3.3.3.3.3.3.3.3.3.3.3.3.3.3.3.3.3.3.3.6 6 l 4 p aXP.P.P.P.P.P.P.P.P.P.P.P.P.P.P.P.P.P.P.P.P.P.P.P.P.P.P.pX6 6 l $ f LXkXkXkXkXkXkXkXkXkXkXkXkXkXkXkXkXkXkXkXkXkXkXkXkXkXkXLXE.* i 6 & l l u i i i i i i i i u i u u 6 u i u i i i i i i i i u M u 6 l 6 % ZXBXMXMXMXMXMXMXMXMXMXMXMXMXMXMXMXMXMXMXMXMXMXMXMXMXMXBXVX# 6 l % ' JX0X0X0X0X0X0X0X0X0X0X",
"6 6 6 6 l 6 5 @XrX*X*X*X*X*X*X*X*X*X*X*X*X*X*X*X*X*X*X*X*X*X*X*X*X*X*XrXQ % j 6 6 l M z M M M M M M M M M M M M M M M M M M M M M M M M m M l 6 6 l 4 < 3.3.3.3.3.3.3.3.3.3.3.3.3.3.3.3.3.3.3.3.3.3.3.3.3.3.3.3.1.6 6 l 6 u P.I.P.P.P.P.P.P.P.P.P.P.P.P.P.P.P.P.P.P.P.P.P.P.P.P.P.I.L.4 6 l & i kXkXkXkXkXkXkXkXkXkXkXkXkXkXkXkXkXkXkXkXkXkXkXkXkXkXlXkXS.$ u 6 6 j M z M M M M M M M M M M M M M M M M M M M M M M M M M M 6 6 l 6 % nXMXMXMXMXMXMXMXMXMXMXMXMXMXMXMXMXMXMXMXMXMXMXMXMXMXMXMXnX# 6 l % C 0X0X0X0X0X0X0X0X0X0X0X",
"6 6 6 6 l 6 6 5 % % % % % % % % % % % % % 3 3 % % % % % % % % % % % % + 5 6 6 6 6 6 6 6 6 6 6 6 6 6 6 6 6 6 6 6 6 6 6 6 6 6 6 6 6 6 6 6 6 6 6 6 6 l 6 6 7 7 7 7 7 7 7 7 7 7 7 7 7 7 7 7 7 7 7 7 7 7 7 7 7 7 7 7 7 6 6 l 6 6 $ $ $ $ $ $ $ $ $ $ $ $ $ $ $ $ $ $ $ $ $ $ $ $ $ $ $ $ $ 6 6 l 6 6 * $ $ $ $ $ $ $ $ $ $ $ $ $ $ $ $ $ $ $ $ $ $ $ $ $ $ * $ 6 6 6 6 6 6 6 6 6 6 6 6 6 6 6 6 6 6 6 6 6 6 6 6 6 6 6 6 6 6 6 6 6 6 6 l 6 6 # @ @ @ # # # @ @ @ @ @ @ @ @ @ @ @ # @ # @ # @ # @ @ @ # 6 6 l 6 6 + + + % % % % + + + + ",
"6 6 6 6 l 6 6 6 6 6 6 6 6 6 6 6 6 6 6 6 6 & 6 6 6 6 6 6 6 6 6 6 6 6 6 6 6 6 6 6 6 6 6 6 6 6 6 6 6 6 6 6 6 6 6 6 6 6 6 6 6 6 6 6 6 & 6 6 6 6 6 6 6 l 6 6 6 6 6 6 6 6 6 6 6 6 6 6 6 6 6 6 6 6 6 & 6 & 6 & 6 6 6 6 6 6 6 l 6 6 6 6 6 6 6 4 6 6 6 6 6 6 6 6 6 6 6 6 6 & 6 & 6 & 6 6 6 6 6 6 6 l 6 6 6 6 6 6 $ $ 6 6 6 6 6 6 6 6 6 6 6 6 6 6 6 5 5 5 6 6 6 6 6 6 6 6 6 6 6 6 6 6 & & 6 6 6 6 6 6 6 6 6 6 6 6 6 6 6 6 6 & 6 6 6 6 6 6 l 6 6 6 6 6 6 & # & 6 6 6 6 6 6 6 6 6 6 6 6 6 6 6 6 6 6 6 6 6 6 6 6 l 6 6 6 6 6 6 % % 6 6 6 6 6 ",
"6 6 6 6 l 6 6 6 6 6 6 6 6 6 6 6 6 6 6 6 6 N z 6 6 6 6 6 6 6 6 6 6 6 6 6 6 6 6 6 6 6 6 6 6 6 x x 6 6 6 6 6 6 6 6 6 6 6 6 6 l z j 6 M 6 6 6 6 6 6 6 l 6 6 6 6 4 6 , < > 4 6 6 6 6 6 6 6 6 6 6 6 M j N l B 6 6 6 6 6 6 6 l 6 6 6 6 4 6 p a p 6 6 6 6 6 6 6 6 6 6 6 6 B M N l B 6 6 6 6 6 6 6 l 6 6 6 6 $ i e.e.p $ 6 6 6 6 6 6 6 6 6 6 6 M M M M M 6 6 6 6 6 6 6 6 6 6 6 6 & l N M 6 & 6 6 6 6 6 6 6 6 6 j l l l l l M l 6 6 6 6 6 l 6 6 6 6 & 6 t.f.t.& & 6 6 6 6 6 6 6 6 6 N l N l N 6 M 6 6 6 6 6 6 l 6 6 6 6 % w j.j.q % 6 6 6 ",
"6 6 6 6 l 6 6 6 6 6 6 6 6 6 6 6 6 6 6 6 j a.i.6 6 6 6 6 6 6 6 6 6 6 6 6 6 6 6 6 6 6 6 6 x v n n v x 6 6 6 6 6 6 6 6 6 6 M p.B N l G M & 6 6 6 6 6 l 6 6 6 4 , %.%.%.%.< 6 6 6 6 6 6 6 6 6 6 & p.p.i.^.p.N & 6 6 6 6 6 l 6 6 6 4 p *.*.=.*.=.p 6 6 6 6 6 6 6 6 6 6 N ^.F.l p.M & 6 6 6 6 6 l 6 6 6 $ e.lXR.Y.Y.e.6 6 6 6 6 6 6 6 6 & A F.z F.M a.6 6 6 6 6 6 6 6 6 6 6 6 i.F.i.F.F.M 6 6 6 6 6 6 6 6 & M B A N p.N N N & 6 6 6 6 l 6 6 6 % t.bXbXnXNXnXl & 6 6 6 6 6 6 6 6 G ^.a.^.^.B ^.6 6 6 6 6 6 l 6 6 6 % k.0X9X9X0Xk.& 6 6 ",
"6 6 6 6 l 6 6 6 6 6 6 6 6 6 6 6 6 6 6 6 j p.p.6 6 6 6 6 6 6 6 6 6 6 6 6 6 6 6 6 6 6 6 x v @     # b x 6 6 6 6 6 6 6 6 6 i.s.B B M A M & 6 6 6 6 6 l 6 6 6 , %.> X X X %.%.4 6 6 6 6 6 6 6 6 & N p.G ^.p.B & 6 6 6 6 6 l 6 6 6 6 L.a = X O a *.6 6 6 6 6 6 6 6 6 6 p.M B s.p.6 6 6 6 6 6 6 l 6 6 $ e.lX5   . @ Y.e.$ 6 6 6 6 6 6 6 & G F.G a.p.G & 6 6 6 6 6 6 6 6 6 & p.p.X     i F.u 6 6 6 6 6 6 6 6 u N 6 i.i.N B 6 6 6 6 6 6 l 6 6 & l NXf..     g.NX& 6 6 6 6 6 6 6 6 A s.a.^.F.^./.j 6 6 6 6 6 l 6 6 % k.0X$ .   # 0Xk.% 6 ",
"6 6 6 6 l 6 6 6 6 6 6 6 6 6 6 6 6 6 6 6 6 B M 6 6 6 6 6 6 6 6 6 6 6 6 6 6 6 6 6 6 6 6 v #   6 j X # v 6 6 6 6 6 6 6 6 6 6 l M z l N 6 6 6 6 6 6 6 l 6 6 4 %., . j B & X %., 4 6 6 6 6 6 6 6 6 l l A z G 6 6 6 6 6 6 6 l 6 6 $ *.=.= @ l l = =.a 4 6 6 6 6 6 6 6 6 p.N B B i.u 6 6 6 6 6 6 l 6 6 6 lXd = l 6 @ @ Y.p 6 6 6 6 6 6 6 6 u A N N G B 6 6 6 6 6 6 6 6 6 & M F.  X j % . i A & 6 6 6 6 6 6 6 6 l M l M l l 6 6 6 6 6 6 l 6 6 * nXg.. j B j . nXg.* 6 6 6 6 6 6 6 A M N z A j M 6 6 6 6 6 6 l 6 6 9 0X9   M B + $ 0Xw 6 ",
"6 6 6 6 l 6 6 6 6 6 6 6 6 6 6 6 6 6 6 6 6 & & 6 6 6 6 6 6 6 6 6 6 6 6 6 6 6 6 6 6 6 j n   # l N 6   n j 6 6 6 6 6 6 6 6 6 & & 6 & & 6 6 6 6 6 6 6 l 6 6 u %.@ @ l i.G X < < 7 6 6 6 6 6 6 6 6 & 6 % & % 6 6 6 6 6 6 6 l 6 6 4 L.h @ N N p.@ h =.4 6 6 6 6 6 6 6 6 # & & & # 6 6 6 6 6 6 6 l 6 & d E.X 6 A N A   S.g $ 6 6 6 6 6 6 6 6 & & & # & 6 6 6 6 6 6 6 6 6 & A A . j l 6 @ @ A 6 6 6 6 6 6 6 6 6 6 & 6 & & & 6 6 6 6 6 6 l 6 6 & bXw @ G G M . f.g.* 6 6 6 6 6 6 6 & & 6 & & 6 & 6 6 6 6 6 6 l 6 % y 9X  j G i.N   9X' % ",
"6 6 6 6 l 6 6 6 6 6 6 6 6 6 6 6 6 6 6 6 6 6 6 6 6 6 6 6 6 6 6 6 6 6 6 6 6 6 6 6 6 5 x [ . @ j M & X n j 6 6 6 6 6 6 6 6 6 6 6 6 l j 6 6 6 6 6 6 6 l 6 6 u 1.@ # A G N X < < 7 6 6 6 6 6 6 6 6 u 6 6 u u 6 6 6 6 6 6 6 l 6 6 $ L.h O B G A O h =.4 6 6 6 6 6 6 6 6 6 u u 6 u 6 6 6 6 6 6 6 l 6 & d lXX 6 A i.M   S.g $ 6 6 6 6 6 6 6 6 6 6 6 6 6 6 6 6 6 6 6 6 6 6 & A i.. 6 l M @ @ i.6 6 6 6 6 6 6 6 6 6 6 6 6 l u 6 6 6 6 6 6 l 6 6 & bXV   B A m . h.h.* 6 6 6 6 6 6 6 6 6 6 6 6 6 6 6 6 6 6 6 6 l 6 % y 0X  6 G z &   9Xy % ",
"6 6 6 6 l 6 6 6 6 6 6 6 6 6 6 6 6 6 & G G i.p.s.B & 6 6 6 6 6 6 6 6 6 6 6 6 6 6 6 6 6 5.& . # # . & v 6 6 6 6 6 6 6 6 6 u A N B p.A 6 6 6 6 6 6 6 l 6 6 7 %.< o & j X @ %., 6 6 6 6 6 6 6 6 6 G s.F.l a.M & 6 6 6 6 6 l 6 6 $ =.*.= # j # = =.a 4 6 6 6 6 6 6 6 6 a.N p.A a.z & 6 6 6 6 6 l 6 6 & R.g . 6 u   % Y.i 6 6 6 6 6 6 6 j a.a.p.a.p.M p.& 6 6 6 6 6 6 6 6 l F.@   % @ . l A & 6 6 6 6 6 6 6 6 l A N A d.N & 6 6 6 6 6 l 6 6 * V.g.. # j #   SXh.& 6 6 6 6 6 & p.B a.p.a.p.a.p.a.6 6 6 6 6 l 6 6 6 0Xe . 6 6 . 9 0X9 6 ",
"6 6 6 6 l 6 6 6 6 6 6 6 6 6 6 6 6 6 & z s.B ^.i.G 6 6 6 6 6 6 6 6 6 6 6 6 6 6 6 6 6 5 x 6.& X X & L j 6 6 6 6 6 6 6 6 & M z z i.A N & 6 6 6 6 6 6 l 6 6 4 , 3., X X @ %.< 7 6 6 6 6 6 6 6 6 & M G G B A l 6 6 6 6 6 6 l 6 6 6 6 L.=.O X O a =.6 6 6 6 6 6 6 6 & z ^.B i.A A l 6 6 6 6 6 6 l 6 6 $ f kXd   X # Y.e.$ 6 6 6 6 6 6 6 6 p.F.s./.F.^.F.& 6 6 6 6 6 6 6 6 & i.F.@ X X u i.6 6 6 6 6 6 6 6 6 & A u B G A l & 6 6 6 6 6 l 6 6 6 6 MXg.  X = h.SX& 6 6 6 6 6 6 & N s.N /.A /.G ^.G z & 6 6 6 l 6 6 % ' GX9   X $ C.y % 6 ",
"6 6 6 6 l 6 6 6 6 6 6 6 6 6 6 6 6 6 6 l B i.p.s.B & 6 6 6 6 6 6 6 6 6 6 6 6 6 6 6 6 6 6 x j 6 6 j j 6 6 6 6 6 6 6 6 6 6 u A B M M l 6 6 6 6 6 6 6 l 6 6 6 4 , , 6 6 6 , 6 6 6 6 6 6 6 6 6 6 6 ^.B A s.F.u 6 6 6 6 6 6 l 6 6 6 4 p a 6 6 6 a u 6 6 6 6 6 6 6 6 6 6 p.p.i.s.F.6 6 6 6 6 6 6 l 6 6 6 $ e.s 6 6 u g & 6 6 6 6 6 6 6 6 l a.A p.i.s.i.a.6 6 6 6 6 6 6 6 6 6 6 M 6 6 6 i i 6 6 6 6 6 6 6 6 6 6 l G N M M j 6 6 6 6 6 6 l 6 6 6 % V t.& 6 6 h.6 & 6 6 6 6 6 6 & M B p.i.a.i.a.p.a.6 6 6 6 6 l 6 6 6 % ' q 6 6 w y % 6 6 ",
"6 6 6 6 l 6 6 6 6 6 6 6 6 6 6 6 6 6 6 6 6 6 6 6 6 6 6 6 6 6 6 6 6 6 6 6 6 6 6 6 6 6 6 6 5 6 6 6 6 6 6 6 6 6 6 6 6 6 6 6 6 6 6 6 6 6 6 6 6 6 6 6 6 l 6 6 6 6 4 4 6 6 6 4 6 6 6 6 6 6 6 6 6 6 6 6 u u 6 u 6 6 6 6 6 6 6 l 6 6 6 6 6 4 6 6 6 4 6 6 6 6 6 6 6 6 6 6 6 6 6 u 6 u 6 6 6 6 6 6 6 l 6 6 6 6 $ & 6 6 6 $ 6 6 6 6 6 6 6 6 6 6 6 6 6 6 6 # 6 6 6 6 6 6 6 6 6 6 6 6 & 6 6 6 6 6 6 6 6 6 6 6 6 6 6 6 6 6 6 6 6 6 6 6 6 6 6 6 l 6 6 6 6 & % 6 6 6 & 6 6 6 6 6 6 6 6 6 6 6 6 6 6 6 6 6 6 6 6 6 6 6 l 6 6 6 6 % 6 6 6 6 % 6 6 6 ",
"6 6 6 6 l 6 6 6 6 6 6 6 6 6 6 6 6 6 6 6 6 6 6 6 6 6 6 6 6 6 6 6 6 6 6 6 6 6 6 6 6 6 6 6 6 6 6 6 6 6 6 6 6 6 6 6 6 6 6 6 6 6 6 6 6 6 6 6 6 6 6 6 6 l 6 6 6 6 6 6 6 6 6 6 6 6 6 6 6 6 6 6 6 6 6 6 6 6 6 6 6 6 6 6 6 6 6 l 6 6 6 6 6 6 6 6 6 6 6 6 6 6 6 6 6 6 6 6 6 6 6 6 6 6 6 6 6 6 6 6 6 l 6 6 6 6 6 6 6 6 6 6 6 6 6 6 6 6 6 6 6 6 6 6 6 6 6 6 6 6 6 6 6 6 6 6 6 6 6 6 6 6 6 6 6 6 6 6 6 6 6 6 6 6 6 6 6 6 6 6 6 6 6 6 6 6 6 6 l 6 6 6 6 6 6 6 6 6 6 6 6 6 6 6 6 6 6 6 6 6 6 6 6 6 6 6 6 6 6 6 6 6 l 6 6 6 6 6 6 6 6 6 6 6 6 6 ",
"6 6 6 6 l 6 6 5 6 6 6 6 6 6 6 6 6 6 6 6 6 6 6 6 6 6 6 6 6 6 6 6 6 6 6 6 6 6 6 6 6 6 6 6 6 6 6 6 6 6 6 6 6 6 6 6 6 6 6 6 6 6 6 6 6 6 6 6 6 6 6 6 6 l 6 6 6 6 6 6 6 6 6 6 6 6 6 6 6 6 6 6 6 6 6 6 6 6 6 6 6 6 6 6 6 6 6 l 6 6 6 6 6 6 6 6 6 6 6 6 6 6 6 6 6 6 6 6 6 6 6 6 6 6 6 6 6 6 6 6 6 l 6 6 6 6 6 6 6 6 6 6 6 6 6 6 6 6 6 6 6 6 6 6 6 6 6 6 6 6 6 6 6 6 6 6 6 6 6 6 6 6 6 6 6 6 6 6 6 6 6 6 6 6 6 6 6 6 6 6 6 6 6 6 6 6 6 6 l 6 6 & 6 6 6 6 6 6 6 6 6 6 6 6 6 6 6 6 6 6 6 6 6 6 6 6 6 6 6 & 6 6 l 6 6 6 6 6 6 6 6 6 6 6 6 6 ",
"6 6 6 6 l 6 5 #XrXrXrXrXrXrXrXrXrXrXrXrXrXrXrXrXrXrXrXrXrXrXrXrXrXrXrXyX..+ j 6 5 U 2.2.2.2.2.2.2.2.2.2.2.2.2.2.2.2.2.2.2.2.2.2.2.2.2.2.2.2.I 5 j l & l G A G G G G G G G G G G A B A A G G G G G G G G G G G G A 6 6 l 6 u pXpXpXpXpXpXpXpXpXpXpXpXI.I.I.I.pXpXpXpXpXpXpXpXpXpXI.pXI.4 6 l 6 6 G G G G G G G G G G G G A B A A G G G G G G G G G G A G M & 6 i * A.cXxXxXxXxXxXxXxXxXxXxXxXxXxXxXxXxXxXxXxXxXxXxXxXxXxXxXcXd $ l 6 % MXVXVXVXVXVXVXVXVXVXVXVXVXVXVXVXVXVXVXVXVXVXVXVXVXVXVXVXMX# 6 l % C GXGXGXGXGXGXGXGXGXGXGX",
"6 6 6 6 l 6 5 rX*X#X#X#X#X#X#X#X#X#X#X#X*X*X*X#X#X#X#X#X#X#X#X#X#X#X#XyX@.+ j j 3 R 2.I I I I I I I I I I I R R R I I I I I I I I I I I I 2.2.5 j l & z A l z z z z z z z z z z N G A N z z z z z z z z z z z z G 6 6 l 4 p aXK.K.K.K.K.K.K.K.K.K.K.L.P.P.L.K.K.K.K.K.K.K.K.K.K.K.L.pX6 6 l 6 j G l z z z z z z z z z z N G B N z z z z z z z z z z l B N & 6 i * Y.cXhXhXhXhXhXhXhXhXhXhXhXjXjXjXhXhXhXhXhXhXhXhXhXhXhXhXcXr.$ l 6 & VXMXbXbXbXbXbXbXbXbXbXbXbXMXMXMXbXbXbXbXbXbXbXbXbXbXbXMXVX# 6 l % ' JX9X0X0X0X0X0X0X0X0X0X",
"6 6 6 6 l 6 5 rX#X@X#X#X#X#X#X#X#X#X#X#X*X*XyX*X@X#X#X#X#X#X#X#X#X#XOX1X@.+ j j 3 I 2.I I I I I I I I I I I 2.2.2.2.I I I I I I I I I I I R 2.5 j l & l A l z z z z z z z z z l i.a././.z z z z z z z z z z z z G 6 6 l 4 p pX>.K.K.K.K.K.K.K.K.K.K.P.P.pXpXK.K.K.K.K.K.K.K.K.K.K.K.I.6 6 l 6 j G l z z z z z z z z z l p.a././.l z z z z z z z z z l N N & 6 i * Y.xXY.hXhXhXhXhXhXhXhXhXhXjXjXcXjXR.hXhXhXhXhXhXhXhXhXY.cXr.$ l 6 & BXbXnXbXbXbXbXbXbXbXbXnXMXBXVXZXbXnXbXbXbXbXbXbXbXbXnXNXBX# 6 l % ' GX9X9X9X9X9X9X9X9X9X9X",
"6 6 6 6 l 6 5 rX*X#X#X#X#X#X#X#X#X#X#X#X*X*X=X*X@X#X#X#X#X#X#X#X#X#XOX1X@.+ j j 3 I 2.I I I I I I I I I I I R 2.2.2.I I I I I I I I I I I R 2.5 j l & l A l z z z z z z z z z l A s.i.^.M z z z z z z z z z z z G 6 6 l 4 p pXK.K.K.K.K.K.K.K.K.K.K.P.P.P.I.K.K.K.K.K.K.K.K.K.K.K.K.I.6 6 l 6 j G l z z z z z z z z z l G s.i.^.z z z z z z z z z z l N N & 6 i * Y.xXY.hXhXhXhXhXhXhXhXhXhXjXjXjXjXR.hXhXhXhXhXhXhXhXhXY.cXr.$ l 6 & BXbXbXbXbXbXbXbXbXbXbXbXbXBXMXVXNXbXbXbXbXbXbXbXbXbXbXMXBX# 6 l % ' GX9X9X9X9X9X9X9X9X9X9X",
"6 6 6 6 l 6 5 rX*X#X#X#X#X#X#X#X#X#X#X#X#X#X#X#X#X#X#X#X#X#X#X#X#X#XOX1X@.+ j j 3 R 2.I I I I I I I I I I I I I I I I I I I I I I I I I I R 2.5 j l & z A l z z z z z z z z z z l z l l z z z z z z z z z z z z G 6 6 l 4 p pX>.K.K.K.K.K.K.K.K.K.K.K.K.K.>.K.K.K.K.K.K.K.K.K.K.K.K.pX6 6 l 6 j G l z z z z z z z z z z l z l l z z z z z z z z z z l N N & 6 i * Y.xXY.hXhXhXhXhXhXhXhXhXhXhXhXhXhXhXhXhXhXhXhXhXhXhXhXY.cXr.$ l 6 & VXbXnXbXbXbXbXbXbXbXbXbXbXbXbXnXbXbXbXbXbXbXbXbXbXbXnXMXBX# 6 l % ' GX9X9X9X9X9X9X9X9X9X9X",
"6 6 6 6 l 6 % *XyXrXyXyXyXyXyXyXyXyXyXyXyXyXyXyXyXyXyXyXyXyXyXyXyXyXrXyXO.+ j u 5 U 3X2.2.2.2.2.2.2.2.2.2.2.2.2.2.2.2.2.2.2.2.2.2.2.2.2.2.3XR 5 j l & l i.A G G G G G G G G G G G G G G G G G G G G G G G G G G G 6 6 l 4 p pXpXpXpXpXpXpXpXpXpXpXpXpXpXpXpXpXpXpXpXpXpXpXpXpXpXpXpXI.4 6 l 6 6 G G G G G G G G G G G G G G G G G G G G G G G G G G A i.M & 6 i * A.cXxXcXcXcXcXcXcXcXcXcXcXcXcXcXcXcXcXcXcXcXcXcXcXcXcXcXcXd $ l 6 % BXZXZXZXZXZXZXZXZXZXZXZXZXZXZXZXZXZXZXZXZXZXZXZXZXZXZXZXMX# 6 l % Z JXGXGXGXGXGXGXGXGXGXGX",
"& 6 6 6 l 6 6 9 j k k k k k k k k k k k 9 9 9 k k k k k k k k k k k k j 6 6 6 6 6 6 j j j j j j j j j j j j j j j j j j j j j j j j j j j j 6 6 6 l 6 6 6 6 6 6 u u 6 6 u 6 6 6 6 6 6 6 6 6 6 6 u 6 u u u 6 6 6 6 6 6 l 6 6 u p p p p p p p p p p p p u u i i i i i i i i i i i i i u 6 6 l 6 6 6 6 6 6 u u 6 6 u 6 6 6 6 6 6 6 6 6 6 6 6 6 u u 6 6 6 6 6 6 6 6 6 6 i i i i i i i i i i i i i i i i i i i i i i i i i i i i 6 6 l 6 6 6 l l l m m m l m m l l l l l l l l l m m l m m m l l l 6 6 6 l 6 6 w l l l l l l l l l l ",
"4 6 6 6 l 6 6 B A A A B B B A B B A A A A 6 A A A A B B A A B B A A A G z & u 6 6 l M m m m m l m m l m m m M 6 l M m m m m l m l l m m m M l 6 6 l & l G A G A A B A A B A G A G l l G A G A A B A B B A G A G G 6 6 l 6 u iXiXiX&.&.&.&.&.&.&.iX&.iX<.r G A G B B B A B B B G G G A 6 6 l 6 6 G A G A A B A A B A G A i.j z G A G A A A A B B A G A G M & 6 6 6 l M z z l l l l z l z z z z 6 z z z z l l l l l l z z z M 6 6 l 6 6 B G A A B B N A B B A A G z 6 G A A B B B A N N B A A G B 6 6 l 4 j G A A A B B A A N A A ",
"6 6 6 6 l 6 6 G M z M G G G M A G l z z G 6 G z z z B A B N i.i.N z l B M & u 6 & l l 6 6 z l M l l M 6 6 6 M u z j 6 6 l l z l M N l 6 6 j M 6 6 l & z A l z B A G N M i.M z l B M M A l l N B A N G i.G z z z G 6 6 l 4 p iX&.&.&.&.&.&.&.&.&.&.&.iX<.V B l z N B A N G i.A z z z G 6 6 l 6 j G l z N A G A M G N z l A l N N l z B B A N i.i.N z l B N & 6 6 & l l 6 6 l l M l l M 6 6 6 M 6 M 6 6 i l z l l N M u 6 6 M u 6 l 6 6 G M z M A G G M A A l z N N l G l z B B A N G i.A z z M G 6 6 l & l G l z B A G B M i.N z ",
"6 6 6 6 l 6 6 A M l M F.s.s.p.p.a.M z z G 6 G z z z ^./.s.p.a.^.B l l B M & u 6 & l l 6 6 B A B B M B l 6 6 m u l i 6 6 A p.A N B i.M 6 6 i z 6 6 l & l A l l G ^.p.F.G s.G l l B M z B l l i./.^.i.p.F.s.l z z G 6 6 l 4 p iX&.&.&.&.&.&.&.&.&.&.&.iX<.V N l l p./.^.i.p.^.a.l z z G 6 6 l 6 j G l l A ^.p.F.i.a.i.l l A l M N l z ^./.s.p.a.^.A l l N N & 6 6 & l l 6 6 N A B A M B l 6 6 M 6 M 6 6 l p.p.N N A G u 6 6 M u 6 l 6 6 A M l M F.s.s.p.p.a.M l N N l A l l a./.^.i.p.^.p.l z M A 6 6 l & l G l l G ^.p.F.G s.i.l ",
"6 6 6 6 l 6 6 A M z z p.s.p.a.p.p.z z z G 6 G z z z a.s.p.i.B s.B l l B M & u 6 & l l 6 6 M A N B N B i 6 6 m u l i 6 6 M A N B l B M 6 6 i z 6 6 l & l A l l A s.p.a.p.s.B l l B M z B l l B F.i.a.B i.a.l z z G 6 6 l 4 p iX&.&.&.&.&.&.&.&.&.&.&.iX<.V N l l A F.i.a.B i.p.l z z G 6 6 l 6 j G l l N s.a.a.p.a.G l l A l M N l l p.s.p.p.N s.A l l N N & 6 6 & l l 6 6 M A N B N B l 6 6 M 6 M 6 6 i A N B m m B u 6 6 M u 6 l 6 6 A M z z a.s.p.a.p.p.z l N N l A l l A F.i.a.N p.p.l z M A 6 6 l & l G l l N s.a.a.p.a.A l ",
"6 6 6 6 l 6 6 G M l z z l z z z z z z z G 6 G z z z l l z z l z z z l B M & u 6 & l l 6 6 6 6 6 6 6 6 6 6 6 m u z i 6 6 6 6 6 6 6 6 6 6 6 i M 6 6 l & z A l z z l z l z z l z l B M z B l z z l l z l l z z z z G 6 6 l 4 p iX&.&.&.&.&.&.&.&.&.&.&.iX<.V N l z l l l z l l z z z z G 6 6 l 6 j G l z z l z l z z l z l A l N N l z l l z z l z z z l N N & 6 6 & l l 6 6 6 6 6 6 6 6 6 6 6 M 6 M 6 6 6 6 6 6 6 6 6 6 6 6 M u 6 l 6 6 G z z z z l z z z z z l N N l G l z l l l z l l z z z M G 6 6 l & l G l z z l z l z z l z ",
"6 6 6 6 l 6 6 A G G G G G G G G G G G G G 6 G G G G G G G G G G G G G i.z & u 6 6 l M M M M M M M M M M M M N 6 l M M M M M M M M M M M M M z 6 6 l & l i.G G G G G G G G G G G i.l l i.G G G G G G G G G G G G G 6 6 l 4 u iXiXiXiXiXiXiXiXiXiXiXiXiX<.m i.G G G G G G G G G G G G G 6 6 l 6 6 G G G G G G G G G G G G i.l M i.G G G G G G G G G G G i.M & 6 6 6 l M M M M M M M M M M M M M 6 M M M M M M M M M M M M M M 6 6 l 6 6 A G G G G G G G G G G G i.N j i.G G G G G G G G G G G G A 6 6 l & j i.G G G G G G G G G G ",
"6 6 6 6 l 6 6 6 6 6 6 6 6 6 6 6 6 6 6 6 6 6 6 6 6 6 6 6 6 6 6 6 6 6 6 6 6 6 6 6 6 6 6 6 6 6 6 6 6 6 6 6 6 6 6 6 6 6 6 6 6 6 6 6 6 6 6 6 6 6 6 6 6 l 6 6 6 6 6 6 6 6 6 6 6 6 6 6 6 6 6 6 6 6 6 6 6 6 6 6 6 6 6 6 6 6 6 l 6 6 6 u u u u u u u u u u u 6 6 6 6 6 6 6 6 6 6 6 6 6 6 6 6 6 6 6 l 6 6 6 6 6 6 6 6 6 6 6 6 6 6 6 6 6 6 6 6 6 6 6 6 6 6 6 6 6 6 6 6 6 6 6 6 6 6 6 6 6 6 6 6 6 6 6 6 6 6 6 6 6 6 6 6 6 6 6 6 6 6 6 6 6 6 l 6 6 6 6 6 6 6 6 6 6 6 6 6 6 6 6 6 6 6 6 6 6 6 6 6 6 6 6 6 6 6 6 6 l 6 6 6 6 6 6 6 6 6 6 6 6 6 ",
"6 6 6 6 l 6 6 6 6 6 6 6 6 6 6 6 6 6 6 6 6 6 6 6 6 6 6 6 6 6 6 6 6 6 6 6 6 6 6 6 6 6 6 6 6 6 6 6 6 6 6 6 6 6 6 6 6 6 6 6 6 6 6 6 6 6 6 6 6 6 6 6 6 l 6 6 6 6 6 6 6 6 6 6 6 6 6 6 6 6 6 6 6 6 6 6 6 6 6 6 6 6 6 6 6 6 6 l 6 6 6 6 6 6 6 6 6 6 6 6 6 6 6 6 6 6 6 6 6 6 6 6 6 6 6 6 6 6 6 6 6 l 6 6 6 6 6 6 6 6 6 6 6 6 6 6 6 6 6 6 6 6 6 6 6 6 6 6 6 6 6 6 6 6 6 6 6 6 6 6 6 6 6 6 6 6 6 6 6 6 6 6 6 6 6 6 6 6 6 6 6 6 6 6 6 6 6 6 l 6 6 6 6 6 6 6 6 6 6 6 6 6 6 6 6 6 6 6 6 6 6 6 6 6 6 6 6 6 6 6 6 6 l 6 6 6 6 6 6 6 6 6 6 6 6 6 ",
"6 6 6 6 l 6 6 6 l z z z z z z z z z z z z z z z z z z z z z z l l z z l 6 6 6 6 6 6 6 6 6 6 6 6 6 6 6 6 6 6 6 6 6 6 6 6 6 6 6 6 6 6 6 6 u 6 6 6 6 l 6 6 l l z z l z z z z z z z z z z z z z z z z z z z l l M l u 6 6 l 6 6 u l z z l z z z z z z z z z z z z z z z z z z z l l M l u 6 6 l 6 6 j l z z l z z z z z z z z z z z z z z z z z z l l z z l 6 6 6 6 6 6 6 6 6 6 6 6 6 6 6 6 6 6 6 6 6 6 6 6 6 6 6 6 6 6 6 6 6 6 6 6 l 6 6 6 l z z z z z z z z z z z z z z z z z z z z z z l z M l 6 6 6 l 6 6 j l z z l z z z z z z ",
"6 6 6 6 l 6 6 6 p.B z N N l l M M z z M p.l z z z z z z z z z l u /.{.l 6 6 6 6 6 & M M 6 i l 6 6 u u u u 6 N l 6 6 6 6 6 6 6 6 6 6 6 B ].l 6 6 6 l 6 6 N p.z M B z z z M M z z G A l z z z z z z z z z j N XXp.6 6 6 l 6 6 M s.N l A M z l M M z z N i.l z z z z z z z z z j A XXi.6 6 6 l 6 6 z a.M z B M z l M M z z B G l z z z z z z z z l u /..Xl 6 6 6 6 6 & m M 6 u l 6 6 6 u u u 6 M l 6 6 6 6 6 6 6 6 6 6 6 /.p.5 6 6 l 6 6 u p.N z N N z l M M z z M p.l z z z z z z z z z u G XXA 6 6 6 l 6 6 N s.M l A z z z M M z ",
"l & 6 6 l 6 6 6 a.F.^.^.^.^.^.s.F.F.G ^.F.l z z z z z z z z z l l ^./.N 6 6 6 6 6 & M A i.G i.A i.A B i.M A i.i 6 6 6 6 6 6 6 6 6 6 6 B p.M 4 6 6 l 6 6 N F.^.F.^.F.^.^.a./.G a./.A l z z z z z z z z z j G /.a.u 6 6 l 6 & B ^.G ^.^.F.^.^.a.^.a.i./.p.l z z z z z z z z z j i./.p.6 6 6 l 6 6 z F.F.F.^.F.^.^.a.^.p.p./.i.l z z z z z z z z l l F./.N 6 6 6 6 6 & m A i.A i.A i.G B i.M A i.l 6 6 6 6 6 6 6 6 u 6 l p.A 6 6 6 l 6 6 6 s.F.^.^.^.^.^.s.F.F.G ^.F.l z z z z z z z z z j p./.i.6 6 6 l 6 & i.^.i.^.^.F.^.^.p.^.p.",
"z & 6 6 l 6 6 6 s.^.p.^.F./.^.G a.s././.^.l z z z z z z z z z l j {.{.z 6 6 6 6 6 & M i.N G A p.i.N N B i.a.p.u 6 6 6 6 6 6 6 6 6 6 5 G /.l 6 6 6 l 6 6 N ^.a.s.F.^./.F.G a.^././.A l z z z z z z z z z u G XXs.6 6 6 l 6 & B ^.i./.a.^./.^.G a.F./.].p.l z z z z z z z z z u i.XXa.6 6 6 l 6 6 z ^.s.a.^.^./.^.G a.F./.].i.l z z z z z z z z l u /..XM 6 6 6 6 6 & M i.N A A p.i.B M B i.d.d.l 6 6 6 6 6 6 6 6 6 6 i /.p.6 6 6 l 6 6 6 s.F.p.^.F./.^.G a.s./.].F.l z z z z z z z z z u a.XXi.6 6 6 l 6 & i.^.a./.a.^./.F.G a.F.",
"6 6 6 6 l 6 6 6 G A N B A A A M N N G G N z z z z z z z z z z l j i.s.l 6 6 6 6 6 6 l M l l z l z l l l l M l u 6 6 6 6 6 6 6 6 u 6 6 l G 6 6 6 6 l 6 6 M G N N A A A N N N B G A M z z z z z z z z z z l z ^.N u 6 6 l 6 6 l i.A N A A A B M N N G A N z z z z z z z z z z l M ^.N u 6 6 l 6 6 l G N N A A A N M N N G A N z z z z z z z z z l j G F.l 6 6 6 6 6 6 l M l l z l z l l l l M l u 6 6 6 6 6 6 6 6 u 6 6 A M 6 6 6 l 6 6 u G A N B A A A M N N G G N z z z z z z z z z z l M ^.M u 6 6 l 6 6 M i.A N G A A N M N B ",
"6 6 6 6 l 6 6 6 u l l l j l l l l l j j l l l l l l l l l l l l l l j j 6 6 6 6 6 6 6 6 6 6 6 6 6 6 6 6 6 6 6 6 6 6 6 6 6 6 6 6 6 6 6 6 6 6 6 6 6 l 6 6 6 j l l j l j l l l l j j l l l l l l l l l l l j l u l 6 6 6 l 6 6 6 u j l j l l l l l l j j l l l l l l l l l l l j l u l 6 6 6 l 6 6 6 j l l l l l l l l l j j l l l l l l l l l l l l l u j 6 6 6 6 6 6 6 6 6 6 6 6 6 6 6 6 6 6 6 6 6 6 6 6 6 6 6 6 6 6 6 6 6 6 6 6 l 6 6 6 u l l l l l l l l l j j l l l l l l l l l l l j l u l 6 6 6 l 6 6 6 j j l l l j l l l l ",
"6 6 6 6 l 6 6 6 6 6 6 6 6 5 5 6 6 6 6 6 6 6 6 6 6 6 6 6 6 5 5 6 6 6 6 6 6 6 6 6 6 6 6 6 6 6 5 4 6 6 6 6 6 6 6 6 6 6 6 6 6 6 6 5 6 6 6 6 6 6 6 6 6 l 6 6 6 6 6 6 6 4 6 6 6 6 6 6 6 6 6 6 6 6 6 6 6 4 6 6 6 6 6 6 6 6 6 l 6 6 6 6 6 6 6 4 6 6 6 6 6 6 6 6 6 6 6 6 6 6 6 4 6 6 6 6 6 6 6 6 6 l 6 6 6 6 6 6 & $ 6 6 6 6 6 6 6 6 6 6 6 6 6 6 & & 6 6 6 6 6 6 6 6 6 6 6 6 6 6 6 6 & 6 6 6 6 6 6 6 6 6 6 6 6 6 6 6 & 6 6 6 6 6 6 6 6 6 l 6 6 6 6 6 6 & % 6 6 6 6 6 6 6 6 6 6 6 6 6 6 & & & 6 6 6 6 6 6 6 6 l 6 6 6 6 6 6 % % 6 6 6 6 6 ",
"6 6 6 6 l 6 6 6 6 6 6 5 9 e 0 5 5 6 6 6 6 6 6 6 6 6 6 5 5 0 0 6 5 6 6 6 6 6 6 6 6 6 6 6 6 6 j j 6 6 6 6 6 6 6 6 6 6 6 6 6 5 j j 6 6 6 6 6 6 6 6 6 l 6 6 6 6 6 4 , , 6 7 6 6 6 6 6 6 6 6 6 6 6 7 u , 6 4 6 6 6 6 6 6 6 l 6 6 6 6 6 4 u p u 4 6 6 6 6 6 6 6 6 6 6 6 4 u p u 4 6 6 6 6 6 6 6 l 6 6 6 6 & & s d 6 $ 6 6 6 6 6 6 6 6 6 6 & $ s d 6 $ 6 6 6 6 6 6 6 6 6 6 6 6 & 6 l u 6 6 6 6 6 6 6 6 6 6 6 6 & 6 l 6 6 6 6 6 6 6 6 6 l 6 6 6 6 & # l V 6 # 6 6 6 6 6 6 6 6 6 6 6 # l V 7 & 6 6 6 6 6 6 6 l 6 6 6 6 % 5 r t 6 % 6 6 6 ",
"6 6 6 6 l 6 6 6 6 6 6 ..-X$X-Xo.9 5 6 6 6 6 6 6 6 6 5 W $X$X#.#.e 5 6 6 6 6 6 6 6 6 6 5 x 5.[ 5.5.x 6 6 6 6 6 6 6 6 6 6 6 L 5.F v x 6 6 6 6 6 6 6 l 6 6 6 4 , %.1.%.3.< 6 6 6 6 6 6 6 6 6 6 6 %.3.%.%.< 6 6 6 6 6 6 6 l 6 6 6 6 6 *.L.L.L.a 6 6 6 6 6 6 6 6 6 6 6 =.P.*.*.=.6 6 6 6 6 6 6 l 6 6 6 $ f R.lXE.lXe.& 6 6 6 6 6 6 6 6 $ d E.lXY.Y.g & 6 6 6 6 6 6 6 6 6 6 6 B F.s.F.p.i 6 6 6 6 6 6 6 6 6 6 N F.s.i.A u 6 6 6 6 6 6 l 6 6 6 & i nXNXnXMXg.6 6 6 6 6 6 6 6 6 & 6 V.MXSXSXh.6 6 6 6 6 6 6 l 6 6 6 % y 0X0X0X0X' % 6 6 ",
"s.u 6 6 l 6 6 6 6 5 o.$X$ X * #.-X6 6 6 6 6 6 6 6 5 W -X0 X X ; ;X- 5 6 6 6 6 6 6 6 5 x 5.9 X X j 5.x 6 6 6 6 6 6 6 6 6 5.n @   # n n 6 6 6 6 6 6 l 6 6 6 > 3.< @ X > 1.%.7 6 6 6 6 6 6 6 4 %.%.@   @ < %.6 6 6 6 6 6 l 6 6 6 6 L.*.@ X + =.=.6 6 6 6 6 6 6 6 4 *.*.@   + =.*.6 6 6 6 6 6 l 6 6 $ d kXg X X d lXe.$ 6 6 6 6 6 6 & d kXe.X X 5 Y.e.$ 6 6 6 6 6 6 6 6 & A F.& X @ N F.6 6 6 6 6 6 6 6 & A F.5   X i p.u 6 6 6 6 6 l 6 6 6 6 NXg.@ X 7 nXSX# 6 6 6 6 6 6 6 6 bXg.#   # SXSX& 6 6 6 6 6 l 6 6 % y 0Xt X O t 0Xy % 6 ",
"s.M 6 6 l 6 6 6 5 W $XX + z # . $.$.5 6 6 6 6 6 6 6 $X- o % & X : #.6 6 6 6 6 6 6 6 6 5.& . & & . & v 6 6 6 6 6 6 6 5 F n . X @ X X v j 6 6 6 6 6 l 6 6 7 %.< o 6 l o @ %.> 6 6 6 6 6 6 7 < %.X @ % & o < < 7 6 6 6 6 l 6 6 $ =.*.= & 6 X O =.a 4 6 6 6 6 6 $ =.*.= @ % & = =.a 4 6 6 6 6 l 6 6 & R.g . u l . % Y.u 6 6 6 6 6 6 $ E.e.. # & O # Y.i 6 6 6 6 6 6 6 6 l F.@   6 @ . M A & 6 6 6 6 6 6 l F.#   @ @ . l A 6 6 6 6 6 l 6 6 * g.V.. % M   . SXh.& 6 6 6 6 6 * g.nX. @ & #   SXh.* 6 6 6 6 l 6 6 6 0Xt . j l . 9 B.6 6 ",
"M B 6 6 l 6 6 6 3 #.$.o N G l @ : #.5 6 6 6 6 6 5 c $X  j N A M X #.0 5 6 6 6 6 6 5 x [   & M 6 # X n j 6 6 6 6 6 6 6 5.& X l j z   x x 5 6 6 6 6 l 6 6 u 1.@ # G N u X < < 7 6 6 6 6 6 7 %.< o N M i.# > %.4 6 6 6 6 l 6 6 $ L.h O A M A @ h =.4 6 6 6 6 6 $ *.a = B M i.@ h =.4 6 6 6 6 l 6 & d lXX 6 i.M u = S.g $ 6 6 6 6 & i lX+ & B N A   S.e.$ 6 6 6 6 6 6 & A i.. 6 z 6 O # i.6 6 6 6 6 6 & A p.. 6 u M # @ i.6 6 6 6 6 l 6 6 & bXV X G N l = h.h.* 6 6 6 6 6 # bXt.  B M i.= h.SX* 6 6 6 6 l 6 % y 0X  6 i.M 6   B.t % ",
"& 6 6 6 l 6 6 6 3 #.Q o N A G 5 : #.6 6 6 6 6 6 5 W $X  j G i.M X Y e 5 6 6 6 6 6 5 x [   & l z 6   n j 6 6 6 6 6 6 6 [ $ X l z l   x c 5 6 6 6 6 l 6 6 u %.@ & A A A X < < 7 6 6 6 6 6 7 %.< X N G i.# * %.6 6 6 6 6 l 6 6 4 L.h O A G G @ h =.4 6 6 6 6 6 $ *.h O B G G # 3 =.4 6 6 6 6 l 6 & d E.X 6 A G N   S.e.$ 6 6 6 6 & p E.+ 6 A G B   S.e.$ 6 6 6 6 6 6 & A A . u l z # @ A 6 6 6 6 6 6 & A i.. 6 l M # O A 6 6 6 6 6 l 6 6 & bX8 @ A A G = h.g.* 6 6 6 6 6 % nXV X A G i.@ h.SX% 6 6 6 6 l 6 % y 9X  j A G M   Z.y % ",
"6 6 6 6 l 6 6 6 3 Q $Xo # z j o U Y 5 6 6 6 6 6 6 9 -X$   l l X * ;X9 6 6 6 6 6 6 6 j 5.@   6 6   # v 6 6 6 6 6 6 6 5 [ x . # 6 @   n x 5 6 6 6 6 l 6 6 4 %., o u M # X %., 4 6 6 6 6 6 7 %.%.o % z 6 o < %.7 6 6 6 6 l 6 6 $ *.=.. 6 z 6 = =.a 4 6 6 6 6 6 $ =.*.. & z 6 = a =.4 6 6 6 6 l 6 6 6 lXp . l z @ @ Y.p & 6 6 6 6 6 & lXd . i z @ O Y.d & 6 6 6 6 6 6 & M F.  X 6 & . i A 6 6 6 6 6 6 & l F.    6 & . 6 A 6 6 6 6 6 l 6 6 * nXg.. 6 M 4 . SXh.* 6 6 6 6 6 @ nXg.. 6 z 6 . h.h.* 6 6 6 6 l 6 6 w 0X9   l z X # C.w 6 ",
"6 6 6 6 l 6 6 6 6 5 $X#.o X   ; ;X0 5 6 6 6 6 6 6 5 Q -X*     @ ;XU 5 6 6 6 6 6 6 6 5 n 5.@     @ v x 6 6 6 6 6 6 6 6 j 6.j     X x n 6 6 6 6 6 6 l 6 6 4 , 3.> X   X %.%.4 6 6 6 6 6 6 6 6 1.%.X   X , %.> 6 6 6 6 6 l 6 6 6 u P.a   X   a *.6 6 6 6 6 6 6 6 6 L.=.  X   h *.6 6 6 6 6 6 l 6 6 $ e.kX5   X @ Y.S.$ 6 6 6 6 6 6 $ e.kXp   X O S.S.$ 6 6 6 6 6 6 6 6 & p.p.X     6 i.i 6 6 6 6 6 6 6 & p.G.X     & i.l 6 6 6 6 6 l 6 6 & m BXf.. X   h.SX6 6 6 6 6 6 6 & 6 MXf.. X   h.SX6 6 6 6 6 6 l 6 6 % k.0X$     @ B.j.% 6 ",
"6 6 6 6 l 6 6 6 6 5 e #.5 6 5 W e 5 6 6 6 6 6 6 6 6 6 #.k 5 6 0 $.5 6 6 6 6 6 6 6 6 6 6 F j 6 6 j x 6 6 6 6 6 6 6 6 6 5 x x 6 6 6 x 6 6 6 6 6 6 6 l 6 6 6 7 < < 7 6 6 < 6 6 6 6 6 6 6 6 6 4 , %.6 6 6 < , 4 6 6 6 6 6 l 6 6 6 4 a =.4 6 6 a p 6 6 6 6 6 6 6 6 4 a =.4 6 6 a p 4 6 6 6 6 6 l 6 6 6 $ A.f & 6 i e.6 6 6 6 6 6 6 6 6 $ S.f $ 6 u e.6 6 6 6 6 6 6 6 6 6 6 u A 6 6 6 l l 6 6 6 6 6 6 6 6 6 6 A 6 6 6 l M 6 6 6 6 6 6 l 6 6 6 # f.f.% 6 & h.8 & 6 6 6 6 6 6 6 # t.g.% 6 & h.8 & 6 6 6 6 6 l 6 6 6 5 B.t 5 6 w k.5 6 6 ",
"6 6 6 6 l 6 6 6 6 6 5 + 6 6 6 % 5 6 6 6 6 6 6 6 6 6 6 + 5 6 & 5 % 6 6 6 6 6 6 6 6 6 6 6 % 6 6 6 6 & 6 6 6 6 6 6 6 6 6 6 & & 6 6 6 & 6 6 6 6 6 6 6 l 6 6 6 6 4 4 6 & 6 4 6 6 6 6 6 6 6 6 6 6 4 4 6 6 6 4 4 6 6 6 6 6 6 l 6 6 6 6 & $ 6 6 6 $ 4 6 6 6 6 6 6 6 6 6 & $ 6 4 6 $ 4 6 6 6 6 6 6 l 6 6 6 6 * & 6 & 6 $ 6 6 6 6 6 6 6 6 6 6 * $ 6 & 6 $ 6 6 6 6 6 6 6 6 6 6 6 6 # 6 6 6 & & 6 6 6 6 6 6 6 6 6 6 # 6 6 6 & & 6 6 6 6 6 6 l 6 6 6 6 # # 6 & 6 * & 6 6 6 6 6 6 6 6 6 # # 6 & 6 * & 6 6 6 6 6 6 l 6 6 6 6 + & 6 & 5 % 6 6 6 ",
"6 6 6 6 l 6 6 6 6 6 6 z & l j l j 6 6 6 6 6 6 6 6 6 6 M 6 6 z u z 6 6 6 6 6 6 6 6 6 6 6 l 6 6 l 6 l 6 6 6 6 6 6 6 6 6 6 j j 6 l 6 l 6 6 6 6 6 6 6 l 6 6 6 6 z j 6 M 6 z 6 6 6 6 6 6 6 6 6 6 u z & l j l u 6 6 6 6 6 6 l 6 6 6 6 l 6 l 6 6 z u l 6 6 6 6 6 6 6 6 j z & l u l u 6 6 6 6 6 6 l 6 6 6 6 M u 6 z 6 M 6 6 6 6 6 6 6 6 6 6 z u 6 z 6 M 6 6 6 6 6 6 6 6 6 6 6 6 l 6 u u u u 6 6 6 6 6 6 6 6 6 6 l 6 6 j u j 6 6 6 6 6 6 l 6 6 6 6 l l & z 6 M 6 6 6 6 6 6 6 6 6 6 l l & z u m 6 6 6 6 6 6 6 l 6 6 6 6 M 6 6 z u z 6 6 6 ",
"6 6 6 6 l 6 6 6 6 & G s.l i.s.s.G 6 6 6 6 6 6 6 6 & z F.N N s.s.a.j 6 6 6 6 6 6 6 6 6 l i.l M G G A 6 6 6 6 6 6 6 6 6 6 A B j A G G z 6 6 6 6 6 6 l 6 6 6 u s.G z s.s.s.M & 6 6 6 6 6 6 6 4 G s.l p.s.s.G 4 6 6 6 6 6 l 6 6 6 & s.M s.6 B s.s.a.j 6 6 6 6 6 6 6 i.s.l p.s.s.G & 6 6 6 6 6 l 6 6 6 l s.B M s.s.a.l 6 6 6 6 6 6 6 6 j s.A M s.s.s.z & 6 6 6 6 6 6 6 6 6 M i.l N G G B 6 6 6 6 6 6 6 6 6 M i.l N G G B 6 6 6 6 6 6 l 6 6 6 6 p.p.l a.s.s.N & 6 6 6 6 6 6 6 6 p.p.l a.s.s.B & 6 6 6 6 6 l 6 6 & l F.N N s.s.a.l 6 6 ",
"6 6 6 6 l 6 6 6 6 6 G i.G A F.a.i.6 6 6 6 6 6 6 6 & N i.G G p.^.G z & 6 6 6 6 6 6 6 & z B N M B i.N l 6 6 6 6 6 6 6 6 6 B B M N p.N N & 6 6 6 6 6 l 6 6 6 l i.i.A G ^.G B & 6 6 6 6 6 6 6 6 G i.G A ^.a.i.6 6 6 6 6 6 l 6 6 l z B z G l G p.^.G z & 6 6 6 6 6 6 G i.A A ^.p.G 6 6 6 6 6 6 l 6 6 & M i.G A i.^.G N & 6 6 6 6 6 6 & l i.G A G ^.G N & 6 6 6 6 6 6 6 6 6 N B N M G G B 6 6 6 6 6 6 6 6 & M B N M A i.N 6 6 6 6 6 6 l 6 6 6 u i.i.A G ^.i.G & 6 6 6 6 6 6 6 6 i.i.A G ^.i.G & 6 6 6 6 6 l 6 6 & M i.G G i.^.G M & 6 ",
"6 6 6 6 l 6 6 6 6 & M p.M G A G N & 6 6 6 6 6 6 6 6 6 p.B N i.B i.6 6 6 6 6 6 6 6 6 6 6 B M M B M B 6 6 6 6 6 6 6 6 6 6 M N l B M B u 6 6 6 6 6 6 l 6 6 6 6 G G M i.N p.u 6 6 6 6 6 6 6 6 & M p.M G A i.N & 6 6 6 6 6 l 6 6 6 6 M l M M N i.B i.6 6 6 6 6 6 6 & N i.M G B i.M & 6 6 6 6 6 l 6 6 6 6 i.A N i.N p.6 6 6 6 6 6 6 6 6 6 i.A M i.N p.6 6 6 6 6 6 6 6 6 6 6 l B l M N N M 6 6 6 6 6 6 6 6 6 u B z M N M N 6 6 6 6 6 6 l 6 6 6 & A i.M i.B p.l 6 6 6 6 6 6 6 6 & B i.M i.B i.z 6 6 6 6 6 6 l 6 6 6 6 p.B N i.B i.6 6 6 ",
"6 6 6 6 l 6 6 6 6 6 6 & 6 & & & 6 6 6 6 6 6 6 6 6 6 6 & & 6 & & & 6 6 6 6 6 6 6 6 6 6 6 6 6 6 6 6 6 6 6 6 6 6 6 6 6 6 6 6 6 6 6 6 6 6 6 6 6 6 6 6 l 6 6 6 6 & & 6 & & & 6 6 6 6 6 6 6 6 6 6 6 & 6 & & & 6 6 6 6 6 6 6 l 6 6 6 6 6 6 6 6 4 & & & 6 6 6 6 6 6 6 6 6 & 6 & & & 6 6 6 6 6 6 6 l 6 6 6 6 & & 6 & & & 6 6 6 6 6 6 6 6 6 6 & & 6 & & & 6 6 6 6 6 6 6 6 6 6 6 6 & 6 6 6 6 6 6 6 6 6 6 6 6 6 6 6 & 6 6 6 6 6 6 6 6 6 6 6 l 6 6 6 6 & & 6 & & & 6 6 6 6 6 6 6 6 6 6 4 & 6 & & & 6 6 6 6 6 6 6 l 6 6 6 6 & & 6 & & & 6 6 6 ",
"6 6 6 6 l 6 6 6 6 6 6 6 6 6 6 6 6 6 6 6 6 6 6 6 6 6 6 6 6 6 6 6 6 6 6 6 6 6 6 6 6 6 6 6 6 6 6 6 6 6 6 6 6 6 6 6 6 6 6 6 6 6 6 6 6 6 6 6 6 6 6 6 6 l 6 6 6 6 6 6 6 6 6 6 6 6 6 6 6 6 6 6 6 6 6 6 6 6 6 6 6 6 6 6 6 6 6 l 6 6 6 6 6 6 6 6 6 6 6 6 6 6 6 6 6 6 6 6 6 6 6 6 6 6 6 6 6 6 6 6 6 l 6 6 6 6 6 6 6 6 6 6 6 6 6 6 6 6 6 6 6 6 6 6 6 6 6 6 6 6 6 6 6 6 6 6 6 6 6 6 6 6 6 6 6 6 6 6 6 6 6 6 6 6 6 6 6 6 6 6 6 6 6 6 6 6 6 6 l 6 6 6 6 6 6 6 6 6 6 6 6 6 6 6 6 6 6 6 6 6 6 6 6 6 6 6 6 6 6 6 6 6 l 6 6 6 6 6 6 6 6 6 6 6 6 6 ",
"6 6 6 6 l 6 6 6 6 6 6 6 6 % 5 6 6 6 6 6 6 6 6 6 6 6 6 6 6 4 4 6 6 6 6 6 6 6 6 6 6 6 6 6 6 6 6 6 6 6 6 6 6 6 6 6 6 6 6 6 6 6 6 6 6 6 6 6 6 6 6 6 6 l 6 6 6 6 6 6 & % 6 6 6 6 6 6 6 6 6 6 6 6 6 6 6 4 4 6 6 6 6 6 6 6 6 l 6 6 6 6 6 6 5 % 5 6 6 6 6 6 6 6 6 6 6 6 6 6 6 4 4 6 6 6 6 6 6 6 6 l 6 6 6 6 6 6 % % 6 6 6 6 6 6 6 6 6 6 6 6 6 6 4 4 6 6 6 6 6 6 6 6 6 6 6 6 6 6 6 6 6 6 6 6 6 6 6 6 6 6 6 6 6 6 6 6 6 6 6 6 6 6 6 6 6 6 l 6 6 6 6 6 6 5 % 5 6 6 6 6 6 6 6 6 6 6 6 6 6 6 4 6 6 6 6 6 6 6 6 6 l 6 6 6 6 6 6 % % 6 6 6 6 6 ",
"6 6 6 6 l 6 6 6 6 6 6 % w C k % 5 6 6 6 6 6 6 6 6 6 6 4 6 p a 6 4 6 6 6 6 6 6 6 6 6 6 6 6 6 j j 6 6 6 6 6 6 6 6 6 6 6 6 6 6 u j 6 6 6 6 6 6 6 6 6 l 6 6 6 6 5 5 C C 9 % 6 6 6 6 6 6 6 6 6 6 6 4 p a p 4 6 6 6 6 6 6 6 l 6 6 6 6 6 % k C w % 6 6 6 6 6 6 6 6 6 6 6 4 p a p 4 6 6 6 6 6 6 6 l 6 6 6 6 % 6 C C 6 % 6 6 6 6 6 6 6 6 6 6 4 6 p a u 4 6 6 6 6 6 6 6 6 6 6 6 6 6 6 j 9 6 6 6 6 6 6 6 6 6 6 6 6 6 6 u u 6 6 6 6 6 6 6 6 l 6 6 6 6 5 % k C w % 6 6 6 6 6 6 6 6 6 6 6 4 p a p 4 6 6 6 6 6 6 6 l 6 6 6 6 % 6 C C 6 % 6 6 6 ",
"6 6 6 6 l 6 6 6 6 6 6 b.9XB.9XB.w & 6 6 6 6 6 6 6 6 4 a L.L.L.L.a 4 6 6 6 6 6 6 6 6 6 6 l F F F F l 6 6 6 6 6 6 6 6 6 6 u P S S J z 6 6 6 6 6 6 6 l 6 6 6 % C B.8XB.9Xk.5 6 6 6 6 6 6 6 6 6 6 *.P.*.P.*.p 4 6 6 6 6 6 l 6 6 6 5 9 B.9XB.9XB.9 6 6 6 6 6 6 6 6 6 u *.P.*.P.*.u 6 6 6 6 6 6 l 6 6 6 % Z 8X8X8X9X' % 6 6 6 6 6 6 6 6 4 a L.L.L.P.=.4 6 6 6 6 6 6 6 6 6 6 6 x ' Z ' Z 9 6 6 6 6 6 6 6 6 6 6 z S S S S u 6 6 6 6 6 6 l 6 6 6 5 w B.9XB.9XB.6 6 6 6 6 6 6 6 6 6 u *.P.*.P.*.6 6 6 6 6 6 6 l 6 6 6 % ' 8X8X8X9X' % 6 6 ",
"6 6 6 6 l 6 6 6 6 % B.B.@   O  .0X9 6 6 6 6 6 6 6 4 a P.p X X p P.a 4 6 6 6 6 6 6 6 6 x ' & X X 6 ' x 6 6 6 6 6 6 6 6 6 S l X   @ S P 6 6 6 6 6 6 l 6 6 5 k 9X' X X $ 8XB.% 6 6 6 6 6 6 6 4 >.*.@ X X =.P.6 6 6 6 6 6 l 6 6 6 6 8Xk.@   @ B.8X5 6 6 6 6 6 6 6 4 L.*.@ X @ *.P.6 6 6 6 6 6 l 6 6 % C 0Xe X X 9 9Xk.% 6 6 6 6 6 6 4 p P.a X X % P.=.$ 6 6 6 6 6 6 6 6 5 c F #   X j ' 9 6 6 6 6 6 6 6 4 z S #   X u ;.u 6 6 6 6 6 l 6 6 6 6 9Xk.X   @ B.8X% 6 6 6 6 6 6 6 6 L.=.@ X @ *.L.4 6 6 6 6 6 l 6 6 % ' 9X0 X X 0 0X .% 6 ",
"6 6 6 6 l 6 6 6 % ' B.  @ M u . k.B.% 6 6 6 6 6 6 6 L.p = l M O p L.6 6 6 6 6 6 6 6 6 F & . 6 6 . & Z 6 6 6 6 6 6 6 4 P z . @ 6 @ X S l 4 6 6 6 6 l 6 6 % B.' . 6 M + O 8Xk 5 6 6 6 6 6 $ =.L.= # M j = *.*.$ 6 6 6 6 l 6 6 % k.B.. & M 6 . B.k.% 6 6 6 6 6 $ =.*.= # M 6 . =.a 4 6 6 6 6 l 6 6 6 8XC . j M X $ 8Xw 6 6 6 6 6 6 4 L.a . u M * @ P.p 4 6 6 6 6 6 6 6 j F O   6 & . k c 5 6 6 6 6 6 6 u S @   6 6   u S 6 6 6 6 6 l 6 6 % B.B.. 6 N % . B.' % 6 6 6 6 6 $ =.*.= & M 6 = >.=.$ 6 6 6 6 l 6 6 6 8X0 . l M   9 8X6 6 ",
"6 6 6 6 l 6 6 6 % B.k.. B G z X 9 B.6 6 6 6 6 6 4 a L.  u i.A 6   >.a 4 6 6 6 6 6 6 j F   & M l @   c 9 6 6 6 6 6 6 6 S % X z z 6 . l z 4 6 6 6 6 l 6 6 9 8X$ % G B 6 .  .' % 6 6 6 6 6 $ *.=.= B i.N   h *.4 6 6 6 6 l 6 6 % B.c X G G l . t k.% 6 6 6 6 6 $ *.a = A G l X p =.4 6 6 6 6 l 6 5 k 8XO 6 i.B 6 . k.C % 6 6 6 6 6 p L.+ & G G u . *.a $ 6 6 6 6 6 6 5 c c . 6 M 6 X @ c 6 6 6 6 6 6 4 z P . 6 M l X X S 6 6 6 6 6 l 6 6 5 8Xe X G G j . W  .% 6 6 6 6 6 4 L.h O A G M   a *.$ 6 6 6 6 l 6 % C 8X  6 i.N &   k.C 5 ",
"6 6 6 6 l 6 6 6 % B. .. N A B % : B.6 6 6 6 6 6 4 a L.  u G N 6   =.p 4 6 6 6 6 6 6 j Z   & l l 6 X c 9 6 6 6 6 6 6 6 S # X l l 6   u l 6 6 6 6 6 l 6 6 9 8X* % G A N    .' % 6 6 6 6 6 $ *.a = N A M O 3 =.6 6 6 6 6 l 6 6 % B.e X B A N X e k.% 6 6 6 6 6 $ *.a O B A A # p =.4 6 6 6 6 l 6 5 C 8XX 6 G A M   k.Z % 6 6 6 6 6 p L.@ & G B j   =.a 4 6 6 6 6 6 6 5 c c . 6 l l # @ c 6 6 6 6 6 6 4 z P . 6 l j @ X z 6 6 6 6 6 l 6 6 5 8X0 @ A A B X t k.% 6 6 6 6 6 4 L.h O A B M X h =.4 6 6 6 6 l 6 % C B.  j G A l   k.C % ",
"6 6 6 6 l 6 6 6 %  .B.. # l 9 . ' k.% 6 6 6 6 6 6 u L.%   j l O % *.6 6 6 6 6 6 6 6 6 H # . & 6   # c 6 6 6 6 6 6 6 4 P l . @ 6 @ X z u 6 6 6 6 6 l 6 6 % 8XZ . 6 z @ X B.C 5 6 6 6 6 6 $ =.*.= # l u = a =.4 6 6 6 6 l 6 6 % B.B.. & z 6 .  .' % 6 6 6 6 6 $ =.*.. % z 6 = =.=.4 6 6 6 6 l 6 6 6 8X0 . j l @ @ B.w 5 6 6 6 6 6 4 L.h . u z @ O *.p 4 6 6 6 6 6 6 6 j F X   6 & . 9 x 6 6 6 6 6 6 6 u S X   6 &   6 z 6 6 6 6 6 l 6 6 % B.k.. 6 z & . k.' % 6 6 6 6 6 $ *.*.. & z 6 = =.a 4 6 6 6 6 l 6 6 9 9X9   j l X $ B.9 6 ",
"6 6 6 6 l 6 6 6 6 & 8XB.  X   e B.w 6 6 6 6 6 6 6 $ =.P.%     @ *.a 4 6 6 6 6 6 6 6 5 x ' #     # c j 6 6 6 6 6 6 6 6 u J u     X l z 6 6 6 6 6 6 l 6 6 % C 0Xe   X X k. .% 6 6 6 6 6 6 6 6 L.*.= X   h *.u 6 6 6 6 6 l 6 6 6 6 9X .  X   ' B.6 6 6 6 6 6 6 6 6 P.=.= X   a *.6 6 6 6 6 6 l 6 6 % ' 0X9     @ B. .% 6 6 6 6 6 6 4 a I.p     O =.=.4 6 6 6 6 6 6 6 6 6 Z Z X     & c 6 6 6 6 6 6 6 6 4 P S @     % P u 6 6 6 6 6 l 6 6 6 w 0X'   X    .B.6 6 6 6 6 6 6 6 6 P.=.  X X a *.6 6 6 6 6 6 l 6 6 %  .0X$     @ B.' % 6 ",
"6 6 6 6 l 6 6 6 6 5 k k.6 6 5 C C % 6 6 6 6 6 6 6 6 6 =.p 6 6 p a 4 6 6 6 6 6 6 6 6 6 6 x j 6 6 9 j 6 6 6 6 6 6 6 6 6 6 l l 6 6 6 j 6 6 6 6 6 6 6 l 6 6 6 %  .Z 5 6 6 ' 6 6 6 6 6 6 6 6 6 4 p =.6 6 6 a p 4 6 6 6 6 6 l 6 6 6 % C  .5 6 6 ' w 5 6 6 6 6 6 6 6 4 p =.6 6 6 a p 4 6 6 6 6 6 l 6 6 6 % k.C 5 6 9 ' 6 6 6 6 6 6 6 6 6 4 =.a 6 6 u a 6 6 6 6 6 6 6 6 6 6 6 6 x 6 6 6 j j 6 6 6 6 6 6 6 6 6 6 z 6 6 6 u u 6 6 6 6 6 6 l 6 6 6 % ' ' 5 6 6 ' w 5 6 6 6 6 6 6 6 4 a =.4 6 6 a p 6 6 6 6 6 6 l 6 6 6 5 k.x 6 6 w ' 5 6 6 ",
"6 6 6 6 l 6 6 6 6 6 5 + 6 & 6 % % 6 6 6 6 6 6 6 6 6 6 $ & 6 6 & $ 6 6 6 6 6 6 6 6 6 6 6 % 6 & 6 6 & 6 6 6 6 6 6 6 6 6 6 6 & 6 6 6 4 6 6 6 6 6 6 6 l 6 6 6 6 # % & 6 6 % 6 6 6 6 6 6 6 6 6 6 6 $ 6 & 6 $ 6 6 6 6 6 6 6 l 6 6 6 6 % % 6 6 6 % 5 6 6 6 6 6 6 6 6 6 4 $ 6 & 6 $ & 6 6 6 6 6 6 l 6 6 6 6 # % 4 6 6 % 6 6 6 6 6 6 6 6 6 6 $ & 6 & 4 $ 6 6 6 6 6 6 6 6 6 6 6 6 % 6 & 6 6 & 6 6 6 6 6 6 6 6 6 6 & 6 6 6 & 6 6 6 6 6 6 6 l 6 6 6 6 % # 6 & 6 % 5 6 6 6 6 6 6 6 6 6 4 $ 6 & 6 $ 6 6 6 6 6 6 6 l 6 6 6 6 # & & 6 6 % 6 6 6 ",
"6 6 6 6 l 6 6 6 6 6 6 N u M 6 l z 6 6 6 6 6 6 6 6 6 6 u l l l l l 6 6 6 6 6 6 6 6 6 6 6 z 6 l 6 u l 6 6 6 6 6 6 6 6 6 6 6 u u l l j 6 6 6 6 6 6 6 l 6 6 6 6 N j M 6 6 N 6 6 6 6 6 6 6 6 6 6 6 l 6 M j M 6 6 6 6 6 6 6 l 6 6 6 6 z l l l 6 M u 6 6 6 6 6 6 6 6 6 u M j M & l l 6 6 6 6 6 6 l 6 6 6 6 M l z l 6 N 6 6 6 6 6 6 6 6 6 6 6 l j z l z 6 6 6 6 6 6 6 6 6 6 6 6 z 6 l 6 6 l 6 6 6 6 6 6 6 6 6 6 u 6 l u l 6 6 6 6 6 6 6 l 6 6 6 6 l M j M & M l 6 6 6 6 6 6 6 6 6 6 l 6 M u M 6 6 6 6 6 6 6 l 6 6 6 6 M l z j 6 N 6 6 6 ",
"& 6 6 6 l 6 6 6 6 6 6 G ^.a.z G s.u 6 6 6 6 6 6 6 6 & N s.G s.s.i.6 6 6 6 6 6 6 6 6 6 6 N i.A l N A 6 6 6 6 6 6 6 6 6 6 l G N G G B 6 6 6 6 6 6 6 l 6 6 6 6 N ^.s.B N F.M & 6 6 6 6 6 6 6 6 u s.G s.F.p.j 6 6 6 6 6 6 l 6 6 6 6 l F.F.i.j /.B & 6 6 6 6 6 6 6 6 u s.s.a.l p.s.6 6 6 6 6 6 l 6 6 6 6 l ^.s.G z s.B & 6 6 6 6 6 6 6 6 l s.G s.s.p.6 6 6 6 6 6 6 6 6 6 6 6 M i.A l M G u 6 6 6 6 6 6 6 6 & N A B i.G M 6 6 6 6 6 6 l 6 6 6 6 u s.F.p.l a.i.6 6 6 6 6 6 6 6 6 6 s.G a.F.a.z & 6 6 6 6 6 l 6 6 6 6 M ^.s.A M F.N & 6 ",
"& 6 6 6 l 6 6 6 6 6 6 i.p.i.G G p.l 6 6 6 6 6 6 6 6 6 6 p.G F.s.i.6 6 6 6 6 6 6 6 6 6 6 N B B N N B l 6 6 6 6 6 6 6 6 6 6 B N G G B 6 6 6 6 6 6 6 l 6 6 6 6 B a.i.G A p.N & 6 6 6 6 6 6 6 6 & G i.p.^.i.l & 6 6 6 6 6 l 6 6 6 & M G i.F.M ^.G & 6 6 6 6 6 6 6 6 6 a.^.i.B A ^.6 6 6 6 6 6 l 6 6 6 & N a.i.i.A i.G & 6 6 6 6 6 6 6 6 6 i.G a.F.i.l 6 6 6 6 6 6 6 6 6 6 6 N B B N N B l 6 6 6 6 6 6 6 6 6 j A M i.B N 6 6 6 6 6 6 l 6 6 6 6 l p.i.i.A G p.6 6 6 6 6 6 6 6 6 & A p.G ^.i.N & 6 6 6 6 6 l 6 6 6 & N a.i.i.A p.A & 6 ",
"& 6 6 6 l 6 6 6 6 4 z s.N i.M B G 6 6 6 6 6 6 6 6 6 6 6 M N A A N & 6 6 6 6 6 6 6 6 6 l A l B l M N 6 6 6 6 6 6 6 6 6 6 6 l z M M M 6 6 6 6 6 6 6 l 6 6 6 6 s.N G B M i.6 6 6 6 6 6 6 6 6 6 6 M z G N G 6 6 6 6 6 6 6 l 6 6 6 & i.G N N N G M 6 6 6 6 6 6 6 6 6 l G N i.M N N & 6 6 6 6 6 l 6 6 6 6 p.A G A M i.l 6 6 6 6 6 6 6 6 6 6 M M G B G 6 6 6 6 6 6 6 6 6 6 6 u G z B z M N 6 6 6 6 6 6 6 6 6 6 u l M M N l 6 6 6 6 6 6 l 6 6 6 & B p.N G M G N & 6 6 6 6 6 6 6 6 6 M l i.N i.6 6 6 6 6 6 6 l 6 6 6 6 a.B G A M i.j 6 6 ",
"6 6 6 6 l 6 6 6 6 6 6 & 6 & 6 & & 6 6 6 6 6 6 6 6 6 6 6 6 & & & & 6 6 6 6 6 6 6 6 6 6 6 & 6 & 6 6 & 6 6 6 6 6 6 6 6 6 6 6 6 6 6 6 6 6 6 6 6 6 6 6 l 6 6 6 6 & 6 & & 6 & 6 6 6 6 6 6 6 6 6 6 6 6 6 & & & 6 6 6 6 6 6 6 l 6 6 6 6 & 6 6 & & & 6 6 6 6 6 6 6 6 6 6 6 & & & 6 6 & 6 6 6 6 6 6 l 6 6 6 6 & 6 & & 6 & 6 6 6 6 6 6 6 6 6 6 6 6 6 & & & 6 6 6 6 6 6 6 6 6 6 6 6 & 6 & 6 6 & 6 6 6 6 6 6 6 6 6 6 6 6 6 6 & 6 6 6 6 6 6 6 l 6 6 6 6 & & 6 & 6 & & 6 6 6 6 6 6 6 6 6 6 6 6 & & & 6 6 6 6 6 6 6 l 6 6 6 6 & 6 & & 6 & 6 6 6 ",
"6 6 6 6 l 6 6 6 6 6 6 6 6 6 6 6 6 6 6 6 6 6 6 6 6 6 6 6 6 6 6 6 6 6 6 6 6 6 6 6 6 6 6 6 6 6 6 6 6 6 6 6 6 6 6 6 6 6 6 6 6 6 6 6 6 6 6 6 6 6 6 6 6 l 6 6 6 6 6 6 6 6 6 6 6 6 6 6 6 6 6 6 6 6 6 6 6 6 6 6 6 6 6 6 6 6 6 l 6 6 6 6 6 6 6 6 6 6 6 6 6 6 6 6 6 6 6 6 6 6 6 6 6 6 6 6 6 6 6 6 6 l 6 6 6 6 6 6 6 6 6 6 6 6 6 6 6 6 6 6 6 6 6 6 6 6 6 6 6 6 6 6 6 6 6 6 6 6 6 6 6 6 6 6 6 6 6 6 6 6 6 6 6 6 6 6 6 6 6 6 6 6 6 6 6 6 6 6 l 6 6 6 6 6 6 6 6 6 6 6 6 6 6 6 6 6 6 6 6 6 6 6 6 6 6 6 6 6 6 6 6 6 l 6 6 6 6 6 6 6 6 6 6 6 6 6 ",
"6 6 6 6 l 6 6 6 6 6 6 6 & % % 6 6 6 6 6 6 6 6 6 6 6 6 6 6 5 5 6 6 6 6 6 6 6 6 6 6 6 6 6 6 6 6 6 6 6 6 6 6 6 6 6 6 6 6 6 6 6 6 5 6 6 6 6 6 6 6 6 6 l 6 6 6 6 6 6 % % & 6 6 6 6 6 6 6 6 6 6 6 6 6 4 7 4 6 6 6 6 6 6 6 6 l 6 6 6 6 6 6 % % % 6 6 6 6 6 6 6 6 6 6 6 6 6 4 4 4 6 6 6 6 6 6 6 6 l 6 6 6 6 6 6 % % 6 6 6 6 6 6 6 6 6 6 6 6 6 6 $ $ 6 6 6 6 6 6 6 6 6 6 6 6 6 6 6 6 6 6 6 6 6 6 6 6 6 6 6 6 6 6 6 6 & & 6 6 6 6 6 6 6 6 l 6 6 6 6 6 6 % % & 6 6 6 6 6 6 6 6 6 6 6 6 6 & # & 6 6 6 6 6 6 6 6 l 6 6 6 6 6 6 % % 6 6 6 6 6 ",
"6 6 6 6 l 6 6 6 6 6 6 % r j.C & % 6 6 6 6 6 6 6 6 6 6 5 9 W W 9 5 6 6 6 6 6 6 6 6 6 6 6 6 6 l l 6 6 6 6 6 6 6 6 6 6 6 6 6 6 j x j 5 6 6 6 6 6 6 6 l 6 6 6 6 % 6 Z y.q % 6 6 6 6 6 6 6 6 6 6 6 4 , < , 4 4 6 6 6 6 6 6 l 6 6 6 6 & % C j.C % & 6 6 6 6 6 6 6 6 6 6 4 p a p 4 6 6 6 6 6 6 6 l 6 6 6 6 % 6 y.y.w % 6 6 6 6 6 6 6 6 6 6 $ 6 f e.i $ 6 6 6 6 6 6 6 6 6 6 6 6 6 6 l j 6 6 6 6 6 6 6 6 6 6 6 6 & 6 M l 6 & 6 6 6 6 6 6 l 6 6 6 6 & & C j.C % 6 6 6 6 6 6 6 6 6 6 & & V t.V % & 6 6 6 6 6 6 l 6 6 6 6 % 6 y.y.w % 6 6 6 ",
"6 6 6 6 l 6 6 6 6 6 6 C.DXgXDXgXC % 6 6 6 6 6 6 6 6 5 Q -X$X$X-XQ 5 6 6 6 6 6 6 6 6 6 6 z d.H H d.l 6 6 6 6 6 6 6 6 6 6 j [ 5.[ 6.F 6 6 6 6 6 6 6 l 6 6 6 % y.DXDXgXDXV.6 6 6 6 6 6 6 6 6 6 u %.3.%.3.%., 4 6 6 6 6 6 l 6 6 6 & q C.DXC.DXC.w & 6 6 6 6 6 6 6 6 u *.L.*.P.*.p 4 6 6 6 6 6 l 6 6 6 % j.DXDXgXDXN.& 6 6 6 6 6 6 6 6 $ g R.R.E.lXS.6 6 6 6 6 6 6 6 6 6 6 6 N d.D d.H j 6 6 6 6 6 6 6 6 6 6 A F.p.F.F.z 6 6 6 6 6 6 l 6 6 6 % C gXDXgXDXC.9 6 6 6 6 6 6 6 6 & m nXNXnXNXnX8 & 6 6 6 6 6 l 6 6 6 % N.DXgXDXDXN.% 6 6 ",
"6 6 6 6 l 6 6 6 6 % gXC.X     N.FXw & 6 6 6 6 6 6 5 Q -X:   X : -XQ 5 6 6 6 6 6 6 6 6 z d.&     & l.z 6 6 6 6 6 6 6 6 6 5.x X   @ [ [ 5 6 6 6 6 6 l 6 6 % C FXy.    # DXC.% 6 6 6 6 6 6 6 4 %.%.X X X < 3.6 6 6 6 6 6 l 6 6 6 6 DXV.    X C.DX6 6 6 6 6 6 6 6 6 L.=.O   O =.L.6 6 6 6 6 6 l 6 6 % y.FXr     4 DXV.% 6 6 6 6 6 6 $ f kXd     # lXY.$ 6 6 6 6 6 6 6 6 5 D H @   X j l.j 6 6 6 6 6 6 6 & A F.@     i J.l 6 6 6 6 6 l 6 6 6 w DXN.    X C.DX% 6 6 6 6 6 6 6 6 NXg.    X V.NX& 6 6 6 6 6 l 6 6 % j.DXw     9 FXN.% 6 ",
"6 6 6 6 l 6 6 6 % N.gX. # N l . V.C.+ 6 6 6 6 6 6 9 -X: o z M X : -X9 6 6 6 6 6 6 6 6 d.# . 6 6   & d.6 6 6 6 6 6 6 5 L n . # j @   [ x 5 6 6 6 6 l 6 6 % gXj.. j N @   DXZ % 6 6 6 6 6 7 < %.o # N j o %.%.7 6 6 6 6 l 6 6 + C.C.. 6 N 6 . gXN.+ 6 6 6 6 6 $ =.*.= & N u = *.=.$ 6 6 6 6 l 6 6 6 DXy . l N X # DXr & 6 6 6 6 6 & R.g . l N @ @ lXd & 6 6 6 6 6 6 6 l H X X 6 6 . l H 5 6 6 6 6 6 6 l F.@   6 6 . l F.& 6 6 6 6 l 6 6 + C.V.. 6 N 6 . gXN.% 6 6 6 6 6 * g.V.. 6 N 6 . nXg.* 6 6 6 6 l 6 6 6 DXq . z N   9 DXw 6 ",
"6 6 6 6 l 6 6 6 + C.N.. B G M   w C.6 6 6 6 6 6 5 W $XX j G i.N   $XW 5 6 6 6 6 6 6 l H   & M l @   N 9 6 6 6 6 6 6 6 5.& X z M z   n F 5 6 6 6 6 l 6 6 w DX$ % i.A 6 . Z.Z.% 6 6 6 6 6 7 %.< X B G p.# > %.4 6 6 6 6 l 6 6 % gXy.  G G i.X j.gX% 6 6 6 6 6 $ *.a O A i.p.* h L.4 6 6 6 6 l 6 % C DXO 6 i.B 6 . C.y.% 6 6 6 6 & p lX+ 6 G i.A = Y.S.$ 6 6 6 6 6 6 & N N . u M j X @ N 6 6 6 6 6 6 & A i.. 6 M M & @ F.u 6 6 6 6 l 6 6 & DXt X G G l . Z.V.% 6 6 6 6 6 % bXt.  G i.i.X f.nX* 6 6 6 6 l 6 % y.DX  j G p.N   gXy.% ",
"6 6 6 6 l 6 6 6 + C.N.. N A B @ w C.6 6 6 6 6 6 5 W $X  j G z & X $XW 5 6 6 6 6 6 6 l H   & l l &   N 9 6 6 6 6 6 6 6 5.$ X l j 5 . n F 5 6 6 6 6 l 6 6 w DX$ # A B M . Z.Z.% 6 6 6 6 6 7 %.< o N B l X > %.4 6 6 6 6 l 6 6 % gXy.  B B l . j.gX% 6 6 6 6 6 $ *.a = B N l O h L.4 6 6 6 6 l 6 % C DXX 6 G B l   V.y.% 6 6 6 6 & p lX+ & G M 6 = Y.S.$ 6 6 6 6 6 6 & N N . 6 l l @ @ N 6 6 6 6 6 6 & A i.. 6 l 6 X @ F.u 6 6 6 6 l 6 6 & DXr X A A N   y.V.% 6 6 6 6 6 % bXt.  A N l   f.nX* 6 6 6 6 l 6 % y.DX  u A l l   gXj.% ",
"6 6 6 6 l 6 6 6 % N.gX. @ l 6 . Z.V.% 6 6 6 6 6 6 9 -X: o j j . $ -X9 6 6 6 6 6 6 6 6 d.# . & &   & N 6 6 6 6 6 6 6 5 L n . @ 6 X o [ x 5 6 6 6 6 l 6 6 % gXj.. 6 l @ X C.t % 6 6 6 6 6 7 < %.o @ l & o %.%.7 6 6 6 6 l 6 6 + C.C.. & l & . C.N.% 6 6 6 6 6 $ =.*.= # l # . *.=.$ 6 6 6 6 l 6 6 6 DXy . 6 l X # C.w & 6 6 6 6 6 & R.g . 6 l   O lXd & 6 6 6 6 6 6 6 l H X   & # . 9 M 6 6 6 6 6 6 6 l F.@   & # . l s.& 6 6 6 6 l 6 6 + C.V.. 4 l & . C.y.% 6 6 6 6 6 * g.V.. & l # . nXg.* 6 6 6 6 l 6 6 6 DXq . j 6 . w DXw 6 ",
"6 6 6 6 l 6 6 6 6 % DXC.  X   y gXw 6 6 6 6 6 6 6 5 Q -X$   X $ ;XU 5 6 6 6 6 6 6 6 5 M l.#     # Z j 6 6 6 6 6 6 6 6 6 6.x     X n n 6 6 6 6 6 6 l 6 6 % C FXy   X X C.Z.% 6 6 6 6 6 6 6 4 %.%.X   X < %.6 6 6 6 6 6 l 6 6 6 6 DXV.. O   Z.C.6 6 6 6 6 6 6 6 6 L.=.= X O a *.6 6 6 6 6 6 l 6 6 % y.FXw   X @ C.Z.% 6 6 6 6 6 6 $ f kXd   X @ Y.e.$ 6 6 6 6 6 6 6 6 5 D H O     6 Z 6 6 6 6 6 6 6 6 & i.F.@     6 i.i 6 6 6 6 6 l 6 6 6 w FXN.. X   Z.C.& 6 6 6 6 6 6 6 6 MXg.. X = h.SX6 6 6 6 6 6 l 6 6 % N.FX4   X # DXN.% 6 ",
"6 6 6 6 l 6 6 6 6 & r N.6 6 & y.y % 6 6 6 6 6 6 6 6 5 Q k 6 6 0 U 5 6 6 6 6 6 6 6 6 6 6 M j 6 6 6 j 6 6 6 6 6 6 6 6 6 5 x x 6 6 6 x 6 6 6 6 6 6 6 l 6 6 6 % j.y.& 6 6 j.6 6 6 6 6 6 6 6 6 4 , < 6 6 6 , , 4 6 6 6 6 6 l 6 6 6 % Z N.& 6 6 j.q & 6 6 6 6 6 6 6 4 p a 6 6 6 a p 4 6 6 6 6 6 l 6 6 6 % N.C & 6 w j.6 6 6 6 6 6 6 6 6 $ e.f & 6 u e.6 6 6 6 6 6 6 6 6 6 6 6 M 6 6 6 j j 6 6 6 6 6 6 6 6 6 6 B 6 6 6 l l 6 6 6 6 6 6 l 6 6 6 % y.j.% 6 6 j.w 6 6 6 6 6 6 6 6 % t.f.& 6 & h.8 & 6 6 6 6 6 l 6 6 6 % N.C 6 6 w y.% 6 6 ",
"6 6 6 6 l 6 6 6 6 6 & + 6 & 6 # % 4 6 6 6 6 6 6 6 6 6 5 % 6 6 % 5 & 6 6 6 6 6 6 6 6 6 6 % 6 6 6 & 6 6 6 6 6 6 6 6 6 6 6 6 & 6 6 & 5 6 6 6 6 6 6 6 l 6 6 6 6 @ % 6 6 & % & 6 6 6 6 6 6 6 6 6 6 4 6 6 & 4 & 6 6 6 6 6 6 l 6 6 6 6 % % & 6 6 # & 4 6 6 6 6 6 6 6 6 6 $ & 6 & & & 6 6 6 6 6 6 l 6 6 6 6 @ % 6 6 & # 6 & 6 6 6 6 6 6 6 6 $ $ 6 6 & $ & 6 6 6 6 6 6 6 6 6 6 6 % 6 6 6 & 6 6 6 6 6 6 6 6 6 6 6 & & 6 6 & & 6 6 6 6 6 6 l 6 6 6 6 # # 6 & 6 + & & 6 6 6 6 6 6 6 6 & # 6 6 & % % 6 6 6 6 6 6 l 6 6 6 6 % % 6 6 % % 6 6 6 ",
"6 6 6 6 l 6 6 6 6 6 l N 6 z 6 N l N u 6 6 6 6 6 6 6 6 6 M 6 j M l M 6 6 6 6 6 6 6 6 6 j z 6 l 6 l j l 6 6 6 6 6 6 6 6 6 6 l 6 6 l j l 6 6 6 6 6 6 l 6 6 6 6 B 6 l 6 l M z l 6 6 6 6 6 6 6 6 6 l l 6 N j N 6 6 6 6 6 6 l 6 6 6 6 z l N 6 l N u z 6 6 6 6 6 6 6 6 6 M M & N l M 6 6 6 6 6 6 l 6 6 6 6 B u l u u N l M 6 6 6 6 6 6 6 6 6 z j 6 N l N 6 6 6 6 6 6 6 6 6 6 u M 6 l 6 l j l u 6 6 6 6 6 6 6 6 6 l 6 l l l l 6 6 6 6 6 l 6 6 6 6 M z 6 l 6 N j N 6 6 6 6 6 6 6 6 6 l z 6 N l N 6 6 6 6 6 6 l 6 6 6 6 6 l u l M l l 6 6 ",
"6 6 6 6 l 6 6 6 6 6 u a.G s.6 a.F.s.A & 6 6 6 6 6 6 6 M ^.6 G s.F.p.u 6 6 6 6 6 6 6 6 6 A M i.6 A i.A N 6 6 6 6 6 6 6 6 l p.6 M G i.B u 6 6 6 6 6 l 6 6 6 6 i.G ^.j G s.s.i.6 6 6 6 6 6 6 6 u ^.M M a.F.a.M & 6 6 6 6 l 6 6 6 6 s.M G N B s.a.p.6 6 6 6 6 6 6 6 6 F.G u a.F.F.G & 6 6 6 6 l 6 6 6 6 A G s.M B s.F.p.j 6 6 6 6 6 6 6 l ^.l N s.F.p.l & 6 6 6 6 6 6 6 6 6 B M i.6 B i.G N 6 6 6 6 6 6 6 6 N i.6 B G G B 6 6 6 6 6 l 6 6 6 6 z p.i.i.l s.F.a.M & 6 6 6 6 6 6 6 F.A l a.F.a.B & 6 6 6 6 l 6 6 6 6 6 ^.l G a.B p.# 6 ",
"6 6 6 6 l 6 6 6 6 N N i.s./.N G ^.p.G & 6 6 6 6 6 6 z p.F.G G a.^.i.l 6 6 6 6 6 6 6 z l B G d.M N i.B N 6 6 6 6 6 6 6 l B i.N N A i.B j 6 6 6 6 6 l 6 6 M M i.p./.B G s.s.i.6 6 6 6 6 6 6 j G F.p.A i.^.i.N & 6 6 6 6 l 6 6 l z B N i.M 6 p./.s.l 6 6 6 6 6 6 6 B l s.B i.a.F.i.% 6 6 6 6 l 6 6 l M G i./.G G a.^.i.l 6 6 6 6 6 6 l i.F.i.G p.^.i.M & 6 6 6 6 6 6 6 z l B A s.M N i.A N 6 6 6 6 6 6 6 l A i.M N i.G B 6 6 6 6 6 l 6 6 u N B i.^.s.B i.^.i.N & 6 6 6 6 6 6 A s.a.A G ^.i.A & 6 6 6 6 l 6 6 6 z G /.i.6 p.A G & 6 ",
"6 6 6 6 l 6 6 6 6 & B i.j B M G M G l 6 6 6 6 6 6 6 6 6 G N N A N A 6 6 6 6 6 6 6 6 & M B 6 M l M l N l 6 6 6 6 6 6 6 6 6 N z l N z N 6 6 6 6 6 6 l 6 6 & l s.l N N N B B N & 6 6 6 6 6 6 6 6 B B M G M G 6 6 6 6 6 6 l 6 6 6 & l N p.N N B M A 6 6 6 6 6 6 6 6 & N A z G M B u 6 6 6 6 6 l 6 6 6 6 s.M z B M G N A 6 6 6 6 6 6 6 6 6 A B M G M G 6 6 6 6 6 6 6 6 6 & z B u M l M z N l 6 6 6 6 6 6 6 6 u N l M M M z 6 6 6 6 6 l 6 6 6 & i.A l A M G M G 6 6 6 6 6 6 6 6 & N A z G M G j 6 6 6 6 6 l 6 6 6 6 6 M B N A j z 6 6 ",
"6 6 6 6 l 6 6 6 6 6 & & 6 & 6 & & & 6 6 6 6 6 6 6 6 6 6 & & & & & & 6 6 6 6 6 6 6 6 6 6 & 6 & 6 6 6 & 6 6 6 6 6 6 6 6 6 6 & 6 6 & 6 & 6 6 6 6 6 6 l 6 6 6 6 % 6 & & & & & & 6 6 6 6 6 6 6 6 6 & & 6 & & & 6 6 6 6 6 6 l 6 6 6 6 6 & & 6 4 & & & 6 6 6 6 6 6 6 6 6 6 & 6 & 6 & 6 6 6 6 6 6 l 6 6 6 6 % 6 & & 4 & & & 6 6 6 6 6 6 6 6 6 & & 6 & & & 6 6 6 6 6 6 6 6 6 6 6 & 6 & 6 6 6 & 6 6 6 6 6 6 6 6 6 6 & 6 6 6 6 6 6 6 6 6 6 l 6 6 6 6 & & 6 & 6 & & & 6 6 6 6 6 6 6 6 6 & & 6 & & & 6 6 6 6 6 6 l 6 6 6 6 6 & & 6 & 6 6 6 6 ",
"6 6 6 6 l 6 6 6 6 6 6 6 6 6 6 6 6 6 6 6 6 6 6 6 6 6 6 6 6 6 6 6 6 6 6 6 6 6 6 6 6 6 6 6 6 6 6 6 6 6 6 6 6 6 6 6 6 6 6 6 6 6 6 6 6 6 6 6 6 6 6 6 6 l 6 6 6 6 6 6 6 6 6 6 6 6 6 6 6 6 6 6 6 6 6 6 6 6 6 6 6 6 6 6 6 6 6 l 6 6 6 6 6 6 6 6 6 6 6 6 6 6 6 6 6 6 6 6 6 6 6 6 6 6 6 6 6 6 6 6 6 l 6 6 6 6 6 6 6 6 6 6 6 6 6 6 6 6 6 6 6 6 6 6 6 6 6 6 6 6 6 6 6 6 6 6 6 6 6 6 6 6 6 6 6 6 6 6 6 6 6 6 6 6 6 6 6 6 6 6 6 6 6 6 6 6 6 6 l 6 6 6 6 6 6 6 6 6 6 6 6 6 6 6 6 6 6 6 6 6 6 6 6 6 6 6 6 6 6 6 6 6 l 6 6 6 6 6 6 6 6 6 6 6 6 6 ",
"6 6 6 6 u 6 6 6 6 6 6 6 6 6 6 6 6 6 6 6 6 6 6 6 6 6 6 6 6 6 6 6 6 6 6 6 6 6 6 6 6 6 6 6 6 6 6 6 6 6 6 6 6 6 6 6 6 6 6 6 6 6 6 6 6 6 6 6 6 6 6 6 6 u 6 6 6 6 6 6 6 6 6 6 6 6 6 6 6 6 6 6 6 6 6 6 6 6 6 6 6 6 6 6 6 6 6 u 6 6 6 6 6 6 6 6 6 6 6 6 6 6 6 6 6 6 6 6 6 6 6 6 6 6 6 6 6 6 6 6 6 u 6 6 6 6 6 6 6 6 6 6 6 6 6 6 6 6 6 6 6 6 6 6 6 6 6 6 6 6 6 6 6 6 6 6 6 6 6 6 6 6 6 6 6 6 6 6 6 6 6 6 6 6 6 6 6 6 6 6 6 6 6 6 6 6 6 6 u 6 6 6 6 6 6 6 6 6 6 6 6 6 6 6 6 6 6 6 6 6 6 6 6 6 6 6 6 6 6 6 6 6 u 6 6 6 6 6 6 6 6 6 6 6 6 6 ",
"B B B B N N B B B B B B B B B B B B B B B B B B B B B B B B B B B B B B B B N N B B B B B B B B B B B B B B B B B B B B B B B B B B B B B B B B N N B B B B B B B B B B B B B B B B B B B B B B B B B B B B B B B B B N B B B B B B B B B B B B B B B B B B B B B B B B B B B B B B B B B N B B B B B B B B B B B B B B B B B B B B B B B B B B B B B B B B N N B B B B B B B B B B B B B B B B B B B B B B B B B B B B B B B B N B B B B B B B B B B B B B B B B B B B B B B B B B B B B B B B B N N B B B B B B B B B B B B B ",
"j j j j j j j j j j j j j j j j j j j j j j j j j j j j j j j j j j j j j j j j j j j j j j j j j j j j j j j j j j j j j j j j j j j j j j j j j j j j j j j j j j j j j j j j j j j j j j j j j j j j j j j j j j j j j j j j j j j j j j j j j j j j j j j j j j j j j j j j j j j j j j j j j j j j j j j j j j j j j j j j j j j j j j j j j j j j j j j j j j j j j j j j j j j j j j j j j j j j j j j j j j j j j j j j j j j j j j j j j j j j j j j j j j j j j j j j j j j j j j j j j j j j j j j j j j j j j j j j ",
"N N B B B N N N N N N N N N N N N N N N N N N N N N N N N N N N N N N N N N N N N N N N N N N N N N N N N N N N N N N N N N N N N N N N N N N N N N N N N N N N N N N N N N N N N N N N N N N N N N N N N N N N N N N N N N N N N N N N N N N N N N N N N N N N N N N N N N N N N N N N N N N N N N N N N N N N N N N N N N N N N N N N N N N N N N N N N N N N N N N N N N N N N N N N N N N N N N N N N N N N N N N N N N N N N N N N N N N N N N N N N N N N N N N N N N N N N N N N N N N N N N N N N N N N N N N N N N N N ",
"& & # # # & 4 & & 6 & & & & & & & & & & & & & & & & & 6 & & & & & & & & & & & & & & & & & & & & & & & & & & & & & & & & & & & & & & & & & & & & & & & & & & & & & & & & & & & & & & & & & & & & & & & & & & & & & & & & & & & & & & & & & & & & & & & & & & & & & & & & & & & & & & & & & & & & & & & & & & & & & & & & & & & & & & & & & & & & & & & & & & & & & & & & & & & & & & & & & & & & & & & & & & & & & & & & & & & & & & & & & & & & & & & & & & & & & & & & & & & & & & & & & & & & & & & & & & & 4 4 & & 6 & & & & ",
"6 6 N N N l 6 6 6 6 6 6 6 6 6 6 6 6 6 u l l l u 6 6 6 6 6 6 6 6 6 6 6 6 6 6 6 6 6 6 6 6 6 6 6 6 6 6 6 6 6 6 6 6 6 6 6 6 6 6 6 6 6 6 6 6 6 6 6 6 6 6 6 6 6 6 6 6 6 6 6 6 6 6 6 6 6 6 6 6 6 6 6 6 6 6 6 6 6 6 6 6 6 6 6 6 6 6 6 6 6 6 6 6 6 6 6 6 6 6 6 6 6 6 6 6 6 6 6 6 6 6 6 6 6 6 6 6 6 6 6 6 6 6 6 6 6 6 6 6 6 6 6 6 6 6 6 6 6 6 6 6 6 6 6 6 6 6 6 6 6 6 6 6 6 6 6 6 6 6 6 6 6 6 6 6 6 6 6 6 6 6 6 6 6 6 6 6 6 6 6 6 6 6 6 6 6 6 6 6 6 6 6 6 6 6 6 6 6 6 6 6 6 6 6 6 6 6 6 6 6 6 6 6 6 6 6 6 6 6 6 6 6 6 6 6 6 6 6 6 6 6 6 6 ",
"& M ^.i.^.A & 6 $ s 6 6 6 $ $ 6 6 6 6 l s.F.^.N & 6 & s 6 6 6 $ $ 6 6 6 6 6 6 6 6 6 6 6 6 6 6 6 6 6 6 6 6 6 6 6 6 6 6 6 6 6 6 6 6 6 6 6 6 6 6 6 6 6 6 6 6 6 6 6 6 6 6 6 6 6 6 6 6 6 6 6 6 6 6 6 6 6 6 6 6 6 6 6 6 6 6 6 6 6 6 6 6 6 6 6 6 6 6 6 6 6 6 6 6 6 6 6 6 6 6 6 6 6 6 6 6 6 6 6 6 6 6 6 6 6 6 6 6 6 6 6 6 6 6 6 6 6 6 6 6 6 6 6 6 6 6 6 6 6 6 6 6 6 6 6 6 6 6 6 6 6 6 6 6 6 6 6 6 6 6 6 6 6 6 6 6 6 6 6 6 6 6 6 6 6 6 6 6 6 6 6 6 6 6 6 6 6 6 6 6 6 6 6 6 6 6 6 6 6 6 6 6 6 6 6 6 6 6 6 6 6 6 6 6 u z M l N N M M l 6 6 ",
"& M p.s.p.B 5 6 s E.A.& i A.A.i 6 6 6 l z a.s.l 6 6 f E.e.$ s A.S.6 6 6 6 6 6 6 6 6 6 6 6 6 6 6 6 6 6 6 6 6 6 6 6 6 6 6 6 6 6 6 6 6 6 6 6 6 6 6 6 6 6 6 6 6 6 6 6 6 6 6 6 6 6 6 6 6 6 6 6 6 6 6 6 6 6 6 6 6 6 6 6 6 6 6 6 6 6 6 6 6 6 6 6 6 6 6 6 6 6 6 6 6 6 6 6 6 6 6 6 6 6 6 6 6 6 6 6 6 6 6 6 6 6 6 6 6 6 6 6 6 6 6 6 6 6 6 6 6 6 6 6 6 6 6 6 6 6 6 6 6 6 6 6 6 6 6 6 6 6 6 6 6 6 6 6 6 6 6 6 6 6 6 6 6 6 6 6 6 6 6 6 6 6 6 6 6 6 6 6 6 6 6 6 6 6 6 6 6 6 6 6 6 6 6 6 6 6 6 6 6 6 6 6 6 6 6 6 6 6 6 6 j B i.i.N # s.N u 6 > ",
"& M F.a.6 M 6 6 6 A.f & u s s 6 6 6 6 z 6 p.a.j 6 6 i A.s & i s s 6 6 6 6 6 6 6 6 6 6 6 6 6 6 6 6 6 6 6 6 6 6 6 6 6 6 6 6 6 6 6 6 6 6 6 6 6 6 6 6 6 6 6 6 6 6 6 6 6 6 6 6 6 6 6 6 6 6 6 6 6 6 6 6 6 6 6 6 6 6 6 6 6 6 6 6 6 6 6 6 6 6 6 6 6 6 6 6 6 6 6 6 6 6 6 6 6 6 6 6 6 6 6 6 6 6 6 6 6 6 6 6 6 6 6 6 6 6 6 6 6 6 6 6 6 6 6 6 6 6 6 6 6 6 6 6 6 6 6 6 6 6 6 6 6 6 6 6 6 6 6 6 6 6 6 6 6 6 6 6 6 6 6 6 6 6 6 6 6 6 6 6 6 6 6 6 6 6 6 6 6 6 6 6 6 6 6 6 6 6 6 6 6 6 6 6 6 6 6 6 6 6 6 6 6 6 6 6 6 6 6 6 6 i.M B A z B B z 6 u ",
"6 j B N M l 6 6 6 6 6 6 6 & & 6 6 6 6 j M N B j 6 6 6 6 6 6 6 & & 6 6 6 6 6 6 6 6 6 6 6 6 6 6 6 6 6 6 6 6 6 6 6 6 6 6 6 6 6 6 6 6 6 6 6 6 6 6 6 6 6 6 6 6 6 6 6 6 6 6 6 6 6 6 6 6 6 6 6 6 6 6 6 6 6 6 6 6 6 6 6 6 6 6 6 6 6 6 6 6 6 6 6 6 6 6 6 6 6 6 6 6 6 6 6 6 6 6 6 6 6 6 6 6 6 6 6 6 6 6 6 6 6 6 6 6 6 6 6 6 6 6 6 6 6 6 6 6 6 6 6 6 6 6 6 6 6 6 6 6 6 6 6 6 6 6 6 6 6 6 6 6 6 6 6 6 6 6 6 6 6 6 6 6 6 6 6 6 6 6 6 6 6 6 6 6 6 6 6 6 6 6 6 6 6 6 6 6 6 6 6 6 6 6 6 6 6 6 6 6 6 6 6 6 6 6 6 6 6 6 6 6 z M & 6 6 j 6 6 6 6 6 ",
"6 6 & & 6 6 6 6 6 6 6 6 6 6 6 6 6 6 6 6 6 & & 6 6 6 6 6 6 6 6 6 6 6 6 6 6 6 6 6 6 6 6 6 6 6 6 6 6 6 6 6 6 6 6 6 6 6 6 6 6 6 6 6 6 6 6 6 6 6 6 6 6 6 6 6 6 6 6 6 6 6 6 6 6 6 6 6 6 6 6 6 6 6 6 6 6 6 6 6 6 6 6 6 6 6 6 6 6 6 6 6 6 6 6 6 6 6 6 6 6 6 6 6 6 6 6 6 6 6 6 6 6 6 6 6 6 6 6 6 6 6 6 6 6 6 6 6 6 6 6 6 6 6 6 6 6 6 6 6 6 6 6 6 6 6 6 6 6 6 6 6 6 6 6 6 6 6 6 6 6 6 6 6 6 6 6 6 6 6 6 6 6 6 6 6 6 6 6 6 6 6 6 6 6 6 6 6 6 6 6 6 6 6 6 6 6 6 6 6 6 6 6 6 6 6 6 6 6 6 6 6 6 6 6 6 6 6 6 6 6 6 6 6 6 6 6 6 6 6 6 6 6 6 6 6 ",
"6 6 6 6 6 6 6 6 6 6 6 6 6 6 6 6 6 6 6 6 6 6 6 6 6 6 6 6 6 6 6 6 6 6 6 6 6 6 6 6 6 6 6 6 6 6 6 6 6 6 6 6 6 6 6 6 6 6 6 6 6 6 6 6 6 6 6 6 6 6 6 6 6 6 6 6 6 6 6 6 6 6 6 6 6 6 6 6 6 6 6 6 6 6 6 6 6 6 6 6 6 6 6 6 6 6 6 6 6 6 6 6 6 6 6 6 6 6 6 6 6 6 6 6 6 6 6 6 6 6 6 6 6 6 6 6 6 6 6 6 6 6 6 6 6 6 6 6 6 6 6 6 6 6 6 6 6 6 6 6 6 6 6 6 6 6 6 6 6 6 6 6 6 6 6 6 6 6 6 6 6 6 6 6 6 6 6 6 6 6 6 6 6 6 6 6 6 6 6 6 6 6 6 6 6 6 6 6 6 6 6 6 6 6 6 6 6 6 6 6 6 6 6 6 6 6 6 6 6 6 6 6 6 6 6 6 6 6 6 6 6 6 6 6 6 6 6 6 6 6 6 6 6 6 6 6 "
};
