/* XPM */
static char *mb_gate_mono[] = {
/* columns rows colors chars-per-pixel */
"256 256 256 2 ",
"   c #615D1B",
".  c #055B66",
"X  c #0F6C73",
"o  c #726E54",
"O  c #7A7469",
"+  c #62595E",
"@  c #4E3B41",
"#  c #90336C",
"$  c #AA347C",
"%  c #843D59",
"&  c #9B5E52",
"*  c #925A50",
"=  c #966156",
"-  c #877A59",
";  c #AB695C",
":  c #BA6A58",
">  c #867B71",
",  c #AF6E62",
"<  c #A46C61",
"1  c #B0776C",
"2  c #964877",
"3  c #C26C5D",
"4  c #D06C5A",
"5  c #C46E61",
"6  c #C8786A",
"7  c #C87D72",
"8  c #D2796D",
"9  c #E57775",
"0  c #993A31",
"q  c #6E9320",
"w  c #6B9975",
"e  c #709470",
"r  c #679A65",
"t  c #28A26A",
"y  c #909453",
"u  c #8A8776",
"i  c #938D78",
"p  c #96937D",
"a  c #8D8C6B",
"s  c #AC8F70",
"d  c #93A96E",
"f  c #ABA772",
"g  c #91A558",
"h  c #C78477",
"j  c #D2877A",
"k  c #CE8875",
"l  c #C9DE47",
"z  c #0F7584",
"x  c #667A90",
"c  c #B33B84",
"v  c #8D7A82",
"b  c #AE7092",
"n  c #A769A0",
"m  c #C86B92",
"M  c #D84FA6",
"N  c #D370AC",
"B  c #DA6FAA",
"V  c #BD50B2",
"C  c #1797A9",
"Z  c #228FA7",
"A  c #3196AC",
"S  c #30AEBA",
"D  c #159CA6",
"F  c #5A9492",
"G  c #6C9990",
"H  c #6DA792",
"J  c #529BA9",
"K  c #7295A9",
"L  c #5FA7B5",
"P  c #57A8B6",
"I  c #52ADB7",
"U  c #6DADB3",
"Y  c #57AE8A",
"T  c #3493CB",
"R  c #51B4C7",
"E  c #71B5C8",
"W  c #5595CF",
"Q  c #6EC7CD",
"!  c #50C2BD",
"~  c #9A9886",
"^  c #9C9A95",
"/  c #908C8A",
"(  c #A19E8C",
")  c #A99B85",
"_  c #B89C88",
"`  c #AF9593",
"'  c #9AA58B",
"]  c #9BA694",
"[  c #8AAA94",
"{  c #A7A28B",
"}  c #B8A48B",
"|  c #A5A392",
" . c #A9A695",
".. c #A4A49D",
"X. c #ACAB9B",
"o. c #A7AA97",
"O. c #B1AE9D",
"+. c #B9A894",
"@. c #A9B29C",
"#. c #B7B39C",
"$. c #B0B48B",
"%. c #9393AF",
"&. c #B885A7",
"*. c #B59BA7",
"=. c #A397B7",
"-. c #AF94A9",
";. c #94ACAD",
":. c #A9A7A1",
">. c #ABAAA3",
",. c #A9AAA8",
"<. c #B5A8A9",
"1. c #ABB6A7",
"2. c #B5B3A4",
"3. c #B4BCAB",
"4. c #BABDAD",
"5. c #B7B7A8",
"6. c #A8A9B8",
"7. c #B9A9B5",
"8. c #ACB9B6",
"9. c #BDBDB5",
"0. c #BBBBBE",
"q. c #B6B7B6",
"w. c #D59489",
"e. c #D69A94",
"r. c #CB9089",
"t. c #C2A98E",
"y. c #C6A998",
"u. c #D6A69A",
"i. c #C4B39D",
"p. c #CEAE97",
"a. c #CA9AB3",
"s. c #CE91AF",
"d. c #CCABA6",
"f. c #C4B6A2",
"g. c #C6B9A5",
"h. c #C9B9A6",
"j. c #CBB8A7",
"k. c #D2B5A4",
"l. c #D5BBAA",
"z. c #D8BEAE",
"x. c #D4B6A8",
"c. c #C4ADBB",
"v. c #C8A9B7",
"b. c #D9A6B8",
"n. c #C1BEB4",
"m. c #C9B2BE",
"M. c #C6B9BA",
"N. c #DCBCB5",
"B. c #DEBFB9",
"V. c #D6B7B9",
"C. c #D7A8A6",
"Z. c #E4B5B1",
"A. c #E4979F",
"S. c #BAC1B2",
"D. c #BDC2BA",
"F. c #B6C4B8",
"G. c #B5C4AF",
"H. c #9FC8A0",
"J. c #C6C4AD",
"K. c #C4C2B5",
"L. c #C5C4BA",
"P. c #C8C6BB",
"I. c #CBC9BE",
"U. c #C9C8B5",
"Y. c #DBC2B2",
"T. c #DEC3BC",
"R. c #D6C8B9",
"E. c #DDD7BB",
"W. c #CDCFB5",
"Q. c #E3C4BE",
"!. c #E5C2B6",
"~. c #E1DEAE",
"^. c #E5E48F",
"/. c #988BCA",
"(. c #A794D1",
"). c #92B4CD",
"_. c #BBBCC3",
"`. c #AFAFCE",
"'. c #B2ACE7",
"]. c #9F97E6",
"[. c #C6ADC1",
"{. c #CCB5C3",
"}. c #C4BCC3",
"|. c #C9B8C5",
" X c #D4B4C2",
".X c #DBBAC6",
"XX c #D9B9C6",
"oX c #D1B0CF",
"OX c #E2BACA",
"+X c #E6B4CF",
"@X c #D79BCB",
"#X c #94C9CD",
"$X c #BAC8C7",
"%X c #B7D4D7",
"&X c #ADCCCF",
"*X c #B3D5E3",
"=X c #C9C4C3",
"-X c #CDCBC2",
";X c #CBC2C9",
":X c #C6C8C6",
">X c #D1CDC5",
",X c #D3CDC9",
"<X c #D8C8C8",
"1X c #C9D3CA",
"2X c #D2D0C7",
"3X c #D5D3CC",
"4X c #D9D6CE",
"5X c #DAD7C6",
"6X c #DAC7D8",
"7X c #CADAD8",
"8X c #D9D7D0",
"9X c #DBD9D2",
"0X c #DFDED8",
"qX c #D5DAD7",
"wX c #C8CBD5",
"eX c #E5C6C0",
"rX c #E8CAC6",
"tX c #E5D3CC",
"yX c #E5CCD8",
"uX c #E1DCD4",
"iX c #EAD4DD",
"pX c #E0DFD9",
"aX c #EDDDD9",
"sX c #E6D5D6",
"dX c #F1D7D7",
"fX c #D9E2D8",
"gX c #CFE1D6",
"hX c #E4E3DC",
"jX c #EAE5DE",
"kX c #E4E8DB",
"lX c #F2E5DE",
"zX c #CAD8E5",
"xX c #DADBE4",
"cX c #D0CCE5",
"vX c #EDDCE2",
"bX c #E5D9E5",
"nX c #ECD8E5",
"mX c #D6E5E3",
"MX c #D8E7E5",
"NX c #DAE8E6",
"BX c #DAEBEA",
"VX c #D3EBEB",
"CX c #E6E5E1",
"ZX c #E9E6E2",
"AX c #E6E9E3",
"SX c #EBEAE5",
"DX c #EEEEE9",
"FX c #E5E4EA",
"GX c #F0EFEA",
"HX c #F3E5E4",
"JX c #EAF3E9",
"KX c #F2F1EC",
"LX c #FAF5ED",
"PX c #F5F5F1",
"IX c #FAFBF6",
"UX c #E9EDF3",
/* pixels */
"8X8X8X8X8X9X9X9X8X9XuXuXuXuX9X8X9X9X9X9X9X9X9X9X9X9X9X9X9X9X9X9X9X9X9X9X9X9X9X9X9X9X9X9X9X9X9X9X9X9X9X9X9X9X9X9X9X9X9X9X9X9X9X9X9X9X9X9X9X9X9X9X9X9X9X9X9X9X9X9X9X9X9X9X9X9X9X9X9X9X9X9X9X9X9X9X9X9X9X9X9X9X9X9X9X9X9X9X9X9X9X9X9X9X9X9X9X9X9X9X9X9X9X9X9X9X9X9X9X9X9X9X9X9X9X9X9X9X9X9X9X9X9X9X9X9X9X9X9X9X9X9X9X9X9X9X9X9X9X9X9X9X9X9X9X9X9X9X9X9X9X9X9X9X9X9X9X9X9X8X9X9X9X9X9X9X9X9X9X8X0XuX9X9X9X0X9X8X9X9X9X9X9X9X9XuX9X8X8X9XuX9X8X9X9X0XuX9X0X9X8X9X9X8X9X8X9X0X8X9X9X9X8X0X9X8X9X9X9X9X9X9X9X8X9X9X8X9X9X8XuX9XuXuX8X9X",
"uXuXuXuX9X8X9X8XuX7X&X&X&X%X9X9X8X9X9X9X9X9X9X9X9X9X9X9X9X9X9X9X9X9X9X9X9X9X9X9X9X9X9X9X9X9X9X9X9X9X9X9X9X9X9X9X9X9X9X9X9X9X9X9X9X9X9X9X9X9X9X9X9X9X9X9X9X9X9X9X9X9X9X9X9X9X9X9X9X9X9X9X9X9X9X9X9X9X9X9X9X9X9X9X9X9X9X9X9X9X9X9X9X9X9X9X9X9X9X9X9X9X9X9X9X9X9X9X9X9X9X9X9X9X9X9X9X9X9X9X9X9X9X9X9X9X9X9X9X9X9X9X9X9X9X9X9X9X9X9X9X9X9X9X9X9X9X9X9X9X9X9X9X9X9X9X9X9X8X9X:X4X3X,X,X4X,X3X,X9X:X_.:X:X3X:X:X9X3X3X3X,X8X2X:X_.4X9X9X3X:X3X9X,X4X:X_.:X:X:X9X,X,X9X:X9X:X:X9X:X9X,X9X:X:X9X4X,X4X,X,X:X8X0XL.-XuX1X:X9X$X1X$X$XuX1X",
").).).).3X9X8XuX&XH.H.l d H.#X1X9X8X9X9X9X9X9X9X9X9X9X9X9X9X9X9X9X9X9X9X9X9X9X9X9X9X9X9X9X9X9X9X9X9X9X9X9X9X9X9X9X9X9X9X9X9X9X9X9X9X9X9X9X9X9X9X9X9X9X9X9X9X9X9X9X9X9X9X9X9X9X9X9X9X9X9X9X9X9X9X9X9X9X9X9X9X9X9X9X9X9X9X9X9X9X9X9X9X9X9X9X9X9X9X9X9X9X9X9X9X9X9X9X9X9X9X9X9X9X9X9X9X9X9X9X9X9X9X9X9X9X9X9X9X9X9X9X9X9X9X9X9X9X9X9X9X9X9X9X9X9X9X9X9X9X9X9X9X9X9X9X9X8XuX=._._.6.q.,Xq._.q.uX_.=.:X6.:X=.6.8X6.6.,X%.:X_.6.q.6.9X3X6.q.:X3X%.,X_.6.:X=.:XhXq.6.,X%.:X6.q._.%._._._.6.6.:XuXq.6.:X6.=.3XhXq.L.jX8.J 3XJ 8.L U $XU ",
"C C C C I 4XuX&XH.l ^.W.W.l d #X1X9X8X9X9X9X9X9X9X9X9X9X9X9X9X9X9X9X9X9X9X9X9X9X9X9X9X9X9X9X9X9X9X9X9X9X9X9X9X9X9X9X9X9X9X9X9X9X9X9X9X9X9X9X9X9X9X9X9X9X9X9X9X9X9X9X9X9X9X9X9X9X9X9X9X9X9X9X9X9X9X9X9X9X9X9X9X9X9X9X9X9X9X9X9X9X9X9X9X9X9X9X9X9X9X9X9X9X9X9X9X9X9X9X9X9X9X9X9X9X9X9X9X9X9X9X9X9X9X9X9X9X9X9X9X9X9X9X9X9X9X9X9X9X9X9X9X9X9X9X9X9X9X9X9X9X9X9X9X9X9X9X8X9X6.6.6.q.6.3Xq._._.hX3Xq.9Xq.:X6.6.:X=.=.:X6.6._.q.9X6.4X:Xq.:Xq._.%._.,X_.,X6.,XuX_.6.6.6.6.:X3X6.q.6.6.6.3X,X6.kX:X%.9X6.6.,XpXq.=XhX$XL ;.U 8.U U ;.;.",
"#X#X).S C &XqXH.l W.iX9X0X9XF.I &X9X8X9X9X9X9X9X9X9X9X9X9X9X9X9X9X9X9X9X9X9X9X9X9X9X9X9X9X9X9X9X9X9X9X9X9X9X9X9X9X9X9X9X9X9X9X9X9X9X9X9X9X9X9X9X9X9X9X9X9X9X9X9X9X9X9X9X9X9X9X9X9X9X9X9X9X9X9X9X9X9X9X9X9X9X9X9X9X9X9X9X9X9X9X9X9X9X9X9X9X9X9X9X9X9X9X9X9X9X9X9X9X9X9X9X9X9X9X9X9X9X9X9X9X9X9X9X9X9X9X9X9X9X9X9X9X9X9X9X9X9X9X9X9X9X9X9X9X9X9X9X9X9X9X9X9X9X9X9X9X9X8X9X_.6.6._._.6.q.,X=.$X,Xq.,X6.:X6.6.q.0._.6.:X6.q.6.6.q.9X4X6.6.q.6.:X6.:X_.,X6.:XuX_.6.6._.:X6.6.:X_.:X=.:X6.6.:X9Xq._._.6.6.:XhXq.L.hX$X;.U ;.8.U U $X;.",
"aXaXlXE C $X&XU G.0X4XuX&X#XuXU ).1X9X8X9X9X9X9X9X9X9X9X9X9X9X9X9X9X9X9X9X9X9X9X9X9X9X9X9X9X9X9X9X9X9X9X9X9X9X9X9X9X9X9X9X9X9X9X9X9X9X9X9X9X9X9X9X9X9X9X9X9X9X9X9X9X9X9X9X9X9X9X9X9X9X9X9X9X9X9X9X9X9X9X9X9X9X9X9X9X9X9X9X9X9X9X9X9X9X9X9X9X8X8X8X8X8X8X8X8X8X8X8X8X8X8X8X8X8X8X8X8X8X8X8X8X8X8X8X8X8X8X8X8X8X8X8X8X8X8X8X8X8X8X8X8X8X8X8X8X8X8X8X8X8X8X8X8X8X8X8X8X8X8X4X4X4X3X9X,X4X9X,X,X8X4X4X,X8X,X3X4X9X9X3X4X8X4X3X,X9X8X9X8X:X4X4X0X4X4X4X8X,X,X9X4X4X8X3X9X3X,X9X3X9X3X9X,X3X9X4X3X9X3X3X2X9X9X-X2X9X3X3X4X3X4X:X1XuX3X",
"1X1X1XI C &X9X).S E uX8X1X3XuX).L 1X9X8X9X9X9X9X9X9X9X9X9X9X9X9X9X9X9X9X9X9X9X9X9X9X9X9X9X9X9X9X9X9X9X9X9X9X9X9X9X9X9X9X9X9X9X9X9X9X9X9X9X9X9X9X9X9X9X9X9X9X9X9X9X9X9X9X9X9X9X9X9X9X9X9X9X9X9X9X9X9X9X9X9X9X9X9X9X9X9X9X9X9X9X9X9X9X9X9X9X8X0XhXhXhXhXhXhXhXhXhXhXhXhXhXhXhXhXhXhXhXhXhXhXhXhXhXhXhXhXpXpXhXhXpXpXhXhXhXpXpXhXhXhXhXhXhXhXhXhXhXhXpXhXhXhXhXhXhXhXhXhXhXhXhXhXhXpXhXhXpXhXhXhXhXhXhXhXhXhXhXhXpXhXhXhXhXhXhX0X0X0X9XhX0X0X0X0X0X0X0XhXpX0X0X0X0X0X0XpXpX0X0X0X0X0XpXhXpXhXhXpXhXhXhXpXpXhXhXpXhXhXhXhXhXhXhX0XhX",
"C C C C A 1X1XU C I uX9X9X8XuX).E 1X9X8X9X9X9X9X9X9X9X9X9X9X9X9X9X9X9X9X9X9X9X9X9X9X9X9X9X9X9X9X9X9X9X9X9X9X9X9X9X9X9X9X9X9X9X9X9X9X9X9X9X9X9X9X9X9X9X9X9X9X9X9X9X9X9X9X9X9X9X9X9X9X9X9X9X9X9X9X9X9X9X9X9X9X9X9X9X9X9X9X9X9X9X9X9X9X9X9X8X0XhXhXhXhXhXhXhXhXhXhXhXhXhXhXhXhXhXhXhXhXhXhXhXhXhXhXhXhXhXZXSXhXhXZXhXhXhXhXhXhXhXhXhXhXhXhXhXhXhXhXhXhXhXhXhXhXhXhXhXhXhXhXhXhXhXhXhXhXhXhXhXhXhXhXhXhXhXhXhXhXhXhXhXhXhXhXhXhXpXpXhXZXpXpXpXpX0X0X0X0XpXpXpXpXhXhXhX0XpXpXpXpXpXpXpXhXhXjXjXjXjXhXZXhXhXZXZXSXZXhXCXCXhXCXhXhXhXjX",
"I I I I &XaX&XS I C ).9X8X9X4XI #X1X9X8X9X9X9X9X9X9X9X9X9X9X9X9X9X9X9X9X9X9X9X9X9X9X9X9X9X9X9X9X9X9X9X9X9X9X9X9X9X9X9X9X9X9X9X9X9X9X9X9X9X9X9X9X9X9X9X9X9X9X9X9X9X9X9X9X9X9X9X9X9X9X9X9X9X9X9X9X9X9X9X9X9X9X9X9X9X9X9X9X9X9X9X9X9X9X9X8X0XhXhXhXhXjXhXhXhXhXhXhXhXhXhXhXhXhXhXhXhXhXhXhXhXhXhXhXhXhXhX4XI.hXDX>X8XSXCXSXhXhXhXSXZXZXZXZXSXSXCXCXSXhXhXhXhXhXhXhXhXhXhXhXhXhXhXhXhXhXhXhXhXhXhXhXhXhXhXjXhXhXhXhXhXhXhXhXhXpXpXhX8Xd pXpXpX0XhXjXhXjXpX0X0XhX#XU %XhX0XpXpXpXpXpXhXhXhXfX7XqX7XhX3XpX0X4X2XI.3XhX9X4XhX9XhXhXhXqX",
"uXuX9XuXuX8X9XuXL C A A ).uXE P &X9X8X9X9X9X9X9X9X9X9X9X9X9X9X9X9X9X9X9X9X9X9X9X9X9X9X9X9X9X9X9X9X9X9X9X9X9X9X9X9X9X9X9X9X9X9X9X9X9X9X9X9X9X9X9X9X9X9X9X9X9X9X9X9X9X9X9X9X9X9X9X9X9X9X9X9X9X9X9X9X9X9X9X9X9X9X9X9X9X9X9X9X9X9X9X9X9X8X0XhXhXhXhXjX7X%XjXhXhXhXhXhXhXhXhXhXhXhXhXhXhXhXhXhXhXhXhXhXhXhX~ I.>X5.O.n.5.-X4.{ X.SX5.5.-X5.K.5.4.K.-X5.| 2.SXhXhXhXhXhXhXhXhXhXhXhXhXhXhXhXhXhXhXhXhXhXjX%X%XjXhXhXhXhXhXhXhXpXpX0XZXH.t W.ZX0XhX7X%X%X#X0XpXpXpXL I #XjX0XpXpXpXpXhXhXhXjX7XE E ).DX~ 4.4.( | K.~ O.K. .3X2.3XCXjX7X",
"8X8X8X8X8X8XuX$XS #XI A L E I &X3X9X8X9X9X9X9X9X9X9X9X9X9X9X9X9X9X9X9X9X9X9X9X9X9X9X9X9X9X9X9X9X9X9X9X9X9X9X9X9X9X9X9X9X9X9X9X9X9X9X9X9X9X9X9X9X9X9X9X9X9X9X9X9X9X9X9X9X9X9X9X9X9X9X9X9X9X9X9X9X9X9X9X9X9X9X9X9X9X9X9X9X9X9X9X9X9X8X0XhXhXhXhXhXjX#X7XjXhXhXhXhXhXhXhXhXhXhXhXhXhXhXhXhXhXhXhXhXhXhXCXP.2.~ (  .p { p -Xn.K.hX .n.p 4.~ {  .5.~ { ( 2XZXhXhXhXhXhXhXhXhXhXhXhXhXhXhXhXhXhXhXhXhXhXhXfX#XfXhXhXhXhXhXhXpXpXpX0XCXr t w ZX0XhX&XU U I 7XhX0X0XU U U jX0XpXpXpXhXhXhXhXjX7XE E #XSX2.| | 2.| I.5.|  .X.9X2.3XCXhXqX",
"9X9X9X9X9X9X9X9X9X8XA &XE E &X3X9X8X9X9X9X9X9X9X9X9X9X9X9X9X9X9X9X9X9X9X9X9X9X9X9X9X9X9X9X9X9X9X9X9X9X9X9X9X9X9X9X9X9X9X9X9X9X9X9X9X9X9X9X9X9X9X9X9X9X9X9X9X9X9X9X9X9X9X9X9X9X9X9X9X9X9X9X9X9X9X9X9X9X9X9X9X9X9X9X9X9X9X9X9X9X9X8X0XhXhXhXhXhXhXjXqX%XjXhXhXhXhXhXhXhXhXhXhXhXhXhXhXhXhXhXhXhXhXhXhXhXK. .X.5.4. .2.K.O.4.2.CX( O.2.2X2.5.I.| X.4.4.5.ZXhXhXhXhXhXhXhXhXhXhXhXhXhXhXhXhXhXhXhXhXhXjX%X7XjXhXhXhXhXhXpXpXpXpXhX3XH.0XH.0XpX0XhXjXjXpXhX0XpXhX).U %XhX0XpXpXhXhXhXhXhXjX7XE E #XCXK.X.X.n. .K.5.2X~ L.X.O.hXhXjX7X",
"8X8X8X8X8X8X8X8X9X8X$X8X1X1X9X9X8X8X8X8X8X8X8X8X8X8X8X8X8X8X8X8X8X8X8X8X8X8X8X8X8X8X8X8X8X8X8X8X8X8X8X8X8X8X8X8X8X8X8X8X8X8X8X8X8X8X8X8X8X8X8X8X8X8X8X8X8X8X8X8X8X8X8X8X8X8X8X8X8X8X8X8X8X8X8X8X8X8X8X8X8X8X8X8X8X8X8X8X8X8X8X8X0XhXhXhXhXhXhXhXhXjXjXhXhXhXhXhXhXhXhXhXhXhXhXhXhXhXhXhXhXhXhXhXhXhXhX3X0XZX3XpXhX4XhX9X0X0XpX .9XhXhXhX4X9X0XCX3XhX9XhXhXhXhXhXhXhXhXhXhXhXhXhXhXhXhXhXhXhXhXhXhXhXjXjXhXhXhXhXhXpXpXpXpXpXpXpXZXpXZXpXpXpX0X0X0XpX0XpXpXpXhXhXhX0XpXpXhXhXhXhXhXhXhXhXfXhXfXhXhXhXhXhX9X3XhXhXhXhX8XhXhXhXhXfX",
"9X9X9X9X9X9X9X9X9X9XuX9X9XuX9X9X9X9X9X9X9X9X9X9X9X9X9X9X9X9X9X9X9X9X9X9X9X9X9X9X9X9X9X9X9X9X9X9X9X9X9X9X9X9X9X9X9X9X9X9X9X9X9X9X9X9X9X9X9X9X9X9X9X9X9X9X9X9X9X9X9X9X9X9X9X9X9X9X9X9X9X9X9X9X9X9X9X9X9X9X9X9X9X9X9X9X9X9X9X9X9X0XhXhXhXhXhXhXhXhXhXhXhXhXhXhXhXhXhXhXhXhXhXhXhXhXhXhXhXhXhXhXhXhXhXhXhXCXhXhXCXhXhXCXhXCXhXCXhX4XCXhXhXhXCXCXhXhXCXhXCXhXhXhXhXhXhXhXhXhXhXhXhXhXhXhXhXhXhXhXhXhXhXhXhXhXhXhXhXhXpXhXhXhXhXhXhXhX0XhX0XhXhXhXhXhXhXhXhXhXhXhX0X0X0XhXhXhXhXhXhXhXhXhXhXhXhXhXhXhXhXhXhXhXCXZXhXhXhXhXCXhXhXhXhXhX",
"hXhXhXhXhXhXhXhXhXhXhXhXhXhXhXhXhXhXhXhXhXhXhXhXhXhXhXhXhXhXhXhXhXhXhXhXhXhXhXhXhXhXhXhXhXhXhXhXhXhXhXhXhXhXhXhXhXhXhXhXhXhXhXhXhXhXhXhXhXhXhXhXhXhXhXhXhXhXhXhXhXhXhXhXhXhXhXhXhXhXhXhXhXhXhXhXhXhXhXhXhXhXhXhXhXhXhXhXhXhXhXhXhXhXhXhXhXhXhXhXhXhXhXhXhXhXhXhXhXhXhXhXhXhXhXhXhXhXhXhXhXhXhXhXhXhXhXhXhXhXhXhXhXhXhXhXhXhXhXCXhXhXhXhXhXhXhXhXhXhXhXhXhXhXhXhXhXhXhXhXhXhXhXhXhXhXhXhXhXhXhXhXhXhXhXhXhXhXhXhXhXhXhXhXhXhXhXhXhXhXhXhXhXhXhXhXhXhXhXhXhXhXhXhXhXhXhXhXhXhXhXhXhXhXhXhXhXhXhXhXhXhXhXhXhXhXhXhXhXhXhXhXhXhXhXhX",
"-XI.-X-X-X-XI.-X-X-X-X-X-X-X-X-X-X-X-X-X-X-X-X-X-X-X-X-X-X-X-X-X-X-X-X-X-X-X-X-X-X-X-X-X-X-X-X-X-X-X-X-X-X-X-X-X-X-X-X-X-X-X-X-X-X-X-X-X-X-X-X-X-X-X-X-X-X-X-X-X-X-X-X-X-X-X-X-X-X-X-X-X-X-X-X-X-X-X-X-X-X-X-X-X-X-X-X-X-X-X-X-X-X-X-X-X-X-X-X-X-X-X-X-X-X-X-X-X-X-X-X-X-X-X-X-X-X-X-X-X-X-X-X-X-X-X-X-X-X-X-X-X-X-X-X-X-X-X-XI.-X-X-X-X-X-X-X-X-X-X-X-X-X-X-X-X-X-X-X-X-X-X-X-X-X-X-X-X-X-X-X-X-X-X-X-X-X-X-X-X-X-X-X-X-X-X-XI.-XhX0X9X9X9X9X9X0X9X9X9X9X9X0XhX9X9X0X9X8X9X9X9XhXpX9X0X9X9X9X9X9X0XhX-XI.-X-X-XI.I.I.I.I.I.-X-X",
"K.P.K.4.K.4.P.K.L.4.K.L.L.L.P.L.L.L.L.L.L.L.L.L.L.L.L.L.L.L.L.L.L.L.L.L.L.L.L.L.L.L.L.L.L.L.L.L.L.L.L.L.L.L.L.L.L.L.L.L.L.L.L.L.L.L.L.L.L.L.L.L.L.L.L.L.L.L.L.L.L.L.L.L.L.L.L.L.L.L.L.L.L.L.L.L.L.L.L.L.L.L.L.L.L.L.L.L.L.L.L.L.L.L.L.L.L.L.L.L.L.L.L.L.L.L.L.L.L.L.L.L.L.L.L.L.L.L.L.L.L.L.L.L.L.L.L.L.L.L.L.L.L.L.L.L.L.L.L.L.L.L.L.L.L.L.L.L.L.L.L.L.L.L.L.L.L.L.L.L.L.L.L.L.L.L.L.L.L.L.L.L.L.L.L.L.L.L.L.L.L.L.L.L.L.L.P.L.I.hX9X8X8X9X>XK.4.L.>X9X8X8X9XhX9X9X>X3XhX9X8X8XhX0X9X-X2X0X9X0X9X0XhXP.P.K.4.K.-XI.I.I.P.P.4.P.",
"p I.( O.X.p 5.( 2.p ( X.2.O.-XP.P.P.P.P.P.P.P.P.P.P.P.P.P.P.P.P.P.P.P.P.P.P.P.P.P.P.P.P.P.P.P.P.P.P.P.P.P.P.P.P.P.P.P.P.P.P.P.P.P.P.P.P.P.P.P.P.P.P.P.P.P.P.P.P.P.P.P.P.P.P.P.P.P.P.P.P.P.P.P.P.P.P.P.P.P.P.P.P.P.P.P.P.P.P.P.P.P.P.P.P.P.P.P.P.P.P.P.P.P.P.P.P.P.P.P.P.P.P.P.P.P.P.P.P.P.P.P.P.P.P.P.P.P.P.P.P.P.P.P.P.P.P.P.P.P.P.P.P.P.P.P.P.P.P.P.P.P.P.P.P.P.P.P.P.P.P.P.P.P.P.P.P.P.P.P.P.P.P.P.P.P.P.P.P.P.P.P.P.P.P.P.P.I.hX9X8X8X9XP.O.4.5.I.9X8X8X9XhX8XpX .2.2.-X9X8XhXhXn.( | K.2XX.X.hXhXI.K.p 5.4.O.2.O.2.n.O.{ I.",
"( 4.| 2.p i O.a ( p 2.~ p O.-XL.P.P.P.P.P.P.P.P.P.P.P.P.P.P.P.P.P.P.P.P.P.P.P.P.P.P.P.P.P.P.P.P.P.P.P.P.P.P.P.P.P.P.P.P.P.P.P.P.P.P.P.P.P.P.P.P.P.P.P.P.P.P.P.P.P.P.P.P.P.P.P.P.P.P.P.P.P.P.P.P.P.P.P.P.P.P.P.P.P.P.P.P.P.P.P.P.P.P.P.P.P.P.P.P.P.P.P.P.P.P.P.P.P.P.P.P.P.P.P.P.P.P.P.P.P.P.P.P.P.P.P.P.P.P.P.P.P.P.P.P.P.P.P.P.P.P.P.P.P.P.P.P.P.P.P.P.P.P.P.P.P.P.P.P.P.P.P.P.P.P.P.P.P.P.P.P.P.P.P.P.P.P.P.P.P.P.P.P.P.P.P.P.I.hX9X8X8X0XK.2.0XX.I.9X8X8X9XhX8X0X5.( ~ X.pX4XpXZX| -X2.i 5.u 5.hXpXP.P.X.{ p | ~ ( {  .a { I.",
"O.P.| ( { O.( 4.{ O.-XO.4.2.-XP.P.P.P.P.P.P.P.P.P.P.P.P.P.P.P.P.P.P.P.P.P.P.P.P.P.P.P.P.P.P.P.P.P.P.P.P.P.P.P.P.P.P.P.P.P.P.P.P.P.P.P.P.P.P.P.P.P.P.P.P.P.P.P.P.P.P.P.P.P.P.P.P.P.P.P.P.P.P.P.P.P.P.P.P.P.P.P.P.P.P.P.P.P.P.P.P.P.P.P.P.P.P.P.P.P.P.P.P.P.P.P.P.P.P.P.P.P.P.P.P.P.P.P.P.P.P.P.P.P.P.P.P.P.P.P.P.P.P.P.P.P.P.P.P.P.P.P.P.P.P.P.P.P.P.P.P.P.P.P.P.P.P.P.P.P.P.P.P.P.P.P.P.P.P.P.P.P.P.P.P.P.P.P.P.P.P.P.P.P.P.P.P.I.hX9X8X8X9XI.5.O.i 4.0X8X8X9XhX8XpXX.| n.5.0X4XhXhXP.~ X.5.p  .2.hXhXP.L.X.( X.{ p 2.O.~ ~  .I.",
"L.L.L.n.L.L.K.P.L.K.K.L.K.L.K.K.K.K.K.K.K.L.L.K.K.K.K.L.L.K.K.K.K.L.K.P.P.L.I.K.K.L.L.K.L.L.L.L.P.L.L.L.L.L.K.K.K.K.K.K.K.K.K.K.K.K.K.K.L.L.K.L.L.L.L.I.L.L.L.L.L.L.K.K.K.K.K.K.L.L.K.K.K.K.K.L.K.L.L.L.L.P.P.L.L.L.L.K.L.L.K.L.L.K.K.P.L.K.K.K.K.K.K.K.K.K.K.K.K.K.K.K.K.K.K.L.L.K.K.K.K.K.K.K.K.K.L.L.K.K.K.L.L.L.L.P.P.L.L.L.L.K.L.K.K.K.K.L.L.K.K.L.L.K.K.L.L.K.L.L.L.L.P.L.L.L.L.L.K.K.K.K.K.K.K.K.K.K.K.K.K.K.L.L.L.L.L.L.I.hX9X8X8X9X2X-X-XK.-X9X8X8X9XhX9X8X4X8X9X9X9X8XhX0X9X3X8X9X3X9X3X0XhXP.L.n.P.P.{ X.I.L.L.L.P.L.",
"pX9X0XpX0X0XpX0X0XpXpX0XpX9X0XpXpXpXpX0XpX9X0XpXpXpX0X0X9XuXpXpXhX0XhXx.R.<Xk.pXpX9X0XpX0X9X9X9XI.3X9X9X0X0XpXpXpXpXpXpXpXpXpXpXpXpX0XpX9X0XpX0X9X9X8XF.8X9X9X0X9X0XpXpXpXpX0XpX9X0XpXpXpXpX0X9XpX0X0X9X8X1X$X9XqX9X0XpX0X0XpX0X9X0XpX2X0XpXpXpXpXpXpXpXpXpXpXpXpXpXpXpXpX0XpX9X0XpXpXpXpXpXpXpXpXpX0X9XpX0XpX0X0X9XqX1X,X0X9X0X0XpX9XpXpX0XpX9X0XpXpX0X9XpXpX0X9XpX0X9X9X0X<X4X9X9X0X0XpXpXpXpXpXpXpXpXpXpXpXpX0XpX9X0X0X9X9X8X<XhX9X8X9X8X9X0X0XpX9X8X9X8X9XhX9X8X9X9X8X9X9X8XhXpX4X9X9X8X9X8X9X0XhX2X2X3X2X2X>X3X2X2X2X2X2X2X",
"KXjXKXKXKXKXKXKXKXKXKXKXKXjXKXKXKXKXKXKXKXZXDXKXKXKXPXPXAXPXGXGXlXe.u.w.tXtXw.KXPXZXSXKXDXuXjXlXf W.kXkXSXKXKXKXKXKXKXKXKXKXKXKXKXKXKXKXCXKXKXDXjXkX8XY gXfXNXDXhXKXKXKXKXKXKXPXZXDXKXKXKXKXKXhXKXKXSXNXfX#XI NXmXfXDXKXSXSXPXKXjXKXPX9.DXKXKXKXKXKXKXKXKXKXKXKXKXKXKXKXKXKXKXCXGXKXKXKXKXKXKXKXKXKXKXjXKXKXKXGXAXMXNX`.`.SXFXDXGXKXhXKXKXKXPXZXDXKXKXGXCXKXKXSXSXPXDX0XFXFXa..XZXZXGXKXKXKXKXKXKXKXKXKXKXKXKXKXKXKXZXDXGXZXZXyXa.kX9X8X9X9X8XhXhXhX8X9X9X8X9XhX9X8X8X8X8X8X8X8XhXpX4X8X8X8X8X8X8X0XhX9X9X9X9X9X9X9X9X9X9X9X9X9X",
"GXhXDXGXDXDXDXDXDXDXDXDXGXhXDXGXDXDXDXDXKXhXSXGXDXKXB.e.e.u.e.e.w.u.rXtXtXtXw.tXDXCXZXKXSXuXaXaX{ W.kXkXZXDXGXDXDXDXDXDXDXDXDXDXDXDXDXKXhXDXDXSXkXhX5XH 7XfXfXAXhXDXGXDXDXDXDXKXhXSXGXDXDXDXDXhXGXDXAXMXqX#XU MX7XqXSXGXZXZXKXDXhXDXKX9.SXGXDXDXDXDXDXDXDXDXDXDXDXDXDXDXDXDXKXhXSXGXDXDXDXDXDXDXDXGXDXhXGXDXGXSXAXmXmX`.`.ZXCXSXDXDXhXDXDXDXKXhXSXGXGXSXhXKXKXZXCXKXSX0XbXFXa..XZXZXSXDXDXDXDXDXDXDXDXDXDXDXDXDXDXKXhXSXSXZXvXyXa.kX9X8X9X9X8XhXhXhX8X9X9X8X9XhX4XT.T.T.T.T.T.<XhX0X<XT.T.T.T.T.T.0XhX8X8X8X8X8X8X9X9X9X8X8X8X8X",
"KXhXDXGXGXGXGXGXGXGXGXGXKXhXDXGXGXGXGXGXKXhXSXGXGXKXe.N.N.Q.tXtXtX<XtXtXtXtXC.w.e.ZXZXKXSXuXaXaX{ W.kXkXSXDXGXGXGXGXGXGXGXGXGXGXGXGXGXKXhXDXGXSXkXhX5XH gXfXfXAXhXDXGXGXGXGXGXKXhXSXKXGXGXGXDXhXKXDXAXNXqX#XU MX7XqXDXKXZXZXKXDXhXGXKX9.SXKXGXGXGXGXGXGXGXGXGXGXGXGXGXGXGXGXKXhXSXKXGXGXGXGXGXGXGXGXDXhXKXGXGXDXAXmXmX`.`.FXFXSXDXGXhXGXGXGXKXjXSXKXKXSXhXKXKXZXZXKXSX0XCXFXa..XZXZXSXDXGXGXGXGXGXGXGXGXGXGXGXGXGXKXhXSXSXZXZXyXa.kX9X8X9X9X8XhXZXhX8X9X9X8X9XhX4XT.T.T.T.T.T.<XhX0X<XT.T.T.T.T.T.9XhX9X9X8X8XuX9X1X1X8XuX9X8X9X",
"KXhXDXGXGXGXGXGXGXGXGXGXKXhXDXGXGXGXGXGXKXhXSXKXKXGXu.tX<XtXtXtXtX<XtXtXtXrXtXsXe.pXSXKXSXuXaXaX{ W.kXkXSXDXGXGXGXGXGXGXGXGXGXGXGXGXGXKXhXDXGXSXkXhX5XH gXfXfXAXhXDXGXGXGXGXGXKXhXSXKXGXGXGXDXhXKXDXAXNXqX#XU MX7XqXDXKXZXZXKXDXhXGXKX9.SXKXGXGXGXGXGXGXGXGXGXGXGXGXGXGXGXGXKXhXSXKXGXGXGXGXGXGXGXGXDXhXKXGXGXDXAXmXmX`.`.FXFXSXDXGXhXGXGXGXKXjXSXKXKXSXhXKXKXZXZXKXSX0XCXFXa..XZXZXSXDXGXGXGXGXGXGXGXGXGXGXGXGXGXKXhXSXSXZXZXyXa.kX9X8X9X8XuXU J U uX8X9X8X9XhX4XT.T.T.T.T.T.<XhX0X<XT.T.T.T.T.T.9XhX9X8X9XuX#XJ A A A U 3X9X8X",
"KXhXDXGXGXGXGXGXGXGXGXGXKXhXDXGXGXGXGXGXKXhXSXSXSXaXw.tX<XtXtXtXtX<XtXtXtXtX<XtXe.uXSXKXSXuXaXaX{ W.kXkXSXDXGXGXGXGXGXGXGXGXGXGXGXGXGXKXhXDXGXSXkXhX5XH gXfXfXAXhXDXGXGXGXGXGXKXhXSXKXGXGXGXDXhXKXDXAXNXqX#XU MX7XqXDXKXZXZXKXDXhXGXKX9.SXKXGXGXGXGXGXGXGXGXGXGXGXGXGXGXGXGXKXhXSXKXGXGXGXGXGXGXGXGXDXhXKXGXGXDXAXmXmX`.`.FXFXSXDXGXhXGXGXGXKXjXSXKXKXSXhXKXKXZXZXKXSX0XCXFXa..XZXZXSXDXGXGXGXGXGXGXGXGXGXGXGXGXGXKXhXSXSXZXZXyXa.kX9X8X9X8XuXP Z P uX8X9X8X9XhX4XT.T.T.T.T.T.<XhX0X<XT.T.T.T.T.T.9XhX9X8XuXU Z E %X7X#XA J 1X9X",
"KXhXDXGXGXGXGXGXGXGXGXGXKXhXDXGXGXGXGXGXGXAXC.w.e.w.C.tX<XtXtXtXtX<XtXtXtXtX<XtXe.tXSXKXSXuXaXaX{ W.kXkXSXDXGXGXGXGXGXGXGXGXGXGXGXGXGXKXhXDXGXSXkXhX5XH gXfXfXAXhXDXGXGXGXGXGXKXhXSXKXGXGXGXDXhXKXDXAXNXqX#XU MX7XqXDXKXZXZXKXDXhXGXKX9.SXKXGXGXGXGXGXGXGXGXGXGXGXGXGXGXGXGXKXhXSXKXGXGXGXGXGXGXGXGXDXhXKXGXGXDXAXmXmX`.`.FXFXSXDXGXhXGXGXGXKXjXSXKXKXSXhXKXKXZXZXKXSX0XCXFXa..XZXZXSXDXGXGXGXGXGXGXGXGXGXGXGXGXGXKXhXSXSXZXZXyXa.kX9X8X9X8XuXL Z L uX8X9X8X9XhX4XT.T.T.T.T.T.<XhX0X<XT.T.T.T.T.T.9XhX8XuX).A %XHXjXjXlXhXP P uX",
"KXhXDXGXGXGXGXGXGXGXGXGXKXhXDXGXGXGXGXGXKXAXu.Q.sXtXsXtX<XtXtXtXtX<XtXtXtXtX<XsXu.tXSXKXSXuXaXaX{ W.kXkXSXDXGXGXGXGXGXGXGXGXGXGXGXGXGXKXhXDXGXSXkXhX5XH gXfXfXAXhXDXGXGXGXGXGXKXhXSXKXGXGXGXDXhXKXDXAXNXqX#XU MX7XqXDXKXZXZXKXDXhXGXKX9.SXKXGXGXGXGXGXGXGXGXGXGXGXGXGXGXGXGXKXhXSXKXGXGXGXGXGXGXGXGXDXhXKXGXGXDXAXmXmX`.`.FXFXSXDXGXhXGXGXGXKXjXSXKXKXSXhXKXKXZXZXKXSX0XCXFXa..XZXZXSXDXGXGXGXGXGXGXGXGXGXGXGXGXGXKXhXSXSXZXZXyXa.kX9X8X9X8XuXL Z L uX8X9X8X9XhX4XT.T.T.T.T.T.<XhX0X<XT.T.T.T.T.T.9XhX9X9XJ ).HXfXhXhXAXKX7XA &X",
"KXhXDXGXGXGXGXGXGXGXGXGXKXhXDXGXGXGXGXGXKXAXe.eXtXtXtXtX<XtXtXtXtX<XtXtXtXtX<XsXu.tXJXGXSXuXaXaX{ W.kXkXSXDXGXGXGXGXGXGXGXGXGXGXGXGXGXKXhXDXGXSXkXhX5XH gXfXfXAXhXDXGXGXGXGXGXKXhXSXKXGXGXGXDXhXKXDXAXNXqX#XU MX7XqXDXKXZXZXKXDXhXGXKX9.SXKXGXGXGXGXGXGXGXGXGXGXGXGXGXGXGXGXKXhXSXKXGXGXGXGXGXGXGXGXDXhXKXGXGXDXAXmXmX`.`.FXCXSXDXGXhXGXGXGXKXjXSXKXKXSXhXKXKXZXZXKXSX0XCXFXa..XZXZXSXDXGXGXGXGXGXGXGXGXGXGXGXGXGXKXhXSXSXZXZXyXa.kX9X8X9X8XuXL Z L uX8X9X8X9XhX4XT.T.T.T.T.T.<XhX0X<XT.T.T.T.T.T.9XhXuX1XA wXjXhXhXpX4.2.4XP ;.",
"GXhXDXGXGXGXGXGXGXGXGXGXGXhXDXGXGXGXGXDXGXjXe.rXtXtXtXtX<XtXtXtXtX<XtXtXtXrX<XaXe.l.jXGXZXuXaXaX{ W.hXhXZXSXDXDXDXDXDXDXDXDXDXDXDXDXDXGXhXSXDXSXkXhX5XH 7XgXfXAXhXSXDXDXDXDXDXGXhXSXGXDXDXDXDXhXDXDXAXfXqX#XU mX7XqXSXDXCXCXGXDXhXDXKX9.SXDXDXDXDXDXDXDXDXDXDXDXDXDXDXDXDXDXGXhXSXGXGXGXGXGXGXGXDXGXDXhXGXDXGXSXAXmXmX`.`.ZXCXZXSXDXhXDXGXDXGXhXSXDXDXSXhXGXDXZXjXGXSX0XbXFXa..XZXZXZXDXDXDXGXGXGXGXGXGXGXGXGXGXDXGXhXZXSXvXaXyXa.kX9X8X9X8XuXL Z L uX8X9X8X9XhX4XT.T.T.T.T.T.<XhX0X<XT.T.T.T.T.T.9XhXuX$XA 7XjXhXCX9Xa o R.F G ",
"PXAXPXPXPXPXPXPXPXPXPXPXPXAXPXPXPXPXPXPXPXAXe.tXsXsXsXsX<XsXsXsXsX5XtXsXsXtX5XaX!.e.w.DXPXhXZXaX{ 1XAXAXKXPXPXLXLXPXIXIXIXIXIXIXIXIXIXPXZXKXPXKXSXjX9XH gXNXAXKXZXPXPXPXPXPXPXIXSXKXIXPXPXPXPXSXPXPXJXAXfX&XU FXmXMXPXPXDXDXIXLXHXLXLXK.LXLXLXLXLXLXLXLXLXLXIXIXIXIXIXIXPXPXPXAXKXPXPXPXPXPXPXPXPXPXPXAXPXPXPXKXJXVXVX&X`.UXFXUXPXIXAXPXPXPXIXSXGXLXLXKXlXLXIXKXDXPXPXCXFXUX[.yXHXHXGXLXPXIXPXPXPXPXPXPXPXPXPXPXPXIXJXJXKXDXSXsXv.kX9X8X9X8XuXL Z L uX8X9X8X9XhX4XT.T.T.T.T.T.<XhX0X<XT.T.T.T.T.T.9XhX9X3XA &XHXhXhXhXSXSXhXX ;.",
"w.w.w.w.w.w.w.w.w.w.w.w.w.w.w.w.w.w.w.w.w.w.8 j j j j j j j j j j j j j j j j j w.e.k w.w.w.w.8 5 p.l.Y.U.=X1X3X3XP.S.S.G.G.G.G.G.S.L.,X;X,X-XP.L.K.3.Y F.F.D.:XK.-X-X-X-X-X-X-XL.=X-X-X-X-X-XK.-X-XL.D.3.;.P $XF.q.:X-XR.>X>X$X&X&X&XU #X#X#XQ E Q Q Q E ;.6.<.d.u.u.e.e.w.w.w.w.w.w.w.w.w.w.w.w.w.w.w.w.A.w.w.w.w.r.r.r.w.w.w.e.u.u.C.Z.!.eXwXcXcXcXcX'.cXwX0.I.5X-X0.=X:X-.v.P.M.-X1X-X X+X+X@X@X@X@X@X@X@X@X@X@Xs.@X@Xs.s.B s.kX9X8X9X8XuXL Z L uX8X9X8X9XhX4XT.T.T.T.T.T.<XhX0X<XT.T.T.T.T.T.9XhX8XuXU J jXjXhXhXhXKX[ . 1X",
"Z.C.Z.Z.Z.Z.Z.Z.Z.Z.Z.Z.Z.C.Z.Z.Z.Z.8 w.w.w.e.C.u.u.u.u.u.u.u.u.u.u.u.u.e.w.8 8 4 4 j w.e.8 j e.h h 8 j 7 5 h _ y r r g g d d g g r q r g $.9X0X2XI.K.Y $X$X1X3X-X4X8X8X8X8X8X9X>X3X9X8X8X8X8X-X8X4X1X1XD.;.P 1X$X:XuX3X;.L J J P E Q U #X#X#X&X*X&X..1 1 1 h r.e.u.d.x.x.x.V.j.V.V.V.V.V.V.V.M.q.,.;.F F %.M.Q.Q.V.V.<.*.N.V.B.Z.a.n n r.w.h 7 1 n `.'.'.].]././.(.;X>X,XwX*.m.,X4X<XN m N @X@X+X+X+X+X+X+X+X+X+X+X+X+X+X+X+X@Xs.kX9X8X9X8XuXL Z L uX8X9X8X9XhX4XT.T.T.T.T.T.<XhX0X<XT.T.T.T.T.T.9XhX8X9X1XA L hXhXhXSX;.. ;.pX",
"HXsXZXHXHXHXHXHXHXHXHXHXHXsXZXHXHXjXe.rXrXT.eXrXrXrXrXrXT.rXrXrXrXT.eXrXrXeXT.rXQ.C.w.9 A.<XtXrXf i.u.JXJ.y f w.3 u.jXJXSXSXhXtXjXSXkX5X$.d g $.DXSX5XH gXfXAXJXZXKXPXPXPXPXPXPXSXKXPXPXPXPXKXZXPXKXDXAXfX&XU BXNXfX#XR Q &XVXAXfXDXJX9.AXAXUXCXu.j w.N.uXNXBXBXBXBXBXBXBXBXBXmXVXBXBXBXBXBXBXBXBXBXBXzX*X#XR R *XJXVX&X`.UXKXzX'.].'.xXUXUXFX9X!.e.k u.CXUXDXFXcX'.].'.SXDXa.6XKX+XB +XnXHXDXSXSXSXSXSXZXZXZXZXZXHXpXvXvXiXiXyXa.kX9X8X9X8XuXL Z L uX8X9X8X9XhX4XT.T.T.T.T.T.<XhX0X<XT.T.T.T.T.T.9XhX9X8XuX$XU 8X9X9XhX;.[ pX8X",
"aXtXaXaXaXaXaXaXaXaXaXaXaXtXaXaXaXsXw.Q.Q.N.Q.Q.Q.Q.Q.Q.N.Q.Q.Q.Q.N.Q.Q.Q.!.N.Q.eXT.eX!.w.4 C.rXs j.w.s d W.kXkXtXw.8 R.kX5XR.R.R.uXkXhXR.uX5Xd g W.fXH 7XgXfXAXhXDXDXDXDXDXDXKXhXSXGXDXDXDXDXhXGXDXAXfXqX#XL AX&XR E mXhXfXNXmX7XmXNX8.gXBXR.8 w.8XBXBXBXMXMXMXMXmXmXmXMXmXMX7XmXMXMXMXMXMXMXmXmXMXmX7XAXAXAX&XR E NX`.`.SX].].cXSX0XFXFXFXFXxXBXUX0Xw.7 9XUXxXxXDXFX].].NXa.6X@XB iXSXvXvXvXvXvXvXvXvXvXvXvXvXvXvXsXiXiXyXyXOXa.kX9X8X9X8XuXL Z L uX8X9X8X9XhX4XT.T.T.T.T.T.<XhX0X<XT.T.T.T.T.T.9XhX9X9X8X9XuX9X8X8X8XuXpX8X9X",
"aXtXaXaXaXaXaXaXaXaXaXaXaXtXaXaXaXtXw.eXeXN.Q.eXQ.Q.Q.Q.N.eXQ.Q.eXN.Q.Q.eXQ.B.eXeXB.B.eXrXC.4 e.} +.y s N.hXkXkXkXkXz.6 k.5XR.R.R.5XfXR.l.R.kXZXJ.q $.H 7XfXfXAXhXDXGXGXGXGXGXKXhXSXKXGXGXGXDXhXKXDXAXNXqX#XU #XS &XAXNX7XgXNXMX7XMXNX8.VXC.8 <XBXBXMXMXMXMXMXMXMXMXMXMXMXMXNX7XmXNXMXMXMXMXMXMXMXMXmX7XMXmXmXAXmXE R `.`.].'.FXFXFXqXFXFXFXFXxXxXFXFXUXC.8 sXNXxXFXbX0X'.].c.N B iXiXnXvXvXvXvXvXvXvXvXvXvXvXvXvXvXsXiXiXiXyXOXa.kX9X8X9X8XuXL Z L uX8X9X8X9XhX4XT.T.T.T.T.T.<XhX0X<XT.T.T.T.T.T.9XhX9X8X9X8X8X9X9X8X9X8X8X9X9X",
"aXtXaXaXaXaXaXaXaXaXaXaXaXtXaXaXjXtXw.eXeXN.Q.eXQ.Q.Q.Q.N.eXQ.Q.eXN.Q.Q.eXQ.B.eXeXB.Q.eXB.N.B.9 ; q i.x.j j u.Y.5X9XkX5X6 u.5XR.R.R.5XR.Y.R.9X5XfX5Xq r mXgXfXAXhXDXGXGXGXGXGXKXhXSXKXGXGXGXDXhXKXDXAXNXqX&XC R 7X7XmXNXgXgXNXMX7XMXNXF.u.8 qXBXmXMXMXMXMXMXMXMXMXMXMXMXMXMXNX7XmXNXMXMXMXMXMXMXMXMXmX7XNXMXMXmXzXmXQ A /.'.FXxXbXFXqXFXFXFXFXxXxXFXFXbXBXN.8 0XxXFXbXwXbX'.n M yXiXiXvXvXvXvXvXvXvXvXvXvXvXvXvXvXvXsXiXiXiXyXOXa.kX9X8X9X8XuXL Z L uX8X9X8X9XhX4XT.T.T.T.T.T.<XhX0X<XT.T.T.T.T.T.9XhX9X9X9X9X8X8X9X9X8X8X8X9X9X",
"aXtXaXaXaXaXaXaXaXaXaXaXaXtXaXaXjXrXw.eXeXN.Q.eXQ.Q.Q.Q.N.eXQ.Q.eXN.Q.Q.eXQ.B.eXeXB.Q.eX!.x.B.k.  s R.J.R.x.u.j w.Y.E.5XY.6 u.5XR.R.R.R.Y.R.5XuX5X5XW.q H.NXfXSXhXDXGXGXGXGXGXKXhXSXKXGXGXGXDXhXKXDXAXMX9XE S 7X%X%XmXNXgXgXNXMX7XmXBX_ 8 fXBXmXMXMXMXMXMXMXMXMXMXMXMXMXMXMXNX7XmXNXMXMXMXMXMXMXMXMXmX7XNXMXMXmXzX%XgXW W bXxXxXFXFXqXFXFXFXFXxXxXFXFXbXqXUXu.j NXFXbX6XxXxXV @XiXyXiXvXvXvXvXvXvXvXvXvXvXvXvXvXvXvXsXiXiXiXyXOXa.kX9X8X9X8XuXL Z L uX8X9X8X9XhX4XT.T.T.T.T.B.<XhX0X<XB.T.T.T.T.T.9XhX9X9X9X8XuXuX9X8XuXuX8X8X9X",
"aXtXaXaXaXaXaXaXaXaXaXaXaXtXaXaXjXrXw.eXeXN.Q.eXQ.Q.Q.Q.N.eXQ.Q.eXN.Q.Q.eXQ.B.eXeXB.Q.eX!.l.Z.y y 4 p.W.Y.R.5XR.u.j R.R.5Xz.8 z.R.R.R.R.Y.R.5XuX5X5XW.w q W.AXAXhXDXGXGXGXGXGXKXhXSXKXGXGXGXDXhXKXDXAXAX&XC L zX%X7XmXNXgXgXNXMX7XBX<X6 qXBXmXMXMXMXMXMXMXMXMXMXMXMXMXMXMXMXNX7XmXNXMXMXMXMXMXMXMXMXmX7XNXMXMXmXzXgX]./.J ).bXxXFXFXqXFXFXFXFXxXxXFXFXbXqXFXUXj x.UXbX6XMX@XV /.yXiXiXvXvXvXvXvXvXvXvXvXvXvXvXvXvXvXsXiXiXiXyXOXa.kX9X8X9X8XuXL Z L uX8X9X8X9XhX9X5X5X5X5X5X5X4XhX0X5XE.E.E.E.E.E.0XhX9X8X8XuX$XL A A P ).9X9X8X",
"aXtXaXaXaXaXaXaXaXaXaXaXaXtXaXaXjXrXe.rXQ.N.Q.eXQ.Q.Q.Q.N.eXQ.Q.eXN.Q.Q.eXQ.B.eXeXB.Q.eXB.B.g f s t.4 l.R.R.R.R.5Xu.j u.R.x.8 8 R.R.R.R.Y.R.R.5X5X5XW.H H.r NXSXhXDXGXGXGXGXDXKXhXSXKXDXGXGXDXhXKXDXAXfXR E I zX%X7XmXNXgXgXNXmX7XfX8 ` VXMXMXMXMXMXMXMXMXMXMXMXMXMXMXMXMXMXNX7XmXNXMXMXMXMXMXMXMXMXmX7XNXMXMXmXmX*X].).).R %XbXbXFXqXFXFXFXFXxXxXFXFXbXqXFXFX6X6 pXFXqX6XN a.(.'.dXiXvXvXvXvXvXvXvXvXvXvXvXvXvXvXvXsXiXiXiXyXOXa.kX9X8X9X8XuXL Z L uX8X9X8X9XCX5X^.^.^.^.^.^.~.CXpX5XE.5X5X5X5X5X0XhX9X8XuX).Z L #X&XE A L 8X9X",
"aXtXaXaXaXaXaXaXaXaXaXaXaXsXaXaXHXeXw.rXQ.N.Q.Q.Q.Q.Q.Q.N.eXQ.Q.eXN.Q.Q.eXQ.B.eXeXB.Q.Q.rXf y N.s i.r.8 R.R.R.R.R.E.R.w.k w.u.8 w.5XR.R.Y.R.R.5X5X5XJ.w 7Xd d PXhXDXDXDXDXKXKXLXSXGXLXKXKXDXDXhXGXSXGXE E #XI zX%X7XmXNXqXgXNXmXmXr.u.$XfXNXMXMXMXMXMXMXMXMXMXMXMXMXMXMXMXMXNX7XmXMXMXMXMXMXMXMXMXMXmX7XMXMXMXmXzX].*X).`.&XR bXbXFXqXFXFXFXFXxXxXFXFXbXqXFXFXBXe.e.FXqXs.@Xa.@X].yXiXvXvXvXvXvXvXvXvXvXvXvXvXvXvXvXsXiXiXyXyXOXa.kX9X8X9X8XuXL Z L uX8X9X8X9XCX~.l l l l l l ^.bXpXE.~.~.~.~.~.E.9XhX8XuX&XZ #XHXHXZXHXqXA U uX",
"aXtXaXaXaXaXaXaXaXaXaXlXtXw.e.e.u.w.u.rXeXB.Q.eXeXeXeXQ.N.eXeXeXeXB.Q.eXeXQ.B.eXeXB.Q.rXB.y p.x.s t.J.8 u.5XR.R.R.R.R.R.z.5X5Xz.4 k.5XR.Y.R.R.5X9XW.g.w $XgXg W.SXKXIXLXKXAXfXgX1X7XgXfXSXKXLXHXPXLX&XR 7X#XI zX%X7XmXBXfXfXNXBXj.k BX8.mXNXNXNXNXNXNXNXNXNXNXNXNXNXNXNXNXNXBX7XmXNXNXNXNXNXNXNXNXNXMX7XNXNXNXNX].].zX).).xXE ).GXFXqXFXFXFXFXxXbXFXFXFXxXFXFXxX0X8 4X6XN cX&.XX'.'.lXvXvXvXvXvXvXvXvXvXvXvXvXvXvXvXsXiXnXiXiXOXa.kX9X8X9X8XuXL Z L uX8X9X8X9XhX9X5X5X5X5X5X5X5XhX0Xl l l l l l l 9XhX8XuXJ U HXhXhXhXCXGX%XZ $X",
"sX<XtXtXtXtXtXtXtXtXtXsXB.j N.x.x.l.B.B.B.N.N.B.B.B.B.B.l.B.B.B.B.N.N.B.B.N.N.B.B.N.N.eXg s x.p.s } i.p.5 Y.R.R.R.R.R.R.R.Y.Y.R.w.8 R.R.j.Y.Y.R.I.h.i.w F.1XG.g hX1XH.H Y Y Y Y Y Y Y Y Y Y H H.qXZXR &X$X#XI %X%X%X7XgX7X7XgXqX8 P.VX1.7XgXqXqXqXqXqXqXqXqXqXqXqXqXqXqXqXqXgX7X7XqXqXqXqXqXqXqXqXqX7X7XqX7XfXwX].%X%X).).wX%XR 7XxXqXxXxXxXxXqXqXxXxXqXqXxXxXqXxXC.w.s.s.6X&.[.oX/.yXsXsXsXsXsXsXsXsXsXsXsXsXsXsXiX6XyXyXyXyXXXa.kX9X8X9X8XuXL Z L uX8X9X8X9XhX9XE.E.E.E.E.E.5XhX0XE.~.~.~.~.~.~.9XhX9X1XA %XjXhXhXhX>XI.0XI ).",
"sXtXsXsXsXsXsXsXsXsXsXaXB.w.eXQ.Q.Q.Q.T.Q.N.B.Q.!.!.Q.B.N.Q.!.T.Q.N.B.Q.Q.N.N.Q.Q.N.B.i.y k.p.k.s } p.j.j j E.Y.R.R.R.R.R.R.R.R.l.4 e.R.j.R.R.Y.J.h.i.w F.I.hXr t Y [ F.1XgXfXfX2X4XfXfXqX1XF.H Y A L MX%X#XI %X%X%X7XmX7X7XVXe.r.VXfX8.7XmXfXfXfXfXfXfXfXfXfXfXfXfXfXfXfXgXmX7XqXfXfXfXfXfXfXfXfXfXgX7XfXgXfX].'.%X%X).).wXcX).E ZXqXxXxXxXxXqXqXxXxXxXqXxXxXqXqXbX8 B 6X6X&.[.yX(.oXaXiXiXiXiXiXiXiXiXiXiXiXiXiXiXyXsXyXyXyX.Xa.kX9X8X9X8XuXL Z L uX8X9X8X9XhX9XE.E.E.E.E.E.5XhX0X5X5X5X5X5X5X5X0XhXuX$XA 7XjXhXCX8X- o U.F K ",
"aXtXaXaXaXaXaXaXaXaXaXHX!.w.rXQ.eXeXeXeXeXB.Q.eXeXeXeXQ.N.eXeXeXeXN.Q.eXeXQ.B.eXeXB.eXy t.k.k.x.s t.k.k.l.8 l.E.R.R.R.R.R.R.R.R.R.k 5 Y.R.R.R.R.R.J.g.w 1X1XY Y r gXDX5XfXfXfXfXI.I.fXfXfXNXhXuX7XS Y Y 7X#XI zX%X7XmXNXgXmX8X8 1XBXBX8.mXNXNXNXNXNXNXNXNXNXNXNXNXNXNXNXNXNXBX7XmXNXNXNXNXNXNXNXNXNXMX7XNXBX*X].zX*X*X).).zXzXzXR zXbXFXFXFXFXxXbXFXFXFXxXFXFXxXxXUXe.r.cX6X&.oXyXoX].HXvXvXvXvXvXvXvXvXvXvXvXvXvXvXsXiXnXiXyXOXa.kX9X8X9X8XuXL Z L uX8X9X8X9XhX9XE.E.E.E.E.E.5XhX0X5XE.E.E.E.E.E.0XhX9X1XA &XZXhXhXhXhXpXhXX [ ",
"aXtXaXaXaXaXaXaXaXaXaXHXB.w.rXQ.Q.Q.Q.Q.eXN.Q.eXQ.Q.Q.Q.N.eXQ.Q.eXN.Q.Q.eXQ.B.eXQ.eX} g B.p.k.k.s t.k.k.Y.e.8 5XR.R.R.R.R.R.R.R.E.l.5 w.R.R.R.R.Y.J.g.w G.t H fXd d NXI.4XfXfXfXP.P.4XfXfXfX2X5XE #XgXU Y E I 7X%X7XmXNXqXVXw.C.mXmXNX8.mXNXMXMXMXMXMXMXMXMXMXMXMXMXMXMXMXMXNX7XmXMXMXMXMXMXMXMXMXMXmX7XMXNX].*XzX%X%X).).zXzXxX#XE bXFXFXFXFXxXxXFXFXbXqXFXFXxXxXbXB 8 XXcX&.oX6XyX].yXvXvXvXvXvXvXvXvXvXvXvXvXvXvXsXiXiXyXyXOXa.kX9X8X9X8XuXL Z L uX8X9X8X9XhX4XE.E.E.E.E.E.5XhX0X5XE.E.E.E.E.E.0XhX8XuXP L HXhXhXhXhXLX;.. :X",
"aXtXaXaXaXaXaXaXaXaXaXHXZ.w.rXQ.Q.Q.Q.Q.eXN.Q.eXQ.Q.Q.Q.N.eXQ.Q.eXN.Q.Q.eXQ.B.eXeXB.y j.z.p.k.k.s t.k.k.x.Y.8 u.5XR.R.R.R.R.R.R.R.Y.k 5 k.R.R.R.Y.J.h.w r H.1X1X1Xr U.<X3XfX8X4XU.I.2X2X2XfX5X8.R gX%X7X;.t I zX%X7XmXMXmXP.k mX7XMXBX8.mXNXMXMXMXMXMXMXMXMXMXMXMXMXMXMXMXMXNX7XmXNXMXMXMXMXMXMXMXMXmX7XAX'.].mXzX%X%X).).zXzXzXxXR &XFXFXFXFXxXxXFXFXbXqXFXFXxXNX@X@Xe.e.cX&.oX6XyX'.'.HXvXvXvXvXvXvXvXvXvXvXvXvXvXsXiXiXiXyXOXa.kX9X8X9X8XuXL Z L uX8X9X8X9XCXR.7 h h h h 6 d.CX0X,X<X<X<X<X<X<X0XhX8XuX$XA U hXhXhXZX8.. K hX",
"aXtXaXaXaXaXaXaXaXaXaXHXZ.w.rXQ.Q.Q.Q.Q.eXN.Q.eXQ.Q.Q.Q.N.eXQ.Q.eXN.Q.Q.eXQ.B.Q.rXf f Q.x.p.k.k.s t.k.k.l.Y.u.8 5XR.R.R.R.R.R.R.R.R.x.k k 5XR.R.U.Y.#.t @.D.F.1X1XH.g 4X>X>XR.>XP.I.>XR.>XfX5XL #XgX%X&X&XU t %X7X%XmXMXmXh V.BX7XMXBX8.mXNXMXMXMXMXMXMXMXMXMXMXMXMXMXMXMXMXNX7XmXNXMXMXMXMXMXMXMXMXmX7XNX].zXzXzX%X%X).).zXzXzXxX#XE GXFXFXFXxXxXFXFXbXqXFXFXxXxXB +X X8 6X&.oX6XyXoX].HXvXvXvXvXvXvXvXvXvXvXvXvXvXsXiXiXiXyXOXa.kX9X8X9X8XuXL Z L uX8X9X8X9XCXR.7 h h h h 7 d.CX0X4X4X4X4X4X4X4X0XhX9X8XuX&XL 8XpX9XjXK F uX9X",
"aXtXaXaXaXaXaXaXaXaXaXHXZ.w.rXQ.Q.Q.Q.Q.eXN.Q.eXQ.Q.Q.Q.N.eXQ.Q.eXN.Q.Q.eXQ.N.eXQ.y k.N.l.p.k.k.s t.k.k.l.l.R.8 u.5XR.R.R.R.R.R.R.R.E.R.8 e.R.R.Y.J.r r 5.3.F.I.S.2Xg 5.,XI.>X>XP.I.>X>X>XuX8.L gX%X%X%X8.;.D Y 7X7XmXBXV.j BXMX7XMXBX8.mXNXMXMXMXMXMXMXMXMXMXMXMXMXMXMXMXMXNX7XmXNXMXMXMXMXMXMXMXMXmXfX'.].mXzXzX%X%X).).zXzXzXzXxXR zXFXFXFXxXxXFXFXbXqXFXFXNXoXB bX6Xj b.a.oX6X6XyX].6XHXvXvXvXvXvXvXvXvXvXvXvXvXsXiXiXiXyXOXa.kX9X8X9X8XuXL Z L uX8X9X8X9XCXR.7 h h h h 6 d.CX0Xx.u.u.u.u.u.C.9XhX9X9X8XuX9X9X8X8X8X9XuX9X8X",
"aXtXaXaXaXaXaXaXaXaXaXHXZ.e.rXQ.Q.Q.Q.Q.eXN.Q.eXQ.Q.Q.Q.N.eXQ.Q.eXN.Q.Q.eXQ.N.rXf f N.z.l.p.k.k.s t.k.k.l.z.Y.u.8 E.R.R.R.R.R.R.R.R.R.5Xu.4 R.R.Y.w w w 1.5.4.J.5.U.$.g 3XI.>X>XP.I.>X>X>X5XL ;.7X7X%X%X3.;.I U Y zXmXBXj V.BXmX7XMXBX8.mXNXMXMXMXMXMXMXMXMXMXMXMXMXMXMXMXMXNX7XmXNXMXMXMXMXMXMXMXMXMX7X].zXzXzXzX%X%X).).zXzXzXzXxX).E GXFXFXxXxXFXFXbXqXFXFXNXN +XbX6Xb.r.a.oX6X6XiX'.'.HXvXvXvXvXvXvXvXvXvXvXvXvXsXiXiXiXyXOXa.kX9X8X9X8XuXL Z L uX8X9X8X9XCXR.7 h h h h 6 d.CX0Xw.8 k k k k j 9XhX9X8X9X8X8X9X9X9X9X8X8X8X9X",
"aXtXaXaXaXaXaXaXaXaXaXHXZ.e.rXQ.Q.Q.Q.Q.eXN.Q.eXQ.Q.Q.Q.N.eXQ.Q.eXN.Q.Q.eXQ.B.Q.y k.l.z.l.p.k.k.s t.k.k.l.z.z.R.8 u.5XR.R.R.R.R.R.R.R.R.U.8 p.rX] w f.w 1.3.4.J.4.J.I.g #.3XI.>XP.I.>X>X5X8.U K.7X7X%X$X3.;.I %XY #XUXl.h mXNXMX7XMXBX8.mXNXMXMXMXMXMXMXMXMXMXMXMXMXMXMXMXMXNX7XmXNXMXMXMXMXMXMXMXMXNX`.].mXzXzXzX%X%X).).zXzXzXzXzX7XR zXFXFXxXxXFXFXbXqXFXFX6XN bXyX6X6Xj m oX6X6XyX6X].HXvXvXvXvXvXvXvXvXvXvXvXvXsXiXiXiXyXOXa.kX9X8X9X8XuXL Z L uX8X9X8X9XCXR.7 h h h h 7 d.CX0Xe.j j j j j w.9XhX9X9X9X9X8X4X4X4X4X4X8X9X9X",
"aXtXaXaXaXaXaXaXaXaXaXZXZ.e.rXQ.Q.Q.Q.Q.Q.N.Q.Q.Q.Q.Q.Q.N.Q.Q.Q.Q.N.Q.Q.Q.B.eXf f N.k.z.l.p.k.k.s t.k.k.l.l.z.Y.u.8 E.R.R.R.R.R.R.R.R.R.R.u.k U.r #.#.w 1.5.4.J.5.J.U.$.g 3XI.>XU.I.>XI.>XL 8.9.1X7X%X$X3.;.I %X#XY gX8 M.mXMXmX7XmXNX8.mXMXmXmXmXmXmXmXmXmXmXmXmXmXmXmXmXmXMX7XmXMXmXmXmXmXmXmXmXMXMX].zXzXzXzXzX%X%X).).zXzXzXzXzXqX#XE GXFXqXxXFXFXxXqXFXUX@X@XbX6XoXcXe.1 oX6X6X6XbX].6XHXvXvXvXvXvXvXvXvXvXvXvXsXiXiXyXyXOXa.kX9X8X9X8XuXL Z L uX8X9X8X9XCXR.7 h h h h 7 d.CX0Xe.j j j j j w.9XhX9X9X9X4X0XCXhXhXCXpX4X8X9X",
"HXsXlXHXHXHXHXHXHXHXlXGXZ.u.tXrXrXrXrXrXrXQ.eXrXrXrXrXrXQ.rXrXrXrXQ.eXrXrXeXN.y Y.z.z.Y.z.k.x.x.s t.l.l.z.Y.Y.Y.R.j u.5XE.E.E.E.E.E.E.5XR.E.j e [ J.#.w 3.G.S.U.J.U.U.R.g 5.4X5XI.>X2XtX8.U >X9.7XgX%X$X3.;.I &X%XU e w.VXmXBXBXfXBXUX8.NXBXBXBXBXBXBXBXBXBXBXBXBXBXBXBXBXBXUXmXBXBXBXBXBXBXBXBXBXJX'.].BXxXmXzXzXzX*X).).zXzXzXxXmXzXmXR xXUXbXFXUXUXFXxXUXFXB yXnXbX6XcXOX6 oXyXyXiXvX'.'.HXHXHXHXHXHXHXHXHXHXHXHXiXvXvXnXiXOXa.kX9X8X9X8XuXL Z L uX8X9X8X9XCXR.7 h h h h 7 d.CX0Xe.j j j j j w.9XhX9X9X4XpX>Xa     y 5.hX9X8X",
"V.j.V.V.V.V.V.V.V.V.V.I.e.r.d.d.d.d.d.d.d.y.d.d.d.d.d.d.y.d.d.d.d.y.d.d.d.d.s y d.} +.y.t._ t.t.s f } } +.y.y.y.y.r.5 g.i.f.f.f.f.f.f.f.+.5.h 1 X. .{ e ] | o.X. .O.O.#.d y n.5.2.2.5.g.J ;.2...8.F.>.:.] [ J ;.;.8.1 +.$Xq.9.$X8.$X$X] $X$X$X$X$X$X$X$X$X$X$X$X$X$X$X$X$X$X$XF.$X$X$X$X$X$X$X$X$X$X/.6.$X_._._.`.).).)./.`.`.`._._.8.:XU E ,X_.}.:X:X:X_.wX@XN }.{.[.7.[.`.7 s.[.[.[.{.`.n u.;X|.|.|.|.|.|.|.|.|.|.M.M.{.m.m.v.a.kX9X8X9X8XuXL Z L uX8X9X8X9XCXR.7 h h h h 6 d.CX0Xe.j j j j j w.9XhX9X4XpX$.    y a o   y 0X9X",
"<XM.R.<X<XR.<X<X<X<X<X4Xu.r.x.x.x.x.x.x.x.d.d.x.x.x.x.x.d.x.x.x.x.d.d.x.x.d.y y.i.y.y.y.y.t.t.y.s _ t.t.y.y.y.y.y.f.6 r.h.g.g.g.g.g.g.g.#.g.e 4 _ @.{ e o.o.X.O.X.#.#.#.5.y { n.2.5.j.;.K 4.1.>.3.8.1.1...[ F ,.;.| 1 G n.5.n.$X$X1XL.^ $X1X:X:X:X:X:X:X:X:X:X:X:X:X:X:X:X:X1X$X$X1X:X:X:X:X:X$X1X`.].$X$X$X$X$X&X`.&X)./._.`._.$X$X_.$X&XP wX;X;XwXwX;X=XwXN [.|.|.|.[.[.|.r.7 {.{.{.|.;Xn r.,X<X<X<X<X<X<X<X<X<X<X|.XXXX X Xv.a.kX9X8X9X8XuXL Z L uX8X9X8X9XCXR.7 h h h h 6 d.CX0Xe.j j j j j w.9XhX4XpX4.  a CXDXDXDX5.  a hX",
"HXsXlXlXlXHXtX!.Q.!.!.rXw.u.rXrXrXrXrXrXrXQ.eXrXrXrXrXrX!.rXrXrXrXQ.eXrXdX} f Q.Y.l.z.Y.z.k.x.x.s t.l.l.z.Y.Y.Y.Y.R.u.8 5XE.E.E.E.E.E.E.Q.@.w 8 k J.#.w 3.G.S.U.J.U.U.U.R.$.d uXI.>XtXU 8.-X:XD.:X:XD.D.3.;.H F.F.7 d.H 1.4X3XMXqXBX0X<.MXBXBXBXBXBXBXBXBXBXBXBXBXBXBXBXBXBXBXfXNXBXBXBXBXBXBXBXJX].cX7XxXxXxXzXzX*X*X).).zXzXzXzXxX7XzXFXE *XHXFXUXUXFXNXiXB bXyXnXbX6X6XcXa.5 OXyXiXbXFXa.e.KXHXHXHXHXHXHXHXHXHXHXiXvXvXnXiXOXa.kX9X8X9X8XuXL Z L uX8X9X8X9XCXR.7 h h h h 7 d.CX0Xe.j j j j j w.9XhX4XpX  o PXhXhXhXhXPX#.  U.",
"aXtXaXaXaXdXw.C.C.C.C.C.C.N.Q.Q.Q.Q.Q.Q.eXN.Q.Q.Q.Q.Q.Q.N.Q.Q.Q.eXN.Q.Q.Q.y i.Y.z.x.l.z.l.p.k.k.s t.k.k.l.l.z.z.z.l.R.8 u.E.R.R.R.R.R.R.j.w 5.j 6 t.#.w 1.5.4.J.5.J.J.J.J.U.y J.I.R.8.U I.L.L.9.L.L.D.F.3.;.H F.+.7 :X8.w >X>X2X-X3X3X>.qXNXmXMXMXMXMXMXMXMXMXMXMXMXMXMXMXmXMX7XmXMXMXMXMXMXqXNX*X].mXwXzXzXzXzXzX%X%X).).zXzXzXzXzXwXzXxX*XR bXxXFXFXxXMX@X@XxX6XbX6XoXXX6Xa.7 e.cX6XyXbXb.e.HXiXvXvXvXvXvXvXvXvXvXsXiXiXyXyXOXa.kX9X8X9X8XuXL Z L uX8X9X8X9XCXR.7 h h h h 7 d.CX0Xe.j j j j j w.9XhX0XI.  5.DXhXhXhXhXhXhX  p ",
"aXtXaXaXjXtXe.aXaXaXaXaXsXN.Q.Q.Q.Q.Q.Q.eXN.Q.eXQ.Q.Q.Q.N.eXQ.Q.eXN.Q.rX} g N.z.z.x.l.z.l.p.k.k.s t.k.k.l.z.z.z.z.z.Y.u.8 5XR.R.R.R.R.rX[ [ R.t.7 k #.w 1.3.4.J.4.J.J.J.J.I.$.d >XR.U 8.I.L.L.9.L.L.D.F.3.;.H F.7 +.$X-XH ;.8X>XP.>X,X>.3XNXMXMXMXMXMXMXMXMXMXMXMXMXMXMXMXMXNX7XmXNXMXMXMXMXr.fX].*XxXwXzXzXzXzXzX%X%X).).zXzXzXzXzXwXzXzXxXE &XFXFXFXFX6XB yX6X6XbX6X{.b.XX&.s.j 6XyXyXbXb.r.FXvXvXvXvXvXvXvXvXvXvXsXiXiXiXyXOXa.kX9X8X9X8XuXL Z L uX8X9X8X9XCXR.7 h h h h 6 d.CX0Xe.j j j j j w.9XhXpXn.  I.ZXhXCXhXhXhXSX  y ",
"aXtXaXaXjXtXw.Q.Q.Q.Q.Q.Q.N.Q.Q.Q.Q.Q.Q.eXN.Q.eXQ.Q.Q.Q.N.eXQ.Q.eXN.Q.eXy i.l.z.z.x.l.z.l.p.k.k.s t.k.k.l.z.z.z.z.z.z.Y.8 k.E.R.R.R.R.U.w J.U.g.k 6 } w 1.3.4.J.4.J.J.J.J.J.U.y g.D.L I.L.L.L.9.L.L.D.F.3.;.L +.6 8.D.:X3.w ,X,XP.,X,X>.>XmXMXMXMXMXMXMXMXMXMXMXMXMXMXMXMXMXNX7XmXNXMXMXBXqX8 }.].xXzXwXzXzXzXzXzX*X*X).).zXzXzXzXzXwXzXzXxX#XE ZXFXFXFX@X@XbX6X6XiX.Xd.r.e.b oXj b.bXyXbXZ.b xXvXvXvXvXvXvXvXvXvXvXsXiXiXiXyXOXa.kX9X8X9X8XuXL Z L uX8X9X8X9XCXR.7 h h h h 6 d.CX0Xe.j j j j j w.9XhX0XU.  4.DX9Xa 3XCXhXZX  p ",
"aXtXaXaXjXrXw.rXQ.Q.Q.Q.eXN.Q.Q.Q.Q.Q.Q.eXN.Q.eXQ.Q.Q.Q.N.eXQ.Q.eXN.rXt.g B.k.z.z.x.l.z.l.p.k.k.s t.k.k.l.z.z.z.z.z.z.Y.e.8 5XR.R.R.rX[ H R.J.U.t.5 h w 1.3.4.J.4.J.J.J.J.J.I.f g U ;.-XL.L.L.9.L.L.D.F.3.;.L k } F.D.L.=XH ;.4XP.,X3X,.>XqXNXMXMXMXMXMXMXMXMXMXMXMXMXMXMXMXNX7XmXNXMXmXBX3X8 /.*XxXzXwXzXzXzXzXzX%X$X).).zXzXzXv.wX7XzXzXu.6XR zXFX<XFXN +XbX6X6XbXC.j r.r.5 oXw.w.b.b.bXZ.b '.HXvXvXvXvXvXvXvXvXvXsXiXiXiXyXOXa.kX9X8X9X8XuXL Z L uX8X9X8X9XCXR.7 h h h h 7 d.CX0Xe.j j j j j w.9XhX8XpX  y IXi a SXhXPX4.  J.",
"lXtXjXjXHXrXe.rXQ.Q.Q.Q.eXN.Q.Q.Q.Q.Q.Q.eXN.Q.eXQ.Q.Q.Q.N.eXQ.Q.eXN.eXy i.N.k.z.z.x.l.z.l.p.k.k.s t.k.k.l.z.z.z.z.z.z.z.Y.8 l.E.R.R.U.w 5.J.J.J.J.k 4 e 1.5.4.J.4.J.J.J.J.J.J.J.r J =XL.L.L.L.9.L.L.D.F.3.;.G k 8.8.D.L.K.3.Y >XP.3Xx.h R.3XqXMXMXMXMXMXMXMXMXMXMXBXNXMXMXMXNX7XmXNXMXBXBXe.j =.VXzXzX7XzXzXzXzXzXc.4 ^ ).zXzXzX7 m.zXzXzXh B.#XE Z.6 e.N 6XV.xXV.yXe.8 7 7 8 b.b.7 r.C.FXC.b ].HXvXvXvXvXvXvXvXvXvXsXiXiXiXyXOXa.kX9X8X9X8XuXL Z L uX8X9X8X9XCXR.7 h h h h 7 d.CX0Xe.j j j j j w.9XhX4XpX#.  { J.3XZXCXU.  y pX",
"rXQ.rXrXtXZ.e.rXQ.Q.Q.Q.eXN.Q.Q.Q.Q.Q.Q.eXN.Q.eXQ.Q.Q.Q.N.eXQ.Q.Q.Q.t.y Q.l.x.z.z.x.l.z.l.p.k.k.s t.k.k.l.z.z.z.z.z.z.z.R.w.j 5XR.rX[ [ J.J.J.J.J.#.4 s 1.5.4.J.4.J.J.J.J.J.J.R.H H -XD.L.L.L.9.L.L.D.F.3.;.< y.F.8.D.L.S.=XH [ <X>Xw.s e.3X,XMXNXMXMXMXMXBXBXBXmXe.qXNXMXMXNX7XmXMXMX4X3Xw.-.d.V.;XzX}.wXzXVXzXzXd.r.^ ).zXd.d.r.r.wXzXzX8 C.$XG 8 k 4  XC.j xXr.8 w.r.8 7 r.e.b.w.6 r.bXC.r.].nXvXvXvXvXvXvXvXvXvXsXiXiXiXyXOXa.kX9X8X9X8XuXL Z L uX8X9X8X9XCXR.7 h h h h 7 d.CX0Xe.j j j j j w.9XhX9X4XhXf q hXhX9XZXy   8X9X",
"e.e.e.e.e.e.Z.eXQ.Q.Q.Q.Q.N.Q.Q.Q.Q.Q.Q.eXN.Q.Q.Q.Q.Q.Q.N.eXQ.Q.Q.Q.y t.Y.l.x.z.z.x.l.z.l.p.k.k.s t.k.k.l.z.z.z.z.z.z.z.z.Y.8 z.E.U.w J.g.J.J.J.g.G.r.4 +.3.4.J.4.J.J.J.J.J.J.S.J r D.L.L.L.L.9.L.L.D.F.8. .6 8.8.8.D.L.D.K.F.w P.R.e.>.j >X4XmXfXqXqXMXNX3Xj V.C.8 R.BXmXmXMXgXMXMXfXj k y./.r.8 d.j 6 d.zXe.e.wXr.7.6 7.zXe.4 d.m.r.zXd.7 e.w.7 r.u.4 C.w.j 6Xr.w.e.d.j r.m 8 8 r.4 4 yXC.j ].6XHXvXvXvXvXvXvXvXvXsXiXiXyXyXOXa.kX9X8X9X8XuXL Z L uX8X9X8X9XCXR.7 h h h h 6 d.CX0Xe.j j j j j w.9XhX9X9X8X0X5X8X4X8X9X3X8X9X8X",
"HXsXHXHXHXHXtXQ.eXeXeXeXeXN.eXeXeXeXeXeXeXB.Q.eXeXeXeXQ.N.eXeXQ.rXi.y !.z.l.x.Y.Y.x.l.Y.l.k.k.x.s t.k.k.l.z.z.z.z.z.z.z.z.R.w.j tX[ [ R.4.J.U.J.J.5.5.6 h G.4.J.g.J.U.U.U.U.R.;.;.d ' 1XL.P.L.9.:XL.D.F.8.1 ( F.8.8.D.:XD.D.,XH [ B.u.q.d.w.V.qXqXC.r.BXBXC.k 8 w.x.l.BXMXBXBXP.x.BX4Xu.e.&.`.u.r.r.8 r.V.m.4 6 7 y.$X` r.zXr.4 v.7Xr.v.r.|.u.4 : U b.m w.e.e. Xw..X.Xd.C.r.m 7 w.6 8 4 yXe.j '.oXHXvXvXvXvXvXvXvXvXsXiXnXiXiXOXa.kX9X8X9X8XuXL Z L uX8X9X8X9XCXR.7 h h h h 6 d.CX0Xe.j j j j j w.9XhX9X9X9X8X9X9X9X9X8X9X9X8X9X",
"tX<XtXtXtXtXQ.B.B.B.B.B.B.z.B.B.B.B.B.B.T.N.N.B.B.B.B.B.N.B.B.N.eXg } N.x.k.k.l.l.k.k.l.k.p.p.u.s } i.i.k.x.x.x.x.x.x.x.x.l.k.4 j.w 5.J.5.g.J.g.5.#.@.a 4 +.3.4.5.g.J.g.g.J.4.J 1.@.r D.D.D.D.4.D.D.4.8.+., H 8.8.8.9.D.9.9.K.3.Y e.u.>.-Xy.6 V.u.r.j x.>Xr.=XP.j.j.w.u.qXR.x.h j V.u.u.1X/.}.;Xc.h M.7.r.r.y.4 r._.0.;.b d.h r.v.;Xd.8 r.;XM.5 8 K n  Xh r.C.r.e. XV.v.{.d.b a.u.r.r.4 XXe.j oX(.aXsXsXsXsXsXsXsXiX6XyXyXyXyXXXa.kX9X8X9X8XuXL Z L uX8X9X8X9XCXR.7 h h h h 7 d.CX0Xe.j j j j j w.9XhX9X9X9X9X8X8X8X8X8X8X8X9X9X",
"sXtXsXsXsXsXQ.B.T.T.T.T.!.N.B.T.T.T.T.B.Q.N.B.Q.T.T.T.B.N.Q.B.Q.k.y l.x.l.k.k.l.l.k.k.l.k.p.p.k.s } i.i.k.x.l.l.l.l.l.l.l.x.Y.w.- [ J.J.5.g.J.g.5.#.#.e 5 h 3.4.5.g.J.J.g.J.;.U 5.4.d ' :XD.D.4.D.D.9.F.h ~ L 8.8.8.D.D.9.S.$XL.i s <XX.P.3Xd.h j -XP.k h x.-X-X-X>Xu.4 d.r.w.j.r.6 6 z.`.(.=X}.}.;X}.M.d.M.d.6 c._.0.=.` 4 h }.}.}.c.6 v.;X}.r.k -.m <Xr.j <Xr.e.XXV.v.m.{.&.a.b.b.b.4 C.r.r.XX(.iXiXiXiXiXiXiXiXiXyXyXyXyXyXXXa.kX9X8X9X8XuXL Z L uX8X9X8X9XCXR.7 h h h h 7 d.CX0Xe.j j j j j w.9XhX9X8X9X8X9XuXuXuXuX9X8X9X9X",
"tXT.rXtXtXtXeXeXeXeXeXeXeXN.Q.eXeXeXeXeXeXB.Q.eXeXeXeXQ.N.eXQ.rXf f T.z.Y.l.x.Y.Y.x.l.Y.l.k.k.x.s t.k.k.l.z.z.z.z.z.z.z.z.z.Y.x.r J.U.U.g.J.U.J.J.g.#.w s 4 #.K.g.J.U.U.U.U.L 3.3.9.1.g :XL.L.9.:XL.D.2.8 ;.H F.8.8.D.:XD.f.e.n.h G 3X>.>X3X>Xk R.3X,X,X,X3X,X,X,X,X3Xx.5 x.qX-Xx.x.u.,X/.}.;X;X;X;X;X}.;XwXv.d.:X_._.6.=.8 y.;X;X;XM.7 M.;X;X}.r.N v ;Xe.w.6XXXV..XXXm. X X&.a. XXXV.6 4 6 7 Z.(.cXHXvXvXvXvXvXvXvXsXiXnXiXyXOXa.kX9X8X9X8XuXL Z L uX8X9X8X9XCXR.7 h h h h 7 d.CX0Xe.j j j j j w.9XhX9X9X8XuX9X).E E ).1XuX8X9X",
"Q.N.Q.Q.Q.Q.Q.Q.Q.Q.Q.Q.Q.N.Q.Q.Q.Q.Q.Q.eXN.Q.eXQ.Q.Q.Q.N.Q.eXN.y x.l.z.z.l.x.z.z.x.l.z.l.p.k.k.s t.k.k.l.z.z.z.z.z.z.z.z.l.!.] o e.U.J.g.J.J.J.g.5.#.w +.4 h K.5.J.J.J.R.;.U K.3.3.D.g @.:XL.9.L.L.D.h _ ;.H F.8.8.D.L.D.h r.h e.H 1.<.-X,X,X,X,X,X,X,X,X,X,X,X,X,X,X-Xu.3X,XP.,X3X4X`.(.,X;X;X;X;X;X}.;X;X;X;X}._._.=.=.j }.}.;X;XM.j |.;X;X}.m.B %.6.e.w.<XV. X.XXXm. X X&.a. X XXXC.4 7 8 k &.'.HXvXvXvXvXvXvXvXsXiXiXyXyXOXa.kX9X8X9X8XuXL Z L uX8X9X8X9XCXR.7 h h h h 6 d.CX0Xe.j j j j j w.9XhX9X8XuX$XW T W W W T ).uX8X",
"eXN.Q.eXQ.Q.Q.Q.Q.Q.Q.Q.eXN.Q.Q.Q.Q.Q.Q.eXN.Q.eXQ.Q.Q.Q.N.Q.rXf f N.l.z.z.l.x.z.z.x.l.z.l.p.k.k.s t.k.k.l.z.z.z.z.z.z.z.z.z.z.w +.6 U.J.g.J.J.J.g.5.#.w 1.h 5 i.S.J.J.J.U.L 1.S.3.3.D.@.g :XL.9.L.$Xf.7 3.;.H F.8.F.y.j y.r.1Xn.g.8.G <.-X,X,X,X,X,X,X,X,X,X,X,X,X,X,X,X3X>X,XI.>X,X2X/._.;X;X;X;X;X;X}.;X;X;X;X}._._.=.=.r.}.}.;X;X}.d.;X;X;X:Xs.s._.K C.C..X X X.XXXm. X X&.a. X X X.X8 e.u.4 b (.HXvXvXvXvXvXvXvXsXiXiXiXyXOXa.kX9X8X9X8XuXL Z L uX8X9X8X9XCXR.7 h h h h 6 d.CX0Xe.j j j j j w.9XhX8X9XwXT W qXjXlXjX).T ).uX",
"eXN.Q.Q.Q.Q.Q.Q.Q.Q.Q.Q.eXN.Q.Q.Q.Q.Q.Q.eXN.Q.eXQ.Q.Q.Q.N.eXT.y l.x.l.z.z.l.x.z.z.x.l.z.l.p.k.k.s t.k.k.l.z.z.z.z.z.z.z.z.!.] w R.1 t.W.g.J.J.J.g.5.#.w 3.} 6 k S.J.J.W.;.K K.4.3.3.4.D.g 1.:X9.L.$Xh +.F.;.H F.8.8.r.h 7 n.L.:X9.-XH / <X,X,X,X,X,X,X,X,X,X,X,X,X,X,X,X,X,X,XI.>X3X}./.,X;X;X;X;X;X;X}.;X;X;X;X}._._.=.=.|.}.}.;X;X}.;X;X;X;X}.m [.XXK 7.rX.X X X.XXXm. X X&.a. X X X.Xj 8 b.8 5 n iXvXvXvXvXvXvXvXsXiXiXiXyXOXa.kX9X8X9X8XuXL Z L uX8X9X8X9XCXR.7 h h h h 7 d.CX0Xe.j j j j j w.9XhX8XuXW W jXjXhXhXhXlX).T 1X",
"eXN.Q.Q.Q.Q.Q.Q.Q.Q.Q.Q.eXN.Q.Q.Q.Q.Q.Q.eXN.Q.eXQ.Q.Q.Q.N.rXf f Q.k.l.z.z.l.x.z.z.x.l.z.l.p.k.k.s t.k.k.l.z.z.z.z.z.z.z.z.N.w O.j.y.6 U.g.J.J.J.g.5.#.w 1.#.r.h t.U.J.W.K ;.S.S.3.3.4.D.o.d :X9.:Xy.7 F.3.;.H F.8.2.r.g.t.D.L.L.9.-X1.w 4X>X,X,X,X,X,X,X,X,X,X,X,X,X,X,X,X,X,XI.>X5X(.`.;X;X;X;X;X;X;X}.;X;X;X;X}._._.=.=.}.}.}.;X;X}.;X;X;XwXa.N |. X6.%.OXXX X X.XXXm. X X&.a. X X X.Xe.8 w.V.4 n 6XHXvXvXvXvXvXvXsXiXiXiXyXOXa.kX9X8X9X8XuXL Z L uX8X9X8X9XCXR.h h h h h 7 d.CX0Xe.j j j j j w.9XhX9X3XT &XlXhXhXhXAXSXhXT ).",
"eXN.Q.Q.Q.Q.Q.Q.Q.Q.Q.Q.eXN.Q.Q.Q.Q.Q.Q.eXN.Q.eXQ.Q.Q.Q.N.eXy j.Y.k.l.z.z.l.x.z.z.x.l.z.l.p.k.k.s t.k.k.l.z.z.z.z.z.z.z.!.o.w l.f.h.6 y.J.J.J.J.g.5.#.w 1.#.r.t.6 U.U.1.L K.4.S.3.3.S.4.S.y 3.D.L.8 y.F.3.;.H q.8.<.r.:XD.D.P.L.9.L.-XG 3.4X>X,X,X,X,X,X,X,X,X,X,X,X,X,X,X,X,XP.>X}./.;X;X;X;X;X;X;X;X}.;X;X;X;X}._._.=.=.}.}.}.;X;X}.;X;X;X:XN a.|.{.{.K  X.X X X.XXXm. X X&.a. X XXX.X.X.X8 e.j b oXHXvXvXvXvXvXvXsXiXiXiXyXOXa.kX9X8X9X8XuXL Z L uX8X9X8X9XAXR., , , , , ; y.AXpXh 3 5 5 5 3 6 9XhXuX$XT 7XjXhXCX9Xa o U.W U ",
"eXN.Q.Q.Q.Q.Q.Q.Q.Q.Q.Q.eXN.Q.Q.Q.Q.Q.Q.eXN.Q.eXQ.Q.Q.Q.eX} g Q.z.k.l.z.z.l.x.z.z.x.l.z.l.p.k.k.s t.k.k.l.z.z.z.z.z.z.z.Y.w X.j.g.h.t.7 J.J.J.J.g.5.#.w 1.5.h J.7 t.W.K ;.K.4.S.5.3.S.4.D.' d :Xt.h D.F.8.;.H F.F._ y.:X9.D.P.L.9.L.-XG H 8X>X,X,X,X,X,X,X,X,X,X,X,X,X,X,X,X,XP.2X(.`.,X;X;X;X;X;X;X;X}.;X;X;X;X}._._.=.=.}.}.}.;X;X}.;X;X;X{.m |.{.{. X%.6.OX X X.XXXm. X X&.a. X XXX.X.X.Xb.8 e.m a.HXvXvXvXvXvXvXsXiXiXyXyXOXa.kX9X8X9X8XuXL Z L uX8X9X8X9XAXR.; , , , , ; y.AXpXh : 3 3 3 3 6 8XhXuXwXT %XjXhXhXpXn.5.9Xx K ",
"Q.N.Q.Q.Q.Q.Q.Q.Q.Q.Q.Q.Q.N.Q.Q.Q.Q.Q.Q.Q.N.Q.Q.Q.Q.Q.Q.B.y i.N.z.k.l.z.z.l.k.z.z.x.l.z.l.p.k.k.s t.k.k.l.l.z.z.z.z.l.!.O.w l.f.g.f.h.6 +.U.J.J.g.5.#.w 1.G.h g.y.8 1.J S.4.4.4.3.3.4.4.4.4.r O.8 g.D.4._ ;.J +.8.s 9.:XD.D.L.L.9.L.L...w D.3X>X,X,X,X,X,X,X,X,X,X,X,X,X,X>X,XI.=X/.;X;X;X;X;X;X;X;X;XM.;X;X;X;X}._._.=.=.}.}.}.;X;XM.;X|.1Xs.s.|.{.{.{.7.K OX XV..XXXv. X X&.a. X X X.X.X.X.Xb.8 6 8 vXHXHXHXHXHXDXbXvXvXnXnXyXa.kX9X8X9X8XuXL Z L uX8X9X8X9XAXR.; , , , , ; y.AXpXh : 3 3 3 3 6 8XhX9X9XW ).lXhXhXhXSXLXwX. 0.",
"rXQ.rXrXrXrXrXrXrXrXrXrXrX!.rXrXrXrXrXrXrXQ.eXrXrXrXrXrX} g Q.Y.Y.l.Y.Y.Y.z.l.Y.Y.l.z.Y.z.k.x.x.s t.l.l.z.Y.Y.Y.Y.Y.Y.!.w @.l.h.j.j.J.t.s W.U.U.J.J.#.w 3.G.t.r.D.j > ;.g.S.S.F.r.t.F.S.S.L.' ; e.:X$Xy.8 ) / j h r.:X:XL.L.:X:XD.:X:X>.;.H sX3X3X3X3X3X3X3X3X3X3X3X3X3X3X3X4X2X(.`.,X;X;X;X;X;X;X;X;X}.;X;X;X;X;X_.$X6.=.;X}.;X;X;X}.;X,X;XN m.{.XX{.{. X%.[.OXXXeX.XV. XXXs.a..XXX.X.X.X.X.XyX.Xw.8 j w.e.A.u.u.u.e.u.A.e.e.w.s.CX9X8X9X8XuXL Z L uX8X9X8X9XAXR.; , , , , ; y.AXpXh : 5 3 3 3 6 8XhX8XuX).T &XjXhXhXhXqXz x uX",
"d.d.d.d.d.d.d.d.d.d.d.d.d.y.d.d.d.d.d.d.d.d.d.d.d.d.d.V.y f i.y.y.+.y.y.y.y.+.y.y.t.y.y.y._ t.t.s f } } t.y.y.y.y.y.y. .r +.+.+.+.+.+.+.: +.O.O.X. .{ e ] o.{ h X.X.1 h 6 O.@.X.1 1 X.o.o.@.+.: >.1.1.s ^ i > ..s ) 1.1.>.>.1.1.>.1.1.~ ,.w 3.9.4.4.4.4.4.4.4.4.4.4.4.4.4.4.9.5.n 7.7.7.7.7.7.7.7.7.7.<.7.7.7.7.6.6.6.%.%.7.7.7.7.7.<.7.q.s.m <.*.7.7.<.<.%.%.d.v.v.v.*.a.7.b s.a.a.v.v.v.v.v.v.v.c.r.e.y.r.r.r.r.r.s r.r.r.r.7 s.AX9X8X9X8XuXL Z L uX8X9X8X9XAXR.; , , , , ; y.AXpXh 3 5 3 5 3 6 8XhX8X8XuXE T qXhX0XjXK z 1X9X",
"d.d.d.d.d.d.d.d.d.d.d.d.d.d.d.d.d.d.d.d.x.d.d.d.d.d.x.} y d.y.y.y.+.y.y.y.y.t.y.y.t.y.y.y._ t.t.s _ +.+.y.y.y.y.y.y.p.e ' +.+.+.+.+.+.O.s 1 5.O.X. .{ e | o. .s +.H / 4 } s 1.s ) _ s 1.@.o.5 ; p q.` _ ;.H J ,.;.,.1.1.>.>.1.1.>.1.1.~ 5.[ G M.4.9.9.9.9.9.9.9.9.9.9.9.9.9.n.=.=.q.7.7.7.7.7.7.7.7.7.<.7.7.7.7.6.6.6.%.%.7.7.7.7.7.<.7.q.m a.<.<.7.7.<.*.7.K <.v.v.v.*.a.v.b s.v.v.v.v.v.v.v.v.v.v.r.a.6X,X,X,X,X6X;X;X<X;XXX[.a.kX9X8X9X8XuXL Z L uX8X9X8X9XAXR.; , , , , ; y.AXpXh : 5 3 3 3 6 8XhX8X8X9X9XwX8X8X8X9X:X1XuX8X",
"rX!.rXrXrXrXrXrXrXrXrXrXrX!.rXrXrXrXrXrXrXQ.eXrXrXeXdXf f Q.Y.Y.Y.l.Y.Y.Y.z.l.Y.Y.l.z.Y.z.k.x.x.s t.l.l.z.Y.Y.Y.Y.!.h.w j.h.j.j.j.j.j.j.i.6 U.U.J.J.#.w 3.G.S.j y.L s k h r.4.r.3.5.r.S.F.j 6 s y 1Xr.+.F.;.H F.8.q.:X:XL.L.:X:XD.:X:X..:XL.Y ,X4X3X3X3X3X3X3X3X3X3X3X3X3X3X4X/.|.,X;X;X;X;X;X;X;X;X;X}.;X;X;X;X;X_.$X6.=.;X}.;X;X;X}.,X XN ;X{.{.XX{.{.m..X%.6.OX.X.Xm. XXXs.a..XXX.X.X.X.X.X.X.XyXe.s.HXHXHXHXHXHXiXvXvXiXiXOXa.kX9X8X9X8XuXL Z L uX8X9X8X9XAXR.; , , , , ; y.AXpXh : 3 3 3 3 6 8XhX8X9X8X8X9X9X9X9X8X9X9X8X9X",
"Q.N.Q.Q.Q.Q.Q.Q.Q.Q.Q.Q.Q.N.Q.Q.Q.Q.Q.Q.Q.N.Q.Q.Q.eXl.y x.z.z.z.z.k.l.z.z.l.k.z.z.x.l.z.l.p.k.k.s t.k.k.l.l.z.z.l.!.[ ' l.f.g.g.g.g.g.g.g.h r.U.g.5.#.w 1.5.G.p./ / t.F.7 6 +.r.3.3.h S.h 7 r.+.- @.r.5.8.;.H F.8.8.D.L.D.D.L.L.9.L.P...D.-XH [ 4X>X,X,X,X,X,X,X,X,X,X,X>X2X_./.;X;X;X;X;X;X;X;X;X;X;XM.;X;X;X;X}._._.=.=.}.}.}.;X;XM.:XN s.|.c.m.{.{.{.c. X7.K .X.XXXv. X X&.a. X X X.X.X.X.X.X.X.Xe.b vXvXvXvXvXvXsXiXiXyXyXOXa.kX9X8X9X8XuXL Z L uX8X9X8X9XAXR.; , , , , ; y.AXpXh : 3 3 3 3 6 8XhX8X8X9X9X8X4X4X4X4X4X8X9X9X",
"eXN.Q.Q.Q.Q.Q.Q.Q.Q.Q.Q.eXN.Q.Q.Q.Q.Q.Q.eXN.Q.eXQ.rXf f N.z.z.z.z.k.l.z.z.l.x.z.z.x.l.z.l.p.k.k.s t.k.k.l.z.z.z.z.j.w f.g.g.g.g.g.g.g.h.i.i.5 J.g.5.#.w 1.5.4.h.1 s 4.S.4.h 6 t.G.G.r.6 h 2.r.3.s y r.9.3.;.H F.8.8.D.L.D.D.P.L.9.L.:X..D.:XF.G ,X,X,X,X,X,X,X,X,X,X,X,X,X3X(.`.;X;X;X;X;X;X;X;X;X;X;X}.;X;X;X;X}._._.=.=.}.}.}.;X;X}.{.N {.{.c.{.{.{.{.c.{. XK c.OXXXm. X X&.a. X XXX.X.X.X.X.X.X.XC.b yXvXvXvXvXvXsXiXiXiXyXOXa.kX9X8X9X8XuXL Z L uX8X9X8X9XAXR.; , , , , ; y.AXpXh 3 5 3 5 3 6 8XhX8X9X9X4X9XpXpXpXbX0X4X8X9X",
"eXN.Q.Q.Q.Q.Q.Q.Q.Q.Q.Q.eXN.Q.Q.Q.Q.Q.Q.eXN.Q.Q.eXY.y l.k.z.z.z.z.k.l.z.z.l.x.z.z.x.l.z.l.p.k.k.s t.k.k.l.z.z.l.!.' [ l.f.g.g.g.g.g.g.h.i.h.h r.J.5.#.w 1.3.J.;./ g.G.4.S.4.h 6 h h 5 h F.+.r.3.r.y s F.3.;.H F.8.8.D.L.D.D.P.L.9.L.:X..D.L.-XH ;.4X>X,X,X,X,X,X,X,X,X,X3X}./.=X}.;X;X;X;X;X;X;X;X;X;X}.;X;X;X;X}._._.=.=.}.}.}.;X;X:Xs.s.|.{.c.{.{.{.{.c.{.XX=.=.OXXXm. X X&.a. X XXX.X.X.X.X.X.X.XV.b XXvXvXvXvXvXsXiXiXiXyXOXa.kX9X8X9X8XuXL Z L uX8X9X8X9XAXR.; , , , , ; y.AXpXh 3 5 3 5 3 6 8XhX8X9X4XpX2Xf y q g J.pX8X8X",
"eXN.Q.Q.Q.Q.Q.Q.Q.Q.Q.Q.eXN.Q.Q.Q.Q.Q.Q.eXN.Q.Q.rXf f !.k.z.z.z.z.k.l.z.z.l.x.z.z.x.l.z.l.p.k.k.s t.k.k.l.z.z.z.l.w 5.h.g.g.g.g.g.g.g.h.i.g.y.6 J.5.#.w 1.3.J.L ;.S.4.4.4.S.F.2._ } r.r.t.r.t.G.t.r.s F.3.;.H F.8.8.D.L.D.D.P.L.9.L.:X..D.L.:X8.G 3X,X,X,X,X,X,X,X,X,X,X5X(.`.=X}.;X;X;X;X;X;X;X;X;X;X}.;X;X;X;X}._._.=.=.}.}.}.;X;X}.N m.{.{.c.{.{.{.{.c.{.{.7.K .XXXm. X X&.a. X XXX.X.X.X.X.X.X.XOXb a.tXvXvXvXvXsXiXiXiXyXOXa.kX9X8X9X8XuXL Z L uX8X9X8X9XAXR.; , , , , ; y.AXpXh : 5 3 3 3 6 8XhX9X4XpX#.q q g d y q d 0X8X",
"eXN.Q.Q.Q.Q.Q.Q.Q.Q.Q.Q.eXN.Q.Q.Q.Q.Q.Q.eXN.Q.eXQ.y l.z.k.z.z.z.z.k.l.z.z.l.x.z.z.x.l.z.l.p.k.k.s t.k.k.l.z.z.!.] w l.f.g.g.g.g.g.g.g.h.i.f.J.7 } S.#.w 1.4.;.K 5.3.4.4.4.4.4.S.3.F.2.5 h 7 5.3.+.j y 1.q.;.H F.8.8.D.L.D.D.P.L.9.L.:X..D.L.L.-XH 1.4X>X,X,X,X,X,X,X,X2X}./.;X}.;X;X;X;X;X;X;X;X;X;X;X}.;X;X;X;X}._._.=.=.}.}.}.;X:Xs.N |.{.{.c.{.{.{.{.c.{.{. XK _.OXv. X X&.a. X XXX.X.X.X.X.X.X.X.Xr.m u.HXvXvXvXsXiXiXiXyXOXa.kX9X8X9X8XuXL Z L uX8X9X8X9XAXR.; , , , , ; y.AXpXh : 3 3 3 3 6 8XhX4X0XJ.q d hXDXDXDXJ.q d pX",
"eXN.Q.Q.Q.Q.Q.Q.Q.Q.Q.Q.eXN.Q.Q.Q.Q.Q.Q.eXN.Q.rX} f Q.l.k.z.z.z.z.k.l.z.z.l.x.z.z.x.l.z.l.p.k.k.s t.k.k.l.z.z.z.w #.j.g.g.g.g.g.g.g.g.h.i.f.h.t.1 S.#.w 1.S.K ;.5.3.4.4.4.4.4.9.5.3.4.t.5.#.4.3.#.8 d d 9.;.H F.8.8.D.L.D.D.P.L.9.L.:X..D.L.L.:X1.H 4X>X,X,X,X,X,X,X,X5X(.`.,X}.;X;X;X;X;X;X;X;X;X;X;X}.;X;X;X;X}._._.=.=.}.}.}.;X;XN a.|.{.{.c.{.{.{.{.c.{.{. X6.%.OXv. X X&.a. X XXX.X.X.X.X.X.X.X.Xw.5 e.HXvXvXvXsXiXiXiXyXOXa.kX9X8X9X8XuXL Z L uX8X9X8X9XAXR.; , , , , ; y.AXpXh : 3 3 3 3 6 8XhX4XpXy g DXhXhXhXhXUX#.q U.",
"eXN.Q.Q.Q.Q.Q.Q.Q.Q.Q.Q.Q.N.Q.Q.Q.Q.Q.Q.eXN.Q.eXy i.Y.l.k.z.z.z.z.k.l.z.z.l.x.z.z.x.l.z.l.p.k.k.s t.k.k.l.l.!.o.w l.f.g.g.g.g.g.g.g.g.h.i.f.g.g.1 +.#.w 5.1.J 4.1.4.4.4.4.4.4.S.3.3.S.S.S.S.4.1.4.+.3.r 1.;.H F.8.8.D.L.D.D.L.L.9.L.:X..D.L.L.L.-XG G.4X>X,X,X,X,X,X,X;X/.;X;X}.;X;X;X;X;X;X;X;X;X;X;X}.;X;X;X;X}._._.=.=.}.}.}.;Xm.N |.{.{.{.c.m.{.{.{.c.{.{.m.c.K  Xm. X X&.a. X X X.X.X.X.X.X.X.X.Xw.3 w.ZXvXvXvXsXiXiXyXyXOXa.kX9X8X9X8XuXL Z L uX8X9X8X9XAXR.; , , , , ; y.AXpXh 3 5 3 5 3 6 8XhX9X2Xq J.SXhXhXhXhXhXhXq f ",
"eXN.Q.eXeXeXeXeXeXeXeXeXeXN.eXeXeXeXeXeXeXN.rXt.g Q.z.z.k.Y.z.z.Y.x.z.Y.Y.l.x.Y.Y.x.l.Y.l.k.k.x.s t.k.k.l.z.!.w O.j.g.h.h.h.h.h.h.h.h.h.i.g.h.g.r.s G.w 5.K ;.S.1.4.S.S.S.S.S.S.3.3.S.4.S.9.S.5.S.G.S.d d ;.H F.8.8.D.:XD.D.:XL.9.L.:X..L.:XL.L.-X;.H tX,X,X,X,X,X,X5X`.(.,X;X}.;X;X;X;X;X;X;X;X;X;X;X}.;X;X;X;X=X_._.=.=.}.}.|.1XN s.|.{.{.{.m.{.{.{.{.c.{.{.m. X%.6.V. X X&.a. X XXX.X.X.X.X.X.X.X.XV.5 w.HXvXvXvXsXiXnXiXiXOXa.kX9X8X9X8XuXL Z L uX8X9X8X9XAXR.; , , , , ; y.AXpXh 3 5 3 5 3 6 8XhX0XJ.q 5XZXhXhXCXCXhXSXy d ",
"!.N.B.T.B.B.B.B.B.B.B.B.T.N.B.T.B.B.B.B.Q.N.Q.y t.z.x.x.k.l.x.x.l.k.x.l.l.k.k.l.l.k.k.l.k.p.p.u.s } i.i.k.z.X.w j.i.f.f.f.f.f.f.f.f.f.f.#.i.f.i.#.: } w @.J 1.1.1.3.3.3.3.3.3.3.1.3.3.3.3.3.3.1.3.3.1.1.r [ H 8.8.8.F.D.9.9.D.D.4.D.D.] 9.D.D.D.D.L.G S.>X-X-X-X-X-X-X/.}.}.}.M.}.}.}.}.}.}.}.}.}.}.}.M.}.}.}.}._.0.0.=.=.}._.}.{.m c.m.m.m.m.c.c.m.m.c.c.m.m.c.m.6.K b.m.{.&.a.b.b.V. X X X X X X X X X6 j iXsXsXiX6XyXyXyXyXXXa.kX9X8X9X8XuXL Z L uX8X9X8X9XAXR.; , , , , ; y.AXpXh : 5 3 3 3 6 8XhX0XI.q J.SXhXSXp 4.DXCXq f ",
"T.N.B.B.B.B.B.B.B.B.B.B.T.N.B.B.B.B.B.B.T.B.t.y N.k.x.x.k.l.x.x.l.k.k.l.l.k.k.l.l.k.k.l.k.p.p.u.s } i.i.k.z.w ] j.i.f.f.f.f.f.f.f.f.f.f.+.i.f.i.#.s 1 w G K 2.1.1.3.3.3.3.3.3.3.1.5.3.3.3.3.3.1.3.3.1.3.d e U 8.8.8.9.D.9.9.D.D.4.D.D.] 9.D.D.D.D.P.[ H <X=X-X-X=X>X`.(.=X}.}.M.}.}.}.}.}.}.}.}.}.}.}.M.}.}.}.}._.0.0.=.=.}._.:Xs.s.M.m.m.m.m.c.c.m.m.c.c.m.m.c.c.{.K 7.m.{.&.a.b.b.V.V. X X X X X X X X8 k iXsXsXiX6XyXyXyXyXXXa.kX9X8X9X8XuXL Z L uX8X9X8X9XAXR.; , , , , ; y.AXpXh : 3 3 3 3 6 8XhX8X0Xq g UXhXSXO.o DXW.q U.",
"eXN.Q.eXeXeXeXeXeXeXeXeXeXN.eXeXeXeXeXeXeXeXg } T.z.N.z.k.Y.z.z.Y.x.z.Y.Y.l.x.Y.Y.x.l.Y.l.k.k.x.s t.k.k.z.5.w j.g.h.h.h.h.h.h.h.h.h.h.h.i.g.h.f.i.#.: e J 1.1.3.1.4.S.S.S.S.S.S.3.3.S.S.S.S.S.3.S.S.3.3.@.r H F.8.8.D.:XD.D.:XL.9.L.:X..L.:XL.L.L.:XL.Y :X3X,X,X,X3X/.}.;X;X;X}.;X;X;X;X;X;X;X;X;X;X;X}.;X;X;X;X=X_._.=.=.}.}.;XN m.c.{.{.{.{.m.{.{.{.{.c.{.{.m.m.XX%.%..X X&.a. X XXX.X.X.X.X.X.X.X.X<Xr.8 vXvXvXvXsXiXnXiXiXOXa.kX9X8X9X8XuXL Z L uX8X9X8X9XAXR.; , , , , ; y.AXpXh : 5 3 3 3 6 8XhX4XpX#.q $.CXhXCX5.W.q g pX",
"eXN.Q.Q.Q.Q.Q.Q.Q.Q.Q.Q.Q.N.Q.Q.Q.Q.Q.Q.rXk.y Y.z.z.z.z.k.z.z.z.z.k.l.z.z.l.x.z.z.x.l.z.l.p.k.k.s t.k.k.N.G ' l.g.g.g.g.g.g.g.g.g.g.g.h.i.f.g.f.i.#.h + U 5.1.3.2.4.4.4.4.4.4.S.3.3.S.4.4.4.4.2.4.4.3.1.1.e w $X8.8.D.L.D.D.L.L.9.L.:X..D.L.L.L.L.L.-X[ [ tX>X,X3X_.(.,X;X;X;X}.;X;X;X;X;X;X;X;X;X;X;X}.;X;X;X;X}._._.=.=.}.:Xa.N |.c.{.{.{.{.c.m.{.{.{.c.{.{.m.m. X7.K  X X&.a. X X X.X.X.X.X.X.X.X.X.X Xr.aXvXvXvXsXiXiXyXyXOXa.kX9X8X9X8XuXL Z L uX8X9X8X9XAXR.; , , , , ; y.AXpXh 3 5 3 5 3 6 8XhX8X4XpXf q 8XhX0XDXd q 4X9X",
"eXN.Q.Q.Q.Q.Q.Q.Q.Q.Q.Q.eXN.Q.Q.Q.Q.Q.Q.rXf f !.z.z.z.z.k.z.z.z.z.k.l.z.z.l.x.z.z.x.l.z.l.p.k.k.s t.k.k.f.w h.g.g.g.g.g.g.g.g.g.g.g.g.h.i.f.g.f.i.#.+.F ;.1.1.3.2.4.4.4.4.4.4.S.3.3.S.4.4.4.4.2.4.4.3.1.1.[ r 8.8.8.D.L.D.D.P.L.9.L.:X..D.L.L.L.L.L.P.D.G >X,X,X3X/._.;X;X;X;X}.;X;X;X;X;X;X;X;X;X;X;X}.;X;X;X;X}._._.=.=.}.:XN a.|.c.{.{.{.{.c.{.{.{.{.c.{.{.m.m.{. XK 7.XX&.a. X XXX.X.X.X.X.X.X.X.X.X.Xw.yXvXvXvXsXiXiXiXyXOXa.kX9X8X9X8XuXL Z L uX8X9X8X9XAXR.; , , , , ; y.AXpXh 3 5 3 5 3 6 8XhX8X8X8X0X2X9X8X8X8X3X4X9X8X",
"eXN.Q.Q.Q.Q.Q.Q.Q.Q.Q.Q.eXN.Q.Q.Q.Q.Q.eXY.y l.z.z.z.z.z.k.z.z.z.z.k.l.z.z.l.x.z.z.x.l.z.l.p.k.k.s t.k.z.[ [ l.g.g.g.g.g.g.g.g.g.g.g.g.h.i.f.g.f.#.i.[ + ) 1.1.3.2.4.4.4.4.4.4.S.3.3.S.4.4.4.4.2.4.4.3.1.@.;.r o.8.8.D.L.D.D.P.L.9.L.:X..D.L.L.L.L.L.L.-XH ;.4X2X}./.;X;X;X;X;X}.;X;X;X;X;X;X;X;X;X;X;X}.;X;X;X;X}._._.=.=.;Xv.N |.{.c.{.{.{.{.c.{.{.{.{.c.{.{.m.m.{. X%.%..X&.a. X XXX.X.X.X.X.X.X.X.X.X.Xr.6XHXvXvXsXiXiXiXyXOXa.kX9X8X9X8XuXL Z L uX8X9X8X9XAXR.; , , , , ; y.AXpXh : 5 3 3 3 6 8XhX8X9X8X8X9X8X9X9X8X9X9X8X9X",
"eXN.Q.Q.Q.Q.Q.Q.Q.Q.Q.Q.eXN.Q.Q.Q.Q.Q.rXf f T.z.z.z.z.z.k.z.z.z.z.k.l.z.z.l.x.z.z.x.l.z.l.p.k.k.s t.k.f.w f.h.g.g.g.g.g.g.g.g.g.g.g.g.h.i.f.g.f.i.i.F e 1 1.1.3.2.4.4.4.4.4.4.S.3.3.S.4.4.4.4.2.4.4.3.1.1.[ w d 8.8.D.L.D.D.P.L.9.L.:X..D.L.L.L.L.L.L.:X8.G ,X5X(.`.;X;X;X;X;X}.;X;X;X;X;X;X;X;X;X;X;X}.;X;X;X;X}._._.=.=.:XN s.|.{.c.{.{.{.{.c.{.{.{.{.c.{.{.m.m.{.{.7.K  X&.a. X XXX.X.X.X.X.X.X.X.X.X<Xr.oXHXvXvXsXiXiXiXyXOXa.kX9X8X9X8XuXL Z L uX8X9X8X9XAXR.; , , , , ; y.AXpXh : 3 3 3 3 6 8XhX9X9X9X9X8X9X9X9X9X8X8X9X9X",
"eXN.Q.Q.Q.Q.Q.Q.Q.Q.Q.Q.eXN.Q.Q.Q.Q.eXQ.y k.z.z.z.z.z.z.k.z.z.z.z.k.l.z.z.l.x.z.z.x.l.z.l.p.k.k.s } l.' [ l.g.g.g.g.g.g.g.g.g.g.g.g.g.h.i.f.g.f.i.] F w 1 ) 3.3.2.4.4.4.4.4.4.S.3.3.S.4.4.4.4.2.4.4.3.1.1.[ H g o.q.D.L.D.D.P.L.9.L.:X..D.L.L.L.L.L.L.L.-XH 1.<X/.;X;X;X;X;X;X}.;X;X;X;X;X;X;X;X;X;X;X}.;X;X;X;X}._._.=.=.{.m [.{.{.c.{.{.{.{.c.{.{.{.{.c.{.{.m.m.{.{.c.%.6.s.a. X XXX.X.X.X.X.X.X.X.X.X<Xr.[.HXvXvXsXiXiXiXyXOXa.kX9X8X9X8XuXL Z L uX8X9X8X9XAXR.; , , , , ; y.AXpXh : 5 3 3 3 6 8XhX8X8X8X8X8X8X8X8X8X8X8X8X8X",
"eXN.Q.Q.Q.Q.Q.Q.Q.Q.Q.Q.eXN.Q.Q.Q.Q.rX} f N.l.z.z.z.z.z.k.z.z.z.z.k.l.z.z.l.x.z.z.x.l.z.l.p.k.k.s t.k.r #.h.g.g.g.g.g.g.g.g.g.g.g.g.g.h.i.f.g.f.i.G [ w ( 1 3.3.2.4.4.4.4.4.4.S.3.3.S.4.4.4.4.2.4.4.3.1.1.[ H ' e 0.D.L.D.D.P.L.9.L.:X..D.L.L.L.L.L.L.L.:X1.H (.`.,X;X;X;X;X;X}.;X;X;X;X;X;X;X;X;X;X;X}.;X;X;X;X}._._.=.6.s.N |.{.{.c.{.{.{.{.c.{.{.{.{.c.{.{.m.m.{.{.c.=.%.s.a. X XXX.X.X.X.X.X.X.X.X.X<Xr.(.HXvXvXsXiXiXiXyXOXa.kX9X8X9X8XuXL Z L uX8X9X8X9XAXR.; , , , , ; y.AXpXh 3 5 3 5 3 6 8XhX9X0X0X0X0X0X0X0X0X0X0X0X0X",
"Q.N.Q.Q.Q.Q.Q.Q.Q.Q.Q.Q.Q.N.Q.Q.Q.Q.eXy i.x.l.z.z.z.z.l.k.z.z.z.z.k.l.z.z.l.k.z.z.x.l.z.l.p.k.k.s p.' w j.f.g.g.g.g.g.g.g.g.g.g.g.g.g.g.i.f.g.f.o.F  .e @.1  .G.1.3.4.4.4.4.4.9.3.3.4.4.4.4.4.2.4.3.3.1.1.[ G 1.r 1.:XL.D.D.L.L.9.L.P...D.L.L.L.L.L.L.L.L.-XG %.;X;X;X;X;X;X;X}.}.;X;X;X;X;X;X;X;X;X;XM.;X;X;X;X}._._.=.=.N v.[.{.{.c.{.{.{.{.c.m.{.{.{.c.{.{.m.c.{.{.c.7.K &.a. X X X.X.X.X.X.X.X.X.X.X.Xe.n vXaXvXsXiXiXyXyXOXa.kX9X8X9X8XuXL Z L uX8X9X8X9XAXR.; , , , , ; y.AXpXh 3 5 3 5 3 6 4XhXhXhXhXhXhXhXhXhXhXhXhXhXhX",
"rX!.rXrXrXrXrXrXrXrXrXrXrX!.rXrXrXtXt.f eXl.Y.Y.Y.Y.Y.Y.l.Y.Y.Y.Y.l.Y.Y.Y.z.l.Y.Y.l.z.Y.z.k.x.x.s p.w X.j.h.j.j.j.j.j.j.j.j.j.j.j.j.h.j.f.h.h.k.K [ +.e 1.) s F.3.S.S.S.S.S.S.S.3.S.S.S.S.S.S.3.S.S.G.3.1.[ G F.' d :X:XL.L.:X:XD.:X:X..P.:X:X:X:X:X:X:X:X-X=.%.,X;X;X;X;X;X,X}.;X;X;X;X;X;X;X;X;X;X;X}.;X;X;X;X;X_.$X6.n N |.{.{.{.m.{.{.{.XX{.{.XX{.{.m.XXXX{.{.XX{.c. X%.n b.XXXX.X.X.X.X.X.X.X.X.X.XyXe.n bXHXHXiXvXvXnXiXOXa.kX9X8X9X8XuXL Z L uX8X9X8X9XAXR.; , , , , ; y.AXpXh : 3 3 3 3 6 9XhXI.P.I.I.P.P.P.P.-XP.P.P.P.",
"x.d.d.x.x.x.x.x.x.x.x.x.x.d.d.x.d.V.y } d.t.y.y.y.y.y.y.t.y.y.y.y.t.y.y.y.y.y.y.y.y.y.y.y._ t.t.s p r } } +.+.+.+.+.+.+.+.+.+.+.+.+.+.+.} +.+. .F { ~ e ~ ] <  .o.@.X.X.X.X.@.X.o.o.X.@.X.X.@.o.X.@.o.] ] G F ] ] r 1.3.>.>.3.1.>.1.3.^ 1.1.1.1.1.1.1.1.1.3.%.F ,.7.7.7.7.7.q.<.7.7.7.7.7.7.7.7.7.7.7.<.7.7.7.7.6.6.6.%.n &.7.7.7.7.*.7.7.7.7.*.<.7.7.7.*.7.7.<.<.7.7.*.7.%.x s.v.v.v.v.v.v.v.v.v.v.v.v.c.r.n oX<X<XM.|.XX X Xv.a.kX9X8X9X8XuXL Z L uX8X9X8X9XAXR.; , , , , ; y.AXpXh : 3 3 3 3 6 9XhXP.P.K.K.-X-XP.-X5.P.I.-XK.",
"d.y.d.d.d.d.d.d.d.d.d.d.d.y.d.d.x._ y d.y.+.y.y.y.y.y.y.} y.y.y.y.+.y.y.y.y.+.y.y.+.t.y.y._ t.t.s r ~ } } } +.+.+.+.+.+.+.+.+.+.+.+.} +.) } +.G G { ~ e ~ ] s 1 ] o.o.o.o.o.o.o.| o.o.o.o.o.o.] o.o.o.] ] G F ] ] e a q.>.>.1.1.:.1.1.~ >.1.1.1.1.1.1.,.2.%./.[ G c.7.7.7.7.7.<.7.7.7.7.7.7.7.7.7.7.7.<.7.7.7.7.6.,.6.-.m <.*.*.<.<.*.<.<.<.7.*.*.7.7.<.*.7.7.*.*.7.*.-.*.*.K &.a.a.v.v.v.v.v.v.v.v.v.v.v.w.n `.<X|.M.m.{.m.m.v.a.kX9X8X9X8XuXL Z L uX8X9X8X9XAXR.; , , , , ; y.AXpXh : 5 3 3 3 6 9XhXP.-X{  .2. .n.O.( 2.5. .2.",
"rXQ.rXrXrXrXrXrXrXrXrXrXrX!.rXrXdXg t.Q.Y.l.Y.Y.Y.Y.Y.Y.l.Y.Y.Y.Y.l.Y.Y.Y.z.l.Y.Y.l.z.Y.z.k.x.Z.a r i.i.g.h.j.j.j.j.j.j.j.j.j.j.j.j.j.j.f.j.g.J O.#.X.e @.1.2.1 2.S.S.S.S.S.S.S.3.S.S.S.S.S.S.3.S.S.G.3.1.[ H 3.1.@.g :XL.L.:X:XD.:X:X..:X:X:X:X:X:X:X:X-X/._.$XG :X,X;X;X;X,X}.;X;X;X;X;X;X;X;X;X;X;X}.,X;X;X;X;X}.$XN &.|.{.{.{.{.m.{.{.{.XX{.{.XX{.{.m.XXXX{.{.XX{.c.[.{.%.6.OXXX.X.XOXOXOXOXOXOXOX.XyXC.&.'.HXHXiXvXvXnXiXOXa.kX9X8X9X8XuXL Z L uX8X9X8X9XAXR.; , , , , ; y.AXpXh 3 5 3 5 3 6 9XhXP.L.i p ( { { i ~ ( ( { ~ ",
"Q.N.Q.Q.Q.Q.Q.Q.Q.Q.Q.Q.Q.N.Q.rXk.y Y.l.z.k.l.z.z.z.z.l.k.z.z.z.z.k.l.z.z.l.k.z.z.x.x.z.l.p.k.C.e ' i.#.i.f.g.g.g.g.g.g.g.g.g.g.g.g.g.g.#.k.;.K #.X. .e o.o.1.s s F.4.4.4.4.4.4.3.3.4.4.4.4.4.2.4.3.3.1.1.[ G 1.1.8.d ' :X9.L.L.9.L.P...D.L.L.L.L.L.L.P.`./.D.}.[ [ <X;X;X;X;X}.}.;X;X;X;X;X;X;X;X;X;XM.;X;X;X=X}._.q.n =.[.c.[.{.{.c.{.{.{.{.c.m.{.{.{.c.{.{.m.c.{.{.c.c.[.%.%.OX X X.X.X.X.X.X.X.X.X.X.Xu.s.'.lXvXsXiXiXyXyXOXa.kX9X8X9X8XuXL Z L uX8X9X8X9XAXR.; , , , , ; y.AXpXh : 5 3 3 3 6 9XhXI.4.2.2. .5.( ( O.|  .2.( ",
"eXN.Q.Q.Q.Q.Q.Q.Q.Q.Q.Q.eXN.Q.rXf } T.l.z.k.l.z.z.z.z.z.k.z.z.z.z.k.l.z.z.l.x.z.z.x.l.z.l.p.x.y.r } #.i.i.g.g.g.g.g.g.g.g.g.g.g.g.g.g.h.i.f.J >.O.X. .e o.X.>.O.1 4.S.4.4.4.4.S.3.3.S.4.4.4.4.2.4.4.3.1.1.[ G 1.1.1.@.y D.D.L.L.9.L.:X..D.L.L.L.L.L.L.I./.`.D._.q.G ;X;X;X;X;X}.;X;X;X;X;X;X;X;X;X;X;X}.;X;X;X;X}.$Xs.n =.[.[.[.{.{.c.{.{.{.{.c.{.{.{.{.c.{.{.m.m.{.{.c.c.[.&.K m. XXX.X.X.X.X.X.X.X.X.X.XC.a.].vXvXsXiXiXiXyXOXa.kX9X8X9X8XuXL Z L uX8X9X8X9XAXR., , , , , ; y.AX0Xh 3 5 3 5 3 6 9XhXP.P.P.P.P.P.I.P.P. .n.L.P.",
"eXN.Q.Q.Q.Q.Q.Q.Q.Q.Q.Q.eXN.eXz.y z.z.z.z.k.l.z.z.z.z.z.k.z.z.z.z.k.l.z.z.l.x.z.z.x.l.z.l.p.Z.[ r } #.i.i.g.g.g.g.g.g.g.g.g.g.g.g.g.g.g.i.;.K f.O.O. .e o.X.X.3.s _ F.4.4.4.4.S.3.3.S.4.4.4.4.2.4.4.3.1.1.[ G 1.1.1.D.d o.:XL.L.9.L.:X..D.L.L.L.L.L.P._./.D.0.0.=XH ;.<X;X;X;X}.;X;X;X;X;X;X;X;X;X;X;X}.;X;X;X;X:X_.m =.=.[.[.[.{.{.c.{.{.{.{.c.{.{.{.{.c.{.{.m.m.{.{.c.c.[.&.%.6.OX X.X.X.X.X.X.X.X.X.X.XC.C.].nXvXsXiXiXiXyXOXa.kX9X8X9X8XuXL Z L uX8X9X8X9XAXM.; ; ; ; ; = +.AXpXs ; : : : ; 1 8XhX3X3X3X3X3X3X3X3X3X3XqXqXqX",
"eXN.Q.Q.Q.Q.Q.Q.Q.Q.Q.Q.eXN.rXf f Q.l.z.z.k.l.z.z.z.z.z.k.z.z.z.z.k.l.z.z.l.x.z.z.x.l.z.l.k.i.w a } #.i.i.g.g.g.g.g.g.g.g.g.g.g.g.g.g.g.i.K ,.2.O.O. .e o.X.X.2. .1 S.4.4.4.4.S.3.3.S.4.4.4.4.2.4.4.3.1.1.[ G 1.1.1.S.@.y =XL.L.9.L.:X..D.L.L.L.L.L.I./.`.L.0.0.}.8.G ;X;X;X;X}.;X;X;X;X;X;X;X;X;X;X;X}.;X;X;X;X:Xs.N =.=.[.[.[.{.{.c.{.{.{.{.c.{.{.{.{.c.{.{.m.m.{.{.c.c.[.&.%.%.OX X.X.X.X.X.X.X.X.X.X.XC.C.].6XHXsXiXiXiXyXOXa.kX9X8X9X8XuXL Z L uX8X9X8X9XAXM.* = = * = * ` AXhX1 * = & & & < 4XhX9X9X9X9X9X9X8X9X9X9XZ.A.A.",
"eXN.Q.Q.Q.Q.Q.Q.Q.Q.Q.Q.Q.N.T.y l.z.z.z.z.k.l.z.z.z.z.z.k.z.z.z.z.k.l.z.z.l.x.z.z.x.l.z.l.x.' p s } #.i.i.g.g.g.g.g.g.g.g.g.g.g.g.g.g.k.] K f.2.O.O. .e o.X.X.2.2.s } F.4.4.4.S.3.3.S.4.4.4.4.2.4.4.3.1.1.[ G 1.1.1.3.D.y @.:XL.9.L.:X..D.L.L.L.L.P.0./.0.0.0.0.0.=XG 1.<X;X;X}.;X;X;X;X;X;X;X;X;X;X;X}.;X;X;X;X:Xm 7.=.=.[.[.[.{.{.c.{.{.{.{.c.{.{.{.{.c.{.{.m.m.{.{.c.c.[.&.*.K  XXX.X.X.X.X.X.X.X.X.X.XC.C.'.oXHXsXiXiXiXyXOXa.kX9X8X9X8XuXL Z L uX8X9X8X9XAXM.* = = = = * ` AXhX1 & ; = = & < 4XhX8X9X0X9X9X9XpX9X4XfX9 0 0 ",
"eXN.Q.Q.Q.Q.Q.Q.Q.Q.Q.Q.Q.eXf f Q.l.z.z.z.k.l.z.z.z.z.z.k.z.z.z.z.k.l.z.z.l.x.z.z.x.l.z.l.p.r +.s } #.i.i.g.g.g.g.g.g.g.g.g.g.g.g.g.g.k.K ;.5.2.O.O. .e o.X.X.2.2.+.1 S.4.4.4.S.3.3.S.4.4.4.4.2.4.4.3.1.1.[ G 1.1.1.3.D.' d :XL.9.L.:X..D.L.L.L.L.I.(.(.L.0.0.0.0.}.1.G <X;X;X}.;X;X;X;X;X;X;X;X;X;X;X}.;X;X;X:Xa.N _.=.=.[.[.[.{.{.c.{.{.{.{.c.{.{.{.{.c.{.{.m.m.{.{.c.c.[.&.a.K 6.OXXX.X.X.X.X.X.X.X.X.XC.C.'.oXHXyXiXiXiXyXOXa.kX9X8X9X8XuXL Z L uX8X9X8X9XAXM.* = = = = * ` AXhX1 & = = = & < 4XhX0XP. .5.X.O.~ 2X9XfX9 0 0 ",
"eXN.Q.Q.Q.Q.Q.Q.Q.Q.Q.Q.eXN.y j.N.z.z.z.z.k.l.z.z.z.z.z.k.z.z.z.z.k.l.z.z.l.x.z.z.x.l.z.Z.' w k.a } #.i.i.g.g.g.g.g.g.g.g.g.g.g.g.g.j.>.F 5.2.2.O.O. .e o.X.X.2.O.5.1 +.S.4.4.S.3.3.S.4.4.4.4.2.4.4.3.1.1.[ G 1.1.1.3.4.3.r 3.:X9.L.:X..D.L.L.L.L.D./.0.0.0.0.0.0.0.}.G 8.;X;X}.;X;X;X;X;X;X;X;X;X;X;X}.;X;X;X:XN a._.=.=.[.[.[.{.{.c.{.{.{.{.c.m.{.{.{.c.{.{.m.m.{.{.c.c.[.&.a.=.%.OXXX.X.X.X.X.X.X.X.X.XC.u.'.'.HXyXiXiXyXyXOXa.kX9X8X9X8XuXL Z L uX8X9X8X9XAXM.* = = = = * ` AXhX1 & = & = & < 4XhXpX5.~ X.~ P.| 0X4XfX9 0 0 ",
"eXN.Q.eXeXeXeXeXeXeXeXQ.rX} f Q.z.z.z.z.Y.x.l.Y.z.z.z.z.k.Y.z.z.Y.k.z.N.Y.l.x.Y.Y.x.l.Y.z.w +.i.a } i.i.f.g.h.h.h.h.h.h.h.h.h.h.h.g.l.K [ 5.5.2.O.O.o.e o.X.>.2.O.5.} s F.4.S.S.3.3.S.S.S.S.S.5.S.4.3.1.1.[ G 1.1.1.3.S.9.d d :X9.L.:X..L.:XL.L.I.`.(.L._._._._._.0.=X;.H 6X;X}.;X;X;X;X;X;X;X;X;X;X;X}.;X;X;Xm.N _.0.=.=.{.[.{.{.{.c.{.{.{.{.m.{.{.{.{.c.{.{.m.m.{.{.c.[.[.&.a.c.K XX.X.X.X.X.X.X.X.X.X.Xb.u.cX'.HXsXiXnXiXyXOXa.kX9X8X9X8XuXL Z L uX8X9X8X9XAXM.* = = = = * ` AXhX1 & = & = & < 4XhXpX5.X.2.2.>X .pX4XfX9 0 0 ",
"Q.N.B.!.T.T.T.T.T.T.T.B.eXy y.z.l.l.l.l.l.k.x.l.l.l.l.x.k.l.l.l.l.k.x.l.l.k.k.l.l.k.k.z.o.w p.y.a } +.+.#.i.f.f.f.f.f.f.f.f.f.f.f.f.2.J O.2.2.O.X.X.| e o.o.X.X.X.O.2.1 O.3.3.3.1.3.3.3.3.3.3.1.3.3.1.1.@.[ G 1.1.1.3.3.2.2.r 4.9.D.L.] 9.D.D.D.D./.q.0.q.q.q.q.q.q.q.0.G q.;XM.}.}.}.}.}.}.}.}.}.}.}.M.}.}.:XN s.q.7.=.=.c.c.c.c.m.c.m.m.m.m.c.c.m.m.c.c.m.m.c.c.{.c.7.c.c.&.*.v.K 7..X X X X X X X X XXXC.e.cX(.aX6XsXyXyXyX.Xa.kX9X8X9X8XuXL Z L uX8X9X8X9XAXM.* = = = = * ` AXhX1 & = = = & < 4XhX9X>X3X2X4X8X-X9X4XfX9 0 0 ",
"B.z.B.B.B.B.B.B.B.B.B.eXt.y N.k.x.x.x.x.l.k.k.x.x.x.x.x.k.x.x.x.l.k.k.x.x.k.k.l.l.k.k.z.w ' y.y.a { +.+.#.i.f.i.i.i.i.i.i.i.i.i.i.i.K [ #.O.2.O.X.X.| e o.o.X.X.X.O.2._ s G.5.3.1.1.3.3.3.3.3.1.3.3.1.1.@.[ G 1.1.1.3.3.1.4.d d 0.9.D.] 9.D.9.K.6./.9.q.q.q.q.q.q.q.q.M.[ H ;X0.}.}.}.}.}.}.}.}.}.}.}.M.}.}.m.m 7.7.7.=.=.c.c.c.c.m.c.m.m.m.m.c.c.m.m.c.c.m.m.c.c.m.c.7.c.7.&.*.v.=.%.OX X X X X X X XV.XXC.e.cX(.iX6XyXyXyXyXXXa.kX9X8X9X8XuXL Z L uX8X9X8X9XAXM.* = = = = * ` AXhX1 & = = = & < 4XhX8X9X9X9X9X8X9X8X4XqXC.w.A.",
"eXN.Q.eXeXeXeXeXeXeXQ.rXg } Y.z.z.z.z.z.Y.x.l.Y.z.z.N.z.k.Y.z.z.Y.x.z.z.Y.l.x.Y.Y.x.z.2.w i.i.i.s } i.i.f.g.h.h.h.h.h.h.h.h.h.h.h.5.J 5.O.2.5.2.O.O.o.e o.X.>.2.O.2.5.5.1 5.S.S.3.3.S.S.S.S.S.5.S.4.3.1.1.[ G 1.1.1.3.S.3.3.3.y 9.:X:X..L.:XL.I./._.$X_._._._._._._._._.0.G =X}.;X;X;X;X;X;X;X;X;X;X;X}.;X1Xs.s.}.7.0.=.=.{.[.{.{.{.c.{.{.{.{.m.{.{.{.{.c.{.{.m.m.{.{.c.[.[.&.a.{.7.K .X.X.X.X.X.X.X.X.X.Xb.e.bX].bXsXiXnXiXiXOXa.kX9X8X9X8XuXL Z L uX8X9X8X9XAXM.* = = = = * ` AXhX1 & = = = & < 4XhX9X9X9X9X9X9X9X9X9X9XfXfXfX",
"eXN.Q.Q.Q.Q.Q.Q.Q.Q.rXj.y l.z.Y.z.z.z.z.z.k.l.z.z.z.z.z.k.z.z.z.z.k.l.Y.Y.l.k.z.z.k.N.w ' i.i.i.a } #.i.i.g.g.h.h.h.g.g.g.g.g.g.l.[ K g.X.2.2.2.O.O. .e o.X.X.2.O.2.2.4._ _ F.4.3.3.9.4.4.4.4.3.S.S.3.1.1.[ G 1.1.1.3.9.3.3.L.d ' :XL...L.:XI.`./.L.0.0.0.0.0.0.0.0.0.0.=X[ ;.|.;X;X;X;X;X;X;X;X;X;X;XM.;X;XN c.[.7.0.=.=.{.[.[.{.{.c.{.{.{.{.c.m.{.{.{.c.{.{.m.{.{.{.c.c.[.&.*.c.m.K [.OX.X.X.X.X.X.X.X.XV.e.bX].6XsXiXiXyXyXOXa.kX9X8X9X8XuXL Z L uX8X9X8X9XAXM.* = = * = * ` AXhX1 & = & = & < 4XhXhXhXhXhXhXhXhXhXhXhXhXhXhX",
"eXN.Q.Q.Q.Q.Q.Q.Q.Q.rXf } N.l.k.l.l.z.z.z.k.l.z.z.z.z.z.k.z.z.z.z.k.l.k.k.k.x.z.z.l.#.w j.+.i.i.a } #.i.i.g.h.#.i.f.g.g.g.g.g.h.g.J 2.5.O.2.2.2.O.O.o.e o.o.X.2.O.2.2.5.2.1 3.S.3.3.S.4.4.4.S.@.3.1.3.1.1.[ G 1.1.1.3.S.3.3.S.@.y :X:X] 3.D.L./.`.D.0.0.0.0.0.0.0.0.0.0._.q.G }.0.M.}.;X;X;X;X;X;X;X;XM.wXa.N |.c.7.0.=.=.c.c.{.{.{.c.{.{.{.{.c.{.{.{.{.c.{.{.{.7.m.c.c.c.[.&.a.c. X%.6.OXXX.X.X.X.X.X.X.XV.e.vX(.cXaXiXiXiXyXOXa.kX9X8X9X8XuXL Z L uX8X9X8X9XAXM.* = = = = * ` AXhX1 & = & = & < 4XhX9X9X9X9X9X8X9X9X8X9X9X9X9X",
"eXN.Q.Q.Q.Q.Q.Q.Q.rXl.y N.k._ y._ i.Y.z.z.k.l.z.z.z.z.z.k.z.z.z.z.l._ t.y._ l.z.z.z.w ' k.+.i.i.a } #.i.i.h.} ) } p h.g.g.g.g.k.;.K f.2.O.2.2.2.O.O.~ r ] u X.2.O.2.2.2.4.s _ F.5.3.S.4.4.S.1.~ ] ~ 3.1.1.[ G 1.1.1.3.S.3.3.4.D.a @.1X~ >.' ,./.D.0.0.0.0.0.0.0.0.0.0.0.0.}.H G <.7.^ ;X;X;X;X;X;X;X;XM.;XN v.|.[.7.0.=.%.-.^ {.{.{.c.{.{.{.{.c.{.{.{.{.c.{.{.7.` *.` 7.[.[.&.a.c.m.7.K OXXX.X.X.X.X.X.X.XV.e.vX'.oXaXiXiXiXyXOXa.kX9X8X9X8XuXL Z L uX8X9X8X9XAXM.* = = = = * ` AXhX1 & = = = & < 4XhX8X8X8X8X9XuXuXuXuXuX8X8X8X",
"eXN.Q.Q.Q.Q.Q.Q.Q.rXf f Q.k.s Y.} i.Y.z.z.k.l.z.z.z.z.z.k.z.z.z.z.x.s l.y.} l.z.Y.g.w g.f.+.i.i.a } #.i.i.h.p #.i.p g.g.g.g.g.h.J >.5.5.O.2.2.2.O.O.p e ~ e X.2.O.2.2.2.5.O.1 S.3.3.S.4.4.S.o.' 4.~ @.3.1.[ G 1.1.1.3.S.3.3.S.S.| g :X~ 9.~ %.`.D.0.0.0.0.0.0.0.0.0.0.0.0.}.8.w ;Xq.<.;X;X;X;X;X;X;X;X=Xv.N |.{.[.7.0.%.=.-./ [.{.{.c.{.{.{.{.c.m.{.{.{.c.{.XX*.<.c./ *.[.[.&.a.c.c.{.K  X.X.X.X.X.X.X.X.XV.e.bX'.'.aXiXiXiXyXOXa.kX9X8X9X8XuXL Z L uX8X9X8X9XAXM.* = = = = * ` AXhX1 & = = = & < 4XhX8X9X8XuX3X;.L P U $XuX9X8X",
"eXN.Q.eXQ.Q.Q.Q.eXT.y l.z.x.y.t.k.k.Y.z.z.k.l.z.z.z.z.z.k.z.z.z.z.l.y.} _ t.l.z.!.' [ l.f.+.i.i.s } #.i.i.h.#.) } } h.g.g.g.k.;.K f.2.5.O.2.2.2.O.O.| e ] ' X.2.O.2.5.2.2.4.s } G.3.S.4.4.S.3.~ X.| 1.1.1.[ G 1.1.1.3.S.3.3.S.3.4.y 3.^ o.,./._.0.0.0.0.0.0.0.0.0.0.0.0.0.0.=XG ^ M.}.;X;X;X;X;X;X;X|.=XN a.|.{.[.7.0.=.%.*.-.[.{.{.c.{.{.{.{.c.{.{.{.{.c.{.{.c.` 7.*.c.c.[.&.a.c.c. X%.6.OXXX.X.X.X.X.X.XV.e.bXoX'.aXiXiXiXyXOXa.kX9X8X9X8XuXL Z L uX8X9X8X9XAXM.* = = = = * ` AXhX1 & = & = & < 4XhX8X8XuX&XA A U E P Z U uX8X",
"eXN.Q.Q.Q.Q.Q.Q.rXf f Q.z.k.Y.Y.z.z.z.z.z.k.l.z.z.z.z.l.k.z.z.z.z.k.z.Y.Y.l.k.z.l.r #.h.f.+.i.y.a } #.i.i.f.h.h.h.h.g.g.g.g.j.K ;.5.2.5.O.2.2.2.O.X. .e o.@.O.2.O.2.2.2.2.5.+.1 3.3.S.4.4.4.4.3.S.S.3.1.1.[ G 1.1.1.3.9.3.3.S.3.3.o.d ,.P.(.(.L.0.0.0.0.0.0.0.0.0.0.0.0.0.0.}.;.G 6X;X;X;X;X;X;X;X;X;Xv.N |.{.{.[.7.0.=.=.{.[.[.{.{.c.{.{.{.{.c.m.{.{.{.c.{.{.m.{.{.{.c.c.[.&.*.c.c. X6.%.OXXX.X.X.X.X.X.X.Xw.bXcX].sXiXiXiXyXOXa.kX9X8X9X8XuXL Z L uX8X9X8X9XAXM.* = = * = * ` AXhX1 & = & = & < 4XhX8XuX$XA U hXHXHXHX&XA ;.uX",
"B.x.d.d.y.B.x.y.l.y _ y.l.y.y.t.y.x.y.} k.k.t.y.} k.k.} y.l.t.t.x.y.y.y.} k.i.y.' w +.} ) +.+._ a } } ) +.+.} +.) #.#.{ +.i.^ F {  .2.| ( 2.X.~  . .~ e ~ ] o.~ | 2. .| { | 2.1 ) 1.2.| @.3.o.@.| @.1.] ' [ F ] ] ] 1.1.| 1.3.o.o.3.r o.,.%.q.,.:.q.q.,.,.:.q.q.:.,.q.,.:.q.,.,.G ..|.q.<.0.}.<.7.<.0.N b <.m.7.-.7.7.%.%.*.7.c.*.7.m.<.<.*.7.m.<.*.c.v.*.c.c.<.7.*.7.c.-.*.&.&.*.*.*.7.K *.v.XX.X.X.X.X.XXXw.yX6X].sXiXiXyXyXOXa.kX9X8X9X8XuXL Z L uX8X9X8X9XAXM.* = = = = * ` AXhX1 & = & = & < 4XhX8XuXP L HXhXhXhXhXHX&XA 1X",
"B.x.y.y.y.N.x.y.f g y.t.x.t.y.} t.x.y._ k.i.} t._ k.k._ y.x.} } x.y.t.t.} k.y._ r X.} } ) } +.) y } { p +.+.} } ) #.#.) +.i.G [ ) | 2.( ( O. .~ |  .p e / ] o.~ { 2.| ( ( ( 2.) < 1.1.' X.3.| X.] o.1.' ' [ F ] ' ' 1.@.' >.3.] o.4.d d =.%.9.,...q.q.:.:...q.q...,.q.:.:.q.,.,.[ G |.q.:.q.M.<.<.>.7.m *.*.m.<.-.7.7.%.%.-.7.7.-.7.m.*.*.*.<.m.*.*.c.7.-.7.c.*.7.-.7.c.-.*.&.&.*.-.*.m.K -.d..X.X.X.X.X.X.Xw.bXbX].yXvXvXnXiXOXa.kX9X8X9X8XuXL Z L uX8X9X8X9XAXM.* = = = = * ` AXhX1 & = = = & < 4XhX9X1XA &XZXhXhXhXhXhXhXJ ).",
"B.x.y.y.y.N.x.y.y t.} t.x.t.y.} t.x.y._ k.i.} t._ k.k._ y.x.} } x.y.y.y.} k.k.p w f.{ } ) +.+.) y } { p +.+.} +.) #.#.) +.>.F { ~ | 2.{ ( O. .~  . .~ e ~ ] o.~ { 2.| { ( { 2.o.< O.1.' X.3.o.@.] o.1.] ' [ F ] ] ' 1.@.' 1.3.] o.3.o.r n ,.q.,...q.q.:.,...q.q...,.q.:.:.q.,.,.,.w q.0.:.q.}.<.<.,.N s.<.*.m.<.-.7.7.%.%.-.7.7.-.7.m.*.*.*.<.m.*.*.c.7.*.7.c.*.7.*.7.c.-.*.&.&.*.*.*.m.%.%.d.v.v.v.v.v.v.v.r.{.|.(.|.<XXXXXXXv.a.kX9X8X9X8XuXL Z L uX8X9X8X9XAXM.* = = = = * ` AXhX1 & = = = & < 4XhXuX$XA 7XjXhXhXCXCXhXZXP U ",
"B.x.y.y.y.N.V.s y l.} t.x.t.y.} t.x.y._ k.i.} t._ k.k._ y.x.} } x.y.t.y.} k.p.r | i.{ } ) +.+.) y } { p +.+.} +.) #.#.) t.K G { ~ | 2.{ ( O. .~  . .p e ~ ] o.~ { 2.| { ( { 2.o.s s 3.' X.3.o.@.] o.1.] ' [ F ] ] ' 1.@.' 1.3.] o.3.@./ %.>.q.,...q.q.:.,...q.q...,.q.:.:.q.,.,.<.G [ M.:.q.}.<.<.>.m v.*.*.m.<.-.7.7.%.%.-.7.7.-.7.m.*.*.*.<.m.*.*.c.7.*.7.c.*.7.*.7.c.-.*.&.&.*.*.*.m.,.K d.v.v.v.v.v.v.v.r.c.|./.7.V.m.m.m.v.a.kX9X8X9X8XuXL Z L uX8X9X8X9XAXM.* = = = = * ` AXhX1 & = & = & < 4XhX9X1XA %XjXhXSXp 4.DXhXJ ;.",
"B.x.y.y.y.N.V.y } x.} t.x.t.y.} t.x.y._ k.i.} t._ k.k._ y.x.} } x.y.y.y.} x. .r y.#.{ } ) } +.) y { { p +.+.} +.) #.+.)  .J ( { ~ | 2.{ ( O. .~ |  .p e ~ ] o.~ { 2.| { ( { 2.| ~ 1 X.] X.3.o.@.] o.1.] ' [ F ] ] ' 1.@.' >.3.] o.3.o.n e :.q.,...q.q.:.,...q.q...,.q.:.:.q.,.,.,.] G q.:.q.M.<.q.&.N M.*.*.m.<.-.7.7.%.%.-.7.7.-.7.c.*.*.*.<.m.*.*.c.7.*.7.c.*.7.*.7.c.-.*.&.&.*.*.*.c.7.K v.OXOXOXOXOXOXrXe.yXHX'.oXHXvXnXiXOXa.kX9X8X9X8XuXL Z L uX8X9X8X9XAXM.* = = * = * ` AXhX1 & = & = & < 4XhX8XuXJ U HXhXSXO.o lX%XA $X",
"d.y.y.y.y.x.} y y.t._ } y.} y.} } y.} } y.} } t._ y.t._ t.t.} } y.} y.y._ p.e p } } ) } ) _ _ ) a f ) ) } { } +.) } { } G G ) | ( { | ( ( | ( ~ ( ~ p e ~ ~ ~ ~ ( | ( { ( ( | ( ' s s ] o.o.] @.| o.] ' ' H F ] ] ' o.| ] o.o.] | o.^ /.a p ,.:.:.,.:.:.,...,.:...:.,.:.:.,.:.,.,.:.G [ <.<.<.<.7.m *.<.*.*.<.*.-.-.-.%.%.-.*.*.*.*.<.*.<.*.*.<.*.*.<.*.*.<.*.*.7.*.*.*.-.-.b &.*.*.*.<.*.K =.OXXX.X.X.X.X.Xw.6XbX'.`.aXiXyXyXOXa.kX9X8X9X8XuXL Z L uX8X9X8X9XAXM.* = = = = * ` AXhX1 & = & = & < 4XhX8XuX&XZ #XjXhXCX5.1XA U uX",
"y.y.y.y.t.d.y s y.} _ } t._ y.} _ t._ _ t._ } t._ t._ _ } } _ _ t._ y.t._ { r ) { ) ) } ) ) ) s y s s p { ) } } ) } ) ) F ~ ~ { ~ ( ( ~ ~ { ~ ~ ~ ~ p e / ~ ~ ~ ( ( ~ { ( ~ { ~ ~ ( ; ' | | ' @.' ] ] ~ ' G F ] ' ' ] ' ' | ] ' ] o.n =.~ e ,.^ ..:...:.:.^ :...^ :.:.^ ..:.^ ,.,...] w >.<.,.,.*.m <.*.-.*.*.-.-.-...%.%.-.-.-.-.*.*.-.*.*.*.*.-.*.*.*.*.*.*.*.7.-.*.*.-.-.b &.*.-.-.*.*.%.%.OXXX.X.X.X.X.Xw.6XbX'.(.lXiXiXyXOXa.kX9X8X9X8XuXL Z L uX8X9X8X9XAXM.* = = = = * ` AXhX1 & = = = & < 4XhX8X8XuX;.J 9XhX0XHXU P 8X9X",
"x.d.x.x.x.y.y y.p.y.y.y.i.t.k.y.y.p.y.y.i.y.y.p.y.i.y.y.y.y.y.y.p.t.i.i.p.e p +.+.+.+.+.} } } _ a f } } +.} +.+.+.+.t.[ K +.|  . . . . .|  . .| | { ~ e ~ ' | | |  .|  . . . . .| X.s s 1.@.@.1.X.X.o.] ] [ F ] ] ] @.X.o.@.@.o.@.:.%...,.a ' 7.,.,.,.,.,.,.,.,.,.,.,.,.,.,.,.,.,.,.q.G [ M.7.q.m s.7.7.<.7.7.<.<.<.,.%.%.*.7.7.<.7.7.<.7.7.7.7.<.7.7.7.<.7.7.7.v.7.7.*.*.7.&.&.7.*.<.7.7.<.K .X.X.X.X.X.X.Xe..XbXoX(.aXiXyXyXOXa.kX9X8X9X8XuXL Z L uX8X9X8X9XAXM.* = = = = * ` AXhX1 & = = = & < 4XhX8X8X8X9X3X9X8X8X4X3X8X9X8X",
"eXN.eXrXdXf f Q.z.Y.Y.Y.Y.x.Y.Y.Y.Y.Y.Y.Y.x.z.Y.Y.Y.Y.z.x.Y.Y.Y.Y.x.z.Y.j.w f.h.h.f.f.h.f.+.i.i.s } i.f.g.h.h.h.h.h.h.K 1.5.5.5.5.5.5.5.O.5.5.5.2.#.o.e o.X.2.2.O.5.5.5.5.5.5.5.2.2.2.1 S.S.S.5.D.S.G.3.1.[ G 1.1.1.G.S.3.3.S.9.3.=.6.^ q.>.a :X_._._._._._._._._._._._._._._.q._.:X=X8.G <X;X{.N |.{.c.XXXX{.{.[._._.=.=.{.[.{.{.{.c.XX{.{.{.m.{.{.{.{.m.{.{.{.m.{.{.c.[.[.&.a.[.{.{.{.{.XXK {..X.X.X.X.X.Xe..XbXcX(.HXnXiXiXOXa.kX9X8X9X8XuXL Z L uX8X9X8X9XAXM.* = = = = * ` AXhX1 & = & = & < 4XhX8X9X9X8X9X9X9X9X9X9X9X8X9X",
"Q.B.z.l.x.y z.z.z.z.z.z.z.k.i.j.i.z.z.z.z.k.l.z.z.z.z.z.k.i.j.i.Y.k.l.!.[ [ j.g.g.i.f.h.f.+.i.y.s f +.} +.+.h.g.g.k.;.K f.2.2.2.2.2.2.2.O.X. . . .{  .e o.X.X.2.O. .X. .X.X.5.2.O.2.4.s _ F.4.1.@.1.@.@.o.[ G 1.1.1.3.4.3.3.9.S.,./.q.^ >.q.a 1.}.0.0.0.0.0.0.0.0.0.0.0.0.0.0.q.,.,.0.=XG 8.3XN s.|.{.c.c.7.{.{.c.7.q.=.=.[.c.[.{.{.c.7.c.{.{.c.m.{.{.{.c.{.{.m.m.{.{.c.c.[.&.-.v.<.c.{.{.XX%.6.OXXX.X.X.X.Xe..XbX6X(.<X<X<X<XOXa.kX9X8X9X8XuXL Z L uX8X9X8X9XAXM.* = = * = * ` AXhX1 & = & = & < 4XhX8X9X9X9X8X9X9X9X9X8X8X9X9X",
"Q.N.N.` o y Q.l.z.z.z.z.z.l.} a s y.Y.z.z.k.l.z.z.z.z.z.i.i ) p k.x.l.l.w #.f.h.h.i.f.h.f.+.i.y.s a i a a p g.g.g.j.J ,.5.2.2.2.2.2.2.5.O.2.u u a a ~ w o.X.X.2.2.~ > i a i 2.5.O.2.5.+.1 S.4.1.u ~ u u p [ G 1.1.1.3.S.3.3.9.S.%.=.4.^ / / a p :X0.0.0.0.0.0.0.0.0.0.0.0.0._.q.,.u / 0.;.H XXm {.{.{.m.<.> ( c.[.7.0.=.=.[.[.[.{.{.c./ ^ ` {.c.m.{.{.{.c.{.{.m.m.{.{.c.c.[.&.v / / > *.{. X6.%.OXXX.X.X.X<Xe..XbX6X(.6X(  .( *.a.kX9X8X9X8XuXL Z L uX8X9X8X9XAXM.* = = = = * ` AXhX1 & = & = & < 4XhX8X9X9X9X8X8X8X8X8X8X9X9X9X",
"Q.B.x.) o s Y.z.z.z.z.z.z.x.y.a s y.Y.z.z.k.l.z.z.z.z.z.k._ a s j.x.N.' [ x.#.h.h.i.f.h.f.+.i.y.s p i a a p f.g.j.,.K f.2.2.2.2.2.2.2.5.2. .u p - a ~ w o.X.X.2.O. .O i a p O.5.O.2.2.3.1 +.S.2.' a i e p [ G 1.1.1.3.S.3.3.S.3./.q.q.] ..i O e 1._.0.0.0.0.0.0.0.0.0.0.0.0.0.0.../ O q.}.H &.s.|.{.{.c.7.> O c.[.7.0.=.=.[.[.[.{.{.c.*.> > {.c.m.{.{.{.c.{.{.m.m.{.{.c.c.[.&.&./ ` o / XX{.[.K .X.X.X.X.X<Xe.V.bXyX].M. .<.u > a.kX9X8X9X8XuXL Z L uX8X9X8X9XAXM.* = = = = * ` AXhX1 & = = = & < 4XhX8X8X9X8X9XuXuXuXuX9X8X9X9X",
"eXB.x.a y x.Y.z.z.z.z.z.z.k.+.i.+.l.z.z.Y.k.l.z.z.z.z.z.k.+.y.+.Y.k.z.w #.g.i.h.h.f.f.h.f.+.i.i.s { +.) { +.j.g.l.K ;.5.5.5.5.5.5.5.5.5.2.| ~ ( { ~  .e o.X.>.2.O.{ | ( | | 5.5.O.2.5.5.+.s F.2.o.o.] ] ] [ G 1.1.1.3.S.3.3.S.=.%.4.q.^ ,.>.,.~ p ;X0._._._._._._._._._._.0._.q.....,.q.=X;.b  X{.{.{.c.<.<.<.c.[.7.0.=.=.[.[.{.{.{.c.<.<.<.m.m.{.{.{.{.c.{.{.m.m.{.{.c.[.[.&.-.7.` <.<.{.{. XK [.OX.X.X.X<Xe.V.bXbX].7.V.M. Xv.s.kX9X8X9X8XuXL Z L uX8X9X8X9XAXM.* = = = = * ` AXhX1 & = = = & < 4XhX8X9X8XuX9X).U U ;.1XuX8X9X",
"Q.N.eXy i.N.l.l.l.l.l.l.l.k.z.z.Y.l.l.l.l.k.l.l.l.l.l.l.k.Y.z.Y.l.l.' w x.i.i.f.f.i.i.f.i.+.y.y.s } i.i.f.g.f.j.>.F 2.2.2.2.2.2.2.2.2.2.X.2.5.2.O.O. .e o.o.X.O.X.2.5.5.2.5.2.2.X.O.2.2.5.1 +.3.S.4.3.3.1.[ G 1.1.1.3.3.1.3.3.%.,.3.q.^ 1.q.q.8.e q._.0.0.0.0.0.0.0.0.0.0.0.0.q._._._.0.F.s.v q.{.{.{.c.{.{.{.{.c.7.7.=.=.c.c.c.{.{.c.{.{.{.{.c.c.{.{.m.c.{.{.c.c.{.[.c.c.[.&.a.m.[.{.{.{.{. X%.=.OXXXXXXX.Xe.b.bXbX].cXHXnXiXyXa.kX9X8X9X8XuXP C P uX8X9X8X9XAXM.* = = = = * ` AXhX1 & = & = & < 4XhX8X8XuX$XJ A L U J A ).uX8X",
"4X4X>XJ.3X2X5X5X5X5X5X5X5X5X2X2X2X5X5X5X5X5X5X5X5X5X5X5X5X2X2X2X2X5XD.I.2X>X>X>X>X>X>X2X>X>X>X>X>X>X>X>X>X>X>X2X:X:X>X>X>X>X>X>X>X>X>X>X>X>X-X-X-X-X>X-X>X>X>X>X>X-X-X-X-X-X>X>X-X>X>X>X2XP.I.2X>X2X2X2X2X2X2X2X2X2X2X2X2X2X>X;X2X2X2X-X>X-X-X2XL.-X3X2X2X2X2X2X2X2X2X2X2X2X2X2X,X,X2X2X3XXX9.-X3X,X,X,X,X,X,X,X,X,X,X,X,X,X,X,X,X,X,X,X,X,X,X,X,X,X,X,X,X,X,X,X,X,X,X,X,X,X,X,X,X,X,X,X,X,X3X:X:X4X3X3X3X4X<X<X9X9XwX4X9X9X9X9X9XhX9X8X8X9X9X).U ).9X8X9X8X9XAXM.* = = * = * ` AXhX1 & = & = & < 4XhX8X9X1XA L qXZXjXSX&XZ ;.pX",
"hXhXhXZXhXhXhXhXhXhXhXhXhXhXhXhXhXhXhXhXhXhXhXhXhXhXhXhXhXhXhXhXhXhXZXCXhXhXhXhXhXhXhXhXhXhXhXhXhXhXhXhXhXhXhXhXjXjXhXhXhXhXhXhXhXhXhXhXhXhXhXhXhXhXhXhXhXhXhXhXhXhXhXhXhXhXhXhXhXhXhXhXhXCXCXhXhXhXhXhXhXhXhXhXhXhXhXhXhXhXhXjXhXhXhXhXhXhXhXhXZXjXhXhXhXhXhXhXhXhXhXhXhXhXhXhXhXhXhXhXhXkXZXhXhXhXhXhXhXhXhXhXhXhXhXkXhXhXhXhXhXhXhXhXhXhXhXhXhXhXhXhXhXhXhXhXhXhXhXhXhXhXhXhXhXhXhXhXhXhXhXjXjXhXhXhXhXhXCXhXhXhXkXhXhXhXhXhXhXhX9X8X9X8X4XpXuXuX4X9X9X8X9XAXM.* = = = = * ` AXhX1 & = = = & < 4XhX8XuXL P ZXjXhXSXI.i.;.. :X",
"8X8X8X4X8X8X8X8X8X8X8X8X8X8X8X8X8X8X8X8X8X8X8X8X8X8X8X4X8X4X8X4X8X8X4X8X8X8X8X8X8X8X8X8X8X8X8X8X8X8X8X8X8X8X8X8X8X8X8X8X8X8X8X8X8X8X8X8X8X8X8X4X4X4X4X4X4X4X4X4X4X4X4X4X4X4X8X8XqXqXqXqXqXqXqXqXqXqXqXqXqX8X8X8X8X8X8X8X8X8X8X8X8X8X8X8X8X8X8X8X4X8X8X8X8X8X8X8X8X8X8X8X8X8X8X8X8X8X8X8X8X8X4X8X8X8X8X8X8X8X8X8X8X4X0XhX8X4X2X2X2X2X2X2X2X2X2X2X2X2X2X2X2X2X2X2X2X2X2X2X2X2X2X2X2X2X2X2X2X2X2X2X2X3X2X2X2X3X2X2X3X3X2X3X3X3X3X8X9XhX9X8X9X| | 4X~ | ~ 2.0X4X9XAXM.* = = = = * ` AXhX1 & = = = & < 4XhX9X3XA &XHXfXZXI.o  .CXX ;.",
"hXhXhXhXhXhXhXhXhXhXhXhXhXhXhXhXhXhXhXhXhXhX9X8X9X8X9X9X9X0X9X9X8X8X4X8X4X8X4X8X8X8X9XhXhXhXhXhXhXhXhXhXhXhXhXhXhXhXhXhXhXpXhXhXhXhXpX8X9X9X>X-X>X-X-X-X-X>X-X-X-X-X-X-X>X-XtXE D C D D D D D D D D D C D S 9X9X8X9X9X9X9X9X9X9X9X9X9X9X9X9X9X9X9X9X9X9X9X9X9X9X9X9X9X9X9X9X9X9X9X9X9X9X9X9X9X9X9X9X9X9X9X9X9X9X9X8XpXhX9X2X-X2X2X2X2X2X2X2X2X2X2X2X2X2X2X2X2X2X2X2X2X3X2X2X2X2X2X2X2X2X2X2X2X2X2X2X2X2X2X2X2X2X2X2X2X2X2X2X-X4X9XhX9X9X>XX.O.5.5.i  .X.9X8X9XAXM.* = = = = * ` AXhX1 & ; = = & < 4XhXuX$XA 7XjXhXZXI.4.DXSX+ G ",
"hXhXhXZXhXZXZXCXhXhXhXhXhXhXhXhXhXhXCXpXhXhX9X8X8X9X2X-X4XL.8XI.pX9XpX9XpX0XpX0XpX9X9XCXCXhXhXSXhXhXCXhXhXCXhXhXhXhXhXhXhXhXhXhXhXCXpX8X9X9X>X4X9X9X9X9X9X8X9X0X9X9X9X0X9X-XtXI . . . . . . . . . . . . . C qX8X8X9X9X9X9X9X9X9X9X9X9X9X9X9X9X9X9X9X9X9X9X9X9X9X9X9X9X9X9X9X9X9X9X9X9X9X9X9X9X9X9X9X9X9X9X9X9X9X9X8XpXhX9X2X3X9X9X9X9X9X9X9X9X9X9X9X9X9X9X9X9X9X8X9X3X2X9X9X4X9X3X9X9X9X9X9X9X9X9X9X9X9X9X9X9X9X9X9X9X9X9X9X>X3X9XhX9X8X9X| ~ 5.( ( ~ X.0X4X9XAXM.* * * * * * ` AXhX1 * * * * * ; 4XhXuX1XA %XjXhXhXZXSXhXZXX K ",
"ZXX.I.0X9X3X3X4XCXhXhXhXhXhXhXhXhXhXhXo 2.SX9X8X9X9Xp 4.| X.9X~ 2.-X2.2X2.P.5.| X.-XhXK.~ K.9X3XI.4.CX-X( 5.~ 4.ZXhXhXhXhX0XSX{ a ZXpX8X9X9X-X9Xn.O.5.5.O.P.-X4.n.O.2.4.3X-XtXI . X X z X X z z X z X X . C qX8X8X9X9X9X9X9X9X9X9X9X9X9X9X9X9X9X9X9X9X9X9X9X9X9X9X9X9X9X9X9X9X9X9X9X9X9X9X9X9X9X9X9X9X9X9X9X9X9X9X8XpXhX9X2X3X9X8X8X8X8X8X8X8X8X8X8X8X8X8X8X4X0Xn.K.K. .( K.2. .K.9X8X8X8X8X8X8X8X8X8X8X8X8X8X8X8X8X8X8X8X9X>X3X9XhX9X8X9X3X2X4X2X8X2X4X9X8X9XCX>X) ) ) ) ) ) f.CXpX+._ _ _ _ _ _ 9XhX9X9XJ E HXhXhXhXhXDX:X. q.",
" .( ~ ~ p 5.( | hXhXhXhXhXhXhXhXhXhX4X{ 4.CX9X8X8X9X5.~ ~ ZX8X( ( i X.i X.~ ( p 9.>XCX2.p 2.| (  .u 4XP.i 2.2.3XZXhXhXhXhXpXhX2. .0XhX8X9X9X-X9XO.X. .{  .P.n.( { 2.2.( 0X-XtXI . z X z X . X z X D X z . C qX8X8X9X9X9X9X9X9X9X9X9X9X9X9X9X9X9X9X9X9X9X9X9X9X9X9X9X9X9X9X9X9X9X9X9X9X9X9X9X9X9X9X9X9X9X9X9X9X9X9X8XpXhX9X2X3X9X8X9X9X9X9X9X9X9X9X9X9X9X9X9X8XpXn.K.I.#. .) #.a 2X9X8X8X9X9X9X9X9X9X9X9X9X9X9X9X9X9X9X9X8X9X>X3X9XhX9X8X8X9X0X9X4X3X0X9X8X8X9XhX9XhXhXhXhXhXhX0XhX0X0XkXhXhXfXhXfX0XhX8XuX#XZ &XjXhXhXjXqXX x uX",
"| | ~ { | -X5.2.9XCXhXhXhXhXhXhXhXhXhXo #.SX9X8X9X9X5.|  . .9X| | 2.| 5.( 4. .( X.I.ZX2.-X>X~ L.| u -X-Xi 2.2.3XZXhXhXhXhX0XDX( a ZXpX8X9X9X-X9Xn.2Xn.5.O.K.P.O.2.5.O.5.3X2XtXI . X X z z X X z X z X z . C qX8X8X9X9X9X9X9X9X9X9X9X9X9X9X9X9X9X9X9X9X9X9X9X9X9X9X9X9X9X9X9X9X9X9X9X9X9X9X9X9X9X9X9X9X9X9X9X9X9X9X8XpXhX9X2X3X9X8X8X8X8X8X8X8X8X8X8X8X8X8X8X8X0XL. .2.O.I. .5.4.2.n.4.I.9X8X8X8X8X8X8X8X8X8X8X8X8X8X8X8X8X9X>X3X9XhX9X8X8X9X4X .( ~ 2.0X8X8X9XhX9X4X^.5X^.^.^.5XhXpX8XE.^.8X^.^.~.0XhX9X8XuXU A 9XhX0XjXG X 2X9X",
"hXI.hX2X9XpX9X9XhXhXhXhXhXhXhXhXhXhXZX4XhXhX9X8X9X9X2X9X0X2X9X9X8X0X4X0X4X9X4X0X3X4X0X0XhXpX9X0X9X0X9XhXP.9X0XhXhXhXhXhXhXpXCX0X8XZXpX8X9X9X>X4X0X9X9X0X4X8X0X9X0X9X9X0X9X-XtXI . . . . . . . . . . . . . C qX8X8X9X9X9X9X9X9X9X9X9X9X9X9X9X9X9X9X9X9X9X9X9X9X9X9X9X9X9X9X9X9X9X9X9X9X9X9X9X9X9X9X9X9X9X9X9X9X9X9X8XpXhX9X2X3X9X9X9X9X9X9X9X9X9X9X9X9X9X9X9X9X9X9X4X4X9X9X0X9X0X9X8X9X9X9X9X9X9X9X9X9X9X9X9X9X9X9X9X9X9X9X9X>X3X9XhX9X8X8X0XX.~ ~ p  .0X8X8X9XhX9XE.^.E.^.^.^.E.CX0XE.~.~.E.^.^.^.0XhX9X8X9X9X1X9X8X8X9X:X2XuX8X",
"hXZXhXZXhXhXhXhXhXhXhXhXhXhXhXhXhXhXhXCXhXhX9X8X9X9X9X9X8X9X9X9X9X8X9X8X9X9X9X8X9X8X9XhXhXhXjXhXhXhXhXhXSXhXhXhXhXhXhXhXhXpXhXhXhXhXpX8X9X9X>X-X>X>X>X>X>X>X-X>X>X>X>X-X>X-XtXE D D D D D D D D D D D D D S 9X9X9X9X9X9X9X9X9X9X9X9X9X9X9X9X9X9X9X9X9X9X9X9X9X9X9X9X9X9X9X9X9X9X9X9X9X9X9X9X9X9X9X9X9X9X9X9X9X9X9X8XpXhX9X2X-X3X2X2X2X2X2X2X2X2X2X2X2X2X2X2X2X2X2X3X3X2X2X2X2X2X2X3X3X2X2X2X2X2X2X2X2X2X2X2X2X2X2X2X2X2X2X3X-X4X9XhX9X8X8X0X2.~ ( p  .0X8X8X9XhX9X8X~.E.E.E.~.5XhXpX8X5X5X5X~.~.E.0XhX9X9X9X8X9X9X9X9X8X9X9X8X9X",
"8X4X8X8X8X8X8X8X8X8X8X8X8X8X8X8X8X8X8X8X8X8X8X8X8X8X8X8X8X8X8X8X8X8X8X8X8X8X8X8X8X8X8X8X8X8X8X8X8X8X8X8X4X8X8X8X8X8X8X8X8X8X8X8X8X8X8X8X8X8X4X3X3X3X3X3X3X3X3X3X3X3X3X3X3X4X8X3X7X7X7X7X7X7X7X7X7X7X7X7X7X1X4X8X8X8X8X8X8X8X8X8X8X8X8X8X8X8X8X8X8X8X8X8X8X8X8X8X8X8X8X8X8X8X8X8X8X8X8X8X8X8X8X8X8X8X8X8X8X8X8X8X8X4X0XhX4X4X2X2X2X2X2X2X2X2X2X2X2X2X2X2X2X2X2X2X2X2X2X2X2X2X2X2X2X2X2X2X2X2X2X2X2X2X2X2X2X2X2X2X2X2X2X2X2X2X2X4X9XhX9X4X8X8X4XI.3XP.3X9X8X4X9XhX9X8X9X8X8X8XqX8XhX0X4X8X8X8XqXqX8X9XhX8X8X8X8X8X8X8X8X8X4X4X8X8X",
"hXhXhXhXhXhXhXhXhXhXhXhXhXhXhXhXhXhXhXhXhXhXhXhXhXhXhXhXhXhXhXhXhXhXhXhXhXhXhXhXhXhXhXhXhXhXhXhXhXhXhXhXhXhXhXhXhXhXhXhXhXhXhXhXhXhXhXhXhXhXhXhXhXhXhXhXhXhXhXhXhXhXhXhXhXhXhXhXjXhXhXhXhXhXhXhXhXhXhXhXhXhXhXhXhXhXhXhXhXhXhXhXhXhXhXhXhXhXhXhXhXhXhXhXhXhXhXhXhXhXhXhXhXhXhXhXhXhXhXhXhXhXhXhXhXhXhXhXhXhXhXhXhXhXhXhXhXhXhXhXhXhXhXhXhXhXhXhXhXhXhXhXhXhXhXhXhXhXhXhXhXhXhXhXhXhXhXhXhXhXhXhXhXhXhXhXhXhXhXhXhXhXhXhXhXhXhXhXhXCXhXhXhXhXhXCXhXZXhXhXhXhXhXCXhXhXhXhXhXhXhXhXhXhXhXhXhXhXhXhXhXhXjXhXhXhXhXhXhXhXhXhXhXhXhXhX",
"4X4X4X4X4X4X4X4X4X4X4X4X4X4X4X4X4X4X4X4X4X4X4X4X4X4X4X4X4X4X4X4X4X4X4X4X4X4X4X4X4X4X4X4X4X4X4X4X4X4X4X4X4X4X4X4X4X4X4X4X4X4X4X4X4X4X4X4X4X4X4X4X4X4X4X4X4X4X4X4X4X4X4X4X4X4X4X4X4X4X4X4X4X4X4X4X4X4X4X4X4X4X4X4X4X4X4X4X4X4X4X4X4X4X4X4X4X4X4X4X4X4X4X4X4X4X4X4X4X4X4X4X4X4X4X4X4X4X4X4X4X4X4X4X4X4X4X4X4X4X4X4X4X4X4X4X4X4X4X4X4X4X4X4X4X4X4X4X4X4X4X4X4X4X4X4X4X4X4X4X4X4X4X4X4X4X4X4X4X4X4X4X4X4X4X4X4X4X4X4X4X4X4X4X4X4X4X4X4X4X4X4X4X4X4X4X4X4X4X4X4X4X4X4X4X4X4X4X4X4X4X4X4X4X4X4X4X4X4X4X4X4X4X4X4X4X4X4X4X4X4X4X4X4X4X4X",
"L.L.L.L.L.L.L.L.L.L.L.L.L.L.L.L.L.L.L.L.L.L.L.L.L.L.L.L.L.L.L.L.L.L.L.L.L.L.L.L.L.L.L.L.L.L.L.L.L.L.L.L.L.L.L.L.L.L.L.L.L.L.L.L.L.L.L.L.L.L.L.L.L.L.L.L.L.L.L.L.L.L.L.L.L.L.L.L.L.L.L.L.L.L.L.L.L.L.L.L.L.L.L.L.L.L.L.L.L.L.L.L.L.L.L.L.L.L.L.L.L.L.L.L.L.L.L.L.L.L.L.L.L.L.L.L.L.L.L.L.L.L.L.L.L.L.L.L.L.L.L.L.L.L.L.L.L.L.L.L.L.L.L.L.L.L.L.L.L.L.L.L.L.L.L.L.L.L.L.L.L.L.L.L.L.L.L.L.L.L.L.L.L.L.L.L.L.L.L.L.L.L.L.L.L.L.L.L.L.L.L.L.L.L.L.L.L.L.L.L.L.L.L.L.L.L.L.L.L.L.L.L.L.L.L.L.L.L.L.L.L.L.L.L.L.L.L.L.L.L.L.L.L.L.L.L.",
"P.P.P.P.P.P.P.P.P.P.P.P.P.P.P.P.P.P.P.P.P.P.P.P.P.P.P.P.P.P.P.P.P.P.P.P.P.P.P.P.P.P.P.P.P.P.P.P.P.P.P.P.P.P.P.P.P.P.P.P.P.P.P.P.P.P.P.P.P.P.P.P.P.P.P.P.P.P.P.P.P.P.P.P.P.P.P.P.P.P.P.P.P.P.P.P.P.P.P.P.P.P.P.P.P.P.P.P.P.P.P.P.P.P.P.P.P.P.P.P.P.P.P.P.P.P.P.P.P.P.P.P.P.P.P.P.P.P.P.P.P.P.P.P.P.P.P.P.P.P.P.P.P.P.P.P.P.P.P.P.P.P.P.P.P.P.P.P.P.P.P.P.P.P.P.P.P.P.P.P.P.P.P.P.P.P.P.P.P.P.P.P.P.P.P.P.P.P.P.P.P.P.P.P.P.P.P.P.P.P.P.P.P.P.P.P.P.P.P.P.P.P.P.P.P.P.P.P.P.P.P.P.P.P.P.P.P.P.P.P.P.P.P.P.P.P.P.P.P.P.P.P.P.P.P.P.",
"P.P.P.P.P.P.P.P.P.P.P.P.P.P.P.P.P.P.P.P.P.P.P.P.P.P.P.P.P.P.P.P.P.P.P.P.P.P.P.P.P.P.P.P.P.P.P.P.P.P.P.P.P.P.P.P.P.P.P.P.P.P.P.P.P.P.P.P.P.P.P.P.P.P.P.P.P.P.P.P.P.P.P.P.P.P.P.P.P.P.P.P.P.P.P.P.P.P.P.P.P.P.P.P.P.P.P.P.P.P.P.P.P.P.P.P.P.P.P.P.P.P.P.P.P.P.P.P.P.P.P.P.P.P.P.P.P.P.P.P.P.P.P.P.P.P.P.P.P.P.P.P.P.P.P.P.P.P.P.P.P.P.P.P.P.P.P.P.P.P.P.P.P.P.P.P.P.P.P.P.P.P.P.P.P.P.P.P.P.P.P.P.P.P.P.P.P.P.P.P.P.P.P.P.P.P.P.P.P.P.P.P.P.P.P.P.P.P.P.P.P.P.P.P.P.P.P.P.P.P.P.P.P.P.P.P.P.P.P.P.P.P.P.P.P.P.P.P.P.P.P.P.P.P.P.P.",
"P.P.P.P.P.P.P.P.P.P.P.P.P.P.P.P.P.P.P.P.P.P.P.P.P.P.P.P.P.P.P.P.P.P.P.P.P.P.P.P.P.P.P.P.P.P.P.P.P.P.P.P.P.P.P.P.P.P.P.P.P.P.P.P.P.P.P.P.P.P.P.P.P.P.P.P.P.P.P.P.P.P.P.P.P.P.P.P.P.P.P.P.P.P.P.P.P.P.P.P.P.P.P.P.P.P.P.P.P.P.P.P.P.P.P.P.P.P.P.P.P.P.P.P.P.P.P.P.P.P.P.P.P.P.P.P.P.P.P.P.P.P.P.P.P.P.P.P.P.P.P.P.P.P.P.P.P.P.P.P.P.P.P.P.P.P.P.P.P.P.P.P.P.P.P.P.P.P.P.P.P.P.P.P.P.P.P.P.P.P.P.P.P.P.P.P.P.P.P.P.P.P.P.P.P.P.P.P.P.P.P.P.P.P.P.P.P.P.P.P.P.P.P.P.P.P.P.P.P.P.P.P.P.P.P.P.P.P.P.P.P.P.P.P.P.P.P.P.P.P.P.P.P.P.P.P.",
"L.L.L.L.L.L.L.L.L.L.L.L.L.L.L.L.L.L.L.L.L.L.L.L.L.L.L.L.L.L.L.L.L.L.L.L.L.L.L.L.L.L.L.L.L.L.L.L.L.L.L.L.L.L.L.L.L.L.L.L.L.L.L.L.L.L.L.L.L.L.L.L.L.L.L.L.L.L.L.L.L.L.L.L.L.L.L.L.L.L.L.L.L.L.L.L.L.L.L.L.L.L.L.L.L.L.L.L.L.L.L.L.L.L.L.L.L.L.L.L.L.L.L.L.L.L.L.L.L.L.L.L.L.L.L.L.L.L.L.L.L.L.L.L.L.L.L.L.L.L.L.L.L.L.L.L.L.L.L.L.L.L.L.L.L.L.L.L.L.L.L.L.L.L.L.L.L.L.L.L.L.L.L.L.L.L.L.L.L.L.L.L.L.L.L.L.L.L.L.L.L.L.L.L.L.L.L.L.L.L.L.L.L.L.L.L.L.L.L.L.L.L.L.L.L.L.L.L.L.L.L.L.L.L.L.L.L.L.L.L.L.L.L.L.L.L.L.L.L.L.L.L.L.L.L.L.",
"-X-X-X-X-X-X-X-X-X-X-X-X-X-X-X-X-X-X-X-X-X-X-X-X-X-X-X-X-X-X-X-X-X-X-X-X-X-X-X-X-X-X-X-X-X-X-X-X-X-X-X-X-X-X-X-X-X-X-X-X-X-X-X-X-X-X-X-X-X-X-X-X-X-X-X-X-X-X-X-X-X-X-X-X-X-X-X-X-X-X-X-X-X-X-X-X-X-X-X-X-X-X-X-X-X-X-X-X-X-X-X-X-X-X-X-X-X-X-X-X-X-X-X-X-X-X-X-X-X-X-X-X-X-X-X-X-X-X-X-X-X-X-X-X-X-X-X-X-X-X-X-X-X-X-X-X-X-X-X-X-X-X-X-X-X-X-X-X-X-X-X-X-X-X-X-X-X-X-X-X-X-X-X-X-X-X-X-X-X-X-X-X-X-X-X-X-X-X-X-X-X-X-X-X-X-X-X-X-X-X-X-X-X-X-X-X-X-X-X-X-X-X-X-X-X-X-X-X-X-X-X-X-X-X-X-X-X-X-X-X-X-X-X-X-X-X-X-X-X-X-X-X-X-X-X-X",
"hXhXhXhXhXhXhXhXhXhXhXhXhXhXhXhXhXhXhXhXhXhXhXhXhXhXhXhXhXhXhXhXhXhXhXhXhXhXhXhXhXhXhXhXhXhXhXhXhXhXhXhXhXhXhXhXhXhXhXhXhXhXhXhXhXhXhXhXhXhXhXhXhXhXhXhXhXhXhXhXhXhXhXhXhXhXhXhXhXhXhXhXhXhXhXhXhXhXhXhXhXhXhXhXhXhXhXhXhXhXhXhXhXhXhXhXhXhXhXhXhXhXhXhXhXhXhXhXhXhXhXhXhXhXhXhXhXhXhXhXhXhXhXhXhXhXhXhXhXhXhXhXhXhXhXhXhXhXhXhXhXhXhXhXhXhXhXhXhXhXhXhXhXhXhXhXhXhXhXhXhXhXhXhXhXhXhXhXhXhXhXhXhXhXhXhXhXhXhXhXhXhXhXhXhXhXhXhXhXhXhXhXhXhXhXhXhXhXhXhXhXhXhXhXhXhXhXhXhXhXhXhXhXhXhXhXhXhXhXhXhXhXhXhXhXhXhXhXhXhXhXhXhXhXhXhX",
"I.I.I.I.I.I.I.I.I.I.I.I.I.I.I.I.I.I.I.I.I.I.I.I.I.I.I.I.I.I.I.I.I.I.I.I.I.I.I.I.I.I.I.I.I.I.I.I.I.I.I.I.I.I.I.I.I.I.I.I.I.I.I.I.I.I.I.I.I.I.I.I.I.I.I.I.I.I.I.I.I.I.I.I.I.I.I.I.I.I.I.I.I.I.I.I.I.I.I.I.I.I.I.I.I.I.I.I.I.I.I.I.I.I.I.I.I.I.I.I.I.I.I.I.I.I.I.I.I.I.I.I.I.I.I.I.I.I.I.I.I.I.I.I.I.I.I.I.I.I.I.I.I.I.I.P.9XhX9X9X9X9X9X9X9X9X0X0X0X0X9X0X9X0X8X9X9X9X9X9X9X9X9XhX0X8X9X9X9X9X9X9X4X-X9X8X9X9X9X9X8X8X9X9X9X9X9X9X8X-X9X8X9X9X9X9X8X8X9X9X9X9X9X9X8X-X9X8X9X9X9X9X9X8X8X9X9X9X9X9X9X-X8X9X9X9X9X9X8X9X1X8X9X9X<X<X",
"L.L.L.L.L.L.L.L.L.L.L.L.L.L.L.L.L.L.L.L.L.L.L.L.L.L.L.L.L.L.L.L.L.L.L.L.L.L.L.L.L.L.L.L.L.L.L.L.L.L.L.L.L.L.L.L.L.L.L.L.L.L.L.L.L.L.L.L.L.L.L.L.L.L.L.L.L.L.L.L.L.L.L.L.L.L.L.L.L.L.L.L.L.L.L.L.L.L.L.L.L.L.L.L.L.L.L.L.L.L.L.L.L.L.L.L.L.L.L.L.L.L.L.L.L.L.L.L.L.L.L.L.L.L.L.L.L.L.L.L.L.L.L.L.L.L.L.L.L.L.L.L.L.L.P.K.9XhX4X8X8X8X8X8X4X0XO.( I.2X3XI.pX2.2.pX4X8X8X8X8X8X4XpX0XZXDXSXSXSXSXDXhX9.KXSXSXSXSXDXZXhXDXSXSXSXSXDXZX9.GXSXSXSXSXDXSXhXDXSXSXSXSXSXSX9.DXSXSXSXSXSXDXhXSXDXSXSXSXSXDX9.SXSXSXSXSXSXDXjX&XAXSXPXb..X",
"L.P.P.P.P.P.P.P.P.P.P.P.P.P.P.P.P.P.P.P.P.P.P.P.P.P.P.P.P.P.P.P.P.P.P.P.P.P.P.P.P.P.P.P.P.P.P.P.P.P.P.P.P.P.P.P.P.P.P.P.P.P.P.P.P.P.P.P.P.P.P.P.P.P.P.P.P.P.P.P.P.P.P.P.P.P.P.P.P.P.P.P.P.P.P.P.P.P.P.P.P.P.P.P.P.P.P.P.P.P.P.P.P.P.P.P.P.P.P.P.P.P.P.P.P.P.P.P.P.P.P.P.P.P.P.P.P.P.P.P.P.P.P.P.P.P.P.P.P.P.P.P.P.P.P.L.9XhX8X9X9X9X9X9X4X0X( i 2.~ ~ ~  .~ X.hX4X9X9X9X9X9X8XpX0XSXKXKXKXKXKXKXSXK.PXGXKXKXKXKXDXhXKXGXKXKXKXKXSXn.KXGXKXKXKXKXDXhXKXGXKXKXKXKXDX9.KXKXKXKXKXKXKXhXDXKXKXKXKXKXKX9.GXKXKXKXKXKXKXZX%XSXKXKX*.` ",
"L.P.P.P.P.P.P.P.P.P.P.P.P.P.P.P.P.P.P.P.P.P.P.P.P.P.P.P.P.P.P.P.P.P.P.P.P.P.P.P.P.P.P.P.P.P.P.P.P.P.P.P.P.P.P.P.P.P.P.P.P.P.P.P.P.P.P.P.P.P.P.P.P.P.P.P.P.P.P.P.P.P.P.P.P.P.P.P.P.P.P.P.P.P.P.P.P.P.P.P.P.P.P.P.P.P.P.P.P.P.P.P.P.P.P.P.P.P.P.P.P.P.P.P.P.P.P.P.P.P.P.P.P.P.P.P.P.P.P.P.P.P.P.P.P.P.P.P.P.P.P.P.P.P.P.L.9XhX8X9X9X9X9X9X4XpX( p i u ~ 4.p ( O.hX4X9X9X9X9X9X8XpX0XSXKXGXGXGXDXKXZXn.KXDXGXGXDXKXSXhXKXDXGXGXDXKXSX9.KXDXGXGXGXGXSXhXKXDXGXGXGXGXDX9.KXGXGXGXDXDXKXhXDXGXGXGXGXDXKX9.DXGXGXGXGXDXGXjX%XAXLXP.~ i ",
"P.P.P.P.P.P.P.P.P.P.P.P.P.P.P.P.P.P.P.P.P.P.P.P.P.P.P.P.P.P.P.P.P.P.P.P.P.P.P.P.P.P.P.P.P.P.P.P.P.P.P.P.P.P.P.P.P.P.P.P.P.P.P.P.P.P.P.P.P.P.P.P.P.P.P.P.P.P.P.P.P.P.P.P.P.P.P.P.P.P.P.P.P.P.P.P.P.P.P.P.P.P.P.P.P.P.P.P.P.P.P.P.P.P.P.P.P.P.P.P.P.P.P.P.P.P.P.P.P.P.P.P.P.P.P.P.P.P.P.P.P.P.P.P.P.P.P.P.P.P.P.P.P.P.P.L.9XhX8X9X9X9X9X9X8X9XP.n.-XL.-X2X2X9.2X9X8X9X9X9X9X9X8XpX0XSXGXDXGXGXKXKXSXn.KXDXGXGXKXKXSXhXKXGXGXKXKXKXSX9.KXDXGXGXKXKXDXhXKXGXGXGXGXKXDX9.KXGXGXGXKXGXKXhXDXGXGXGXKXGXKX9.DXGXGXGXGXKXKXjX%XAXKX2X` ` ",
"4X3X4X4X4X4X4X4X4X4X4X4X4X4X4X4X4X4X4X4X3X4X3X4X4X4X4X4X3X4X4X4X4X4X4X4X4X4X4X4X4X4X4X4X4X4X3X3X3X4X3X4X3X4X3X3X4X3X4X4X4X4X4X4X4X4X3X3X3X4X4X3X4X3X3X4X4X4X4X3X4X4X4X4X4X4X4X4X4X4X4X4X4X4X4X4X4X4X4X4X4X3X4X3X4X3X4X4X4X4X4X4X4X4X4X4X4X4X4X4X4X4X4X4X4X4X4X4X4X4X4X4X4X4X4X3X4X3X3X4X3X4X4X4X4X4X4X4X4X4X4X4X4X4X4X3XpXhX8X8X8X8X8X8X8X8X9XpX9X0X9X9X9XpX9X8X8X8X8X8X8X8X8XpX0XSXPXPXGXDXSXKXhXK.KXDXGXDXSXKXSXhXKXGXGXZXhXCXSX9.KXDXDXKXSXSXZXjXKXGXDXGXGXSXSX9.KXGXGXDXZXKXSXhXDXGXGXDXhXKXGX9.DXGXGXDXDXZXSXZX%XSXGXIXb..X",
"4X9X9X9X9X9X9X9X9X9X9X9X9X9X9X9X9X9X9X9X0X8X0X9X0X9X3X9X0X9X9X9X9X9X9X9X0X8X9X9X9X9X9X9X9X9X9X0X0X9X9X9X0X9X0X0X9X0X9X9X9X9X9X9X9X9X9X9X0X9X9X0X9X0XpX4X9X9X4XpX9X9X9X9X9X9X9X9X9X9X9X9X9X9X9X9X9X9X9X9X9X9X9X0X9X9X8X9X9X9X9X9X9X9X9X9X9X9X9X9X9X9X9X9X9X9X9X9X9X9X9X9X9X9X9X0X9X0X0X9X0X8X9X9X9X9X9X9X9X9X9X9X9X9X9X8XhXhX8X9XfXfXfXfXfXfXfXfXfXfXfXfXfXfXfXfXfXfXfXfXfX9X8XpXpXhX-X2XIX-XO.2.3XL.KXDXPXhX .-X5.SXKXDXKXjXX.n.n.L.KXDXPXhX5.K.5.hXKXDXKXKX2.X.4.L.GXDXKXGX2.2.I.ZXDXGXGXPXK.P.5.4.GXGXKXKX2.3X5.jX%XSXGXIXb.OX",
" .4X3X9X8X8X8X8X8X8X8X8X8X8X8X8X8X8X9X-X5.pXP.9X-X>XX.3X>XP.| 8X3X3X>X4X-X( 9X8X8X8X8X8X9X4X( X.>X2X>X3X-X3XI.I.4X-X>X9X8X8X8X8X4X0X4.~ P.3X3X-X9XK.5.L.3X3XL.5.2X4X4X9X8X8X8X8X8X8X8X8X8X8X8X8X8X8X8X0XI.4.8X| 2.( L.9X8X8X8X8X8X8X8X8X8X8X8X8X8X8X8X8X8X8X8X8X8X8X8X8X8X8X0X4.>X4.X.X.| 5.9X8X8X8X8X8X8X8X8X8X8X8X9X8XhXpX9X+XB B B B B B B B B B B B B B B B B B B B B +X9XpXhX2Xp O.4X-X~ p 9.L.KXDXZXn.~ ~ | ZXDXKXpX8XK.-XL.L.GXDXSX5.( X.5.9XKXDXhX5.i ~ O.L.DXGXhX9Xn.i 2.0XDXDXSX8XI.X.p 5.DXGXjX9XK.2X9.jX%XAXDXPXb..X",
"~ i ( 0X8X9X9X9X9X9X9X9X9X9X9X9X9X8X0XP.O.>X~ | |  .u O.2.i p | p ~ X.i | ~ 9X8X9X9X9X8X9X3Xu | ~ O.u X.( p p p X.~ ( 3X9X8X9X9X4XhXX.u | u O.~ ~ X.p | |  .~ i | | >X9X8X9X9X9X9X9X9X9X9X9X9X9X9X9X8XpXn.5.4.5.4Xu -X9X8X9X9X9X9X9X9X9X9X9X9X9X9X9X9X9X9X9X9X9X9X9X9X9X9X4XhX| ~ u  .CXi 5.9X8X9X9X9X9X9X9X9X9X9X9X9X8XhXpXfX@X$ # # # # # # $ $ # # # # # # # # # # # # @XfXpXhXhX2XhXDXZX2X3X2X-XIXIXIXhXP.hX3XKXIXIXPXhXhXK.4X-XIXIXPXSX-X-X>XKXIXIXPXGX8XP.3X=XIXIXIXZX-X2X2XDXIXIXIXSX5.hX8X9.IXIXPXKXCXI.I.LX%XPXIXIXb.rX",
"~ i 2.9X8X9X9X9X9X9X9X9X9X9X9X9X9X8X0X-X~ 2.( ~ |  .u ~ p > 2. .u ( i a ( ~ 9X8X9X9X9X8X9X2X~ 9X .n.u ( u i 2.O. .~ ~ 2X9X8X9X9X4XpX2.~ ~ p ~ u u 4.|  .~ ~  . .X.~ hX4X9X9X9X9X9X9X9X9X9X9X9X9X9X9X8X0XK.~ 5.| 9.( 8X8X8X9X9X9X9X9X9X9X9X9X9X9X9X9X9X9X9X9X9X9X9X9X9X9X9X4XpXX.5.~ ~ K.~ -X9X8X9X9X9X9X9X9X9X9X9X9X9X8XhXpXfX@X# # # # # c $ # c c $ c $ $ c c # # # # # @XfXpXhX-XL.L.L.K.P.P.K.^ P.K.K.P.P.P.L.4.K.K.K.L.L.P.K.^ L.K.K.P.P.I.L.4.K.K.K.L.I.P.L.^ K.K.K.L.L.P.P.4.K.K.K.L.P.L.I.^ K.K.K.L.L.P.P.4.;.S.K.P.r.*.",
"-X-X-X9X8X9X9X9X9X9X9X9X9X9X9X9X9X9X9X8X4.I.K.4XP.-X4X-XK.-X>X3X-XP.L.>XL.P.9X8X9X9X9X9X9X4X2X9X>X9XP.-XL.-X2X2X-X~ -X9X8X9X9X9X8X9X2X3X>XP.I.L.>XK.P.-X2X>X2X-X| 4.pX8X9X9X9X9X9X9X9X9X9X9X9X9X9X9X9X9X4X5.-XL.K.3X9X8X9X9X9X9X9X9X9X9X9X9X9X9X9X9X9X9X9X9X9X9X9X9X9X9X9X8X9X2X4X3XI.n.2X9X9X9X9X9X9X9X9X9X9X9X9X9X9X8XhXpXfX@X$ # # # $ c c # $ $ c c $ $ c c # # # # # @XfXuXhXX.i ~ ~ ~ p ~ p O ~ ~ ~ ~ p ~ p i ~ ~ ~ ~ ~ ~ p O ~ ~ ~ ~ p p p i ~ ~ ~ ~ p p p O ~ ~ ~ ~ ~ p ~ i p ~ ~ ~ p ~ ~ O ~ ~ ~ ~ ~ p ~ i G ~ ~ ~ 1 ) ",
"9X9X9X8X8X8X8X8X8X8X8X8X8X8X8X8X8X8X8X8XpX9X0X9X0X9X9X9X0X9X9X9X9X9X0X9X0X0X8X8X8X8X8X8X8X8X9X8X9X8X0X9X0X9X9X9X8X3X0X4X8X8X8X8X8X8X9X9X9X9X9X0X9X0X9X9X9X9X9X9X-X8X8X8X8X8X8X8X8X8X8X8X8X8X8X8X8X8X8X8X8XpX9X0X0X9X4X8X8X8X8X8X8X8X8X8X8X8X8X8X8X8X8X8X8X8X8X8X8X8X8X8X8X8X8X9X8X9X9X0X9X8X8X8X8X8X8X8X8X8X8X8X8X8X8X4XpXpXfX@X# % # # # # # # # # # # # # # # # # # % # @XfXpX0XPXIXIXIXIXIXIXPX-XIXIXIXIXIXIXIXKXIXIXIXIXIXIXIX=XIXIXIXIXIXIXIXKXIXIXIXIXIXIXIX=XIXIXIXIXIXIXIXKXIXIXIXIXIXIXIX=XIXIXIXIXIXIXIXLX%XIXIXIX+XyX",
"9X9X9X0X0X0X0X0X0X0X0X0X0X0X0X0X0X0X0X0X9X9X9X0X9X9X9X9X9X9X9X9X9X9X9X9X9X9X0X0X0X0X0X0X0X0X9X0X9X0X9X9X9X9X9X9X0X0X9X0X0X0X0X0X0X0X9X9X9X9X9X9X9X9X9X9X9X9X9X9XpX0X0X0X0X0X0X0X0X0X0X0X0X0X0X0X0X0X0X0X0X0X0X0X0X0X0X0X0X0X0X0X0X0X0X0X0X0X0X0X0X0X0X0X0X0X0X0X0X0X0X0X0X0X0X0X0X0X0X0X0X0X0X0X0X0X0X0X0X0X0X0X0X0X0X0XhXpXfX@Xc $ $ $ $ $ $ $ $ $ $ $ $ $ $ $ $ $ $ $ c @XfXpX0XZXDXSXDXDXSXDXjX9.KXSXDXDXSXDXZXhXDXSXDXDXSXDXZX9.GXSXDXDXSXDXSXhXDXSXDXDXDXDXSX9.DXSXDXDXDXSXDXhXSXDXSXDXDXSXDX9.SXDXDXDXDXSXDXjX&XAXSXPXZ.A ",
"hXhXhXhXhXhXhXhXhXhXhXhXhXhXhXhXhXhXhXhXhXhXhXhXhXhXhXhXhXhXhXhXhXhXhXhXhXhXhXhXhXhXhXhXhXhXhXhXhXhXhXhXhXhXhXhXhXhXhXhXhXhXhXhXhXhXhXhXhXhXhXhXhXhXhXhXhXhXhXhXhXhXhXhXhXhXpX0X0X0X0X0X0X0X0X0X0X0X0X0X0X0X0X0X0X0X0X0X0X0X0X0X0X0X0X0X0X0X0X0X0X0X0X0X0X0X0X0X0X0X0X0X0X0X0X0X0X0X0X0X0X0X0X0X0X0X0X0X0X0X0X0X0X0X0X0XhXpX9X<X+X+X+X+X+X+X+X+X+X+X+X+X+X+X+X+X+X+X+X+X+X<X9XpX0XSXKXGXGXGXGXKXZXn.KXDXGXGXGXKXSXhXKXGXGXGXGXKXSX9.KXDXGXGXGXKXDXhXKXGXGXGXGXGXDX9.KXGXGXGXGXGXKXhXDXGXGXGXGXGXKX9.DXGXGXGXGXGXKXjX%XSXGXIX*.K ",
"9X9X9X9X9X9X9X9X9X9X9X9X9X9X9X9X9X9X9X9X9X9X9X9X9X8X0XkXfXfXkX9X8X9X9X9X9X9X9X9X9X9X9X9X9X9X9X9X9X8XfXfX9XfXfX8X9X9X9X9X9X9X9X9X9X9X9X9X9X9X8X9XfXfX9XfX9X8X9X9X9X9X9X9X9X9X5.>.>.>.>.>.>.>.>.>.>.>.>.>.>.>.>.>.>.>.>.>.>.>.>.>.>.>.>.>.>.>.>.>.>.>.>.>.>.>.>.>.>.>.>.>.>.>.>.>.>.>.>.>.>.>.>.>.>.>.>.>.>.>.>.>.>.>.>.:.,XhX4X9XfX9XfXfXfXfXfXfXfXfXfXfXfXfXfXfXfXfXfX9XfX9X4XpX0XSXKXGXGXGXGXKXZXn.KXDXGXGXGXKXSXhXKXGXGXGXGXKXSX9.KXDXGXGXGXKXDXhXKXGXGXGXGXGXDX9.KXGXGXGXGXGXKXhXDXGXGXGXGXGXKX9.DXGXGXGXGXGXKXjX%XAXLXNXx rX",
"8X8X8X8X8X8X8X8X8X8X8X8X8X8X8X8X9X9X9X9X9X9X8X9X8XfX|.b 2 2 b 4X0X8X9X8X9X9X9X9X9X9X9X9X9X9X9X8X9XfXb.B M M b.fX8X8X9X9X9X9X9X9X9X9X9X9X9X8X9X8Xs.M M N XXfX8X9X8X9X9X8X8X9X2.:.>.>.>.>.>.>.>.>.>.>.>.>.>.>.>.>.>.>.>.>.>.>.>.>.>.>.>.>.>.>.>.>.:.>.:.>.>.>.>.>.>.>.>.>.>.>.>.>.>.>.>.>.>.>.>.>.>.>.>.>.>.>.>.>.>.>.>...>XCXhXhXpXhXhXhXhXhXhXhXhXhXhXhXhXhXhXhXhXhXhXhXpXhXhXhX0XSXKXGXGXGXGXKXZXn.KXDXGXGXGXKXSXhXKXGXGXGXGXKXSX9.KXDXGXGXGXKXDXhXKXGXGXGXGXGXDX9.KXGXGXGXGXGXKXhXDXGXGXGXGXGXKX9.DXGXGXGXGXGXKXjX%XDXHX&Xx OX",
"9X9X9X9X9X9X9X9X9X9X9X9X8X9X9X9X9X9X9X9X9X9X9X8XfXv.# b m.v.b # ,X9X8X9X9X9X9X9X9X9X9X9X9X9X9X8X9XN M @XOX@XM N fX8X9X9X9X9X9X9X9X9X9X9X8X9X3XM B +XOXs.M b.fX8X9X9X9X9X9X9X2.:.I.2X2X2X2X2X2X2X2X2X2X2X2X2X3X3X3X3X2X2X2X2X2X2X2X2X2X2X2X2X2X9.:.>.:.n.2X2X2X2X2X2X2X2X2X2X2X2X2X3X3X3X3X2X2X2X2X2X2X2X2X2X2X2X2X2X4...,XhX0X0X0X0X0X0X0X0X0X0X0X0X0X0X0X0X0X0X0X0X0X0X0X0X0XhX0XSXKXGXGXGXGXKXZXn.KXDXGXGXGXKXSXhXKXGXGXGXGXKXSX9.KXDXGXGXGXKXDXhXKXGXGXGXGXGXDX9.KXGXGXGXGXGXKXhXDXGXGXGXGXGXKX9.DXGXGXGXGXGXKXjX%XAXtX*Xx OX",
"hXhXhXhXhXhXhXhXhXhXpXhXhXhXhX9X8X9X9X9X9X9X8X9X,X# m.PXAXSXPXb 2 fX8X9X9X9X9X9X9X9X9X9X9X9X8XfXs.M kXAXJXfX3X$ *.kX8X9X9X9X9X9X9X9X9X9X8XfXB B JXAXAXJXOXM <X9X8X9X9X9X9X9X2.:.-X9X9X9X9X9X9X9X9X9X9X9X0X>X>XK.4.L.0X9X9X9X9X9X9X9X9X9X9X9X9X4.:.>.:.n.9X9X9X9X9X9X9X9X9X9X9X9X>XI.L.n.4.3X9X9X9X9X9X9X9X9X9X9X9X8X4...,XhX4X8X4X9XpX9X4X4X4X4X4X4X4X4X4X9X9X8X9X4X9X8X8X8X4XpX0XSXKXDXGXGXGXKXZXn.KXDXGXGXGXKXSXhXKXDXGXGXGXKXSX9.KXDXGXGXGXGXSXhXKXDXGXGXGXGXDX9.KXDXGXGXGXDXKXhXDXGXGXGXGXDXKX9.DXGXGXGXGXDXDXjX%X1XHX#Xx rX",
"hXhXhXhXhXhXhXhXhXhXhXCXhXhXhX0X8X9X9X9X9X9X4XkXb b JXpXhXhXhXhX# M.0X8X9X9X9X9X9X9X9X9X9X8X8X9XM +XAXhX4Xo #.v.2 fX8X9X9X9X9X9X9X9X9X8X9X<XM pXhXhXhX,XfXB s.fX8X9X9X9X9X9X2.:.-X9X8X8X8X8X8X8X8X8X8X8X0XL.5.K.5.4.0X8X8X8X8X8X8X8X8X8X8X8X8X4.:.>.:.n.9X8X8X8X8X8X8X8X8X8X4X0Xn.( X.-X .3X9X8X8X8X8X8X8X8X8X8X8X4X4...,XhX4X8X9X-X2.>X9X0X9X0X9X0X0X0X9XI.L.4X-X0XP.9X9X9X8XpX0XSXKXKXKXKXKXKXSXK.PXKXKXKXKXKXDXjXKXKXKXKXKXKXDXn.KXKXKXKXKXKXDXhXKXKXKXKXKXKXGX9.KXKXKXKXKXKXKXhXGXKXKXKXKXKXKX9.KXKXKXKXKXKXKXZX&X0XIXQ x rX",
"hXhXhXhXhXhXhXhXhXhXhXhX- X.DX9X8X9X9X9X9X9X4XkXb &.JXhXhXhXhXSXc *.kX8X9X9X9X9X9X9X9X9X9X8X9X4XM yXkXCX3X2.SX<X# 8X9X8X9X9X9X9X9X9X9X8XfX XM kXhXZX>Xo ' a.b kX4X9X9X9X9X9X2.:.-X9X8X8X8X8X8X8X8X8X8X8X9XI.5.4.K.3X9X8X8X8X8X8X8X8X8X8X8X8X8X4.:.>.:.n.9X8X8X8X8X8X8X8X8X8X8X9X-XP.K.4.I.9X8X8X8X8X8X8X8X8X8X8X9X4X4...,XhX4X4XhX2.a 5.2. .~ 5.| X. . .9X| ~ X.| ( ~ >X9X8X8XpX0XhXhXhXhXhXhXCX0X4.ZXhXhXhXhXhXhX0XjXhXhXhXhXjXhX5.ZXhXhXhXhXhXhX0XjXhXhXhXhXhXhX5.jXhXhXhXhXhXjX9XhXhXhXhXhXhXjX5.hXhXhXhXhXhXCX4X8.fXHXQ x OX",
"hXhXhXhXhXhXhXhXhXhXhX9X .5.CX9X8X9X9X9X9X9X4XkXb b IX2.a ZXhXAX2 v.fX8X9X9X9X9X9X9X9X9X9X8X9X9XM OXAXhXCXSXSXm.2 0X8X8X9X9X9X9X9X9X9X8X9XXXM hXhXhXhX4XJXb b kX4X9X9X9X9X9X2.:.-X0X9X9X9X9X9X9X9X9X9X9X9X9X0X0X0X9X9X9X9X9X9X9X9X9X9X9X9X9X9X9.:.>.:.K.9X9X9X9X9X9X9X9X9X9X9X9X9X0X0X0X0X9X9X9X9X9X9X9X9X9X9X9X9X9X4...,XhX4X4XpX2.u X.i > 2.i  .~ > | 2X .~ ( ~ X.O.K.0X8X8XpX0XZXDXSXSXSXSXDXhX9.KXSXSXSXSXDXZXhXDXSXSXSXSXDXZX9.GXSXSXSXSXSXSXhXDXSXSXSXSXSXSX9.DXSXSXSXSXSXDXhXSXSXSXSXSXSXDX9.SXSXSXSXSXDX0X3X%XCXLX! %.OX",
"hXhXhXhXhXhXhXhXhXhXhXhX-  .SX9X8X9X9X9X9X9X8X0XM.# 9X~ X.SXJXa.# 9X8X8X9X9X9X9X9X9X9X9X9X9X8XfXN B AXhXhXhXJX2 b kX4X9X9X9X9X9X9X9X9X8X8X9XM @XJXhXhXSX9X# m.fX8X9X9X9X9X9X2.:.K.L.L.L.L.L.L.L.L.L.L.L.L.L.L.L.L.L.L.L.L.L.L.L.L.L.L.L.L.L.P.5.:.>.:.9.P.L.L.L.L.L.L.L.L.L.L.L.L.L.L.L.L.L.L.L.L.L.L.L.L.L.L.L.L.P.5...,XhX4X8X0XP.I.2.X.5.P.K.~ ~ 4.n.0X| 9.9X .X.| 2X9X8X8XpX0XSXKXKXKXKXKXKXSXn.PXGXKXKXKXKXDXhXKXKXKXKXKXKXSX9.KXGXKXKXKXKXDXhXKXKXKXKXKXKXGX9.KXKXKXKXKXKXKXhXDXKXKXKXKXKXKX9.GXKXKXGXKXZX4XjX%XAXLX! %.rX",
"hXhXhXhXhXhXhXhXhXhXhXZX4XpXCX9X8X9X9X9X9X9X9X8XkXb c ZXhXAX{.# m.fX8X9X9X9X9X9X9X9X9X9X9X9X8X9X8XM s.kXpXAXb 2 9X9X8X9X9X9X9X9X9X9X9X9X8X9XXXM .XkXhXhX2 b kX8X9X9X9X9X9X9X2.:.:.:.:.:.:.:.:.:.:.:.:.:.:.:.:.:.:.:.:.:.:.:.:.:.:.:.:.:.:.:.:.>.>.>.>.:.:.:.:.:.:.:.:.:.:.:.:.:.:.:.:.:.:.:.:.:.:.:.:.:.:.:.:.:.:.:.>...,XhX4X9X8X9X9XpXpX0X9X9X2.L.hX9X9X2X8X9XpX0X2X9X8X9X8XpX0XSXKXGXGXGXGXKXZXn.KXDXGXGXGXKXSXhXKXGXGXGXGXKXSX9.KXDXGXGXGXKXDXhXKXGXGXGXGXGXDX9.KXGXGXGXGXGXKXhXDXGXGXGXGXGXKX9.DXGXDXKXSX3XDXZX%XSXGX! -.OX",
"hXhXhXhXhXhXhXhXhXhXhXhXhXhXhX0X8X9X9X9X9X9X9X9X8X9X X4X4X9X=XM.fX4X9X9X9X9X9X9X9X9X9X9X9X9X9X8X9X<XXX9X8X9Xc.,X9X8X9X9X9X9X9X9X9X9X9X9X9X8XfXXX<X9X9X4Xv.9X9X9X9X9X9X9X9X9X2.:.>.>.>.>.>.>.>.>.>.>.>.>.>.>.>.>.>.>.>.:.>.:.>.:.>.:.:.:.>.>.>.>.>.>.>.>.>.>.>.>.>.>.>.>.>.>.>.>.>.>.>.>.>.>.:.>.:.>.:.:.:.:.:.>.>.>.>...,XhX4X9X8X8X9XfXfX9X8X8X0X0X4X9X9X0X9X9X8X9X9X9X9X9X8XpX0XSXKXGXGXGXGXKXZXn.KXDXGXGXGXKXSXhXKXGXGXGXGXKXSX9.KXDXGXGXGXKXDXhXKXGXGXGXGXGXDX9.KXGXGXGXGXGXKXhXDXGXGXGXGXGXKX9.DXGXKXDX3XZXKXjX%XSXSXS *.OX",
"9X9X9X9X9X9X9X9X9X9X9X9X8X8X9X9X9X9X9X9X9X9X9X9X8XpXfX9XpX9XhXhXpX9X8X9X9X9X9X9X9X9X9X9X9X9X9X9X8X0XkX8X0X0XhXhX8X9X9X9X9X9X9X9X9X9X9X9X9X9X8XfX0X0X0X8XkX9X8X9X9X9X9X9X9X9X2.:.>.>.>.>.>.>.>.>.>.:.>.>.>.>.>.>.>.>.>.,.>.,.>.,.>.,.>.,.>.>.>.>.>.>.>.>.>.>.:.>.>.>.>.>.:.>.>.>.>.>.>.>.>.>.,.>.,.>.,.>.,.>.,.>.>.>.>...,XhX4X8X9XfX.Xs.b.<XfX8X4X8X9X3X3X2X2X2X3X>X3X-X3X9X8XpX0XSXKXGXGXGXGXKXZXn.KXDXGXGXGXKXSXhXKXGXGXGXGXKXSX9.KXDXGXGXGXKXDXhXKXGXGXGXGXGXDX9.KXGXGXGXGXGXKXhXDXGXGXGXGXGXKX9.DXGXKX4XhXKXDXjX%XDXAXS a.OX",
"hXhXhXhXhXhXhXhXhXpX0XhXpXpXhX9X8X9X9X9X9X9X9X8X9X2.P.9XX.P.2.P.O.4X9X8X9X9X9X9X9X9X9X9X9X9X9X8X9X-XX.0XK.5.n.5.0X8X9X9X9X9X9X9X9X9X9X9X9X8X0Xn.P.4.4.0XO.P.0X8X9X9X9X9X9X9X2.:.>.>.>.>.^ v v v ^ >.:.>.>.>.>.>.>.>.:./ ..u ^ u ^ i ~ i >.>.>.>.>.>.>.>.>.:.>.^ / v v ^ >.>.>.>.>.>.>.>.>...u ^ u ^ u ^ i ~ i >.:.>.>...,XhX4X9X9XN M B B M s.9X8X8XpX2.| X.~ ~ ~ ~ ~ ~ 2.0X4XpX0XSXKXGXGXGXGXKXZXn.KXDXGXGXGXKXSXhXKXGXGXGXGXKXSX9.KXDXGXGXGXKXDXhXKXGXGXGXGXGXDX9.KXGXGXGXGXGXKXhXDXGXGXGXGXGXKX9.DXKX9XpXKXDXKXjX%XDXmXS b.OX",
"hXhXhXhXhXhXhXhXhXhXhXCXSXZXhX0X8X9X9X9X9X9X8X0XL.( 2.n.| u X.u  .4.pX4X9X9X9X9X9X9X9X9X9X9X9X8X0XX.( K.O.~ p  .>X9X8X9X9X9X9X9X9X9X9X9X9X8XpX2.( X. .L.( X.9X8X9X9X9X9X9X9X2.:.>.>.>.v / M.=X<.v / >.:.>.>.>.>.>.>.:.O u u o u o u o u ^ >.:.>.>.>.>.>.:.>./ v 7.=Xq./ / >.>.>.>.>.>.>.>.>.i o u o u o u o u ^ >.:.>...,XhX4XfXB B hXAXAXsXM s.fX8X9X-X( 2.~ ( ~ X.i X. .9X4XpX0XSXKXGXGXGXGXKXZXn.KXDXGXGXGXKXSXhXKXGXGXGXGXKXSX9.KXDXGXGXGXKXDXhXKXGXGXGXGXGXDX9.KXGXGXGXGXGXKXhXDXGXGXGXGXGXKX9.KXpX9XKXDXGXKXjX%XGX7XS b.OX",
"hXhXhXhXhXhXhXhXhXhXhXZXa 2.SX9X8X9X9X9X9X9X8X0XL.|  .2. .u X.u  .5.pX4X9X9X9X9X9X9X9X9X9X9X9X8X0XO.| 2.X.~ ~  .-X9X8X9X9X9X9X9X9X9X9X9X9X8X0XI.| X.| 2.|  .9X8X9X9X9X9X9X9X2.:.>.>./ ^ ZXSXZXDX3X> ..>.>.>.>.>.>.:.,.u u u o u o u o u ^ ,.:.>.>.>.>.:.>.^ v 9XDXZXSXhX/ / >.:.>.>.>.>.>...O u u o u o u o u ^ >.:.>...,XhX9X XM kXkXhXpXkXyXM <X9X9X-X5.O.| |  .| X.~ 5.0X4XpX0XSXKXGXGXGXGXKXZXn.KXDXGXGXGXKXSXhXKXDXGXGXGXKXSX9.KXDXGXGXGXGXSXhXKXDXGXGXGXGXDX9.KXDXGXGXGXDXKXhXDXGXGXGXGXGXGXn.hX4XKXGXGXDXKXjX%XGX%X! b..X",
"hXhXhXhXhXhXhXhXhXhXhX9X( 2.CX9X8X9X9X9X9X9X9X8X9X2.4.P.O.L.O.P.X.4X9X8X9X9X9X9X9X9X9X9X9X9X9X8X9XI.X.L.4.2.9.5.0X8X9X9X9X9X9X9X9X9X9X9X9X8X9X>X-X4.5.P.2.L.0X8X9X9X9X9X9X9X2.:.>.:.v 3XZXpXhXCXSX<./ >.:.>.>.>.>.:.>.^ | u ^ u ^ u ~ u >.>.>.>.>.>.>.:.>.v q.DXpXhXpXSX,Xv >.>.>.>.>.:.>.^ > ~ u ^ u ~ i ~ u >.>.>.>...,XhXfXN B JXpXhXhXSXJXB b.fX8X9X0X8X9X0X9X9X0X9X9X9X8XpX0XSXKXKXKXKXKXKXSXK.PXGXKXKXKXKXDXjXKXKXKXKXKXKXDXn.KXGXKXKXKXKXDXhXKXKXKXKXKXKXGX9.KXKXKXKXKXKXKXhXDXKXKXKXKXGXKX9.3XKXKXKXKXKXKXZX%XLX&X! Z..X",
"hXhXhXhXhXhXhXhXhXhXhXhX-  .SX9X8X9X9X9X9X9X9X9X9XpX0X9XpX9XpX0XpX9X8X9X9X9X9X9X9X9X9X9X9X9X9X9X8X9XpX0XhXCXhX0X8X9X9X9X9X9X9X9X9X9X9X9X9X9X8X9X9X0X0X9XpX0X8X9X9X9X9X9X9X9X2.:.>...v pXhXCX8X-XDX=Xv >.:.>.>.>.>.>.>.>.>.2.>.2.>.,.>.,.>.>.>.>.>.>.>.>.>.v >XZXhXhXCXhX0Xv ..>.>.>.>.>.:.>.2.>.2.>.2.>.,.>.,.>.>.>.>...,XhXfXN B JXpXSX~ i kXB b.fX9X>X>X9X4X>X3X2X4X>X4X9X8XpXhX-X9.9.9.9.9.9.q.^ K.9.9.9.9.9.9.5.9.9.9.9.9.9.9.^ n.9.9.9.9.9.9.5.9.9.9.9.9.9.9.^ 9.9.9.9.9.9.9.5.9.9.9.9.9.9.9.9.9.9.9.9.9.9.9.4.;.n.U S e.*.",
"hXhXhXhXhXhXhXhXhXhXpXZXK.3XZX9X8X9X9X9X9X9X9X9X9X4X9X9X9X9X9X4X8X8X9X9X9X9X9X9X9X9X9X9X9X9X9X9X9X4XpXK.5.2.P.9X8X9X9X9X9X9X9X9X9X9X9X9X9X9X8X9X9X9X9X9X4X8X9X9X9X9X9X9X9X9X2.:.>...v 0XhXZX>Xo #.;X> >.:.>.>.>.>.>.>.:.>.^ ..^ >.:.:.:.>.>.>.>.>.>.>.>.>.v =XZXSX5.a SX8Xv :.>.>.>.>.>.>.:.:.>.^ ..^ >.:.:.:.>.>.>.>...,XhXfX XM AXhXCX>Xi ,XM <X9X9XK.~ K.p | ~ ~ ( ~ 2.0X4XpX0XSXGXDXDXDXDXGXZX9.KXDXDXDXDXGXSXhXGXDXDXDXDXGXSX9.KXDXDXDXDXDXSXhXGXDXDXDXDXDXDX9.GXDXDXDXDXDXGXhXSXDXDXDXDXDX3X9.GXDXDXDXDXDXDXjX&XLX#XQ Z..X",
"hXhXhXhXhXhXhXhXhXhXhXhXSXCXhX0X8X9X9X9X9X9X9X9X4XpX5.~ ~ 5.( -X9X8X9X9X9X9X9X9X9X9X9X9X9X9X9X9X8X0X9.p ~ i X.pX4X9X9X9X9X9X9X9X9X9X9X9X9X8X9X-X~ ~ 2. .5.0X8X9X9X9X9X9X9X9X2.:.>.>.v <.DXhXZX2X>Xv / >.:.>.>.>.>.>.>.:.,.O u > O ~ ,.:.>.>.>.>.>.>.>.:.>./ / SXZX8Xo 9X<.v >.:.>.>.>.>.>.>.:.>.O u > O ^ >.:.>.>.>.>...,XhX4X0XM B kXhXSXDXc b kX4X9X3XX.~ O 2.p X.i X. .9X4XpX0XSXKXGXGXGXGXKXZXn.LXDXGXGXGXKXSXhXKXGXGXGXGXKXSX9.KXGXGXGXGXKXDXhXKXGXGXGXGXKXDX9.KXGXGXGXGXGXKXhXDXKXGXGXKX4XhXn.DXKXGXGXGXGXKXZX&XLXQ Q Z..X",
"9X9X9X9X9X9X9X9X9X9X9X9X9X9X9X9X8X9X9X9X9X9X9X9X4XpXX.| | X.( 5.pX8X9X9X9X9X9X9X9X9X9X9X9X9X9X9X8X0X| | ~ p | 0X8X9X9X9X9X9X9X9X9X9X9X9X9X8XpXK.^  . . .| 0X8X9X9X9X9X9X9X9X2.:.>.>...> 9.hXhXCX/ + >.>.>.>.>.>.>.>.>.:.,.O > O O ..>.>.>.>.>.>.>.>.>.>.>.>.> ..hXhXhX7.> ..>.>.>.>.>.>.>.>.:.,.O > O > :.>.>.>.>.>.>...,XhX4X9X<XN 4X0XhXm.b 9X9X4XpX( ~ 5.~ | | (  .~ 2.0X4XpX0XSXKXGXGXGXGXKXZXn.KXDXGXGXGXKXSXhXKXGXGXGXGXKXSX9.KXDXGXGXGXKXDXhXKXGXGXGXGXGXDX9.KXGXGXGXGXGXKXhXDXKXDXKX0X0XKX9.DXGXGXGXGXGXKXjX&XLXQ Q Z..X",
"8X8X8X8X8X8X8X8X8X8X8X8X8X8X8X9X9X9X9X9X9X9X9X9X8X9XP.L.L.L.2.L.0X8X9X9X9X9X9X9X9X9X9X9X9X9X9X9X8X0XP. .n. .K.9X8X9X9X9X9X9X9X9X9X9X9X9X9X8X9X>XK.P.L.4.5.0X8X9X9X9X9X9X9X9X5.:.>.>.>...^ 2.5.>./ :.>.>.>.>.>.>.>.>.>.>.>.^ >.i u ..>.>.>.>.>.>.>.>.>.>.>.>.:.^ >.5.2.^ ..>.>.>.>.>.>.>.>.>.>.>.^ >.u u ..>.>.>.>.>.>...,XhX8X8X9XfX9X8X8X9XfX9X8X9X9X4X3X0XpX8X9X8X9X4X9X9X8XpX0XSXKXGXGXGXGXKXZXn.KXDXGXGXGXKXSXhXKXGXGXGXGXKXSX9.KXDXGXGXGXKXDXhXKXGXGXGXGXGXDX9.KXGXGXGXGXGXKXhXDXGXKXhX9XKXKX9.DXGXGXGXGXGXKXjX&XLXR #XZ..X",
"8X8X8X8X8X8X8X8X8X8X8X8X8X8X8X8X8X8X8X8X8X8X8X8X8X4X9X9X9X9X0X9X4X8X8X8X8X8X8X8X8X8X8X8X8X8X8X8X8X4X9XpX0X0X9X4X8X8X8X8X8X8X8X8X8X8X8X8X8X8X4X9X9X9X9X9X0X4X8X8X8X8X8X8X8X8X>...........:.......>.........................:...>.>.............................:.......:.........................:...>.>.................-XhX4X8X4X4X8X8X8X8X4X4X8X8X8X8X9X4X4X8X4X8X4X8X4X8X4XpX0XSXKXGXGXGXGXKXZXn.KXDXGXGXGXKXSXhXKXGXGXGXGXKXSX9.KXDXGXGXGXKXDXhXKXGXGXGXGXGXDX9.KXGXGXGXGXGXKXhXDXKXjX3XKXGXKX9.DXGXGXGXGXGXKXjX&XLXR *XZ..X",
"hXhXhXhXhXhXhXhXhXhXhXhXhXhXhXhXhXhXhXhXhXhXhXhXhXhXhXhXhXhXhXhXhXhXhXhXhXhXhXhXhXhXhXhXhXhXhXhXhXhXhXpXhXpXhXhXhXhXhXhXhXhXhXhXhXhXhXhXhXhXhXhXhXhXhXhXhXhXhXhXhXhXhXhXhXhX3X2X2X2X2X2X2X2X2X2X,X2X2X2X2X2X2X2X2X2X2X2X2X2X2X,X,X2X2X2X2X2X2X2X2X2X2X2X2X2X2X2X2X2X2X2X2X2X2X2X2X2X2X2X2X2X2X2X2X2X,X,X2X2X2X2X2X2X2X,X0XhXhXhXhXhXhXhXhXhXhXhXhXhXhXhXhXhXhXhXhXhXhXhXhXhXhXhX0XSXKXGXGXGXGXKXZXn.KXDXGXGXGXKXSXhXKXGXGXGXGXKXSX9.KXDXGXGXGXKXDXhXKXGXGXGXGXGXDX9.KXGXGXGXGXGXKXhXGXSX3XDXKXDXKX9.DXGXGXGXGXGXKXjX%XGXR *XZ..X",
"9X9X9X9X9X9X9X9X9X9X9X9X9X9X9X9X9X9X9X9X9X9X9X9X9X9X9X9X9X9X9X9X9X9X9X9X9X9X9X9X9X9X9X9X9X9X9X9X9X9X9X9X9X9X9X9X9X9X9X9X9X9X9X9X9X9X9X9X9X9X9X9X9X9X9X9X9X9X9X9X9X9X9X9X9X9X9X9X9X9X9X9X9X9X9X9X9X9X9X9X9X9X9X9X9X9X9X9X9X9X9X9X9X9X9X9X9X9X9X9X9X9X9X9X9X9X9X9X9X9X9X9X9X9X9X9X9X9X9X9X9X9X9X9X9X9X9X9X9X9X9X9X9X9X9X0X9X8X9X9X9X9X9X9X9X9X9X9X9X9X9X9X9X9X9X9X9X9X9X9X9X9X8XhX0XSXKXGXGXGXGXKXZXn.KXDXGXGXGXKXSXhXKXDXGXGXGXKXSX9.KXDXGXGXGXGXSXhXKXDXGXGXGXGXDX9.KXDXGXGXGXDXKXhXSX3XZXKXDXDXKX9.DXGXGXGXGXDXKXjX%XDXS *Xb..X",
"L.L.L.L.L.L.L.L.L.L.L.L.L.L.L.L.L.L.L.L.L.L.L.L.L.L.L.L.L.L.L.L.L.L.L.L.L.L.L.L.L.L.L.L.L.L.L.L.L.L.L.L.L.L.L.L.L.L.L.L.L.L.L.L.L.L.L.L.L.L.L.L.L.L.L.L.L.L.L.L.L.L.L.L.L.L.L.L.L.L.L.L.L.L.L.L.L.L.L.L.L.L.L.L.L.L.L.L.L.L.L.L.L.L.L.L.L.L.L.L.L.L.L.L.L.L.L.L.L.L.L.L.L.L.L.L.L.L.L.L.L.L.L.L.L.L.L.L.L.L.L.L.L.L.L.K.L.L.L.L.L.L.L.L.L.L.L.L.L.L.L.L.L.L.L.L.L.L.L.L.L.L.K.4XpXSXKXKXKXKXKXKXSXK.PXKXKXKXKXKXDXjXKXKXKXKXKXKXDXn.KXKXKXKXKXKXDXhXKXKXKXKXKXKXGX9.KXKXKXKXKXKXKXhX4XZXKXKXKXKXKX9.KXKXKXKXKXKXKXZX%XSXS VXb..X",
"P.P.P.P.P.P.P.P.P.P.P.P.P.P.P.P.P.P.P.P.P.P.P.P.P.P.P.P.P.P.P.P.P.P.P.P.P.P.P.P.P.P.P.P.P.P.P.P.P.P.P.P.P.P.P.P.P.P.P.P.P.P.P.P.P.P.P.P.P.P.P.P.P.P.P.P.P.P.P.P.P.P.P.P.P.P.P.P.P.P.P.P.P.P.P.P.P.P.P.P.P.P.P.P.P.P.P.P.P.P.P.P.P.P.P.P.P.P.P.P.P.P.P.P.P.P.P.P.P.P.P.P.P.P.P.P.P.P.P.P.P.P.P.P.P.P.P.P.P.P.P.P.P.P.P.P.P.P.P.P.P.P.P.P.P.P.P.P.P.P.P.P.P.P.P.P.P.P.P.P.P.P.L.8XpXhXZXZXZXZXZXSXhX9.SXCXZXZXZXZXhXpXZXZXZXZXZXZXhXq.SXCXZXZXZXZXhXpXZXZXZXZXZXZXCX4.ZXZXZXZXZXZXSX3X4XSXCXZXZXZXZX4.CXZXZXZXZXZXZXhX&XfXS VXb.V.",
"P.P.P.P.P.P.P.P.P.P.P.P.P.P.P.P.P.P.P.P.P.P.P.P.P.P.P.P.P.P.P.P.P.P.P.P.P.P.P.P.P.P.P.P.P.P.P.P.P.P.P.P.P.P.P.P.P.P.P.P.P.P.P.P.P.P.P.P.P.P.P.P.P.P.P.P.P.P.P.P.P.P.P.P.P.P.P.P.P.P.P.P.P.P.P.P.P.P.P.P.P.P.P.P.P.P.P.P.P.P.P.P.P.P.P.P.P.P.P.P.P.P.P.P.P.P.P.P.P.P.P.P.P.P.P.P.P.P.P.P.P.P.P.P.P.P.P.P.P.P.P.P.P.P.P.P.P.P.P.P.P.P.P.P.P.P.P.P.P.P.P.P.P.P.P.P.P.P.P.P.P.P.L.8XpXjXZXZXZXZXZXSXhX9.DXZXZXZXZXZXhXpXSXZXZXZXZXSXhX9.SXZXZXZXZXZXjXpXSXZXZXZXZXZXZXq.SXZXZXZXZXSX8X2XSXZXZXZXZXZXSXq.ZXZXZXZXZXZXZXhX&X7XS BXb. X",
"L.L.L.L.L.L.L.L.L.L.L.L.L.L.L.L.L.L.L.L.L.L.L.L.L.L.L.L.L.L.L.L.L.L.L.L.L.L.L.L.L.L.L.L.L.L.L.L.L.L.L.L.L.L.L.L.L.L.L.L.L.L.L.L.L.L.L.L.L.L.L.L.L.L.L.L.L.L.L.L.L.L.L.L.L.L.L.L.L.L.L.L.L.L.L.L.L.L.L.L.L.L.L.L.L.L.L.L.L.L.L.L.L.L.L.L.L.L.L.L.L.L.L.L.L.L.L.L.L.L.L.L.L.L.L.L.L.L.L.L.L.L.L.L.L.L.L.L.L.L.L.L.L.L.L.L.L.L.L.L.L.L.L.L.L.L.L.L.L.L.L.L.L.L.L.L.L.L.L.L.L.P.K.4XpXSXKXKXKXKXKXKXSXK.PXKXKXKXKXKXDXjXKXKXKXKXKXKXDXn.KXKXKXKXKXKXDXhXKXKXKXKXKXKXGX9.KXKXKXKXKXhX9XhXDXKXKXKXKXKXKX9.KXKXKXKXKXKXKXZX%XzXS PXb.OX",
"-X-X-X-X-X-X-X-X-X-X-X-X-X-X-X-X-X-X-X-X-X-X-X-X-X-X-X-X-X-X-X-X-X-X-X-X-X-X-X-X-X-X-X-X-X-X-X-X-X-X-X-X-X-X-X-X-X-X-X-X-X-X-X-X-X-X-X-X-X-X-X-X-X-X-X-X-X-X-X-X-X-X-X-X-X-X-X-X-X-X-X-X-X-X-X-X-X-X-X-X-X-X-X-X-X-X-X-X-X-X-X-X-X-X-X-X-X-X-X-X-X-X-X-X-X-X-X-X-X-X-X-X-X-X-X-X-X-X-X-X-X-X-X-X-X-X-X-X-X-X-X-X-X-X-X-X-X-X-X-X-X-X-X-X-X-X-X-X-X-X-X-X-X-X-X-X-X-X-X-X-X-X-X9X0XSXKXGXGXGXGXKXZXn.KXDXGXGXGXKXSXhXKXDXGXGXGXKXSX9.KXDXGXGXGXGXSXhXKXDXGXGXGXGXDX9.KXDXDXKXZX3XKXhXDXGXGXGXGXDXKX9.DXGXGXGXGXDXKXjX%X%XS IXb..X",
"9X9X9X9X9X9X9X9X9X9X9X9X9X9X9X9X9X9X9X9X9X9X9X9X9X9X9X9X9X9X9X9X9X9X9X9X9X9X9X9X9X9X9X9X9X9X9X9X9X9X9X9X9X9X9X9X9X9X9X9X9X9X9X9X9X9X9X9X9X9X9X9X9X9X9X9X9X9X9X9X9X9X9X9X9X9X9X9X9X9X9X9X9X9X9X9X9X9X9X9X9XpX0X9X9X8X9X9X9X8X9X9X9X9X9X9X9X9X9X9X9X9X9X9X9X9X9X9X9X9X9X9X9X9X9X9X9X9X0X9X0XpXhX0X0X0X0X0X0XpX3X0X0X9X9X9X9X9X9X9X9X9X9X9X9X9X9X9X9X9X9X9X9X9X9X9X9X9X9X9X9X9X9XhX0XSXKXGXGXGXGXKXZXn.KXDXGXGXGXKXSXhXKXGXGXGXGXKXSX9.KXDXGXGXGXKXDXhXKXGXGXGXGXGXDX9.KXDXKXSX3XSXKXhXDXGXGXGXGXGXKX9.DXGXGXGXGXGXKXjX7X*XS IXb..X",
"8X8X8X8X8X8X8X8X8X8X8X8X8X8X8X8X8X8X8X8X8X8X8X8X8X8X8X8X8X8X8X8X8X8X8X8X8X8X8X8X8X8X8X8X8X8X8X8X8X8X8X8X8X8X8X8X8X8X8X8X8X8X8X8X8X8X8X8X8X8X8X8X8X8X8X8X8X8X8X8X8X8X8X8X8X8X8X8X8X8X8X8X8X8X8X8X8X8X8X8X9X9.>X0X0XpX0X9X0X0X9X8X8X8X8X8X8X8X8X8X8X8X8X8X8X8X8X8X8X8X8X8X8X8X9X3X5.P.2.9XP.K.O.>X-X-X-X-X>XL.P.P.-X9X8X8X8X8X8X8X8X8X8X8X8X8X8X8X8X8X8X8X8X8X8X8X8X8X8X8X8X9X4XpX0XSXKXGXGXGXGXKXZXn.KXDXGXGXGXKXSXhXKXGXGXGXGXKXSX9.KXDXGXGXGXKXDXhXKXGXGXGXGXGXDX9.KXGXGX3XZXKXKXhXDXGXGXGXGXGXKX9.DXGXGXGXGXGXKXjX7X#XR IXb.OX",
"8X8X9X9X9X9X9X9X9X8X8X8X8X8X9X9X8X8X8X8X9X9X8X8X8X8X9X9X9X9X4X8X8X8X8X9X8X8X8X8X8X8X8X9X9X9X9X9X9X9X9X9X8X8X8X8X8X8X8X8X9X8X9X9X9X9X9X9X9X8X8X8X8X8X9X8X8X8X8X8X8X8X9X9X9X9X9X9X9X9X9X9X9X9X9X9X9X9X4XpX2. .4.P.9.X.5.P.5.X.4X9X8X9X9X9X9X9X9X9X9X9X9X9X9X9X9X9X9X9X9X9X9X8X9X4Xi ~ u  .~ ( ~ ~ u i 2.u i ( | ~ 4.0X8X9X9X9X9X9X9X9X9X9X9X9X9X9X9X8X8X8X8X8X9X8X8X9X9X9X9X9X8XpX0XSXKXGXGXGXGXKXZXn.KXDXGXGXGXKXSXhXKXGXGXGXGXKXSX9.KXDXGXGXGXKXDXhXKXGXGXGXGXGXDX9.KXKX4XhXKXDXKXhXDXGXGXGXGXGXKX9.DXGXGXGXGXGXKXjX7X#XR IXb.OX",
"9X9X8X9X9X9X9X9X9X0X0X9X9X9X9X8X9X9X9XpX8X4X0X8X0X9X8X9X9X8XpX9X0X9X9X4X9X9X9X9X9X9X9X8X9X9X9X9X9X9X9X8X0X9X0X0X9X9X9X9X4X9X8X9X9X9X9X9X8X9X0X0X9X9X4X9X9X9X9X9X9X9X8X9X9X9X9X9X9X9X9X9X9X9X9X9X9X9X4XhX( 2X9. ./  .X.i u u -X9X8X9X9X9X9X9X9X9X9X9X9X9X9X9X9X9X9X9X9X9X9X9X9X3X .4. .i K.i | ~ ( X.L.i 5.~ ~ X.| pX4X9X9X9X9X9X9X9X9X9X9X9X9X9X8X9X9X9X9X9X4X9X9X8X9X9X9X9X8XpX0XSXKXGXGXGXGXKXZXn.KXDXGXGXGXKXSXhXKXGXGXGXGXKXSX9.KXDXGXGXGXKXDXhXKXGXGXGXGXGXDX9.KX9X0XKXDXGXKXhXDXGXGXGXGXGXKX9.DXGXGXGXGXGXKXjX7XQ Q IXb.OX",
"2X2X9X8X9X9X9X8X9XX. .3X3X0X .L.9X8X-X4.L.3X-X9X-X4X9X9X4XpX .-XX.L.4XO.2X3X3X4X4X2X-X9X8X9X9X9X9X9X8X0X2.P.4.4.>X2X9X5.5.9X8X8X9X9X9X8X9X3X( 2.8X-XO.8X3X>X4X>X3X3X9X8X9X9X9X9X9X9X9X9X9X9X9X9X9X9X8X0XP.( 4.~  .P.I. .n. .9X9X8X9X9X9X9X9X9X9X9X9X9X9X9X9X9X9X9X9X9X9X9X9X9X8X3X0X5.2.3X-X>X2X-X3X9X-X-X-X3XP.2X9X8X9X9X9X9X9X9X9X9X9X9X9X9X8X0XP.I.L.I.4X2.>X2.9.pX8X9X9X8XpX0XSXKXKXKXKXKXKXSXn.PXGXKXKXKXKXDXjXKXKXKXKXKXKXSX9.KXGXKXKXKXKXDXhXKXKXKXKXKXKXDXn.hX9XKXGXKXKXKXhXDXKXKXKXKXKXKX9.GXKXKXKXKXKXKXjX7XQ Q IXb.OX",
"~ L.0X8X9X9X9X8X0Xp p ( u ( ~ ( n.~ O.p  .| | | p 2.pX4X4XhXi | u 2.~ u | ( u X.5.~ ~ P.0X8X9X9X9X8X9X3X> | ~ p n.p ( 2.u L.0X8X9X9X9X8X9X2Xu ~ ~ i ( p |  .p | ( u 2X9X8X9X9X9X9X9X4X4X8X9X8X9X8X9X9X8X9X9X9X0X0X9X9X0X9X9X8X8X4X8X9X9X8X9X8X9X9X9X9X9X9X9X9X9X9X4X4X8X9X8X8X9X9X9X>X4X0X9X9X9X0X9X8X9X0X9X0XhX9X4X8X4X8X4X8X9X9X9X9X9X9X9X9X8XpXn.p ~ ~  .( | p 4.pX4X9X9X8XpX0XZXDXSXSXSXSXDXhX9.KXSXSXSXSXDXZXhXDXSXSXSXSXDXZX9.GXSXSXSXSXDXSXhXDXSXSXSXSXSXDX9.3XDXSXSXSXSXDXhXSXDXSXSXSXSXDX9.SXSXSXSXSXSXDXhX7XR #XIXb..X",
"| X.pX4X9X9X9X8X9X~ ( i ~ ~ ( ~ ~ i 5.X.| ~  .~ 2.X.pX4X8X9XX.u ~ p u a ~ i ~ ~ ~ ~ ~ K.0X8X9X9X9X4XpX2.~ ~ |  .( > i 4.O n.0X8X9X9X9X8X9X>X~ | i ( ~ i ( u ~ ( a ~ 3X9X8X9X9X9X9X9XpXpX9X9X9X9X9X8X9X9X9X8X8X8X8X8X8X8X8X9X9X0XpX9X9X8X9X8X9X8X9X9X9X9X9X9X9X9X9XpXpX9X9X9X9X9X8X9X0X9X8X8X8X8X8X8X9X8X8X9XL.K.0X0X0XpX9XpX9X8X9X9X9X9X9X9X9X8XpX9. .| ~  .~ ( ~ 4.pX4X9X9X8XpXhX-X9.9.9.9.9.n.q.^ K.9.9.9.9.9.9.5.n.9.9.9.9.9.9.^ K.9.9.9.9.9.9.5.n.9.9.9.9.9.9.n.9.9.9.9.9.9.9.5.9.9.9.9.9.9.9.^ 9.9.9.9.9.9.9.4.;.S U I.&.*.",
"n.>X9X8X9X9X9X9X8X2X2XI.P.-X4.>X4.2Xn.L.L.2X9.3X>X>X9X8X8X9X>X-X>XL.K.>X-XP.I.L.L.~ 4.9X8X9X9X9X9X8X9X-X0X-XK.L.n.P.-X4.2X-X9X8X9X9X9X9X9X3X2X>XP.L.2XI.P.K.P.K.-XK.9X9X9X9X9X8X9X4X .| 2.0X8X4X9X0X3XX.3X9X8X9X9X9X9X9X9X9X9X5.| 3X8X9X3X0X8X9X8X9X9X9X9X9X8X9X4X .| O.0X8X4X9X0X4XX.3X9X8X9X9X9X9X9X9X8X9X9.i 5.5.4.X.I.X.2X9X8X9X9X9X9X9X9X8X9X3X3X3XP.K.3X-X4.3X9X8X9X9X8XpX0XDXKXKXKXKXKXKXSXK.PXKXKXKXKXKXDXZXKXKXKXKXKXKXDXn.PXKXKXKXKXKXGXCXKXKXKXKXKXKX3X9.PXKXKXKXKXKXKXjXKXKXKXKXKXKXKXn.KXKXKXKXKXKXKXSX7XS %XIXb.OX",
"0X9X8X9X9X9X9X9X9X9X9X0X0X9XpX9XpX9X0X0X0X9XpX9X9X9X8X9X9X9X9X9X9X0X0X9X9X0X0X0XpX2X0X9X9X9X9X9X9X9X8X9X8X9X0X0X0X0X9XpX9X9X8X9X9X9X9X9X8X9X9X9X0X0X9X0X0X0X0X0X9X0X9X9X9X9X9X9X8XpXX.X.i  .( 2.~ ~  .p ~ 2X9X8X9X9X9X9X9X8X0XL.~  .X.| ~ O.i -X0X8X9X9X9X9X9X8XpXX.X.i  .( 2.~ ~  .~ ~ 2X9X8X9X9X9X9X9X8XpX5.2. .| p  .u u K.0X8X9X9X9X9X9X9X9X8X9X9X9X0X0X9X9XpX9X8X9X9X9X8XpX0XSXGXDXDXDXDXKXZX9.KXDXDXDXDXGXSXhXKXDXDXDXDXGXSX9.KXDXDXDXDXGXSXhXKXDXDXDXKX4XhXn.GXDXDXDXDXDXKXhXDXGXDXDXDXDXGX9.DXGXDXDXDXDXDXjX%XS 7XIXb..X",
"8X8X9X9X9X9X9X9X9X8X8X8X8X8X8X8X4X8X8X8X8X8X8X8X8X8X9X9X9X9X8X8X8X8X8X8X8X8X8X8X8X9X8X9X9X9X9X9X9X9X9X8X8X8X8X8X8X8X8X8X8X8X9X9X9X9X9X9X9X8X8X8X8X8X8X8X8X8X8X8X8X8X9X9X9X9X9X9X4XhX5.O.O.| ~ 4.> X.~ ( X.K.0X8X9X9X9X9X9X8X0X~ 2.| ( ~ 2.u i -X0X8X9X9X9X9X9X4XpX5.O.O.| ~ 9.> X.~ ~ X.n.pX8X9X9X9X9X8X8X9X~ X. .X.4.n.X. .3X9X8X9X9X9X9X9X9X9X9X8X8X8X8X8X8X8X8X8X9X9X9X9X8XpX0XSXKXGXGXGXGXKXZXn.KXDXGXGXGXKXSXhXKXGXGXGXGXKXSX9.KXDXGXGXGXKXDXhXKXGXGXKX9XhXKX9.KXGXGXGXGXGXKXhXDXGXGXGXGXGXKX9.DXGXGXGXGXGXDXHX&XS NXIXb.OX",
"9X9X9X9X9X9X9X9X9X9X9X9X9X9X9X9X9X9X9X9X9X9X9X9X9X9X9X9X9X9X9X9X9X9X9X9X9X9X9X9X9X8X9X9X9X9X9X9X9X9X9X9X9X9X9X9X9X9X9X9X9X9X9X9X9X9X9X9X9X9X9X9X9X9X9X9X9X9X9X9X9X9X9X9X9X9X9X9X8X9X-XI.-XP.L.8X4.L.5.L.I.2X9X8X9X9X9X9X9X9X8XO.5.4.n.-XI.P.4.4X9X9X9X9X9X9X9X8X9X-XI.-XP.L.8X4.L.5.L.I.2X9X8X9X9X9X9X9X9X9X9X4X9X9X0X9X0X8X8X9X9X9X9X9X9X9X9X9X9X9X9X9X9X9X9X9X9X9X9X9X9X9X8XpX0XSXKXGXGXGXGXKXZXn.KXDXGXGXGXKXSXhXKXGXGXGXGXKXSX9.KXDXGXGXGXKXDXhXKXDXKX0X9XKXDX9.KXGXGXGXGXGXKXhXDXGXGXGXGXGXKX9.DXGXGXGXGXDXKXqXJ z %XIXb..X",
"8X8X8X8X8X8X8X8X8X8X8X8X8X8X8X8X8X8X8X8X8X8X8X8X8X8X8X8X8X8X8X8X8X8X8X8X8X8X8X8X8X8X8X8X8X8X8X8X8X8X8X8X8X8X8X8X8X8X8X8X8X8X8X8X8X8X8X8X8X8X8X8X8X8X8X8X8X8X8X8X8X8X8X8X8X8X8X8X8X8X9X9X9X9X0X8X0X9X0X0X9X9X8X8X8X8X8X8X8X8X8XpX0X0X0X9X9X9X0X8X8X8X8X8X8X4X4X8X4X9X9X9X9X9X8X0X9X0X9X9X9X4X4X4X4X4X4X4X4X4X4X8X4X4X4X4X4X8X8X4X4X4X4X8X8X8X8X8X8X8X8X8X8X8X8X8X8X8X8X8X8X8X4XpX0XSXKXGXGXGXGXKXZXn.KXDXGXGXGXKXSXhXKXGXGXGXGXKXSX9.KXDXGXGXGXKXDXhXKXKXhX4XKXGXDX9.KXGXGXGXGXGXKXhXDXGXGXGXGXGXKX9.DXGXGXGXGXDXPX8.z D K IXb..X",
"hXhXhXhXhXhXhXhXhXhXhXhXhXhXhXhXhXpXhXhXhXhXhXhXhXhXhXhXhXhXhXhXhXhXhXhXpXpXhXhXhXhXhXhXhXhXhXhXhXhXhXhXhXhXhXhXpXhXhXhXhXhXhXhXhXhXhXhXhXhXhXhXhXhXhXhXhXhXhXhXhXhXhXhXhXhXhXhXhXhXhXhXhXhXpXpXpXhXhXhXhXhXhXhXhXhXhXhXhXhXhXpXhXpXpXpXhXhXhXhXhXhXhXhXhXhXhXhXhXhXhXhXhXhXhXhXhXhXhXhXhXhXhXhXhXhXhXhXhXhXhXhXhXhXhXhXhXhXhXhXhXhXhXhXhXhXhXhXhXhXhXhXhXpXpXhXhXhXhXhXhXhXhXhX0XSXKXGXGXGXGXKXZXn.KXDXGXGXGXKXSXhXKXGXGXGXGXKXSX9.KXDXGXGXGXKXDXhXKXZX3XGXKXGXDX9.KXGXGXGXGXGXKXhXDXGXGXGXGXGXKX9.DXGXGXGXGXDXKX7XA z &XIXb..X",
"0X0X0X0X0X0XpXpXpXpXpXpXpXpX0X0XkXkXkX0X0XpXpXpXpXpXpXpXpXpXpXpXpXpXpXhXkXkXhX0XpXpXpXpXpXpXpXpXpXpXpXpXpX0X0XhXkXhXpX0XpXpXpXpXpXpXpXpXpXpXpXpXpX0XpXjXjXpX0X0XpXpXpXpXpXpXpXpXpXpXpXpX0X0XhXkXhXpX0XpXpXpXpXpXpXpXpXpXpXpXpXpXpXpXkXkXhXpXpXpXpXpX0XpX9X=X=X=X=X=X=X=X=X-X-X-X=X=X=X=X=X=X=X=X=X=X=X=X=X=X=X=X=X-X-X-X=X=X=X=X=X=X=X-X0XpXpXpXpXpX0X0XhXkXkXpX0XpXpXpXpXpX0XhX0XSXKXDXGXGXGXKXZXn.KXDXGXGXGXKXSXhXKXDXGXGXGXKXSX9.KXDXGXGXGXGXSXjXDX3XSXKXDXGXDX9.KXDXGXGXGXDXKXhXDXGXGXGXGXDXKX9.DXGXGXGXGXDXDXHXI Q LXPXb..X",
"9X9X9X9X9X9X8X8X8X8X8X8X8X4X9XfXM.*.m.0X9X4X8X8X8X8X8X8X8X8X8X8X8X4XfX4Xb.v.,XfX8X8X8X8X8X8X8X8X8X8X8X8X4X9X0X<Xb. X9X9X4X8X8X8X8X8X8X8X8X8X8X8X4XsX3XH.H.1XaX8X8X8X8X8X8X8X8X8X8X8X8X4X9XfX<Xb.V.9X9X4X8X8X8X8X8X8X8X8X8X8X8X4XfX4X X X<XfX8X8X8X8X8X9X2X..............>.^ / / :.>...........................>.../ / ^ >.............>.4X8X8X8X8X4X9XfX=X*.c.9XfX4X8X8X8X8X4XpX0XSXKXKXKXKXKXKXSXK.PXKXKXKXKXKXDXjXKXKXKXKXKXKXDXn.KXKXKXKXKXKXDXhX4XSXKXKXKXKXKX9.KXKXKXKXKXKXKXhXGXKXKXKXKXKXKX9.KXKXKXKXKXDXLX#XS KXGXIXb.OX",
"3X2X2X2X2X3X9X9X9X9X9X9X8X0X;X2 # 2 # 2 =X0X8X9X9X9X9X9X9X9X9X9X8XfXs.M M c # b fX8X9X9X9X9X9X9X9X9X9X8X9X<Xm m m m m <X9X8X9X9X9X9X9X9X9X9X9X8XaX[ t t t t H uX9X9X9X9X9X9X9X9X9X9X8X9X3Xm m m m m <X0X8X9X9X9X9X9X9X9X9X9X8XfXb.M M M M N 9X9X9X9X8X9X3X>.>.>.>.>.>...+ + + + + ^ 2.>.>.>.>.>.>.>.>.>.>.>.2./ + O O + > >.>.>.>.>.>.2.8X9X9X9X8X9X4Xb # 2 # # c.fX8X9X9X9X8XpX0XhXCXjXjXjXjXZXpXq.SXhXjXjXjXCXhX0XZXjXjXjXjXZXhX4.ZXhXjXjXjXjXZX>X9XZXhXjXjXCXhX4.ZXjXjXjXjXjXZX0XhXCXjXjXjXjXZX5.hXCXjXjXhXHX&XD #XjXhXJXb.V.",
"-X3X3X3X2X-X8X9X9X9X9X8X9X,X# b hXAXhX&.# ,X9X8X9X9X9X9X9X9X9X8XfXs.M yX2X-X6X# b kX8X9X9X9X9X9X9X9X8X9X3Xm s.hXAXhXb.m <X9X8X9X9X9X9X9X9X9X4XaXH t $XZXZX1Xt Y aX8X9X9X9X9X9X9X9X8X9X4Xm s.hXAXhXb.c <X9X8X9X9X9X9X9X9X9X8XfXb.M OXAXkXsXM N fX8X9X8X9X2X>.>.>.>.>.:.+ O ..>.:.> @ ^ >.:.>.>.>.>.>.>.>.:.>./ + / :.:.^ O O >.:.>.>.:.2.8X9X8X8X9X9X2 b pXAXkXa.# m.fX8X9X9X8XpX0XZXSXSXSXSXSXSXhX9.DXZXSXSXSXSXZXhXSXSXSXSXSXSXCX9.DXSXSXSXSXDX3X8XDXSXSXSXSXSXZX9.SXSXSXSXSXSXSXpXZXSXSXSXSXSXSX9.SXSXSXAXGX7XD %XwXNXSXJXb..X",
"3X2X4.4.9X>X8X9X9X9X9X4XkXb b IXSXhXhXPXb b kX4X9X9X9X9X9X9X8X9X<XM yXPXp a IX8X# |.0X8X9X9X9X9X9X9X8XfXs.N JXhXhXCXfXs.b fX8X9X9X9X9X9X9X8X9X1Xt 1XHXhXCXIXCXt F.uX8X9X9X9X9X9X9X8XfXs.m JXhXhXhXJXs.m fX8X9X9X9X9X9X9X8X9X4XM yXJXhXhXkXhXM XXfX8X8X9X2X>.>.>.:.2.> + 1.:.....2.O + 2.:.>.>.>.>.>.>.>.>.:.+ / >.....:.:.+ ^ >.:.>.:.2.8X9X8X4XkX&.2 JXhXpXhXPX&.2 fX8X9X9X8XpX0XSXKXKXKXKXKXKXSXK.PXGXKXKXKXKXDXjXKXKXKXKXKXKXDXn.KXKXKXKXKXhX4XCXKXKXKXKXKXKXGX9.KXKXKXKXKXKXKXhXDXKXKXKXKXKXKX9.GXKXGXLXAXD #XLX&XDXGXIXb.OX",
"2X>X~ | 9X-X8X9X9X9X8X9X9X# {.8XP.hXhXAX<X# 9X9X8X9X9X9X9X9X8XfXb.B AXZXn.5.CXJXb &.kX4X9X9X9X9X9X9X8X9Xm .XAXhXhXa - =X% 4X9X8X9X9X9X9X9X4XaXH.t HXfXCX2Xi j.Y H aX4X9X9X9X9X9X9X8X0Xm .XAXhXCXSXkXsXm 4X9X8X9X9X9X9X9X8XfX@XM AXhXhXCXSXJXB N fX8X8X9X2X>.>.>.:.2.+ u >.......,.^ + ..>.>.>.>.>.>.>.:.>.^ + :.....:.,.,.> > 2.:.>.:.2.8X9X8X8XkX2 a.JXhXSXhXhX0X# ;X9X8X9X8XpX0XSXKXGXGXGXGXKXZXn.KXDXGXGXGXKXSXhXKXDXGXGXGXKXSX9.KXDXDXKXhX4XDXhXKXDXGXGXGXGXDX9.KXGXGXGXGXGXKXhXDXGXGXGXGXGXKX9.DXDXGXKXS Q LXhX%XAXGXIXb..X",
">X4Xn.L.9X-X8X9X9X9X8X9X8Xc XX- - hXhXCX<X# 3X9X8X9X9X9X9X9X8XfXs.B AXpXSXSXpXJXb b kX4X9X9X9X9X9X8X9X9Xm <XAXhXhXn.0X8X% ,X9X8X9X9X9X9X9X4XaX;.t HXfXZXI.a U.G w ZX4X9X9X9X9X9X9X8X9Xm .XAXCX3X{ hXuXm <X9X8X9X9X9X9X9X8XfXb.B AXpXSX5.a fX@XN fX8X8X9X2X>.>.>.:.,.+ / >...:.o o ..+ ^ >.:.>.>.>.>.>.:.>./ O >...,.u o | v O 2.:.>.:.2.8X9X8X8XhX2 v.JX3XK.CXhXpX# M.0X8X9X8XpX0XSXKXGXGXGXGXKXZXn.KXDXGXGXGXKXSXhXKXGXGXGXGXKXSX9.KXDXKXSX3XDXDXhXKXGXGXGXGXGXDX9.KXGXGXGXGXGXKXhXDXGXGXGXGXGXKX9.DXDXLXR R LXDXjX%XSXGXIXb.OX",
"-X9X9X9X4X-X8X9X9X9X9X8XfXM @XkXhXhXpXJXa.2 fX8X8X9X9X9X9X9X8XfXXXM hXkXhXhXhXSX2 v.fX8X9X9X9X9X9X9X8XfXm a.JXhXhXZXPXv.2 fX8X8X9X9X9X9X9X8XuXF.t hXZXhXCXKXLXX [ hX4X9X9X9X9X9X9X8XfXm s.JXhXpXo @.rXm 9X8X8X9X9X9X9X9X8X9X<XM pXkXhX9Xi U.B b.fX8X8X9X2X>.>.>.:.2.O O 2...:.~ a u @ >.>.>.>.>.>.>.>.:.>...+ ..:.:...o p O / 2.:.>.:.2.8X9X8X4XkXb b IX- p SXJX{.# 8X9X8X9X8XpX0XSXKXGXGXGXGXKXZXn.KXDXGXGXGXKXSXhXKXGXGXGXGXKXSX9.KXGXDX3XSXKXSXhXKXGXGXGXGXGXDX9.KXGXGXGXGXGXKXhXDXGXGXGXGXGXKX9.SXLXQ S LXGXDXjX%XSXGXIXb.OX",
"-X>X-X-X>X>X9X9X9X9X9X8XfX XM yXkXhXCX<X# v.fX8X9X9X9X9X9X9X9X8XfXM B kXhXhXAXb 2 fX8X8X9X9X9X9X9X9X8X0XV.c <XAXhXhX,X% <.hX4X9X9X9X9X9X9X9X8XaXt t jXhXhXZXG X 0X8X8X9X9X9X9X9X9X8X0XXXc .XCXZXhXL.m b.fX8X9X9X9X9X9X9X9X8XfXN B hXhXCXPX&.$ 9X8X8X8X9X2X>.>.>.:.>.^ @ / >...>.:.@ O 2.:.>.>.>.>.>.>.>.:.,.> O ....:.5.O @ >.>.>.>.:.2.8X9X8X8X0X=X# v.4.9XZX9X# &.kX4X9X9X8XpX0XSXKXGXGXGXGXKXZXn.KXDXGXGXGXKXSXhXKXGXGXGXGXKXSX9.KXGX3XjXKXGXDXhXKXGXGXGXGXGXDX9.KXGXGXGXGXGXKXhXDXGXGXGXGXGXKX9.LX#XD AXKXDXKXjX%XSXGXIXb.OX",
"4X4X4X4X4X8X9X9X9X9X9X9X8XfXs.N fX0XkXb &.kX8X9X9X9X9X9X9X9X9X8X9X4XM <XfXhX<X2 ,X9X8X9X9X9X9X9X9X9X9X8XfXa.s.hX0XAX` ` hX8X9X9X9X9X9X9X9X9X8X9X3Xt F.hXhX1X+ :XuX8X9X9X9X9X9X9X9X9X8XfXb.s.hX9XAX` ` hX8X9X9X9X9X9X9X9X9X8X9X8XB XXkXhX,X2 M.0X8X9X8X9X2X>.>.>.>.:.2./ + >...2.O + 2.:.>.>.>.>.>.>.>.>.>.>.>.O ^ >.:...+ ^ >.:.>.>.:.2.8X9X8X9X8XfXa.N AXpXkX&.b fX8X9X9X9X8XpX0XSXKXGXGXGXGXKXZXn.KXDXGXGXGXKXSXhXKXDXGXGXGXKXSX9.PX4XhXKXDXKXSXhXKXDXGXGXGXGXDX9.KXDXGXGXGXGXKXhXDXGXGXGXGXGXDXP.%XD mXLXDXGXKXjX%XSXGXIXb..X",
"2X>X>X>X>X-X8X9X9X9X9X9X8X4X9X9X4X4X8X9XfX8X8X8X8X9X9X9X9X9X9X8X8X9X9X8X4X8X8X0X9X4X8X9X9X9X9X9X9X9X8X8X8X9X9X4X4X8X9X0X8X9X9X9X9X9X9X9X9X9X8X8X9XuX8X4X8X8XuX0X8X9X9X9X9X9X9X9X9X9X9X4X0X9X4X8X4X9X0X8X8X8X9X9X9X9X9X9X9X9X8X9XfX4X8X4X8X0X9X4X8X8X8X9X2X>.>.>.>.:.:.>.>.:.:.>.>.,.>.:.:.:.>.>.>.>.>.>.>.:.>.>.:.>.:.>.>.>.:.:.:.>.:.2.8X9X8X9X8X4XfX9X3X8X8X9XfX9X8X9X9X9X8XpX0XSXKXKXKXKXKXKXSXK.PXKXKXKXKXKXDXZXKXKXKXKXKXKXDXK.hX0XPXKXKXKXGXCXKXKXKXKXKXKXKXn.KXKXKXKXKXKXKXjXGXKXKXKXKXGXLX8.D *XLXGXKXKXKXSX%XDXKXIXb.OX",
"P.9X9X9X9X-X8X9X9X9X9X8X0X0XpX8X0X0X9X0X4X8X0X0X0X8X9X9X9X9X8X0X0X4X0X9X0X9X8X8X9XpX0X8X9X9X9X9X9X8X0X0X9X0X4X0X0X8X8X4X8X8X8X9X9X9X9X9X9X8X9X9X9X9X0X0X8X8X4X4X8X8X9X9X9X9X9X9X9X9X8X0X8X0X0X9X9X8X4X0X0X0X9X9X9X9X9X9X9X8X0X9X8XpX9XpX9X4X9X0XpX9X8X9X2X>.>.>.>.>.>.,.:.>.>.>.>.:.:.>.,.,.>.>.>.>.>.>.:.>.>.:.,.>.,.>.:.>.>.,.>.>.:.2.8X9X9X8X9XpX4X9X0X8X8X4X4X8X8X9X9X9X8XpX0XhXCXCXCXCXCXZXpXq.SXhXCXCXCXZXhX9XZXCXCXCXCXCXCX5.2XZXCXCXCXCXhX9XZXCXCXCXCXCXhX4.ZXCXCXCXCXCXZX9XhXCXCXCXCXZXSXS #XHXhXCXCXCXCXuX&XfXjXJXb.V.",
"5.9X8X8X9X-X8X9X9X9X8X9XI.n.5.9XL.I.4XI.0X9Xn.K.K.9X8X9X9X8X0XI.K.pXK.-XK.-X0X8Xn.n.L.9X8X9X9X9X8X9XI.K.-Xn.pXL.P.0X0XpX0X0X9X8X9X9X9X9X8X9X-X>XP.I.L.I.0XpXpX0X0X9X8X9X9X9X9X9X9X8X9XP.8XL.P.-X-X9X0Xn.K.n.9X9X9X9X9X9X8X9XI.-X9X9.2X9.4XpX>Xn.9.-X9X9X2X>.>.>...^ ^ ~ ,.^ ^ ^ ^ >.>.~ ~ ~ >.>.>.>.>.:.>.^ ^ >.~ ..~ ..,...~ ~ | >.:.2.8X9X8X9X2X9.0X-XK.9X0XpX0X0X0X8X9X9X8XpXhX-X9.K.K.K.K.L.9.^ L.n.K.K.K.K.9.q.L.K.K.K.n.L.9.9.L.K.K.K.K.K.9.q.L.K.K.K.K.K.n.^ K.K.K.K.K.K.K.4.n.K.K.K.K.L.A J R.9.K.K.K.K.K.9.;.9.n.L.r.a.",
"4.8X9X8X9X-X8X9X9X8X0X>Xu P.p -X( X. .| pX( p ~ p 2X9X8X8X9X8X| ( -X| ~ ~ X.4X( p ~ ~ 3X9X8X9X9X8X9X>X~ ~ ( -X| | 2X| ( 2.2.2.0X8X9X9X9X8XpX2.( X.~ ~  .2X| ( 5.2.4.0X8X9X9X9X9X8X9X>Xu 0Xp 2. .O.hX .p ~ i -X0X8X9X9X8X9X2Xu P.L.~ ~ ~ 4.-Xp ~ i  .0X9X2X>.:.,.^ O ..O ^ u O O u ..u o O o ^ >.:.>.>.>...o ~ ^ O O O / ..O O o > ,...2.8X9X4X0X2.~ P.X.~ >XO.( X.4.X.9X9X9X8XpX0XDXPXPXPXPXPXPXDXL.IXKXPXPXPXPXKXSXPXLXPXLXPXKX3Xn.IXKXPXPXPXPXKXSXPXLXPXPXPXPXKXK.PXPXPXPXPXPXPXZXKXPXPXKXIXQ R M.KXPXPXPXPXLXPXDX%XGXLXIXb.OX",
"9X9X9X9X9X-X8X9X9X3X5.~ a 4.2.-XX.~ O ( K.~ ( ~ p -X9X8X8X9X2X . .2.2.i | O.5.( ~ ~ ~ 2X9X8X9X9X8X9X-X|  .X.2.X. .K.~ ( |  .( 9X9X9X9X9X8X0X-X( 2.p ( X.n.~ ( | | | 0X8X9X9X8X9X4X5.~ - L.>X( 5.5.-X~ ( ~ i L.0X8X9X8X9XI. .~ X.2.2.u X.2.O.| ~ p | 0X9X2X>.>./ ..u ^ u ^ u O O u / O O O o ^ >.:.:.>.^ u O u i u o u i u O O O O >.:.2.8X9X8X0XX. .2.2. .n.| ( (  .~ 3X9X8X8XpX0XSXGXDXDXDXDXGXZX9.KXDXDXDXDXGXSXhXGXDXDXDXDX3XhXn.KXDXDXDXDXDXSXhXGXDXDXDXDXDXDX9.GXDXDXDXDXDXGXhXSXDXSXLX#XS KXn.SXDXDXDXDXDXDXjX%XAXGXPXb..X",
"-X-X-X>X-X-X8X9X9X8X8X-XO.2.P.K.X.O.K.2.4X| O. . .3X9X8X9X8X0X2. .n. .2. .4.3X( 2. .X.4X9X8X9X9X8XpXX.| 5.| n.X.O.3X4.K.n.4. .9X9X9X9X9X8X9X-Xn.2.O.X.5.2X4.K.n.5.X.9X8X9X9X9X9X8X8X>XX.2.5.2.P.K.9X .X.X.| >X9X8X9X9X9X9X4XX.O.n.| 5.( >XL.( 2.| 5.9X9X2X>.>.>...~ u O ~ u u u u >.u u u > ..>.>.>.>.>.:.u u ~ > / O | ^ O i > i >.:.2.8X9X8X0XK.( 4.2. .4X4.K.9.9. .2X9X8X8XpX0XSXKXGXGXGXGXKXZXn.KXDXGXGXGXKXSXhXKXGXGXKX4XhXDX9.KXDXGXGXGXKXDXhXKXGXGXGXGXGXDX9.KXGXGXGXGXGXKXhXDXDXLX&XD NXLX9.DXGXGXGXGXGXKXjX%XSXGXIXb.OX",
"4X4X4X4X4X8X9X9X9X9X9X9XpX0X9X9X0X0X0XpX9X0X0X9X0X9X8X9X9X9X8X0X0X9X0X0X0X9X9X0X0X9X0X9X8X9X9X9X9X8X0X9X9X0X9X0X0X9X0X9X0X9X0X9X8X9X9X9X9X8X9X9X0X0X0X0X9X0X9X0X9X0X9X9X9X9X9X9X9X9X9XpX0X9X0X9X9X9X0X0X9X0X9X8X9X9X9X9X8X9X0X0X0X0X0X0X9X9X0X0X9X0X8X9X2X>.>.>.>.>.>.>.>.>.,.,.>.>.,.,.>.>.>.>.>.>.>.>.>.>.>.>.,.,.,.>.>.,.,.>.>.>.:.2.8X9X9X8X9X0X0X0X0X9X0X9X0X9X0X9X8X9X8XpX0XSXKXGXGXGXGXKXZXn.KXDXGXGXGXKXSXhXKXDXKX9X0XKXSX9.KXDXGXGXGXKXDXhXKXGXGXGXGXGXDX9.KXGXGXGXGXGXKXhXSXLXzXD %XLXDX9.DXGXGXGXGXGXKXjX%XSXGXIXb.OX",
"9X9X9X9X9X9X8X8X8X8X8X8X4X8X8X8X8X4X8X4X8X4X4X8X4X8X8X8X8X8X8X8X4X8X8X4X4X8X8X4X4X8X4X8X8X8X8X8X8X8X8X8X8X4X8X8X8X8X8X8X8X8X8X8X8X8X8X8X8X8X8X8X8X4X4X8X8X8X8X8X8X8X8X8X8X8X8X8X8X8X8X4X8X8X8X8X8X8X4X4X8X8X8X8X8X8X8X8X8X8X4X8X8X4X4X4X8X8X4X4X8X8X8X9X2X:.:.:.:.:.:.:.:.:.:.:.:.:.:.:.:.:.:.:.:.:.:.:.:.:.:.:.:.:.:.:.:.:.:.:.:.:.:.>.8X9X8X8X8X4X8X8X4X8X8X8X8X8X8X8X8X8X4XpX0XSXKXGXGXGXGXKXZXn.KXDXGXGXGXKXSXhXKXKXpX9XKXGXSX9.KXDXGXGXGXKXDXhXKXGXGXGXGXGXDX9.KXGXGXGXGXGXKXhXGXAXD #XLXDXKX9.DXGXGXGXGXGXKXjX%XSXGXIXb.OX",
"hXhXhXhXhXhXhXhXhXhXhXhXhXhXhXhXhXhXhXhXhXhXhXhXhXhXhXhXhXhXhXhXhXhXhXhXhXhXhXhXhXhXhXhXhXhXhXhXhXhXhXhXhXhXhXhXhXhXhXhXhXhXhXhXhXhXhXhXhXhXhXhXhXhXhXhXhXhXhXhXhXhXhXhXhXhXhXhXhXhXhXhXhXhXhXhXhXhXhXhXhXhXhXhXhXhXhXhXhXhXhXhXhXhXhXhXhXhXhXhXhXhXhXhXhX9X9X9X9X9X9X9X9X9X9X9X9X9X9X9X9X9X9X9X9X9X9X9X9X9X9X9X9X9X9X9X9X9X9X9X9X9X9X9XhXhXhXhXhXhXhXhXhXhXhXhXhXhXhXhXhXhXhXhX0XSXKXGXGXGXGXKXZXn.KXDXGXGXGXKXSXhXKXhX4XKXGXKXSX9.KXDXGXGXGXKXDXhXKXGXGXGXGXGXDX9.KXGXGXGXGXGXKXhXGXS Q LXDXGXKX9.DXGXGXGXGXGXKXjX%XSXGXIXb.OX",
"0X0X0X0X0X0X0X0X0X0X0X0X0X0X0X0X0X0X0X0X0X0X0X0X0X0X0X0X0X0X0X0X0X0X0X0X0X0X0X0X0X0X0X0X0X0X0X0X0X0X0X0X0X0X0X0X0X0X0X0X0X0X0X0X0X0X0X0X0X0X0X0X0X0X0X0X0X0X0X0X0X0X0X0X0X0X0X0X0X0X0X0X0X0X0X0X0X0X0X0X0X0X0X0X0X0X0X0X0X0X0X0X0X0X0X0X0X0X0X0X0X0X0X0X0XpXpXpXpXpXpXpXpXpXpXpXpXpXpXpXpXpXpXpXpXpXpXpXpXpXpXpXpXpXpXpXpXpXpXpXpXpXpXpX0X0X0X0X0X0X0X0X0X0X0X0X0X0X0X0X0X0X0XhX0XSXKXGXGXGXGXKXZXn.KXDXGXGXGXKXSXCXSX3XDXKXDXKXSX9.KXDXGXGXGXGXSXhXKXDXGXGXGXGXDX9.KXDXGXGXGXDXGXHXI R LXDXDXGXKX9.DXGXGXGXGXDXKXjX%XAXGXPXb..X",
"8X8X8X8X8X8X8X8X8X8X8X8X8X8X8X8X8X8X8X8X8X8X8X8X8X8X8X8X8X8X8X8X8X8X8X8X8X8X8X8X8X8X8X8X8X8X8X8X8X8X8X8X8X8X8X8X8X8X8X8X8X8X8X8X8X8X8X8X8X8X8X8X8X8X8X8X8X8X8X8X8X8X8X8X8X8X8X8X8X8X8X8X8X8X8X8X8X8X8X8X8X8X8X8X8X8X8X8X8X8X8X8X8X8X8X8X8X8X8X8X8X8X8X8X8X8X8X8X8X8X8X8X8X8X8X8X8X8X8X8X8X8X8X8X8X8X8X8X8X8X8X8X8X8X8X8X8X8X8X8X8X8X8X8X8X8X8X8X8X8X8X8X8X8X8X8X8X8X8X8X8X8X4XpX0XSXKXKXKXKXKXKXSXK.PXGXKXKXKXKXDXhX4XSXKXKXKXKXDXn.KXKXKXKXKXKXDXhXKXKXKXKXKXKXGX9.KXKXKXKXKXDXLXQ S LXKXKXKXKXKX9.GXKXKXKXKXKXKXZX%XDXGXIXb.OX",
"9X9X9X9X9X9X9X9X9X9X9X9X9X9X9X9X9X9X9X9X9X9X9X9X9X9X9X9X9X9X9X9X9X9X9X9X9X9X9X9X9X9X9X9X9X9X9X9X9X9X9X9X9X9X9X9X9X9X9X9X9X9X9X9X9X9X9X9X9X9X9X9X9X9X9X9X9X9X9X9X9X9X9X9X9X9X9X9X9X9X9X9X9X9X9X9X9X9X9X9X9X9X9X9X9X9X9X9X9X9X9X9X9X9X9X9X9X9X9X9X9X9X9X9X9X9X9X9X9X9X9X9X9X9X9X9X9X9X9X9X9X9X9X9X9X9X9X9X9X9X9X9X9X9X9X9X9X9X9X9X9X9X9X9X9X9X9X9X9X9X9X9X9X9X9X9X9X9X9X9X9X9X8XpX0XCXSXSXSXSXSXSXhX9.DXZXSXSXZXSXSX-XhXSXZXSXSXSXhX9.SXZXSXSXSXSXZXpXSXZXSXSXSXSXZX9.SXZXSXSXCXLX#XS CXSXAXSXSXZXSX9.ZXSXSXSXSXZXSXhX&XCXZXJXb..X",
"9X9X9X9X9X9X9X9X9X9X9X9X9X9X9X9X9X9X9X9X9X9X9X9X9X9X9X9X9X9X9X9X9X9X9X9X9X9X9X9X9X9X9X9X9X9X9X9X9X9X9X9X9X9X9X9X9X9X9X9X9X9X9X9X9X9X9X9X9X9X9X9X9X9X9X9X9X9X9X9X9X9X9X9X9X9X9X9X9X9X9X9X9X9X9X9X9X9X9X9X9X9X9X9X9X9X9X9X9X9X9X9X9X9X9X9X9X9X9X9X9X9X9X9X9X9X9X9X9X9X9X9X9X9X9X9X9X9X9X9X9X9X9X9X9X9X9X9X9X9X9X9X9X9X9X9X9X9X9X9X9X9X9X9X9X9X9X9X9X9X9X9X9X9X9X9X9X9X9X9X9X9X8XpX0XhXZXCXCXCXCXZXpX9.SXjXCXCXCXSX2X9XSXjXCXCXCXZXhX4.SXjXCXCXCXZXhX0XZXCXCXCXCXZXjX4.ZXCXZXhXHX&XD 7XHXCXZXCXCXCXZX4.jXZXCXCXCXCXCXhX&XfXjXJXb.V.",
"9X9X9X9X9X9X9X9X9X9X9X9X9X9X9X9X9X9X9X9X9X9X9X9X9X9X9X9X9X9X9X9X9X9X9X9X9X9X9X9X9X9X9X9X9X9X9X9X9X9X9X9X9X9X9X9X9X9X9X9X9X9X9X9X9X9X9X9X9X9X9X9X9X9X9X9X9X9X9X9X9X9X9X9X9X9X9X9X9X9X9X9X9X9X9X9X9X9X9X9X9X9X9X9X9X9X9X9X9X9X9X9X9X9X9X9X9X9X9X9X9X9X9X9X9X9X9X9X9X9X9X9X9X9X9X9X9X9X9X9X9X9X9X9X9X9X9X9X9X9X9X9X9X9X9X9X9X9X9X9X9X9X9X9X9X9X9X9X9X9X9X9X9X9X9X9X9X9X9X9X9X9X8XpX0XSXKXKXKXKXKXKXSXK.PXKXKXKXKXpX9XZXKXKXKXKXKXKXDXn.KXKXKXKXKXKXDXhXKXKXKXKXKXKXGX9.KXKXGXLXmXD *XHXDXKXKXKXKXKXKX9.KXKXKXKXKXKXKXZX%XDXGXIXb.OX",
"9X9X9X9X9X9X9X9X9X9X9X9X9X9X9X9X9X9X9X9X9X9X9X9X9X9X9X9X9X9X9X9X9X9X9X9X9X9X9X9X9X9X9X9X9X9X9X9X9X9X9X9X9X9X9X9X9X9X9X9X9X9X9X9X9X9X9X9X9X9X9X9X9X9X9X9X9X9X9X9X9X9X9X9X9X9X9X9X9X9X9X9X9X9X9X9X9X9X9X9X9X9X9X9X9X9X9X9X9X9X9X9X9X9X9X9X9X9X9X9X9X9X9X9X9X9X9X9X9X9X9X9X9X9X9X9X9X9X9X9X9X9X9X9X9X9X9X9X9X9X9X9X9X9X9X9X9X9X9X9X9X9X9X9X9X9X9X9X9X9X9X9X9X9X9X9X9X9X9X9X9X9X8XpX0XSXKXDXGXGXGXKXZXn.KXDXDXKXhX8XDXhXKXDXGXGXGXKXSX9.KXDXGXGXGXGXSXhXKXDXGXGXGXGXDX9.KXDXKXDXS #XLXfXDXGXGXGXGXDXKX9.DXGXGXGXGXDXGXjX%XAXGXPXb..X",
"9X9X9X9X9X9X9X9X9X9X9X9X9X9X9X9X9X9X9X9X9X9X9X9X9X9X9X9X9X9X9X9X9X9X9X9X9X9X9X9X9X9X9X9X9X9X9X9X9X9X9X9X9X9X9X9X9X9X9X9X9X9X9X9X9X9X9X9X9X9X9X9X9X9X9X9X9X9X9X9X9X9X9X9X9X9X9X9X9X9X9X9X9X9X9X9X9X9X9X9X9X9X9X9X9X9X9X9X9X9X9X9X9X9X9X9X9X9X9X9X9X9X9X9X9X9X9X9X9X9X9X9X9X9X9X9X9X9X9X9X9X9X9X9X9X9X9X9X9X9X9X9X9X9X9X9X9X9X9X9X9X9X9X9X9X9X9X9X9X9X9X9X9X9X9X9X9X9X9X9X9X9X8XpX0XSXKXGXGXGXGXKXZXn.KXDXKXCX4XKXSXhXKXGXGXGXGXKXSX9.KXDXGXGXGXKXDXhXKXGXGXGXGXGXDX9.KXGXLXS Q LXDXhXDXGXGXGXGXGXKX9.DXGXGXGXGXGXKXjX%XSXGXIXb.OX",
"9X9X9X9X9X9X9X9X9X9X9X9X9X9X9X9X9X9X9X9X9X9X9X9X9X9X9X9X9X9X9X9X9X9X9X9X9X9X9X9X9X9X9X9X9X9X9X9X9X9X9X9X9X9X9X9X9X9X9X9X9X9X9X9X9X9X9X9X9X9X9X9X9X9X9X9X9X9X9X9X9X9X9X9X9X9X9X9X9X9X9X9X9X9X9X9X9X9X9X9X9X9X9X9X9X9X9X9X9X9X9X9X9X9X9X9X9X9X9X9X9X9X9X9X9X9X9X9X9X9X9X9X9X9X9X9X9X9X9X9X9X9X9X9X9X9X9X9X9X9X9X9X9X9X9X9X9X9X9X9X9X9X9X9X9X9X9X9X9X9X9X9X9X9X9X9X9X9X9X9X9X9X8XpX0XSXKXGXGXGXGXKXZXn.KXKXSX3XDXKXSXhXKXGXGXGXGXKXSX9.KXDXGXGXGXKXDXhXKXGXGXGXGXGXDX9.DXLX! R LXDXKXhXDXGXGXGXGXGXKX9.DXGXGXGXGXGXKXjX%XSXGXIXb.OX",
"9X9X9X9X9X9X9X9X9X9X9X9X9X9X9X9X9X9X9X9X9X9X9X9X9X9X9X9X9X9X9X9X9X9X9X9X9X9X9X9X9X9X9X9X9X9X9X9X9X9X9X9X9X9X9X9X9X9X9X9X9X9X9X9X9X9X9X9X9X9X9X9X9X9X9X9X9X9X9X9X9X9X9X9X9X9X9X9X9X9X9X9X9X9X9X9X9X9X9X9X9X9X9X9X9X9X9X9X9X9X9X9X9X9X9X9X9X9X9X9X9X9X9X9X9X9X9X9X9X9X9X9X9X9X9X9X9X9X9X9X9X9X9X9X9X9X9X9X9X9X9X9X9X9X9X9X9X9X9X9X9X9X9X9X9X9X9X9X9X9X9X9X9X9X9X9X9X9X9X9X9X9X8XpX0XSXKXGXGXGXGXKXZXn.PXDX3XZXKXGXSXhXKXGXGXGXGXKXSX9.KXDXGXGXGXKXDXhXKXGXGXGXGXGXDX9.LXQ S KXKXDXKXhXDXGXGXGXGXGXKX9.DXGXGXGXGXGXKXjX%XSXGXIXb.OX",
"9X9X9X9X9X9X9X9X9X9X9X9X9X9X9X9X9X9X9X9X9X9X9X9X9X9X9X9X9X9X9X9X9X9X9X9X9X9X9X9X9X9X9X9X9X9X9X9X9X9X9X9X9X9X9X9X9X9X9X9X9X9X9X9X9X9X9X9X9X9X9X9X9X9X9X9X9X9X9X9X9X9X9X9X9X9X9X9X9X9X9X9X9X9X9X9X9X9X9X9X9X9X9X9X9X9X9X9X9X9X9X9X9X9X9X9X9X9X9X9X9X9X9X9X9X9X9X9X9X9X9X9X9X9X9X9X9X9X9X9X9X9X9X9X9X9X9X9X9X9X9X9X9X9X9X9X9X9X9X9X9X9X9X9X9X9X9X9X9X9X9X9X9X9X9X9X9X9X9X9X9X9X8XpX0XSXKXGXGXGXGXKXZXn.PX4XhXKXDXKXSXhXKXGXGXGXGXKXSX9.KXDXGXGXGXKXDXhXKXGXGXGXGXGXSXP.*XD NXLXDXGXKXhXDXGXGXGXGXGXKX9.DXGXGXGXGXGXKXjX%XSXGXIXb.OX",
"9X9X9X9X9X9X9X9X9X9X9X9X9X9X9X9X9X9X9X9X9X9X9X9X9X9X9X9X9X9X9X9X9X9X9X9X9X9X9X9X9X9X9X9X9X9X9X9X9X9X9X9X9X9X9X9X9X9X9X9X9X9X9X9X9X9X9X9X9X9X9X9X9X9X9X9X9X9X9X9X9X9X9X9X9X9X9X9X9X9X9X9X9X9X9X9X9X9X9X9X9X9X9X9X9X9X9X9X9X9X9X9X9X9X9X9X9X9X9X9X9X9X9X9X9X9X9X9X9X9X9X9X9X9X9X9X9X9X9X9X9X9X9X9X9X9X9X9X9X9X9X9X9X9X9X9X9X9X9X9X9X9X9X9X9X9X9X9X9X9X9X9X9X9X9X9X9X9X9X9X9X9X8XpX0XSXKXGXGXGXGXKXZXK.pX0XKXDXGXKXSXhXKXDXGXGXGXKXSX9.KXDXGXGXGXGXSXhXKXDXGXGXGXDXLX;.D 7XLXDXGXDXKXhXDXGXGXGXGXGXKX9.DXGXGXGXGXDXKXjX%XAXGXPXb..X",
"9X9X9X9X9X9X9X9X9X9X9X9X9X9X9X9X9X9X9X9X9X9X9X9X9X9X9X9X9X9X9X9X9X9X9X9X9X9X9X9X9X9X9X9X9X9X9X9X9X9X9X9X9X9X9X9X9X9X9X9X9X9X9X9X9X9X9X9X9X9X9X9X9X9X9X9X9X9X9X9X9X9X9X9X9X9X9X9X9X9X9X9X9X9X9X9X9X9X9X9X9X9X9X9X9X9X9X9X9X9X9X9X9X9X9X9X9X9X9X9X9X9X9X9X9X9X9X9X9X9X9X9X9X9X9X9X9X9X9X9X9X9X9X9X9X9X9X9X9X9X9X9X9X9X9X9X9X9X9X9X9X9X9X9X9X9X9X9X9X9X9X9X9X9X9X9X9X9X9X9X9X9X8XpX0XSXKXKXKXKXKXKXDX9.pXKXGXKXKXKXDXjXKXKXKXKXKXKXSX9.KXGXKXKXKXKXDXhXKXKXKXKXDXLXNXD &XLXDXKXKXKXKXhXDXKXKXKXKXKXKX9.GXKXKXKXKXKXKXZX%XSXGXIXb.OX",
"9X9X9X9X9X9X9X9X9X9X9X9X9X9X9X9X9X9X9X9X9X9X9X9X9X9X9X9X9X9X9X9X9X9X9X9X9X9X9X9X9X9X9X9X9X9X9X9X9X9X9X9X9X9X9X9X9X9X9X9X9X9X9X9X9X9X9X9X9X9X9X9X9X9X9X9X9X9X9X9X9X9X9X9X9X9X9X9X9X9X9X9X9X9X9X9X9X9X9X9X9X9X9X9X9X9X9X9X9X9X9X9X9X9X9X9X9X9X9X9X9X9X9X9X9X9X9X9X9X9X9X9X9X9X9X9X9X9X9X9X9X9X9X9X9X9X9X9X9X9X9X9X9X9X9X9X9X9X9X9X9X9X9X9X9X9X9X9X9X9X9X9X9X9X9X9X9X9X9X9X9X9X8XpXhX-X9.9.9.9.9.9.n.9.9.9.9.9.9.9.9.5.9.9.9.9.9.9.9.^ n.9.9.9.9.9.9.5.9.9.9.9.n.9.S J P.9.9.9.9.9.9.5.9.9.9.9.9.9.9.^ 9.9.9.9.9.9.9.4.;.q.n.D.r.*.",
"9X9X9X9X9X9X9X9X9X9X9X9X9X9X9X9X9X9X9X9X9X9X9X9X9X9X9X9X9X9X9X9X9X9X9X9X9X9X9X9X9X9X9X9X9X9X9X9X9X9X9X9X9X9X9X9X9X9X9X9X9X9X9X9X9X9X9X9X9X9X9X9X9X9X9X9X9X9X9X9X9X9X9X9X9X9X9X9X9X9X9X9X9X9X9X9X9X9X9X9X9X9X9X9X9X9X9X9X9X9X9X9X9X9X9X9X9X9X9X9X9X9X9X9X9X9X9X9X9X9X9X9X9X9X9X9X9X9X9X9X9X9X9X9X9X9X9X9X9X9X9X9X9X9X9X9X9X9X9X9X9X9X9X9X9X9X9X9X9X9X9X9X9X9X9X9X9X9X9X9X9X9X8XpX0XSXGXDXDXDXKXZX-X9.KXDXDXDXDXGXSXhXKXDXDXDXDXGXSX9.KXDXDXDXDXGXSXhXKXDXDXDXLXR R M.DXDXDXDXDXDXGXhXDXDXDXDXDXDXGX9.DXDXDXDXDXDXDXjX%XAXGXPXb..X",
"9X9X9X9X9X9X9X9X9X9X9X9X9X9X9X9X9X9X9X9X9X9X9X9X9X9X9X9X9X9X9X9X9X9X9X9X9X9X9X9X9X9X9X9X9X9X9X9X9X9X9X9X9X9X9X9X9X9X9X9X9X9X9X9X9X9X9X9X9X9X9X9X9X9X9X9X9X9X9X9X9X9X9X9X9X9X9X9X9X9X9X9X9X9X9X9X9X9X9X9X9X9X9X9X9X9X9X9X9X9X9X9X9X9X9X9X9X9X9X9X9X9X9X9X9X9X9X9X9X9X9X9X9X9X9X9X9X9X9X9X9X9X9X9X9X9X9X9X9X9X9X9X9X9X9X9X9X9X9X9X9X9X9X9X9X9X9X9X9X9X9X9X9X9X9X9X9X9X9X9X9X9X8XpX0XSXKXGXGXKXDX4XhXK.KXDXGXGXGXKXSXhXKXGXGXGXGXKXSX9.KXDXGXGXGXKXDXhXKXGXDXLXQ S LX9.KXGXGXGXGXGXKXhXDXKXGXGXGXGXKX9.DXKXGXGXGXGXKXjX%XSXGXIXb.OX",
"9X9X9X9X9X9X9X9X9X9X9X9X9X9X9X9X9X9X9X9X9X9X9X9X9X9X9X9X9X9X9X9X9X9X9X9X9X9X9X9X9X9X9X9X9X9X9X9X9X9X9X9X9X9X9X9X9X9X9X9X9X9X9X9X9X9X9X9X9X9X9X9X9X9X9X9X9X9X9X9X9X9X9X9X9X9X9X9X9X9X9X9X9X9X9X9X9X9X9X9X9X9X9X9X9X9X9X9X9X9X9X9X9X9X9X9X9X9X9X9X9X9X9X9X9X9X9X9X9X9X9X9X9X9X9X9X9X9X9X9X9X9X9X9X9X9X9X9X9X9X9X9X9X9X9X9X9X9X9X9X9X9X9X9X9X9X9X9X9X9X9X9X9X9X9X9X9X9X9X9X9X9X8XpX0XSXKXGXGXGX3XZXSX9.KXDXGXGXGXKXSXhXKXGXGXGXGXKXSX9.KXDXGXGXGXKXDXhXKXDXLX#XS DXGX9.KXGXGXGXGXGXKXhXDXGXGXGXGXGXKX9.DXGXGXGXGXGXKXjX%XSXGXIXb.OX",
"9X9X9X9X9X9X9X9X9X9X9X9X9X9X9X9X9X9X9X9X9X9X9X9X9X9X9X9X9X9X9X9X9X9X9X9X9X9X9X9X9X9X9X9X9X9X9X9X9X9X9X9X9X9X9X9X9X9X9X9X9X9X9X9X9X9X9X9X9X9X9X9X9X9X9X9X9X9X9X9X9X9X9X9X9X9X9X9X9X9X9X9X9X9X9X9X9X9X9X9X9X9X9X9X9X9X9X9X9X9X9X9X9X9X9X9X9X9X9X9X9X9X9X9X9X9X9X9X9X9X9X9X9X9X9X9X9X9X9X9X9X9X9X9X9X9X9X9X9X9X9X9X9X9X9X9X9X9X9X9X9X9X9X9X9X9X9X9X9X9X9X9X9X9X9X9X9X9X9X9X9X9X8XpX0XSXKXGXKX8XhXKXZXn.KXDXGXGXGXKXSXhXKXGXGXGXGXKXSX9.KXDXGXGXGXKXDXhXDXLX%XD mXLXDX9.KXGXGXGXGXGXKXhXDXGXGXGXGXGXKX9.DXGXGXGXGXGXKXjX%XSXGXIXb.OX",
"9X9X9X9X9X9X9X9X9X9X9X9X9X9X9X9X9X9X9X9X9X9X9X9X9X9X9X9X9X9X9X9X9X9X9X9X9X9X9X9X9X9X9X9X9X9X9X9X9X9X9X9X9X9X9X9X9X9X9X9X9X9X9X9X9X9X9X9X9X9X9X9X9X9X9X9X9X9X9X9X9X9X9X9X9X9X9X9X9X9X9X9X9X9X9X9X9X9X9X9X9X9X9X9X9X9X9X9X9X9X9X9X9X9X9X9X9X9X9X9X9X9X9X9X9X9X9X9X9X9X9X9X9X9X9X9X9X9X9X9X9X9X9X9X9X9X9X9X9X9X9X9X9X9X9X9X9X9X9X9X9X9X9X9X9X9X9X9X9X9X9X9X9X9X9X9X9X9X9X9X9X9X8XpX0XSXKXKX9X0XKXKXZXn.KXDXGXGXGXKXSXhXKXGXGXGXGXKXSX9.KXDXGXGXGXKXDXhXLXmXD %XLXDXDX9.KXGXGXGXGXGXKXhXDXGXGXGXGXGXKX9.DXGXGXGXGXGXKXjX%XSXGXIXb.OX",
"9X9X9X9X9X9X9X9X9X9X9X9X9X9X9X9X9X9X9X9X9X9X9X9X9X9X9X9X9X9X9X9X9X9X9X9X9X9X9X9X9X9X9X9X9X9X9X9X9X9X9X9X9X9X9X9X9X9X9X9X9X9X9X9X9X9X9X9X9X9X9X9X9X9X9X9X9X9X9X9X9X9X9X9X9X9X9X9X9X9X9X9X9X9X9X9X9X9X9X9X9X9X9X9X9X9X9X9X9X9X9X9X9X9X9X9X9X9X9X9X9X9X9X9X9X9X9X9X9X9X9X9X9X9X9X9X9X9X9X9X9X9X9X9X9X9X9X9X9X9X9X9X9X9X9X9X9X9X9X9X9X9X9X9X9X9X9X9X9X9X9X9X9X9X9X9X9X9X9X9X9X9X8XpX0XSXKXhX9XKXGXKXZXn.KXDXGXGXGXKXSXhXKXGXGXGXGXKXSX9.KXDXGXGXGXKXSXjXDXS #XLXDXGXDX9.KXGXGXGXGXGXKXhXDXGXGXGXGXGXKX9.DXGXGXGXGXGXKXjX%XSXGXIXb.OX",
"9X9X9X9X9X9X9X9X9X9X9X9X9X9X9X9X9X9X9X9X9X9X9X9X9X9X9X9X9X9X9X9X9X9X9X9X9X9X9X9X9X9X9X9X9X9X9X9X9X9X9X9X9X9X9X9X9X9X9X9X9X9X9X9X9X9X9X9X9X9X9X9X9X9X9X9X9X9X9X9X9X9X9X9X9X9X9X9X9X9X9X9X9X9X9X9X9X9X9X9X9X9X9X9X9X9X9X9X9X9X9X9X9X9X9X9X9X9X9X9X9X9X9X9X9X9X9X9X9X9X9X9X9X9X9X9X9X9X9X9X9X9X9X9X9X9X9X9X9X9X9X9X9X9X9X9X9X9X9X9X9X9X9X9X9X9X9X9X9X9X9X9X9X9X9X9X9X9X9X9X9X9X8XpX0XDXCX3XKXGXGXKXZXn.KXDXGXGXGXKXSXhXKXGXGXGXGXKXSX9.KXDXGXGXGXGXDXjXS Q LXDXGXGXDX9.KXGXGXGXGXGXKXhXDXGXGXGXGXGXKX9.DXGXGXGXGXGXKXjX%XSXGXIXb.OX",
"9X9X9X9X9X9X9X9X9X9X9X9X9X9X9X9X9X9X9X9X9X9X9X9X9X9X9X9X9X9X9X9X9X9X9X9X9X9X9X9X9X9X9X9X9X9X9X9X9X9X9X9X9X9X9X9X9X9X9X9X9X9X9X9X9X9X9X9X9X9X9X9X9X9X9X9X9X9X9X9X9X9X9X9X9X9X9X9X9X9X9X9X9X9X9X9X9X9X9X9X9X9X9X9X9X9X9X9X9X9X9X9X9X9X9X9X9X9X9X9X9X9X9X9X9X9X9X9X9X9X9X9X9X9X9X9X9X9X9X9X9X9X9X9X9X9X9X9X9X9X9X9X9X9X9X9X9X9X9X9X9X9X9X9X9X9X9X9X9X9X9X9X9X9X9X9X9X9X9X9X9X9X8XpXpXhX4XDXKXGXGXKXZX9.PXDXKXKXGXKXSXhXKXGXKXKXGXKXSX9.KXGXKXKXGXKXLXI R LXDXGXKXKXDX9.KXGXKXKXKXGXKXhXDXKXGXKXKXGXKX9.DXKXKXKXKXGXKXjX%XSXGXIXb..X",
"8X8X8X8X8X8X8X8X8X8X8X8X8X8X8X8X8X8X8X8X8X8X8X8X8X8X8X8X8X8X8X8X8X8X8X8X8X8X8X8X8X8X8X8X8X8X8X8X8X8X8X8X8X8X8X8X8X8X8X8X8X8X8X8X8X8X8X8X8X8X8X8X8X8X8X8X8X8X8X8X8X8X8X8X8X8X8X8X8X8X8X8X8X8X8X8X8X8X8X8X8X8X8X8X8X8X8X8X8X8X8X8X8X8X8X8X8X8X8X8X8X8X8X8X8X8X8X8X8X8X8X8X8X8X8X8X8X8X8X8X8X8X8X8X8X8X8X8X8X8X8X8X8X8X8X8X8X8X8X8X8X8X8X8X8X8X8X8X8X8X8X8X8X8X8X8X8X8X8X8X8X8X4XpX0X3XZXGXDXDXDXDXZXP.KXSXDXDXDXDXSXhXDXDXDXDXDXDXSXP.GXDXDXDXSXLXQ S GXGXDXDXDXDXSXP.DXDXDXDXDXDXDXhXSXDXDXDXDXDXDXP.SXDXDXDXDXDXDXjX%XAXDXPX XeX",
"pXpX0X0X0X0XpXpXpXpXpXpXpXpXpXpXpXpXpXpXpX0X0X0X0XpXpXpXpXpXpXpXpXpXpXpXpXpXpXpXpXpXpXpXpXpXpXpXpXpXpXpXpXpXpXpXpXpXpXpXpXpXpXpXpXpXpXpXpXpXpXpXpXpXpXpXpXpXpXpXpXpXpXpXpXpXpXpXpXpXpXpXpXpXpXpXpXpXpXpXpXpXpXpXpXpXpXpXpXpXpXpXpXpXpXpXpXpXpXpXpXpXpXpXpXpXpXpXpXpXpXpXpXpXpXpXpXpXpXpXpXpXpXpXpXpXpXpXpXpXpXpXpXpXpXpXpXpXpXpXpXpXpXpXpXpXpXpXpXpXpXpXpXpXpXpXpXpXpXpXpXpXpXhXhX9XpX0X0X0X0X0X0XpX0X0X0X0X0X0X0X0X0X0X0X0X0X0X0XpX0X0X0X0X0XpX&XqXpX0X0X0X0X0X0XpX0X0X0X0X0X0X0X0X0X0X0X0X0X0X0XpX0X0X0X0X0X0X0X0XpX0X0X0X0X0X",
"hXhXhXSXZXZXhXhXhXhXhXhXhXhXhXhXhXhXhXhXhXhXhXhXhXhXhXhXhXhXhXhXhXhXhXhXhXhXhXhXhXhXhXhXhXhXhXhXhXhXhXhXhXhXhXhXhXhXhXhXhXhXhXhXhXhXhXhXhXhXhXhXhXhXhXhXhXhXhXhXhXhXhXhXhXhXhXhXhXhXhXhXhXhXhXhXhXhXhXhXhXhXhXhXhXhXhXhXhXhXhXhXhXhXhXhXhXhXhXhXhXhXhXhXhXhXhXhXhXhXhXhXhXhXhXhXhXhXhXhXhXhXhXhXhXhXhXhXhXhXhXhXhXhXhXhXhXhXhXhXhXhXhXhXhXhXhXhXhXhXhXhXhXhXhXhXhXhXhXhXhXhXhXhXhXhXhXhXhXhXhXhXhXhXhXhXhXhXhXhXhXhXhXhXhXhXhXhXhXhXhXhXhXhXhXhXjXhXhXhXhXhXhXhXhXhXhXhXhXhXhXhXhXhXhXhXhXhXhXhXhXhXhXhXhXhXhXhXhXhXhXhXhXhXhXhX",
"8X9XL.,.q.q.2X9X8X4X9X4X8X8X4X4X8X8X8X9X3X=X=X=X=X8X8X4X8X9X4X8X4X4X4X8X8X8X8X8X8X8X8X8X8X8X8X8X8X8X8X8X8X8X8X8X8X8X8X8X8X8X8X8X8X8X8X8X8X8X8X8X8X8X8X8X8X8X8X8X8X8X8X8X8X8X8X8X8X8X8X8X8X8X8X8X8X8X8X8X8X8X8X8X8X8X8X8X8X8X8X8X8X8X8X8X8X8X8X8X8X8X8X8X8X8X8X8X8X8X8X8X8X8X8X8X8X8X8X8X8X8X8X8X8X8X8X8X8X8X8X8X8X8X8X8X8X8X8X8X8X8X8X8X8X8X8X8X8X8X8X8X8X8X8X8X8X8X8X8X8X8X8X8X8X8X8X8X8X8X8X8X8X8X8X8X8X8X8X8X8X8X8X8X8X8X8X8X8X8X8X8X8X8X8X8X8X8X8X8X8X8X8X8X8X8X8X8X8X8X8X8X8X8X8X8X8X8X8X8X8X8X8X8X8X9X9X9X9X4X9X9X9X9X4X9X",
"4XhX/ / / x L.uX8XpX:X0X9X9XhXhX9X8X8X9X3X^ x x / 9X8X0X3X:XpX4XuXhXpX9X9X9X9X9X9X9X9X9X9X9X9X9X9X9X9X9X9X9X9X9X9X9X9X9X9X9X9X9X9X9X9X9X9X9X9X9X9X9X9X9X9X9X9X9X9X9X9X9X9X9X9X9X9X9X9X9X9X9X9X9X9X9X9X9X9X9X9X9X9X9X9X9X9X9X9X9X9X9X9X9X9X9X9X9X9X9X9X9X9X9X9X9X9X9X9X9X9X9X9X9X9X9X9X9X9X9X9X9X9X9X9X9X9X9X9X9X9X9X9X9X9X9X9X9X9X9X9X9X9X9X9X9X9X9X9X9X9X9X9X9X9X9X9X9X9X9X9X9X9X9X9X9X9X9X9X9X9X9X9X9X9X9X9X9X9X9X9X9X9X9X9X9X9X9X9X9X9X9X9X9X9X9X9X9X9X9X9X9X9X9X9X9X9X9X9X9X9X9X9X9X9X9X9X9X9X9X9X9X3Xn.0.=X0.,.9.q.L.4XuXF.",
"8XpX^ ^ / / L.0X9Xq.+ ;.uX:X] ] :X9X8X9X2Xq.,.O q.4X9X8X/ O :XuX8.^ ,.9X8X9X9X9X9X9X9X9X9X9X9X9X9X9X9X9X9X9X9X9X9X9X9X9X9X9X9X9X9X9X9X9X9X9X9X9X9X9X9X9X9X9X9X9X9X9X9X9X9X9X9X9X9X9X9X9X9X9X9X9X9X9X9X9X9X9X9X9X9X9X9X9X9X9X9X9X9X9X9X9X9X9X9X9X9X9X9X9X9X9X9X9X9X9X9X9X9X9X9X9X9X9X9X9X9X9X9X9X9X9X9X9X9X9X9X9X9X9X9X9X9X9X9X9X9X9X9X9X9X9X9X9X9X9X9X9X9X9X9X9X9X9X9X9X9X9X9X9X9X9X9X9X9X9X9X9X9X9X9X9X9X9X9X9X9X9X9X9X9X9X9X9X9X9X9X9X9X9X9X9X9X9X9X9X9X9X9X9X9X9X9X9X9X9X9X9X9X9X9X9X9X9X9X9X9X9X8X9X,X,.^ ^ ,.jX..^ 2X>XpX[ ",
"4XpX^ x ,.3XL.0X9X:XG q.0X2Xq.q.2X9X8X9X-X:X=XO L.3X9X9X;.G 3X9X:Xq.D.9X8X9X9X9X9X9X9X9X9X9X9X9X9X9X9X9X9X9X9X9X9X9X9X9X9X9X9X9X9X9X9X9X9X9X9X9X9X9X9X9X9X9X9X9X9X9X9X9X9X9X9X9X9X9X9X9X9X9X9X9X9X9X9X9X9X9X9X9X9X9X9X9X9X9X9X9X9X9X9X9X9X9X9X9X9X9X9X9X9X9X9X9X9X9X9X9X9X9X9X9X9X9X9X9X9X9X9X9X9X9X9X9X9X9X9X9X9X9X9X9X9X9X9X9X9X9X9X9X9X9X9X9X9X9X9X9X9X9X9X9X9X9X9X9X9X9X9X9X9X9X9X9X9X9X9X9X9X9X9X9X9X9X9X9X9X9X9X9X9X9X9X9X9X9X9X9X9X9X9X9X9X9X9X9X9X9X9X9X9X9X9X9X9X9X9X9X9X9X9X9X9X9X9X9X9X9X8X9X4X^ ,.,...L.,.,.q.3XpXH.",
"8X0Xq...,.q.-X9X8XuX3X0X8X9XpXpX9X8X8X9X3Xq.q.^ 9.9X8X9X9X4X0X8X0XpXuX8X9X9X9X9X9X9X9X9X9X9X9X9X9X9X9X9X9X9X9X9X9X9X9X9X9X9X9X9X9X9X9X9X9X9X9X9X9X9X9X9X9X9X9X9X9X9X9X9X9X9X9X9X9X9X9X9X9X9X9X9X9X9X9X9X9X9X9X9X9X9X9X9X9X9X9X9X9X9X9X9X9X9X9X9X9X9X9X9X9X9X9X9X9X9X9X9X9X9X9X9X9X9X9X9X9X9X9X9X9X9X9X9X9X9X9X9X9X9X9X9X9X9X9X9X9X9X9X9X9X9X9X9X9X9X9X9X9X9X9X9X9X9X9X9X9X9X9X9X9X9X9X9X9X9X9X9X9X9X9X9X9X9X9X9X9X9X9X9X9X9X9X9X9X9X9X9X9X9X9X9X9X9X9X9X9X9X9X9X9X9X9X9X9X9X9X9X9X9X9X9X9X9X9X9X9X9X8X0X=X,.pX8X,X=X3X8X-X4X9X9X",
"9X8X0XuX9X9X9X8X9X8X9X8X9X8X8X8X8X9X9X8X9X9X9XpX9X9X9X8X9X9X8X9X8X8X8X9X9X9X9X9X9X9X9X9X9X9X9X9X9X9X9X9X9X9X9X9X9X9X9X9X9X9X9X9X9X9X9X9X9X9X9X9X9X9X9X9X9X9X9X9X9X9X9X9X9X9X9X9X9X9X9X9X9X9X9X9X9X9X9X9X9X9X9X9X9X9X9X9X9X9X9X9X9X9X9X9X9X9X9X9X9X9X9X9X9X9X9X9X9X9X9X9X9X9X9X9X9X9X9X9X9X9X9X9X9X9X9X9X9X9X9X9X9X9X9X9X9X9X9X9X9X9X9X9X9X9X9X9X9X9X9X9X9X9X9X9X9X9X9X9X9X9X9X9X9X9X9X9X9X9X9X9X9X9X9X9X9X9X9X9X9X9X9X9X9X9X9X9X9X9X9X9X9X9X9X9X9X9X9X9X9X9X9X9X9X9X9X9X9X9X9X9X9X9X9X9X9X9X9X9X9X9X8X9X,X4X9X9X9X0X9X9X9X9X8X9X"
};
