/* XPM */
static char *mb_gate_lr[] = {
/* columns rows colors chars-per-pixel */
"256 256 256 2 ",
"   c #5D3601",
".  c #603706",
"X  c #3C5A04",
"o  c #014D2A",
"O  c #02562F",
"+  c #215433",
"@  c #455C0E",
"#  c #4C6E06",
"$  c #635E29",
"%  c #761753",
"&  c #701A4F",
"*  c #4D3A44",
"=  c #026478",
"-  c #1F6A7B",
";  c #185F6C",
":  c #525150",
">  c #716C56",
",  c #685B64",
"<  c #596A6C",
"1  c #7B7867",
"2  c #726F6F",
"3  c #5C5E5A",
"4  c #933134",
"5  c #B2383B",
"6  c #985C39",
"7  c #D44A35",
"8  c #E4401C",
"9  c #A22F4D",
"0  c #AD5346",
"q  c #967C50",
"w  c #AF6958",
"e  c #827D6B",
"r  c #927672",
"t  c #B37670",
"y  c #93575B",
"u  c #CE544D",
"i  c #CD6653",
"p  c #CF756C",
"a  c #E37772",
"s  c #E06358",
"d  c #D33B2C",
"f  c #698F1F",
"g  c #349569",
"h  c #7B8878",
"j  c #5E9B6A",
"k  c #31A52F",
"l  c #90AC52",
"z  c #87856B",
"x  c #98896C",
"c  c #898777",
"v  c #948C78",
"b  c #989479",
"n  c #8E956E",
"m  c #AA8A79",
"M  c #96A264",
"N  c #CD8779",
"B  c #E78673",
"V  c #D0E464",
"C  c #014886",
"Z  c #075099",
"A  c #017790",
"S  c #265BAA",
"D  c #514993",
"F  c #6F728D",
"G  c #7377A8",
"H  c #5E57B0",
"J  c #3F64ED",
"K  c #3562C9",
"L  c #7171CE",
"P  c #5374F0",
"I  c #667BE6",
"U  c #5872D6",
"Y  c #413AB1",
"T  c #B0788B",
"R  c #8875B4",
"E  c #A65A91",
"W  c #C96F8F",
"Q  c #897CCA",
"!  c #CB6FD4",
"~  c #2D93A9",
"^  c #3D9AAD",
"/  c #318CBC",
"(  c #35A3BA",
")  c #0E92AC",
"_  c #719393",
"`  c #7591AB",
"'  c #4FA8B7",
"]  c #6EAFB4",
"[  c #56A398",
"{  c #508EC8",
"}  c #758BD3",
"|  c #4FB0C4",
" . c #6EB6C9",
".. c #708BEA",
"X. c #6089EC",
"o. c #51A2CA",
"O. c #898985",
"+. c #938D85",
"@. c #95948C",
"#. c #99968E",
"$. c #999787",
"%. c #8B9698",
"&. c #939C94",
"*. c #9C9A93",
"=. c #999996",
"-. c #89938B",
";. c #A58B84",
":. c #A89889",
">. c #B4988C",
",. c #A09E97",
"<. c #A19F9A",
"1. c #A69595",
"2. c #B59E94",
"3. c #B89898",
"4. c #B58A89",
"5. c #97A39A",
"6. c #8FA990",
"7. c #A5A18D",
"8. c #AAA695",
"9. c #A5A49D",
"0. c #A9A69E",
"q. c #ADAA9B",
"w. c #A6A594",
"e. c #B8A197",
"r. c #BAA399",
"t. c #B4A699",
"y. c #B1B295",
"u. c #9698AA",
"i. c #8897B8",
"p. c #9B9CB6",
"a. c #8A8BAF",
"s. c #B099AC",
"d. c #9EA9A4",
"f. c #9AA5A9",
"g. c #98A3B9",
"h. c #90ADAB",
"j. c #A8A7A1",
"k. c #AAA9A3",
"l. c #A2AEA9",
"z. c #AEAEA9",
"x. c #A4A8A3",
"c. c #B2AEA3",
"v. c #B1AFA8",
"b. c #BAAAA3",
"n. c #A8B2A9",
"m. c #B5B2A4",
"M. c #B3B2AB",
"N. c #BBB6AA",
"B. c #BDBAAD",
"V. c #B9B4A5",
"C. c #A4A5BD",
"Z. c #A8A6B9",
"A. c #ABB4B9",
"S. c #BBBAB2",
"D. c #B4B7B9",
"F. c #B6A6B8",
"G. c #CB908E",
"H. c #E7918F",
"J. c #C9A996",
"K. c #C99AA5",
"L. c #C9A6AC",
"P. c #CBA9AE",
"I. c #C5A4A7",
"U. c #C3B7A9",
"Y. c #CDABB2",
"T. c #C5A9B5",
"R. c #D2ADB6",
"E. c #C7B9B7",
"W. c #D6B4B3",
"Q. c #E8B3B0",
"!. c #E6A69A",
"~. c #B1C8B3",
"^. c #9FC59F",
"/. c #C3C1B6",
"(. c #C6C4B9",
"). c #C8C6BB",
"_. c #CBC9BE",
"`. c #C8CBB6",
"'. c #DCC4BB",
"]. c #D9DABB",
"[. c #C9D0AE",
"{. c #E6C8BC",
"}. c #E3E39A",
"|. c #9B96CB",
" X c #8F92D1",
".X c #A49DCC",
"XX c #94B3CE",
"oX c #A6A6C0",
"OX c #A9A9C2",
"+X c #A7A8C5",
"@X c #B2B7C1",
"#X c #BAB7C5",
"$X c #AEB0D1",
"%X c #8B95E7",
"&X c #94AAEB",
"*X c #ACABE6",
"=X c #A39DE4",
"-X c #C1B2C6",
";X c #C7B9C7",
":X c #CDB6D0",
">X c #C2BEE3",
",X c #D092D3",
"<X c #93C7CF",
"1X c #B8CBC9",
"2X c #BAD7D8",
"3X c #ACCAD1",
"4X c #B1C9E6",
"5X c #BFE6E0",
"6X c #CECCC3",
"7X c #C9C7C7",
"8X c #D1CFC6",
"9X c #D7CAC7",
"0X c #CCD3CD",
"qX c #D2D0C7",
"wX c #D4D3CB",
"eX c #D9D6CF",
"rX c #D9DAC8",
"tX c #C7D9D9",
"yX c #D5D4D2",
"uX c #D9D7D0",
"iX c #DBD9D2",
"pX c #DEDDD9",
"aX c #D7D9D8",
"sX c #CEC9D7",
"dX c #EACAC8",
"fX c #E3D7CC",
"gX c #E2DCD4",
"hX c #E0DFD9",
"jX c #ECDAD6",
"kX c #F5D1C9",
"lX c #DCE2D7",
"zX c #D0E3D4",
"xX c #E3E2DC",
"cX c #E7E6DA",
"vX c #EBE9D8",
"bX c #C9C6E5",
"nX c #D1CEE5",
"mX c #C3DFE1",
"MX c #CAD4E8",
"NX c #D8D6EA",
"BX c #D8D5E7",
"VX c #D0D7F4",
"CX c #E3DDE7",
"ZX c #C6E3E4",
"AX c #D2E9EA",
"SX c #E6E5E1",
"DX c #E9E7E2",
"FX c #EBEAE5",
"GX c #EEEEE9",
"HX c #E6EAE5",
"JX c #F0EFEA",
"KX c #F6EBE5",
"LX c #F2F1EC",
"PX c #F9F5E8",
"IX c #F6F7F3",
"UX c #EBF2EC",
/* pixels */
"uXuXiXiXiXuXuXuXuXuXuXiXiXuXuXuXuXuXuXiXiXuXiXgXiXiXgXiXuXiXiXiXiXiXiXiXiXiXiXiXiXiXiXiXiXiXiXiXiXiXiXiXiXiXiXiXiXiXiXiXiXiXiXiXiXiXiXiXiXiXiXiXiXiXiXiXiXiXiXiXiXiXiXiXiXiXiXiXiXiXiXiXiXiXiXiXiXiXiXiXiXiXiXiXiXiXiXiXiXiXiXiXiXiXiXiXiXiXiXiXiXiXiXiXiXiXiXiXiXiXiXiXiXiXiXiXiXiXiXiXiXiXiXiXiXiXiXiXiXiXiXiXiXiXiXiXiXiXiXiXiXiXiXiXuXiXiXiXiXiXiXiXiXiXiXpXiXiXiXiXiXiXiXiXiXiXiXgXiXuXiXpXiXuXiXiXiXiXiXiXiXiXiXiXiXiXiXiXiXpXiXiXiXiXiXpXiXiXiXiXiXgXiXiXiXiXiXiXiXuXuXiXiXgXiXgXiXgXgXiXgXiXiXgXiXiXuXgXgXiXiXiXiXuXeXiX",
"gXiXuXiXuXiXgXgXgXgXgXiXiXgXgXgXgXgXgXuXuXiXyX3X~.~.3XyXiXuXiXiXiXiXiXiXiXiXiXiXiXiXiXiXiXiXiXiXiXiXiXiXiXiXiXiXiXiXiXiXiXiXiXiXiXiXiXiXiXiXiXiXiXiXiXiXiXiXiXiXiXiXiXiXiXiXiXiXiXiXiXiXiXiXiXiXiXiXiXiXiXiXiXiXiXiXiXiXiXiXiXiXiXiXiXiXiXiXiXiXiXiXiXiXiXiXiXiXiXiXiXiXiXiXiXiXiXiXiXiXiXiXiXiXiXiXiXiXiXiXiXiXiXiXiXiXiXiXiXiXiXiXiXuXiX7X7X0X7X7XwX7X7XuX#XD.#X7X7X#XuX7X8X7X7X8X7XD.7XiXuX#X7XiX7XwX@X#X7X#XuX8X0XuX@X7X#X7X#X@X7X#X7X#XuX#X7X8XwX0X7XA.7XwX7X7X7X#XwXiXS.wXiXA.uX3X1Xh.1XwXh.1X7XA.0X1XiXA.A.uXiXuXiX`.^.j ",
"( 3XgXuXiXuX .' ' ' ' 0X0X' ' ' ' ' <XgXiXsX^.l V V l ^.0XiXuXiXiXiXiXiXiXiXiXiXiXiXiXiXiXiXiXiXiXiXiXiXiXiXiXiXiXiXiXiXiXiXiXiXiXiXiXiXiXiXiXiXiXiXiXiXiXiXiXiXiXiXiXiXiXiXiXiXiXiXiXiXiXiXiXiXiXiXiXiXiXiXiXiXiXiXiXiXiXiXiXiXiXiXiXiXiXiXiXiXiXiXiXiXiXiXiXiXiXiXiXiXiXiXiXiXiXiXiXiXiXiXiXiXiXiXiXiXiXiXiXiXiXiXiXiXiXiXiXiXiXiXiXuXgXD.Z.D.Z.#X7XD.D.iX7XD.1X#XA.p.8XZ.A.#XZ.#XA.7XA.iX#XD.#XwXu.7X#X#XA.A.pX#X7XwXg.7Xg.7X#X@X#XC.@X@X#XD.7X#XZ.Z.7XZ.wXiXC.#X#Xu.8XgXM.wXiX[ 3X[ h.[ h.h.h.1Xh.[ 3Xh.gX] ] 7XiXeXhX~.j M ",
") 3XgXyXgXXX) ( ( ( ( 0X0X) ( ( ( ) ~ 0XaX^.V [.iXiX}.^.XXeXiXuXiXiXiXiXiXiXiXiXiXiXiXiXiXiXiXiXiXiXiXiXiXiXiXiXiXiXiXiXiXiXiXiXiXiXiXiXiXiXiXiXiXiXiXiXiXiXiXiXiXiXiXiXiXiXiXiXiXiXiXiXiXiXiXiXiXiXiXiXiXiXiXiXiXiXiXiXiXiXiXiXiXiXiXiXiXiXiXiXiXiXiXiXiXiXiXiXiXiXiXiXiXiXiXiXiXiXiXiXiXiXiXiXiXiXiXiXiXiXiXiXiXiXiXiXiXiXiXiXiXiXiXuXpX#XZ.Z.#XD.@X#XA.8X7X#X7X#XD.Z.@XZ.Z.D.@XC.D.#XA.iX#X@XA.D.g.D.7X7XD.@XpX#X@X7XZ.7XZ.uX7X#X#Xg.#XD.#X@XA.D.#XA.wXA.iXuXZ.@X#Xg.7XhXM.wXyX] ] h.h.] h.h.A.] h.] A.h.0X] ] 0XiXuXhX~.j ^.",
") 3XgXyXjX .) 1XjXgXgXgX0X)  .jXjXXX) 1X3X^.].CXiX0X1X3X' 1XiXuXiXiXiXiXiXiXiXiXiXiXiXiXiXiXiXiXiXiXiXiXiXiXiXiXiXiXiXiXiXiXiXiXiXiXiXiXiXiXiXiXiXiXiXiXiXiXiXiXiXiXiXiXiXiXiXiXiXiXiXiXiXiXiXiXiXiXiXiXiXiXiXiXiXiXiXiXiXiXiXiXiXiXiXiXiXiXiXiXiXuXuXuXuXuXuXuXuXuXuXuXuXuXuXuXuXuXuXuXuXuXuXuXuXuXuXuXuXuXuXuXuXuXuXuXuXuXuXuXuXuXuXuXiXqX7X7XqX7X#XeX#X#XwX8X7X7X7X#X7XwXwX7XeX7X7XD.8XiXuX#X7X7XeX7X7XwX7X#XuXwXD.7X#X7X7XiXwX8XqXwX7X#XeX#X7X8XwX8XwX7XiX8X8X7X7X#XwXiXE.wXuX1X1X1X1XA.1XwXA.1X7XA.0XA.3X7X1X7XiXeXiX6X^.6.",
") 3XgXyXgX<X) ( ' ' XXgX0X)  .gXiX .) 1X0X .| 0XiX0X0XgX] <XiXuXiXiXiXiXiXiXiXiXiXiXiXiXiXiXiXiXiXiXiXiXiXiXiXiXiXiXiXiXiXiXiXiXiXiXiXiXiXiXiXiXiXiXiXiXiXiXiXiXiXiXiXiXiXiXiXiXiXiXiXiXiXiXiXiXiXiXiXiXiXiXiXiXiXiXiXiXiXiXiXiXiXiXiXiXiXiXiXiXuXpXpXpXpXpXpXpXpXpXpXpXpXpXpXpXpXpXpXpXpXpXpXpXpXpXpXpXpXpXpXpXpXpXpXpXpXpXpXpXpXpXpXpXpXhXxXxXhXxXxXpXxXxXhXhXxXxXxXxXxXhXhXxXhXxXxXxXhXpXpXxXxXxXpXxXxXhXhXxXiXpXxXhXxXhXpXiXpXpXpXpXhXhXpXxXhXpXpXpXpXhXiXhXhXhXxXxXpXpXhXpXpXhXxXhXxXcXxXhXcXxXhXcXhXcXxXhXhXhXpXpXpXhXhXxX",
") 3XgXyXuXiX .( ( ( ) 3X0X~ ( ( ( ) ( 0X1X' ) 1XjXiXiXiX] <XiXuXiXiXiXiXiXiXiXiXiXiXiXiXiXiXiXiXiXiXiXiXiXiXiXiXiXiXiXiXiXiXiXiXiXiXiXiXiXiXiXiXiXiXiXiXiXiXiXiXiXiXiXiXiXiXiXiXiXiXiXiXiXiXiXiXiXiXiXiXiXiXiXiXiXiXiXiXiXiXiXiXiXiXiXiXiXiXiXuXpXxXxXxXxXxXxXxXxXxXxXxXxXxXxXxXxXxXxXxXxXxXxXxXxXxXDXDXxXxXDXxXxXxXSXxXxXxXxXxXxXxXxXxXxXxXSXxXxXxXxXxXxXxXxXxXxXxXxXxXxXxXxXxXxXxXxXxXxXxXxXxXxXxXxXxXxXxXhXpXSXxXpXhXpXpXpXpXpXhXhXxXxXxXxXpXhXhXhXhXhXhXxXxXcXcXcXxXDXxXDXDXDXDXxXDXxXSXxXxXxXcXcXcXxXxXSXxXFXSXDXFXSXSXxXDX",
") 3XjXgXiXiXjXgXjX0X~  .wX) ( ' ' ' 3XjXXX' ( ' 0XyXjX3X' 1XiXuXiXiXiXiXiXiXiXiXiXiXiXiXiXiXiXiXiXiXiXiXiXiXiXiXiXiXiXiXiXiXiXiXiXiXiXiXiXiXiXiXiXiXiXiXiXiXiXiXiXiXiXiXiXiXiXiXiXiXiXiXiXiXiXiXiXiXiXiXiXiXiXiXiXiXiXiXiXiXiXiXiXiXiXiXiXiXuXpXxXxXxXcXpXxXxXxXxXxXxXxXxXxXxXxXxXxXxXxXxXxXxXxXxXxX8X6XFXxX_.DXDXxXeXpXSXxXDXxXxXDXSXxXDXxXuXxXxXxXxXxXxXxXxXxXxXxXxXxXxXxXxXxXxXxXxXpXxXxXxXxXxXxXxXxXhXhXpXSX6._.xXpXhXcXcXvXxXpXxX0X] <XhXhXhXhXhXhXhXxXxXpXtXtXaXiXqXhX8X_.6XqXhXqXiXeXhXxXxXtXtXtXxXxXqXiX/.iXeX/.iXiXiX6X",
") ' ' ' <XiX' ' ' ' ) <X0X)  .jXgXgXgXuXjX3X~ ( )  .0X]  .0XiXuXiXiXiXiXiXiXiXiXiXiXiXiXiXiXiXiXiXiXiXiXiXiXiXiXiXiXiXiXiXiXiXiXiXiXiXiXiXiXiXiXiXiXiXiXiXiXiXiXiXiXiXiXiXiXiXiXiXiXiXiXiXiXiXiXiXiXiXiXiXiXiXiXiXiXiXiXiXiXiXiXiXiXiXiXiXuXpXxXxXxXcXtX3XcXxXxXxXxXxXxXxXxXxXxXxXxXxXxXxXxXxXxXxXxX7._.N.8.q.q.m.U.:.).wXq.U.V.V.q.q.).q.7.q.DXxXxXxXxXxXxXxXxXxXxXxXxXxXxXxXxXxXxXcXtX3XxXxXxXxXxXxXxXhXpXxXiXk 6.FXpXpX3X<X] 2XxXxX2X' ] pXhXhXhXhXhXxXxXcXtX . .2X8X$./.$.8./.$.B.q.6XB.wXDXlX2X<X2XSXqX$./.$.V.V._.7.)././.",
"( ( ( ~ XXiX( ( ( ( ] iX0X( XXgXyXuXuXuXgX<X<X .(  .]  .0XiXuXiXiXiXiXiXiXiXiXiXiXiXiXiXiXiXiXiXiXiXiXiXiXiXiXiXiXiXiXiXiXiXiXiXiXiXiXiXiXiXiXiXiXiXiXiXiXiXiXiXiXiXiXiXiXiXiXiXiXiXiXiXiXiXiXiXiXiXiXiXiXiXiXiXiXiXiXiXiXiXiXiXiXiXiXiXuXpXxXxXxXxXcX2X2XcXxXxXxXxXxXxXxXxXxXxXxXxXxXxXxXxXxXxXxXxX8X7.b m.$.:.7./.N.wX(.m.:.B.7.q.V.:.:.q.U.FXxXxXxXxXxXxXxXxXxXxXxXxXxXxXxXxXxXxXcXaX3XxXxXxXxXxXxXhXhXpXDX^.j j iXhXpX3X3Xh.0XxXxX2X] ] aXxXhXhXhXxXxXxXcXtX . .2XeX:.:.m.8.).N.:.8./.m.eXDXlXtX3XtXSXc.$.7.q.q.m.wX:.U.V.qX",
"uXuXuXuXiXiXuXuXuXuXgXiXuXuXuXiXiXiXiXiXuXgXjXXX3X1X<XyXiXuXiXiXiXiXiXiXiXiXiXiXiXiXiXiXiXiXiXiXiXiXiXiXiXiXiXiXiXiXiXiXiXiXiXiXiXiXiXiXiXiXiXiXiXiXiXiXiXiXiXiXiXiXiXiXiXiXiXiXiXiXiXiXiXiXiXiXiXiXiXiXiXiXiXiXiXiXiXiXiXiXiXiXiXiXiXuXpXxXxXxXxXxXxXcXaXxXxXxXxXxXxXxXxXxXxXxXxXxXxXxXxXxXxXxXxXxX(._._._.8X/.qX/.(.wX(.w.qXeX8X).).).(.8X(.xXxXxXxXxXxXxXxXxXxXxXxXxXxXxXxXxXxXxXxXaXlXcXxXxXxXxXhXhXhXpXxXqXxXwXiXhXhXcXcXvXxXpXhXpX3X0XxXpXhXhXxXxXxXxXcXaX3X3XtXgX6X).qXU.(.eX6X6X/.(.SXxXxXtX2XtXxX6XxXU.N.wX8XV.pX/./.xX",
"iXiXiXiXiXiXiXiXiXiXuXuXiXiXiXuXiXiXiXuXiXuXuXgXiXiXiXiXuXiXuXiXiXiXiXiXiXiXiXiXiXiXiXiXiXiXiXiXiXiXiXiXiXiXiXiXiXiXiXiXiXiXiXiXiXiXiXiXiXiXiXiXiXiXiXiXiXiXiXiXiXiXiXiXiXiXiXiXiXiXiXiXiXiXiXiXiXiXiXiXiXiXiXiXiXiXiXiXiXiXiXiXiXiXuXpXxXxXxXxXxXxXxXxXcXxXxXxXxXxXxXxXxXxXxXxXxXxXxXxXxXxXxXxXxXxXDXDXDXSXDXDXSXDXDXFXqXiXFXxXSXSXSXDXDXSXDXxXxXxXxXxXxXxXxXxXxXxXxXxXxXxXxXxXxXxXxXcXxXxXxXxXxXhXhXhXhXhXpXxXpXxXhXhXhXpXpXpXpXhXhXhXcXxXpXhXhXxXxXxXxXxXxXxXvXvXcXxXDXDXSXDXDXxXDXDXDXDXxXxXxXcXcXcXxXDXxXFXDXSXSXFXxXDXDXxX",
"xXxXxXxXxXxXxXxXxXxXxXxXxXxXxXxXxXxXxXxXxXxXxXxXxXxXxXxXxXxXxXxXxXxXxXxXxXxXxXxXxXxXxXxXxXxXxXxXxXxXxXxXxXxXxXxXxXxXxXxXxXxXxXxXxXxXxXxXxXxXxXxXxXxXxXxXxXxXxXxXxXxXxXxXxXxXxXxXxXxXxXxXxXxXxXxXxXxXxXxXxXxXxXxXxXxXxXxXxXxXxXxXxXxXxXxXxXxXxXxXxXxXxXxXxXxXxXxXxXxXxXxXxXxXxXxXxXxXxXxXxXxXxXxXxXxXxXxXxXxXxXxXxXxXxXxXDXxXxXxXxXxXxXxXxXxXxXxXxXxXxXxXxXxXxXxXxXxXxXxXxXxXxXxXxXxXxXxXxXxXxXxXxXxXxXxXxXxXxXxXxXxXxXxXxXxXxXxXxXxXxXxXxXxXxXxXxXxXxXxXxXxXxXxXxXxXxXxXxXxXxXxXxXxXxXxXxXxXxXxXxXxXxXxXxXxXxXxXxXxXxXxXxXxXxXxX",
"8X8X8X8X8X8XqXqXqXqX8X6X8X8X8X6X6XqX8XqX6X8X8XqX6X6X6X6X6X6X6X6X6X6X6X6X6X6X6X6X6X6X6X6X6X6X6X6X6X6X6X6X6X6X6X6X6X6X6X6X6X6X6X6X6X6X6X6X6X6X6X6X6X6X6X6X6X6X6X6X6X6X6X6X6X6X6X6X6X6X6X6X6X6X6X6X6X6X6X6X6X6X6X6X6X6X6X6X6X6X6X6X6X6X6X6X6X6X6X6X6X6X6X6X6X6X6X6X6X6X6X6X6X6X6X6X6X6X6X6X6X6X6X6X6X6X6X6X6X6X6X6X6X6X6X6X6X6X6X6X6X6X6X6X6X6X6X6X6X6X6X6X6X6X6X6X6X6X6X6X6X6X6X6X6X6X6X6X6X6X6X6X6X6X6X6X6X6X6X6XpXhXiXiXiXiXpXpXiXiXiXiXxXxXiXpXpXiXiXiXpXxXiXhXpXiXiXiXpXxX8X6X8X6X6X6X6X6X6X6X8X6X6X6X6X6X6X6X6X6X6X6X6X6X6X6X",
"B.B.B.B.B.U.V.V.N.B.E./.B./././.(.V.U.N././.U.B./.(./.(.(.(.(.(.(.(.(.(.(.(.(.(.(.(.(.(.(.(.(.(.(.(.(.(.(.(.(.(.(.(.(.(.(.(.(.(.(.(.(.(.(.(.(.(.(.(.(.(.(.(.(.(.(.(.(.(.(.(.(.(.(.(.(.(.(.(.(.(.(.(.(.(.(.(.(.(.(.(.(.(.(.(.(.(.(.(.(.(.(.(.(.(.(.(.(.(.(.(.(.(.(.(.(.(.(.(.(.(.(.(.(.(.(.(.(.(.(.(.(.(.(.(.(.(.(.(.(.(.(.(.(.(.(.(.(.(.(.(.(.(.(.(.(.(.(.(.(.(.(.(.(.(.(.(.(.(.(.(.(.(.(.(.(.(.(.(.(.(.(.(.(./.iXpXeXuXuX_.N.U.6XiXuXeXhXpXiX6X8XhXiXeXpXxXiX/.6XpXiXeXiXxX_.(.B.U.)._._.).)./.B.).(.(.(.(.(.(.(.(.(.(.(.(.(.(.",
"7.8.b :.8.8.B.7.7.b 7.B.$.7.:.m.q.q.8.b q.:.8.b 7.8.m.6X).).).).).).).).).).).).).).).).).).).).).).).).).).).).).).).).).).).).).).).).).).).).).).).).).).).).).).).).).).).).).).).).).).).).).).).).).).).).).).).).).).).).).).).).).).).).).).).).).).).).).).).).).).).).).).).).).).).).).).).).).).).).).).).).).).).).).).).).).).).).).).).).).).).).).).).).).).).).).).).).).).).).).).).).).).).(.iXhXuXiXiXV./.B.(.iXiXuXhXpXpXN.8.8.6XiXiXDX/.q.8.S.E.$.eXxX6XB.:.V.q.8.q.q.B.7.m.6X(.).).).).).).).).).).).).).",
"w.b N.7.8.7._.q.q.b 7.q.7.b b N.q.8.b :.:.$.b N.8.:.m.6X).).).).).).).).).).).).).).).).).).).).).).).).).).).).).).).).).).).).).).).).).).).).).).).).).).).).).).).).).).).).).).).).).).).).).).).).).).).).).).).).).).).).).).).).).).).).).).).).).).).).).).).).).).).).).).).).).).).).).).).).).).).).).).).).).).).).).).).).).).).).).).).).).).).).).).).).).).).).).).).).).).).).).).).).).).).(.iXhXuXiXiXV.(.q.N.pXuXuXhXpXpXS.$.7.N.hXiXDXB.m.8.$.$.$.iXxX_.(.8.b :.:.:.7.$.x m.6X(.).).).).).).).).).).).).).",
"c.V.).V.m.m.m.B.B.B.N.q.B.N.V./.U.q.V.B.m./.m.).B./.S.(.(.(.(.(.(.(.(.(.(.(.(.(.(.(.(.(.(.).`.).).`.).(.(.(.(.(.(.(.(.(.(.(.(.(.(.(.(.(.(.(.(.(.(.(.(.(.(.(.(.(.(.(.(.(.(.(.(.(.(.(.(.(.(.(.(.(.(.(.(.(.(.(.(.(.(.(.(.(.(.(.(.(.(.(.(.(.(.(.(.(.(.(.(.(.(.(.(.(.(.(.(.(.(.(.(.(.(.(.(.(.(.(.(.(.(.(.(.(.(.(.(.(.(.(.(.(.(.(.(.(.(.(.(.(.(.(.(.(.(.(.(.(.(.(.(.(.(.(.(.(.(.(.(.(.(.(.(.(.(.(.(.(.(.(.(.(.(.(.(.(.iXhXuXiXuX).U.8.V.pXuXuXhXpXiX).U.6X8XiXpXxXiXV.).(.B./.wXxX_./.m.B.q.b B.B.c.m.E.).(.(.(.(.(.(.(.(.(.(.(.(.(.(.",
"wXwXqXwXwXwXwXwXwXwXwXeXwXwXwXwXwXeXwXwXeXwXeXqXwXwXwXqXqXqXqXqXqXqXqXqXqXqXwXwXwXwXwXwX8X(.@X_.;X$X7XqXqXqXqXqXqX8X6XqXqXqXqXqXqXqXqXqXqXqXqXqXqXqXqXqXqXqXqXqXqXqXqXqXqXqXqXqXqXqXqXqXqXqXqXqXqXqXqXqXqXqXqXqX8X6X6XqXqXqXqXqXqXqXqXqXqX8XqXqXqXqXqXqXqXqXqXqXqXqXqXqXqXqXqXqXqXqXqXqXqXqXqXqXqXqXqXqXqXqXqXqX6X6XqXqXqXqXqXqXqXqXqXqXqXqXqXqXqXqXqXqXwXqXqXwXqXqXwXqXqXqXqXqXqXqXqXqXqXqXqXqXqXqXqXqXqXqXqX6XiXhXuXiXiXuXiXpXiXuXiXuXhXhXeXpXpXiXiXuXpXxXuXhXpXpXhXpXiXxX8X6X8X8X(./.8X6X8X8X6X6X6X6X6X6X6X6X6X6X6X6X6X6X6X6X",
"jXDXJXLXLXLXLXLXLXLXLXLXLXLXLXJXDXLXLXLXLXLXLXLXLXLXDXGXLXLXLXLXLXGXDXLXLXLXGXaXpXpXyXyX%X%X%X9X-X%X%XNXFXLXcXfXjXU.y.rXiXcXLXLXLXLXLXLXLXLXLXLXLXLXLXFXGXLXLXLXLXLXLXLXLXJXDXLXLXLXLXLXLXDXGXLXLXLXLXDXLXJXcXrX].] <XtXtXHXLXDXJXLXDXJXLX7XLXLXLXLXLXLXLXLXLXLXLXLXLXLXLXLXLXDXLXLXLXLXLXLXLXLXLXFXGXLXLXHXAXmX3X$XBXBXHXLXGXFXLXLXLXDXGXLXLXDXLXLXGXDXLXGXDXIXiXuXIXLXLXLXLXLXLXLXLXLXLXLXLXLXLXLXFXFXHXBXBX+XyXxXuXiXuXiXxXxXiXiXiXuXhXhXuXuXuXuXiXuXpXxXuXuXuXuXuXuXiXxXiXiXiXiXiXiXuXuXuXiXiXiXiXiXiXiXiXiXiXiXiXiXiXiXiXiX",
"t.t.DXLXGXJXJXJXJXJXJXJXJXGXJXGXxXLXGXJXJXJXJXJXGXLXxXFXJXGXJXGXJXFXxXLXGXLX&X X X X X%X|.6X9X7XE.'.=XMXvXJXxX9XdXJ.7.rXrXcXGXJXGXJXJXJXJXJXJXJXJXGXLXSXFXLXGXJXJXJXJXGXJXGXxXLXGXJXJXGXLXxXFXJXGXGXJXxXGXFXxXqX[.] <X2XtXHXJXxXGXLXxXGXGX(.JXGXJXJXJXJXJXJXJXJXJXJXJXJXJXJXGXxXJXGXJXJXJXJXJXGXLXSXFXLXJXHXZX2XXX+XaXBXSXGXFXDXLXGXLXxXFXJXJXxXGXLXFXxXLXFXxXIXwXwXIXGXJXJXJXJXJXJXJXJXJXJXJXJXGXLXDXDXSXBXnX.XyXxXuXiXuXiXcXxXiXuXiXuXhXhX9X'.9X9X'.'.iXxX9X'.9X9X'.'.eXxXiXuXuXuXgXgXgXgXgXuXuXuXuXuXuXuXuXuXuXuXuXuXuXeXuXiX",
":.$.hXLXGXJXJXJXJXJXJXJXJXJXJXGXxXLXJXJXJXJXJXJXJXLXSXFXLXJXJXJXLXFXxXLXJXGX%X;X;X7X7X7XE.7X7X7XE.9X=XMXKXLXcXfXjXJ.7.rXrXcXGXJXJXJXJXJXJXJXJXJXJXJXLXDXFXLXJXJXJXJXJXJXJXGXxXLXJXJXJXJXLXxXFXLXJXJXJXxXJXGXxXrX[.] <X2XtXHXLXxXGXLXxXGXJX(.LXJXJXJXJXJXJXJXJXJXJXJXJXJXJXJXGXxXLXJXJXJXJXJXJXJXLXDXFXLXJXHXZX2X<X+XBXBXSXGXFXDXLXGXLXSXFXLXLXxXGXLXFXxXLXFXxXIXeXwXIXGXJXJXJXJXJXJXJXJXJXJXJXJXJXLXDXDXSXBXBX.XyXxXuXiXuXiXpXpXiXiXiXuXhXhX9X'.'.9X'.'.iXxX9X'.'.9X'.'.eXxXiXuXiXiXXX' ' ] 3XgXiXuXiXiXiXuXiXiXpXiXpXiXiXhXiXuX",
"U.N.cXLXJXJXJXJXJXJXJXJXJXJXJXGXxXLXJXJXJXJXJXJXJXLXSXFXLXJXJXJXLXFXxXLXLXHX&XE.;X9X7X7XE.7X7X7XE.9X=X$XfXLXxXfXjXJ.7.rXrXcXGXJXJXJXJXJXJXJXJXJXJXJXLXDXFXLXJXJXJXJXJXJXJXGXxXLXJXJXJXJXLXxXFXLXJXJXLXxXJXGXxXrX[.] <X2XtXHXLXxXGXLXxXGXJX(.LXJXJXJXJXJXJXJXJXJXJXJXJXJXJXJXGXxXLXJXJXJXJXJXJXJXLXDXFXLXJXHXZX2XXX+XBXBXSXGXFXDXLXGXLXxXFXLXLXxXGXLXFXxXLXFXxXIXeXwXIXGXJXJXJXJXJXJXJXJXJXJXJXJXJXLXDXDXSXBXBX.XyXxXuXuXgX1X^ ' 0XiXuXuXhXhX9X'.'.9X'.'.iXxX9X'.'.9X'.'.eXxXiXiXuX' ^ XX3XXX^ ] gXuXiXiXuXpXm.B._.6X(.wXwXm.6XiX",
"jXcXFXJXJXJXJXJXJXJXJXJXJXJXJXGXxXLXJXJXJXJXJXJXJXLXSXFXLXJXJXJXLXFXxXLXPXHX&XE.;X7X7X7XE.7X7X7XE.9X.X+X9XLXcXfXdXe.y.rXrXcXGXJXJXJXJXJXJXJXJXJXJXJXLXDXFXLXJXJXJXJXJXJXJXGXxXLXJXJXJXJXLXxXFXLXJXJXLXxXJXGXxXrX[.] <X2XtXHXLXxXGXLXxXGXJX(.LXJXJXJXJXJXJXJXJXJXJXJXJXJXJXJXGXxXLXJXJXJXJXJXJXJXLXDXFXLXJXHXZX2XXX+XBXBXSXGXFXDXLXGXLXxXFXLXLXxXGXLXFXxXLXFXxXIXeXwXIXGXJXJXJXJXJXJXJXJXJXJXJXJXJXLXDXDXSXBXBX.XyXxXuXuXgX1X~ ^ 0XiXuXuXhXhX9X'.'.9X'.'.iXxX9X'.'.9X'.'.eXxXiXgX] ' xXKXDXKXaX^ XXgXuXiXeXpXN.$.$.$.$.$.c.c 8XiX",
"fXjXFXJXJXJXJXJXJXJXJXJXJXJXJXGXxXLXJXJXJXJXJXJXJXLXSXFXLXJXJXJXLXFXcXHXDXMX%X_.;X7X7X7XE.7X7X7XE.9X$X.X'.pXfXfXW.>.7.qXrXcXGXJXJXJXJXJXJXJXJXJXJXJXLXDXFXLXJXJXJXJXJXJXJXGXxXLXJXJXJXJXLXxXFXLXJXJXLXxXJXGXxXrX[.] <X2XtXHXLXxXGXLXxXGXJX(.LXJXJXJXJXJXJXJXJXJXJXJXJXJXJXJXGXxXLXJXJXJXJXJXJXJXLXDXFXLXJXHXZX2XXX+XBXBXSXGXFXDXLXGXLXxXFXLXLXxXGXLXFXxXLXFXxXIXeXwXIXGXJXJXJXJXJXJXJXJXJXJXJXJXJXLXDXDXSXBXBX.XyXxXuXuXgX1X~ ^ 0XiXuXuXhXhX9X'.'.9X'.'.iXxX9X'.'.9X'.'.eXxXgX0X^ tXDXlXxXHXIX3X^ iXiXuXuXpXm.8./.b 7.q.:.q._.iX",
"'.cXFXJXJXJXJXJXJXJXJXJXJXJXJXGXxXLXJXJXJXJXJXJXJXLXSXFXLXJXJXJXGXJXnX%X%X%X$X_.;X7X7X7XE.7X7X7XE.9X$X.X_.;XE.E.R.2.$.).rXcXGXJXJXJXJXJXJXJXJXJXJXJXLXDXFXLXJXJXJXJXJXJXJXGXxXLXJXJXJXJXLXxXFXLXJXJXJXxXJXGXxXrX[.] <X2XtXHXLXxXGXLXxXGXJX(.LXJXJXJXJXJXJXJXJXJXJXJXJXJXJXJXGXxXLXJXJXJXJXJXJXJXLXDXFXLXJXHXZX2XXX+XBXBXSXGXFXDXLXGXLXxXFXLXLXxXGXLXFXxXLXFXxXIXeXwXIXGXJXJXJXJXJXJXJXJXJXJXJXJXJXLXDXDXSXBXBX.XyXxXuXuXgX1X~ ^ 0XiXuXuXhXhX9X'.'.9X'.'.iXxX9X'.'.9X'.'.eXxXgX3X' xXxXxXxX:.b 7X^ 7XiXuXuXpXpXiXxX(.wXpXiXhXpXpX",
"E.cXDXJXJXJXJXJXJXJXJXJXJXJXJXFXxXJXJXJXJXJXJXJXJXJXxXFXJXJXJXJXGXPX*X.X9X7X9X;X;X7X7X7XE.;X7X7XE.9X$X|.'.7XE.T.Y.2.$./.rXxXGXLXJXGXGXGXGXGXGXGXGXGXJXcXFXJXJXJXJXJXJXJXJXGXxXLXJXJXJXJXLXxXFXJXGXGXJXxXJXFXxXwX[.] <X2XtXHXJXxXFXLXxXFXGX(.JXGXGXGXGXGXGXGXGXGXGXGXGXGXGXGXGXxXGXGXGXGXGXGXGXGXGXxXFXJXGXHXZX2XXX+XaXBXSXGXFXSXJXGXJXxXFXGXJXxXGXJXFXxXLXFXxXIXwXwXLXGXGXGXGXGXGXGXGXGXGXGXGXGXGXJXDXSXSXBXnX.XyXxXuXuXgX1X~ ^ 0XiXuXuXhXhX9X'.'.9X'.'.iXxX9X'.'.9X'.'.eXxXgX3X^ xXxXxXxXV.m.7X- 7XiXuXpX)./.iXB.6XE.pXeXB.B._.",
"fXcXJXIXIXIXIXIXIXIXIXIXIXIXIXUXHXIXIXIXIXIXIXIXIXIXHXUXIXIXIXIXIXIX*X$X9X7X7X7X7X9X7X8X7X7X8XsX7XwX>X%X%X7X;XE.R.2.:.U._.FXLXFXJXIXIXIXIXIXIXIXIXIXIXUXUXIXIXIXLXLXLXLXLXLXHXIXLXLXLXLXIXHXLXIXIXIXIXSXJXJXcXrX].] <X2XtXUXLXSXLXIXFXLXLX7XLXLXPXPXPXPXPXPXPXPXPXPXPXPXPXPXPXvXPXPXPXPXPXPXPXPXIXKXLXIXLXUXAXmX<X$XBXNXFXIXLXGXIXLXIXFXLXIXIXFXLXIXLXFXIXLXFXIXiXiXIXLXIXIXIXIXIXIXIXIXIXIXIXIXIXIXGXGXGXNXBX+XyXxXuXuXgX1X~ ^ 0XiXuXuXhXhX9X'.'.9X'.'.iXxX9X'.'.9X'.'.eXxXiXwX^ 1XKXxXxXFXIX%.< gXuXuXiX8.8.E.7.v w.).8.$.v 8.",
"H.H.H.H.H.H.H.H.H.H.H.H.H.H.H.H.H.H.H.H.H.H.H.H.H.H.H.H.H.H.H.H.H.H.s.s.G.G.G.G.G.G.G.G.G.G.G.K.3.3.3.b.} C.b.3.3.;.v 0.0.E.E.F.E.B.y.^.y.y.N N N B B a a a a a a a a a a a s a a a a a a s i i i i i a a a s i i w i i i p a a p i i i p i a p p T R |. X X%X%X%X%X%X%X%X%X%X%X%X&X&X&X&X&X<X<X3Xl.D.8X9X7XA.A.h.p.#X#X7X7X).(.6X7X6X/.).6X6X/.7X6X)./.6X)./.8XM.M.6X7X6X6X6X6X6X6X6X6X6X6X6X6X6X6X(.(.7X#X#Xp.yXxXuXuXgX1X~ ^ 0XiXuXuXhXhX9X'.'.9X'.'.iXxX9X'.'.9X'.'.eXxXiXgXh.^ tXcXxXDXA.; A.hXuXuXiXq.7.m.7.$.w.E.:.$.b w.",
"Q.Q.dXdXdXdXdXdXdXdXdXdXdXdXdXdX{.dXdXdXdXdXdXdXdXdXdXdXdXdXdXdXdXdX|.F.Y.Y.Y.L.L.Y.P.P.K.I.K.K.G.G.T p R Z.E.N.L.>.$.v.N.E.c.b n n l 6 5 i p H.H.!.!.J.W.'.'.'.'.'.'.'.'.'.W.'.'.'.'.'.'.'.[.U.J.M l l M '.dXW.J._ h.E.'.dXA.` [ ] h.A.~.a.L L ....&X&X&X&X4X4X4X4X4X4X4X4X4XXX4X&X&X&X....X.J { ' ]  .<XaXaX3XXX.XsXsXaXxXpXiXxXxXxXiXhXxXxXiXxXxXhXiXxXhXiXFX6X6XDXxXxXxXxXxXxXxXxXxXxXxXxXxXxXxXpXpXaXsXsX.XyXxXuXuXgX1X~ ^ 0XiXuXuXhXhX9X'.'.9X'.'.iXxX9X'.'.9X'.'.eXxXiXuXgX] XXcXiXcX_ %.cXuXiXuXiX6X(.8X(.6X(.pX(._./.6X",
"dXdXjXcXcXcXcXcXcXcXcXcXcXcXcXcXgXvXcXcXcXcXcXcXcXDXgXjXcXvXhX%X&X&X%X-XE.E.;XE.E.;XE.;XE.E.;X;XE.;X;XW.|.T G.K.E.2.$.E.m.b b c.J.s s !.{.N N Q.UXHXHXlXlXcXcXcXcXcXcXcXcXlXzXcXcXcXcXcXcXlXlXcXHXHXcXqX^.l M 0XrX] <XZX<X . .<XZXAXZX4X..X.&X5XZXZXZXZXZXZXZXZXZXZXZXZXZXZXZXtXZXZXZXZXZXZXZX4X&X..&X2X<X .<XZX<X+XBXBXHXLXGXFXLXLXLXDXJXLXLXDXLXLXJXDXIXJXDXIXuXuXIXLXLXLXLXLXLXLXLXLXLXLXLXLXLXLXFXFXHXBXBX.XyXxXuXuXgX1X~ ^ 0XiXuXuXhXhX9X'.'.9X'.'.iXxX9X'.'.9X'.'.eXxXiXuXiXgXiXuXuXuXgXgXuXiXiXiXuXiXpXiXpXiXpXuXpXpXpXiX",
"{.dXjXjXjXjXjXjXjXjXjXjXjXjXjXjXfXjXjXjXjXjXjXjXjXjXfXjXjXjXnX XW.E.Y.E.E.E.E.E.E.E.E.E.T.E.;X;XE.E.E.W.|.=XL.p G.2.:.7.n q.7Xp 7 i N 0XN N U.p B cXcXlXrXcXxXxXxXxXxXxXcXlXrXcXxXxXxXxXcXrXgXcXlXlXxXrXcXcXy.j y.] <X| | 2XAXtXtXZX&XX.*X~.ZXmXmXmXmXmXmXmXmXmXmXmXmXmXmXmXmX2XmXmXmXmXmXmXmXZXZX2X....mX2X| | XX+XBXBXSXGXFXDXLXGXLXxXFXJXLXxXGXLXFXxXLXFXxXIXwXwXIXGXJXJXJXJXJXJXJXJXJXJXJXJXGXLXDXDXSXBXBX.XyXxXuXuXgX1X~ ^ 0XiXuXuXhXhX9X'.'.9X'.'.iXxX9X'.'.9X'.'.eXxXiXuXiXuXiXjXjXgXiXeXiXiXiXiXiXuXeXuXuXuXeXiXuXuXeXuX",
"{.dXjXjXjXjXjXjXjXjXjXjXjXjXjXjXfXjXjXjXjXjXjXjXjXjXfXjXjXjXnX|.W.E.E.E.E.E.E.E.E.E.E.E.Y.E.K.p p P.E.E.F. X XT.W t z n V.(.i u E.(.N u p E.(.7Xp B cXJ.lXcXxXxXxXxXxXxXcXlXrXcXxXxXxXxXcXrXlXcXxXxXcXrXlXlXlX~.l [ (  .2X5XmX2XZX....mXZXA.mXmXmXmXmXmXmXmXmXmXmXmXmXmXmXmXmX2XZXmXmXmXmXmXmXmXmX2XzX&XX.4X2X .( $XBXBXSXGXFXDXLXGXLXxXFXLXLXxXGXLXFXxXLXFXxXIXeXwXIXGXJXJXJXJXJXJXJXJXJXJXJXJXJXLXDXDXSXBXBX.XyXxXuXuXgX1X~ ^ 0XiXuXuXhXhX9XW.'.9X'.'.iXxX9XW.'.9X'.'.eXxXiXuXuXgX0Xh.] XXwXgXuXiXiXiXuXiXhXiXuXiXiXiXiXuXiXiX",
"dXdXjXjXjXjXjXjXjXjXjXjXjXjXjXjXfXjXjXjXjXjXjXjXjXjXfXjXjXjXbX|.W.E.Y.E.E.E.E.E.E.E.E.E.Y.E.p K.p G.sXE.E.W. Xs.R.r q M.S.i u (.E.E.E.J.E.E.E.E.7Xp !.7 H.cXxXlXlXlXlXlXcXlXrXcXlXxXxXlXcXrXlXcXxXxXcXrXxXlX].`.V.g ' 3X<X2XmXtX%X..tXtXmXA.ZXmXmXmXmXmXmXmXmXmXmXmXmXmXmXmXmX2XZXmXmXmXmXmXmXmXZX2X2XAX4XX.<X3X .{ BXBXSXGXFXDXLXGXLXxXFXLXLXxXGXLXFXxXLXFXxXIXeXwXIXGXJXJXJXJXJXJXJXJXJXJXJXJXJXLXDXDXSXBXBX.XyXxXuXuXgX1X~ ^ 0XiXuXuXhXhXrX].].].].].iXxXrX].].rX].].eXxXiXuXgXh.^ ' ] ' ^ 3XgXuXiXuXiX6Xq.qXpXqX6XeXiXiXqX6X",
"W.'.fXKXFXFXFXFXFXFXFXFXFXFXFXDXhXFXFXFXFXFXFXFXFXFXhXvXFXKXbX.X9X;XE.;X;X;X;XE.E.;X;X;XE.;Xp 7XI.p G.Y.T.W. XF.N 6 u p p 7 G.7XE.E.E.(.E.E.E.E.7XG.p U.p !.HXcXcXcXcXcXcXcXiXcXcXcXcXcXcXrXlXcXlXlXlXrXxXlXrX[.] ~ j <X3X2XZX&X..ZX2XtXmXA.ZXmXmXmXmXmXmXmXmXmXmXmXmXmXmXmXmX2XZXmXmXmXmXmXmXmXZX2X2XmXZX&XX.<XXX{  .CXSXGXFXDXLXGXLXxXFXLXLXxXGXLXFXxXLXFXxXIXeXwXIXGXJXJXJXJXJXJXJXJXJXJXJXJXJXLXDXDXSXBXBX.XyXxXuXuXgX1X~ ^ 0XiXuXuXhXhX].].].rXrXrXpXxXrX].].rX].].rXxXiXgXXX^ 2XFXKXvX3X~ 1XgXuXuXpXw.E.$.E.$.$.w.7.E.$.q.",
"t p N !.!.!.!.!.!.!.!.!.!.!.!.!.H.!.!.!.!.!.!.!.!.!.H.H.H.H.s.a.G.G.G.G.G.G.G.G.G.G.G.G.G.G.i K.K.G.p I.;XW. X|.i t b u 7 N.E.E.E.;X;XE.E.E.U.B.N.S.S.m.V.i [.].].].].].].].[.].].].rXrXrXqXrXcXcXDXFXiXxXrXrXh.' ] [ j 3XmX4XX.2XZX2XtXmXA.ZXmXmXmXmXmXmXmXmXmXmXmXmXmXmXmXmX2XZXmXmXmXmXmXmXmXZX2X2XZXmXmX%XX.XXXX| 3XKXGXFXDXLXGXLXxXFXLXLXxXGXLXFXxXLXFXxXIXeXwXIXGXJXJXJXJXJXJXJXJXJXJXJXJXJXLXDXDXSXBXBX.XyXxXuXuXgX1X~ ^ 0XiXuXuXhXhXrXrXrX}.V V rXxXrX].].rX].].rXxXiXwX^ 3XKXxXxXHXIXXX' gXuXuXpXc.q.8.$.$.7.$.:.$.$.N.",
"G.t G.Q.!.!.!.!.!.!.!.!.!.!.!.!.!.!.!.!.!.!.!.!.!.!.R R R R Q s.G.G.G.K.G.G.K.K.G.K.K.K.u i p G.W G.p p K.R.#XG Q =.x u t E.E.E.q.7.b n n n n n n n n n n x w M M M M M M M l M M l l l M l l M M M y.[.lXvX1X' ^.[  ._ _ ZXX.XXZXmX2XtXmXA.ZXmXmXmXmXmXmXmXmXmXmXmXmXmXmXmXmX2XZXmXmXmXmXmXmXmXZX2XtXZXmX2X2X..X.XX3X| CXJXFXDXLXGXJXSXFXGXGXxXGXJXFXSXLXFXxXIXwXwXIXGXGXGXGXGXGXGXGXGXGXGXGXGXGXLXDXDXSXBXnX.XyXxXuXuXgX1X~ ^ 0XiXuXuXhXhX}.}.}.V V V fXxXrX].].rX].].rXxXgX3X^ xXxXxXxXB.V.0X^ 0XiXuXiXuX).iX6XeX/.q.iX6XwX8X",
"Q.Q.dXjXjXjXjXjXjXjXjXjXjXjXjXfXdXjXjXjXjXjXjXjXjXjX%XfXjXjXkXR.R.Y.Y.R.Y.R.P.K.K.G.N p p ;XR.R.P.E.G.p G.W m x T } 7 N 3.m $.n b 7.8.c.m.V.N.N.B.B.U.N.N.N.p rXzXrXrXrXrXrX].rXrXzXrXrXrX[.[.[.[.y.y.M l y.' h.^.[ ] <Xj } &XtX2XZX2XtXmXA.mXmXmXmXmXmXmXmXmXmXmXmXmXmXmXmXtX2XmXmXmXmXmXmXmXmXmX2X2XmXmX2X3X<XP  X2X . .PXSXDXLXPXPXvXPXPXPXvXPXPXJXvXPXJXvXIXeXeXIXLXLXLXLXLXLXLXLXLXLXLXLXLXLXPXFXFXFXBXBX+XyXxXuXuXgX1X~ ^ 0XiXuXuXhXhXV V V rXrXrXpXxXrX].].rXrXrXiXxXgX3X' xXxXxXxX$.x 7X- 7XgXuXiXwXwXiXqXeXqXhXpX8X8XeX",
"Q.Q.Q.{.{.{.{.{.{.{.{.{.{.{.{.{.W.dX{.{.{.dXdXdX{.:X X{.dX{.'.L.L.I.I.L.L.L.p p p p G.G.K.L.L.L.I.T.G.p P.b.6 u p i i q.n q b m.N.N.N.V.m.m.m.m.m.c.m.q.t.M.p J.[.[.[.[.[.[.[.].G.N [.[.[.[.[.`.`.].rX`.[.[ g 6.n.[ ] <X] U 2X1X2X2X1X2X2Xl.2X2X2X2X2X2X2X2X2X2X2X2X2X2X2X2X2X1X2X2X2X2X2X2X2X2X2X2X2X2X2X3X3X<X .P XX1X| 2XvXpXaXbX$X$X*X*X*X=X=X*X=X=X*X=X=X*X|.|.*X=X=X=X=X=X=X=X=X=X=X=X=X=X=X*X=X=X=X=X=X XyXxXuXuXgX1X~ ^ 0XiXuXuXhXhXrXrXrX].].].iXxXrX].].].}.}.rXxXgX0X^ tXDXxXxXFXIXA.- iXiXuXpXq.8._.:.$.7.qXm.$.$.q.",
"Q.Q.dXdXdXdXdXdXdXdXdXdXdXdXdXdXdXdXdXdXkXkXkXkXkXdX XW.R.W.R.Y.Y.Y.L.Y.Y.P.p T.T.R.R.R.L.Y.Y.Y.L.Y.L.p s w 0 G.i 0 } c n 2.m B.N.N.N.N.N.N.N.N.N.N.B.V.V.B.r.p p p ].rX].].[.rXN i ].].rX[.].].].].].[.qX| ^.j j [ ] <XX._ ^.mXtXZX2XtXZXA.ZXZXZXZXZXZXZXZXZXZXZXZXZXZXZXZXmX2XZXmXZXZXZXZXZXmXZX2XtXZXZX2X3X<XXX} ..tX<X .>X=X*X*XbXbXnXNXNXnXNXNXBXnXNXBXnXCXsXsXCXNXNXNXNXNXNXNXNXNXNXNXNXNXNXNXBXBXnXbXbX|.yXxXuXuXgX1X~ ^ 0XiXuXuXhXhX].].].rX].].iXxXrX].rX}.V V }.SXuXgX] ' xXxXxXxX0X; %.cXeXuXiXq.8.c.8.v q.B.$.$.v w.",
"Q.Q.dXdXdXdXdXdXdXdXdXdXdXkXkXkX{.kXkXkX:X=X*X*X$X=X XP.Y.Y.Y.Y.Y.Y.L.Y.Y.L.p P.L.Y.Y.Y.L.Y.Y.Y.L.Y.Y.;X>.w G.N u t F ` e.c.m 2.B.N.N.N.N.N.N.N.N.N.N.m.V.N.B.B.S.G.N zX].].[.].N p [.rX].[.].].].].].].] ] ~.^.j g  . ...1Xj 2XmXZX2XmXU.A.ZXmXmXmXmXmXmXmXmXmXmXmXmXmXmXmXmX2XZXmXmXmXmXmXmXmXZX2X2XZXmX2X3X<X .XX....*X} XXCXNXnXbX*X*X*X*X*X*X*X*X*X*X*X=X*X=X=X*X*X*X*X*X*X*X*X*X*X*X*X*X*X*X*X*X*X=X=X=X XyXxXuXuXgX1X~ ^ 0XiXuXuXhXhX].].].rX].].iXxXrX].].rX].].rXxXiXiXuX' XXcXpXcX_ _ gXuXuXuXpX/.m.(.m.S.m.iXm.N.c.E.",
"Q.{.kXkXkXkXkXkXkXkXkXkXkX:X:X:X;X:X:X:X%X:X:X:X:X:XR.P.Y.Y.Y.Y.Y.Y.L.Y.Y.K.p Y.L.Y.Y.Y.L.Y.Y.Y.L.Y.Y.Y.x c.G.7 G.z q  Xt.t.r.t N.N.N.N.N.N.N.N.N.N.N.m.V.N.N.N.B.b.N rX].].[.].N N W.rX].].].].].].rX~.' ~.~.l.l.j j X.XX2X6.6.AXtX2XtXu :.ZXtXmXmXmXmXmXmXmXmXmXmXmXmXmXmXmX2XZXmXmXmXmXmXmXmXZX2X2XZXmX2X3X<X .XX*XP &X3X} =X=X*X*X*X*X>XbX*XbXbXbX>XbXbX>XnX$X$XnXbXbXbXbXbXbXbXbXbXbXbXbXbXbXbXbXbX>X*X*X XyXxXuXuXgX1X~ ^ 0XiXuXuXhXhXG.N N g.i.p.yXHXG.s s W.tX0XuXxXiXuXiXuXwXeXeXeXqXiXiXuXiXiXuXpXhXpXhXpXpXiXhXpXpXpX",
"-X-X$X=X=X=X=X=X=X=X=X=X=X=X*X=X.X=X=X=X:XkXkXkXkXkXW.L.Y.Y.Y.Y.Y.Y.P.Y.R.K.p Y.L.Y.Y.Y.L.Y.Y.Y.L.Y.R.>.b K.7 G.n z v G 2.t.V.4.>.S.N.N.N.N.N.N.N.N.N.m.V.N.N.N.N.N.p ].].].].J.N G.J.zX].p [.rX].rX].w <X~.~.l.6.[ K } <X3X2Xj 2XZX5X0Xi ;.ZXtXmXmXmXmXmXmXmXmXmXmXmXmXmXmXmX2XZXmXmXmXmXmXmXmXZX2X2XZXmX2X3X<XXX} %X&XP %X} XXCXNXCXBXBXNXNXnXNXNXBXnXNXBXnXCXsXsXCXNXNXNXNXNXNXNXNXNXNXNXNXNXNXNXBXBXnXbXbX|.yXxXuXuXgX1X~ ^ 0XiXuXuXhXhXG.p N p.i.i.yXxX'.W.W.9XsXsXuXxXiXiXuXeXhXSXSXSXpXeXuXiXiXiXiXuXeXuXeXeXuXiXeXuXeXuX",
".X.X$X9X9X9X9X9X9X9X9X9X9XkXkXkX{.kXkXkXkXdXdXdXdXdXW.L.Y.Y.Y.Y.Y.Y.K.p p p G.T.L.Y.Y.Y.L.Y.Y.Y.L.Y.Y.n 4.7 G.b x m v R t t.b.b.t V.N.N.N.N.N.N.N.N.N.m.V.N.N.N.N.S.N J.zX].zXN r.G.J.rX[.u N ].rXrX/.7 V.~.~.^.^.[ P j h.N 2Xh.6.AX1XE.L 1.ZXmXmXmXmXmXmXmXmXmXmXmXmXmXmXmXmX2XZXmXmXmXmXmXmXmXZX2X2XZXmX2X3X<XXX} &X%X&XX.&X .NXBXNXnXBXNXNXnXBXNXBXnXNXBXnXNXsX;XNXBXNXNXNXNXNXNXNXNXNXNXNXNXNXNXnXnXnXbX>X|.yXxXuXuXgX1X~ ^ 0XiXuXuXhXhXG.p N p.i.i.yXxXwX9X9XwXsXsXyXxXiXuXuXxX`.b z b qXhXeXiXiXiXiXiXiXiXhXiXeXuXuXiXiXiX",
"J.J.Q.kXkXkXkXkXkXkXkXkXkXkXkXkX{.kXkXkXkXkXkXkXkXkXW.P.W.Y.Y.Y.Y.W.N N Y.L.R.P.P.Y.Y.Y.L.Y.Y.Y.I.R.8.w u G.b.z >.m x } t 4.V.V.4.4.S.N.N.N.N.N.N.N.N.m.V.N.N.N.N.S.G.N [.[.N p N.G.i p N N N i J.rXm w t.3X~.w.m L  .] j 7 ~.2Xj 2Xp p X.y W.ZXtXmXmXmXmXmXmXmXmXmXmXmXmXmXmX2XZXmXmXmXmXmXmXmXZX2X2XZXmX2X3X<X} } %X*X4X&XX.{ 4XCXNXnXBXNXNXnXBXNXBXnXNXBXnXNXsX7XNXNXNXNXNXNXNXNXNXNXNXNXNXNXNXNXnXnXnXbX>X|.yXxXuXuXgX1X~ ^ 0XiXuXuXhXhXG.p N p.i.i.yXxX9X'.'.wXyXyXiXxXiXeXhXn @ $ z $ @ y.xXeXiXiXiXiXiXeXE.qXhXiXpXiXiXiX",
";.2 s.:X:X:X:X:X:X:X:X:X:X:X:X:X-X:X:X:X:X:X:X:X:X:XOXZ.OXF.F.F.F.OXT 3.OXF.F.F.T.T.Y.W.P.Y.R.E.T.K.u u G.Y.x m 3.m x a.} t r.b.b.t V.N.N.N.N.N.N.N.N.m.V.N.N.N.N.N.V.i u p i p S.J.p N u m.~.J.u p w ;.>.3X~.m w L t h.h 7 B.2X^.6.B u } R E.ZXtXmXmXmXmXmXmXmXmXtXmXmXmXmXtX2XmXmXmXmXmXmXmXmXZX2X2XmXmX2X3X%X} L $X$X$X4X*XX...bXCXaXBXNXNXnXBXNXBXnXNXBXnXNX>X;XNXBXNXNXNXNXNXNXNXNXNXNXNXNXNXNXnXnXnXbX>X|.yXxXuXuXgX1X~ ^ 0XiXuXuXhXhXG.p N p.i.i.yXxX9X'.'.$X&X&XsXcXuXxXb @ /.GXGXGXy.@ V.hXeXiXiXuXpX).7.8.8.N.S.wXiXiX",
"` } } %X%X%X%X%X%X%X%X%X%X%X%X%X%X%X%X%X%X%X%X%X%X%X................L } ................ X.Xs.p s 7 m P.L.>.x 3.>.m x >. X4.m N.N.4.4.~.B.B.B.B.B.B.U.V.N.B.B.B.B.B.S.N.U.N.B.B.B.B.~.N p S.V.S.N.u x.1.N 3X~.t I F 8 ;.l.7 V.S.J.j t E |.} $XAXZXZXZXZXZXZXZXZXZXZXZXZXZXZXZX2XZXZXZXZXZXZXZXZXZXtXmXZXZX5X&X%X}  X*X*X4X4X4X4X..X.%X&XbXNXNXBXCXCXNXBXSXCXaXHXsXsXHXCXCXCXCXCXCXCXCXCXCXCXCXCXCXCXBXBXBXnXbX.XyXxXuXuXgX1X~ ^ 0XiXuXuXhXhXG.p N p.i.i.yXxX9X9X{.=XX.X.$XcXiXwX@ y.IXhXxXxXIXn $ hXuXuXiXuXpX(.q.$.w.m.$.hXuXiX",
"a B B B B B B B B B B B B B B B B B B B B B B B B B a p p p p p p p u s p s p i i i u 0 y G L H R n 2.3.3.z ;.;.4.m x m ` =.t >.8.2.t t.q.q.q.q.q.q.q.8.q.q.q.q.q.q.q.q.k.q.8.q.q.q.q.t.t.8.q.t.d._ 5.5.w 8.n.E } _ O.m 6.0 m p i d.G P p.` |.1X3X3X3X3X3X3X3X3X3XU.~.3X3X3X3X3X3X1X1X3X3X3X3X3X3X3X3X3X3X3X} } } } XXXXXX$XXX$XXX .*X} I I ......%X%X%X%X%X%X&X%X%X&X&X&X&X&X&X&X&X&X&X&X&X&X&X&X&X%X%X%X%X%X} yXxXuXuXgX1X~ ^ 0XiXuXuXhXhXG.p N p.i.i.yXxX9X'.{.*X....4XcXxXy.$ xXxXDXDXxXDX_.@ _.pXuXiXuXiXwXq.(.eXm.V.xXeXuX",
"B B H.H.H.H.H.H.H.H.H.H.H.H.H.H.H.H.H.H.G.p p p p p p p N N N N p p u p G.G.G.G.G.G.G.G.G.G.r.+X} U a.3.x x >.;.4.m x m ` =.m t 8.8.4.m k.q.q.q.q.q.q.8.8.q.q.q.q.q.q.q.q.q.8.q.q.q.q.q.q.8.8.t._ %.5.5.*.w m L %._ _ w x m w w t t.R P g.` a.1X3X3X3X3X3X3X3X3X3XT 1.3X3X3X3X3X~.XXXX1X3X3X3X3X3X9.3X3X1X X} }  .} XXXXXXXXXXXX$X| #X7X;X#X$X*X*X*X*X*X*X*X&X*X&X&X*X&X&X&X&X&X&X&X&X&X&X&X&X&X&X&X&X&X&X&X%X XyXxXuXuXgX1X~ ^ 0XiXuXuXhXhXG.p N p.i.i.yXxX9X'.{.*X....4XcXSXy.$ xXFX6XqXSXSXwX$ `.pXuXiXuXeXiXSXpXwX6XiXuXiXiX",
"Q.dXjXjXjXjXjXjXjXjXjXjXjXjXjXjXdXjXjXjX9XE.E.E.E.E.T.E.E.E.Y.p p p p Y.E.R.E.T.T.R.R.R.T.Y.R.W.M s. X.._ J.e.>.3.m x >.a.} z.m >.N.b.t N.B.B.B.B.B.U.N.N.U.B.B.B.B.B.B.B.B.V.U.B.B.B.B.U.V.U.n.` n.l.x.l.m R } 7._ ` m i l.i w 4.p G _ #Xi.a.rXtXZXZXZXZXZXAXAXAX..&XAXZXAXZX5Xs a.X.ZXAXs.%XAXE.s 0XAX4X%X%XXX . X*X*X4X4X4X4XMXXXXXCXNXCXCXBXNXCXBXBXCXCXaXaX7XsXHXCXCXCXCXCXCXCXCXCXCXCXCXCXCXCXBXBXBXnXbX.XyXxXuXuXgX1X~ ^ 0XiXuXuXhXhXG.p N p.i.i.yXxX9X'.{.*X....4XcXpX`.@ qXSX> (.DXLXy.$ iXiXuXuXpXwX(._.q.c.hX8.w.7.wX",
"Q.Q.dXdXdXdXdXdXdXdXdXdXdXdXdXdX{.dXdXdXW.P.Y.Y.Y.Y.L.P.Y.Y.K.p R.P.T.Y.Y.Y.Y.L.L.Y.Y.Y.L.P.R.:.b P.J.-.U } 1.>.>.m x >.>.a. XJ.t b.V.4.4.S.N.N.N.N.N.m.V.N.N.N.N.N.N.N.N.N.m.N.N.N.N.N.N.m.U.` h.l.l.d.n.g.X.5.&._ _ h.f.d.e.n w i } n z.g.R E $XZXtXmXmXtX$X&XZX} %XAX$X XZX1Xt E E &X'.E P &Xs y *XmX%X%X&X<X . X$X$X$X4X4X4X4X4X .bXBXbXbXnXBXNXBXnXNXnXsX$X.XsXNXBXNXNXNXNXNXNXNXNXNXNXNXNXNXNXnXnXnXbX>X|.yXxXuXuXgX1X~ ^ 0XiXuXuXhXhXG.p N p.i.i.yXxX9X'.{.*X....4XcXuXxX> $ _.8.FXxXqX$ b SXeXuXiX6Xm.$.,.v ).q.$.$.v 6X",
"Q.Q.dXdXdXdXdXdXdXdXdXdXdXdXdXdXdXdXdXkXW.Y.Y.Y.Y.Y.L.Y.Y.R.K.p R.P.L.Y.Y.Y.Y.P.P.Y.Y.Y.L.Y.Y.n 2.L.r.z 2. XI a.>.m x >.>.e.}  Xm 4.V.r.t N.N.N.N.N.N.m.V.N.N.N.N.N.N.N.N.N.m.N.N.N.N.N.N.V.l.` n.l.l.d.l.I i.5.&._ _ 5.f.d.n.h.6 i ..5.-.Z.|.} &XZXmXmXZX4XG R ....R W..XH 4X_.L ..t &Xs y L &Xs H %X$X%X%X3XXX . X$X$X4X4X4X4X4X4XXXXXCXX.*XBXnXNXBXnXBXsXsX=XU ;XNXNXNXNXNXBXNXNXNXNXNXNXNXNXNXNXnXnXnXbX>X|.yXxXuXuXgX1X~ ^ 0XiXuXuXhXhXG.p N p.i.i.yXxX9X'.{.*X....4XcXuXiXwX$ M GXiXFXz > hXuXuXuXiXeX/.q./.q.wXB.7.8.:.8X",
"Q.Q.dXdXdXdXdXdXdXdXdXdXdXdXdXdXdXdXdXkXW.Y.Y.Y.Y.Y.L.Y.Y.R.G.p R.P.L.Y.Y.Y.Y.P.P.Y.Y.Y.L.R.e.b I.P.b b r.J.3.L I %.x >.>.2.r. X Xt b.V.4.>.S.N.N.N.N.m.V.N.N.N.N.N.N.N.N.N.m.N.N.N.N.N.N.U.` h.n.l.l.q.} } q.5.&._ _ 5.f.l.n.g.F T ..M.n &.#XD.%XmXmXmX0X..%XJ.U ..R s.|.E 4XE.R 1Xt  Xp R w %Xp E R } %X$X<XXX . X$X$X4X4X4X4X*X$X4X .nXP &XaXsXBXBXnXsX X=X%XU #XNXBXBXNXNXnXNXNXNXNXNXNXNXNXNXNXnXnXnXbX>X|.yXxXuXuXgX1X~ ^ 0XiXuXuXhXhXG.p N p.i.i.yXxXwX9XdX*X....4XcXiXeXpXiXwXyXuXiXqXiXiXuXiXiXuXiXiXiXiXiXiXiXiXiXuXiX",
"W.Q.dXdXdXdXdXdXdXdXdXdXdXdXdXdXdXdXdXdXW.Y.Y.Y.Y.Y.L.Y.Y.R.G.p R.P.L.Y.Y.Y.Y.P.P.Y.Y.Y.L.Y.n r.I.r.n r.2.r.2.>.1.I L =.>.e.r.r. Xm 4.N.r.t N.N.N.N.N.m.V.N.N.N.N.N.N.N.N.N.m.N.N.N.N.N.U.x.` n.l.l.n.i.I l.d.5.&._ _ 5.f.i.n.i.U {  XD.5.c #XD. X+XAX7Xs } $XJ.5 p.$X}  XR &XG.Q 1XT R R ..7 R R R E P P $X3XXX . X$X$X4X4X4X&X..%XMX .XXI &XyX;XbXMXsX;X%XP P L +X&XbXbXBXNX*XBXNXNXNXNXNXNXNXNXNXnXnXnXbX>X|.yXxXuXuXgX1X~ ^ 0XiXuXuXhXhXG.p N p.i.i.yXHX!.s s p.....4XcXiXiXuXuXiXgXjXgXiXuXuXiXiXiXiXiXuXuXuXuXuXuXuXuXiXuX",
"m m Y.R.Y.Y.Y.Y.Y.Y.Y.Y.Y.;X;X;XR.;X;X;XY.Y.Y.Y.Y.Y.L.Y.Y.R.G.N E.P.L.Y.Y.Y.Y.P.P.Y.Y.Y.Y.2.b P.I.b b r.2.r.2.>.>.m G I } 2.J.r.} u.t b.N.4.>.S.N.N.N.m.V.N.N.N.N.N.N.N.N.N.m.N.N.N.N.N.U.` h.n.l.n.f.I g.n.d.5.&._ _ 5.f.P g. X..{ 5.A.A.n A.#XXXE 6XI.E  X#XF.p M.~. X%Xs.|.N } @XG.R L %XG.t P a.E U L } &XXX . X$X$X4X4X4XX.X...4XXX{ %X..%X;X*X&XsX-X} P %X} L ..&X*XpXNX..bXNXNXNXNXNXNXNXNXNXnXnXnXbX>X|.yXxXuXuXgX1X~ ^ 0XiXuXuXhXhXG.p N p.i.i.yXHXG.u s p.....4XcXiXuXuXgX0XXX .XXyXgXuXiXiXiXiXiXiXiXiXiXiXeXiXiXiXiX",
"r e 3.R.Y.Y.Y.Y.Y.Y.Y.Y.Y.Y.Y.Y.L.Y.Y.Y.Y.Y.Y.Y.Y.Y.L.Y.Y.R.G.N E.P.L.Y.Y.Y.Y.P.P.Y.Y.Y.Y.n e.P.2.n r.e.2.r.2.>.>.m x >. XI i.J.0.} 4.4.N.r.t N.N.N.N.m.V.N.N.N.N.N.N.N.N.N.m.N.N.N.N.N.z.` l.l.l.l.I  Xn.l.d.5.&._ _ 5.u.X. X X} U n A.A.h 6.#XXXR B 3.I $XD.@X@X@X@X@X@X3.L u. X1XG.R ..@XM.0 P L E G G.P X.<X . X$X$X$X4X&XP P ..3X@X} } I ..-X%X%X7X$XP P $X} I %X..&XyXBX..*XBXNXNXNXNXNXNXNXNXnXnXnXbX>X|.yXxXuXuXgX1X~ ^ 0XiXuXuXhXhXG.p N p.i.i.yXHXG.i s p.....4XcXiXuXgXXX/ {  .{ { 3XgXuXiXiXiXiXiXwXwXwXeXhXiXiXiXiX",
"3.K.I.Y.Y.Y.Y.Y.Y.Y.Y.Y.Y.Y.Y.Y.L.Y.Y.Y.Y.Y.Y.Y.Y.Y.L.P.Y.R.G.G.E.P.L.Y.Y.Y.Y.P.P.Y.Y.R.2.n P.P.x b I.e.e.r.2.>.>.m x >.>.<.} I t.p.u.t b.N.4.2.S.N.B.V.V.B.N.N.N.N.N.N.N.N.m.B.N.N.N.U.` ` l.n.l.X.} 0.l.l.d.5.5._ _ 5.i.} }  X X} n 5.A.&.n D.@X..} L +XD.@X@XD.@X@XD.@XG.a.P  X#Xb.E ..D.D.4.P L t L p I X.XX}  X$X*X$X$X%XP ..} $X|.} } %X%X..P ..=X|...P $X.. X.XP %X9XnXI *XBXNXNXNXNXNXNXNXNXnXnXnXbX>X|.yXxXuXuXgX1X~ ^ 0XiXuXuXhXhXG.p N p.i.i.yXHXG.i s p.....4XcXuXgXXX/ 2XvXvXvX<X/ 1XgXuXiXiXuXpXV.$.:.m.q.$.8XiXuX",
"K.K.L.L.L.L.L.L.L.L.L.L.L.L.L.L.I.L.L.L.L.L.L.L.L.L.L.T.T.E.G.N T.I.I.L.L.L.L.I.I.L.I.Y.x >.I.2.z 2.2.2.2.2.2.>.>.m x :.:.>.e.a.I I ..T N b.2.t V.c.m.c.c.m.m.m.m.m.m.m.m.c.c.m.m.m.m.z.` 5.0.i.I } 0.d.d.d.5.5.&._ _ 5.i.} } } f.i.5.h n.u.-.5.@X XP L M.A.A.A.A.A.A.A.@X3.p I  XD.b.R } D.A.+XP L E  Xp E Q X.I } } $X%X..} ..XX} C.I P { T.} P ..I ..%X|.P +X X|..XP %X$X$XL %XsXbXnXnXnXnXnXnXnXsXsXbX>X$X|.yXxXuXuXgX1X~ ^ 0XiXuXuXhXhXG.p N p.i.i.yXHXG.i s p.....4XcXiXyX{ 3XKXxXxXFXPXXX{ gXuXiXiXuXhXB.c $.:.c $.wXiXuX",
"K.I.P.Y.Y.Y.Y.Y.Y.Y.Y.Y.Y.Y.Y.Y.L.Y.Y.Y.Y.Y.Y.Y.Y.Y.N p p p i G.R.P.L.Y.Y.Y.Y.L.L.Y.R.r.x I.L.b b r.e.e.2.r.2.>.>.m x >.>.2.e.J.r. XI L T |.m.m 2.B.N.m.V.N.N.N.N.N.N.N.N.V.c.N.N.N.U.h.h.f.} I i.n.l.d.l.l.d.5.&._ _ 5.`  XX.} n.l.l.n 5.f.n.n @XD. X} D.@X@X@X@X@X@XD.@X3.u Z.XX@XD.t +XD.@XD.I L OXZ.p 8 E X.} P ..$XX.P |.} XX} |.I P } g.%XP $XI P ..-X} .XF.F..X..%XP $XG P ..4XBXBXBXBXBXBXNXnXnXnXbX>X|.yXxXuXuXgX1X~ ^ 0XiXuXuXhXhXG.p N p.i.i.yXHXG.i s p.....4XcXgX3X{ xXxXxXxXB.V.0X{ 0XiXuXiXuXiXqX(.).6XE./.8XiXuX",
"K.I.P.Y.Y.Y.Y.Y.Y.Y.Y.Y.Y.Y.Y.Y.L.Y.Y.Y.Y.Y.Y.Y.Y.Y.p K.K.K.I.Y.Y.Y.L.Y.Y.Y.Y.P.P.Y.R.b :.P.r.z 2.r.r.e.2.r.2.>.>.m x >.>.2.r.r.r.J.s.I I P P u.;.D.N.V.V.U.U.U.U.U.U.U.U.U.V.N.M.A.C.{ X.I } l.n.l.l.d.l.l.d.5.&._ ` h.` i.} i.n.l.l.5.n f.D.-.5.#X+X XD.@X@X@X@X@X@X@X@X3.u A.@X@X@Xi D.@X@XZ.L  XZ.+Xi 8 t } } P I +XI P |.} +X..} I } Z.i.%XP ;X} }  XE. X$XF.F.$X} .XP =XR P P X.bXNXNXNXNXNXNXnXnXnXbX>X|.yXxXuXuXgX1X~ ^ 0XiXuXuXhXhXG.p N p.i.i.yXHXH.s s p.....4XcXgX$X{ xXxXxXxXb x 7XS 7XgXuXiXiXiXpXhXhXpXpXxXiXiXiX",
"K.I.P.Y.Y.Y.Y.Y.Y.Y.Y.Y.Y.Y.Y.Y.L.Y.Y.Y.Y.Y.Y.Y.Y.P.p Y.Y.Y.Y.Y.Y.Y.L.Y.Y.Y.Y.P.L.R.I.n I.L.b b r.e.r.e.2.r.2.>.>.m x >.>.2.r.r.r.r.r.r.2.T |.I L I ......} } } } } } } } } } ......X.} i.d.n.l.l.l.l.d.l.l.d.5.&._ U } } g.n.d.l.l.d.n.n -.D.l.n @X@X@X@X@X@X@X@X@X@X@X@X3.i @X@X@X@Xp D.@X@X|. XC.C.$Xp 7 t g.} I } |.P P .XoXOX X..} XXG.r } .X;X...X-X#XF.;XF.F.#X$X#XR %XE L I P *XNXNXNXNXNXNXnXnXnXbX>X|.yXxXuXuXgX1X~ ^ 0XiXuXuXhXhXG.p N p.a.i.yXHXG.u s p.X.X.$XcXiX0X/ tXvXxXxXFXIXA.D iXiXuXpXm.q.qX7.q.8.iX/.7.,.N.",
"K.I.P.Y.Y.Y.Y.Y.Y.Y.Y.Y.Y.Y.Y.Y.L.Y.Y.Y.Y.Y.Y.Y.Y.P.p Y.Y.Y.Y.Y.Y.Y.L.Y.Y.Y.Y.P.L.R.b :.I.r.n r.2.r.r.e.2.r.2.>.>.m x >.>.2.r.r.r.r.r.r.r.t G.g.L m D.z.Z.C.C.C.C.C.g.C.C.Z.Z.A.M.N.` d.n.d.d.l.l.l.l.d.l.l.d.5.&.` U } } f.l.d.l.l.d.l.5.h A.A.-.d.#X@X@X@X@X@X@X@X@X@X@Xr.p @X@X@X@Xv.D.@XOXQ |.C.C.$Xp t T p E ....I } X.oXZ.3.s.X. X$Xp t  .;X-X X+X;X#XF.p s.s.p #XY.t ..y |.X.P *XNXNXNXNXNXNXnXnXnXbX>X|.yXxXuXuXgX1X~ ^ 0XiXuXuXhXhXm w t a.G ` wXHXG.0 i R J J $XvXuXgX .{ xXxXxXxX0XS i.cXuXiXuXq.q.V.8.c q.B.:.$.v w.",
"K.P.Y.Y.Y.Y.Y.Y.Y.Y.Y.Y.Y.Y.Y.Y.L.Y.Y.Y.Y.Y.Y.Y.Y.L.p Y.Y.Y.Y.Y.Y.Y.L.Y.Y.Y.Y.P.Y.L.n I.I.b b I.2.r.r.e.2.r.2.>.>.m x >.>.2.r.r.r.r.r.r.r.>.t U.|.G b.} N.U.U.U.U.U.U.U.U.U.V.N.U.h.` n.l.d.l.l.l.l.l.d.l.l.d.5.%.P } I } l.l.d.l.l.d.l.n.h d.D.l.n #X@X@X@X@X@X@X@X@X@X@Xb.G.@X@X@X@X@X@X@X|. XoXC.C.$XT 4.T i y R L P |.XXs.p T p X. X$Xp p  .OX-X#XF.K.G.G.8 t s.i W N t I u Y.%XP *XNXNXNXNXNXNXnXnXnXbX>X|.yXxXuXuXgX1X~ ^ 0XiXuXuXhXhXm w t a.G ` wXHXG.0 i R J J $XvXuXiXuX{ XXvXpXvX_ F gXuXuXuXpXV.w.B.w.q.8.8Xw.q.:.m.",
">.4.I.Y.Y.Y.Y.Y.Y.Y.Y.Y.Y.Y.Y.Y.L.Y.Y.Y.Y.Y.Y.Y.Y.L.p Y.Y.Y.Y.Y.Y.Y.L.Y.Y.Y.Y.L.R.b b P.r.z e.r.2.r.r.e.2.r.2.>.>.m x >.>.2.r.r.r.r.r.r.r.r.t 3.U. XL } } U.N.N.N.N.N.N.N.N.m.N.N.` f.l.l.d.l.l.l.l.l.d.l.l.d.5.` { ` ` h.l.l.d.l.l.d.l.n.O.n A.A.n l.#X@X@X@X@X@X@X@X@X@X@XD.A.@X@X@X@X@XOXQ |.OXC.C.OXs.Z.t i a.E E X.p.F.3.7 i p .. X$Xp p t p.;X#XG.i d 7 8 i i 7 i 8 u .X7 K.#X X%XnXNXNXNXNXNXnXnXnXbX>X|.yXxXuXuXgX1X~ ^ 0XiXuXuXhXhXm w t a.G ` wXHXG.0 i R J J $XvXiXuXiXuXwXeXeXuX0XiXiXuXiXiXiXiXiXiXiXpXiXiXuXiXuXiX",
"e e >.R.Y.Y.Y.Y.Y.Y.Y.Y.Y.Y.Y.Y.L.Y.Y.Y.Y.Y.Y.Y.R.L.p Y.Y.Y.Y.Y.Y.Y.L.Y.Y.Y.Y.Y.I.n I.P.b n I.e.2.r.r.e.2.r.2.>.>.m x >.>.2.r.r.r.r.r.r.r.r.>.t V.b.t J. X} M.N.N.N.N.N.N.N.m.U.f.` n.l.l.d.l.l.l.l.l.d.l.l.9.i.} _ _ 5.f.d.l.d.l.l.d.l.l.&.h d.D.5.-.#XD.@X@X@X@X@X@X@X@X@X@XA.@X@X@X@X@X|.Q oXOXC.oXOXOXXXt w a.E t .XC.p t d d p } E s.p u 7 T T.#XG.u p K.u 7 7 7 i 7 7 T.7 p #X-X%XbXBXNXNXNXNXnXnXnXbX>X|.yXxXuXuXgX1X~ ^ 0XiXuXuXhXhXm w t a.G ` wXHXG.0 i R J J $XvXiXuXuXeXpXCXCXhXpXeXuXiXiXiXuXuXiXuXiXuXuXuXuXuXiXuX",
"m r 3.R.Y.Y.Y.Y.Y.Y.Y.Y.Y.Y.Y.Y.L.Y.Y.Y.L.K.K.K.K.G.p R.Y.Y.Y.Y.Y.Y.L.Y.Y.Y.Y.R.:.b P.I.n e.r.r.2.r.r.e.e.r.2.>.>.m x >.>.e.r.r.r.r.r.r.r.r.r.t 2.N.>.m B.|.} U.U.N.N.N.B.N.m.U.` h.n.l.l.d.l.l.l.l.l.d.l.l.9.} %._ ` h.f.d.l.d.l.l.d.l.l.&.6.-.D.A.n n.#X@X@X@X@X@X@X@X@X@X@XA.@X@X@X@XOXQ |.OXOXC.OXOXOXXXp T ;.i t +X3.7 7 7 7 7 T 7 d p p 7 7 G.p p u T.#Xp 7 7 u i u 7 T.7 p #X-X%XbXNXNXNXNXNXnXnXnXbX>X|.yXxXuXuXgX1X~ ^ 0XiXuXuXhXhXm w t a.G ` wXHXG.0 i R J J $XvXiXuXuXhX_.M M y.wXhXeXiXiXuXpXpXeXuXuXuXiXiXiXiXeXiX",
"K.K.L.L.L.L.L.L.L.L.L.L.L.L.L.L.I.L.L.T.p p p p p p G.P.L.L.L.L.L.L.I.L.L.L.L.L.z r.I.:.x r.2.2.2.2.e.2.2.e.2.>.>.m x :.:.2.2.2.2.2.2.2.2.2.e.4.t b.t.t b.U.|.} |.M.V.m.m.m.t.d.` x.d.d.d.d.d.d.d.d.d.d.d.d.5.} %._ _ %.5.d.d.d.d.d.d.d.d.&.l.h l.A.5.-.@XA.A.A.A.A.A.A.A.A.A.Z.A.A.A.D.|.Q p.C.C.C.C.C.C.oXT =.;.t T 1.p 8 7 u T u u t d t T u 7 i u i 7 F.@Xp p 7 i p u 7 G.7 i #XT.} &XnXnXnXnXnXsXsXbX>X$X|.yXxXuXuXgX1X~ ^ 0XiXuXuXhXhXm w t a.G ` wXHXG.0 i R J J $XvXiXeXpXM f l l f f V.hXeXuXiX_.(.hXpXpXiX6XwXwXeXhXiX",
"4.3.3.3.3.3.3.3.3.3.3.3.3.3.3.3.3.3.3.3.i 3.s.3.3.s.3.3.3.3.3.3.3.3.3.3.3.3.3.v x 3.>.z m :.:.:.;.:.:.;.;.:.;.m ;.x x m m ;.:.:.:.:.:.:.:.:.;.:.t ;.,.m m 9.8.=.` } 7.w.w.w.:._ %.&.&.&.&.&.&.&.&.&.&.%.&.&.%.} -._ _ %.%.&.&.&.&.&.&.&.&.-.&.-.h f.f.h =.f.f.f.f.f.f.f.f.f.f.u.f.f.f.u.R a.u.u.u.u.u.u.u.u.i.i.O.T 1.w 7 w u.u u.i 7 T 7 t 1.w u 7 i u 7 s.s.3.4.u 3.4.p 7 u 7 u Z.s.} I #X#X#X#X#X@X@X$X+X+X XyXxXuXuXgX1X~ ^ 0XiXuXuXhXhXm w t a.G ` wXHXG.0 i R J J $XvXuXhXy.f [.FXGXFXy.f [.pXeXiX8.8.8.c./.B.$.$.$.m.q.$.",
"K.L.Y.R.R.R.R.R.R.R.R.R.R.R.R.Y.P.R.Y.Y.p Y.R.Y.Y.R.P.Y.R.R.R.R.R.Y.P.R.Y.Y.R.n e.Y.>.n r.r.r.r.e.r.r.r.e.r.2.>.3.m x >.2.e.r.r.r.r.r.r.r.r.r.b.4.m N.r.t B.B.U.U. X XU.B.U.x.` n.n.l.l.n.l.l.n.l.l.n.x.l.n.g.} 7._ _ h.f.l.n.l.l.n.l.l.l.&.n.l.h n.@X5.6.#X@X@X@X@X@X@X@X@X@XA.#X@X#X.XQ oXOXOXOXoXOXOXOXoXg.g.i.i.s.i 7 s.$XT F.s.u 4.7 4.$X4.i w T 7 7 -X#X>XI.i ;X;XL.i 7 u 7 G.;X X..BXNXNXNXNXBXBXnXbXbX|.yXxXuXuXgX1X~ ^ 0XiXuXuXhXhXm w t a.G ` wXHXG.0 i R J J $XvXiXwXf [.LXxXxXxXIXM f pXeXiX8.m.c /.v 8.q.v b :.c $.",
"K.I.P.P.P.P.P.P.P.P.P.P.P.Y.Y.Y.L.Y.Y.L.p Y.Y.Y.Y.Y.L.P.Y.Y.Y.Y.Y.Y.L.Y.Y.R.e.x I.I.n :.e.e.r.r.2.e.r.e.2.r.2.>.>.m x >.>.2.r.r.r.r.r.r.r.r.r.r.r.t r.c.4.>.B.N.N.N.} N.N.U.` h.g.g.l.l.l.d.l.l.l.l.d.i.l.n.i.` 7._ _ 5.f.d.l.d.l.l.d.l.l.&.l.n.-.6.A.A.n A.@X@X@X@X@X@X@X@X@XA.@X@X@X X XOXOXOXOXC.C.OXOXC.g.g.i.a.p.7 7 Z.oXoXOX+Xu T p Z.+Xs.p i F u G.#XF.-Xs.i -X-X#XG.7 i d u ;X#X%XsXBXNXBXNXnXnXnXbX>X|.yXxXuXuXgX1X~ ^ 0XiXuXuXhXhXm w t a.G ` wXHXG.0 i R J J $XvXpXB.f xXxXxXDXxXSX].f qXiXiXB.V.6X6X,.6X8X(.(.6XE./.",
"K.I.Y.E.R.E.E.E.E.E.E.E.E.Y.Y.P.L.Y.Y.L.p Y.Y.Y.Y.Y.L.Y.Y.Y.Y.Y.Y.Y.L.Y.Y.R.n 2.L.e.n I.2.e.r.r.2.r.r.e.2.r.2.>.>.m x >.>.2.r.r.r.r.r.r.r.r.r.r.r.4.4.m.r.t N.N.N.U. X|.U.z.` n.} } l.l.l.d.l.l.l.n.g.P g.l.} u.5._ _ 5.f.d.l.d.l.l.d.l.l.&.l.l.l.h A.D.6.6.#XD.@X@X@X@X@X@X@XA.@X@XoXQ |.OXOXOXOXC.oXOXOXoXg.g.i.a.oXu u Z.oXC.OX+Xu 4.t OXOXoXZ.i ` oX:X#XF.;Xs.i ;X-X#XI.d p G.p I.-X%X*XbXNXNXNXnXnXnXbX>X|.yXxXuXuXgX1X~ ^ 0XiXuXuXhXhXm w t a.G ` wXHXG.0 i R J J $XvXhXy.f xXxXDX_.eXFXrXf `.pXeXpXpXhXwXqXxXpXhXhXhXpXpX",
"I.Y.K.p N N N N N N N N p I.E.R.T.R.E.L.p R.Y.Y.Y.Y.L.Y.Y.Y.Y.Y.Y.Y.L.Y.R.e.n I.I.n :.r.2.e.r.r.2.r.r.e.2.r.2.>.>.m x >.>.2.r.r.r.r.r.r.r.r.r.r.r.r.t e.V.m 2.B.N.N.M... Xh.%.l.} } g.n.l.d.l.l.l.n.g.I g.f.} 5.&._ _ 5.f.d.l.d.l.l.d.l.l.&.l.l.n.-.6.D.n.n D.@X@X@X@X@X@X@X@XA.@X@X X XOXOXOXOXOXC.oXOXOXoXg.g.i.a.p.s.p Z.oXC.OX$Xp 4.oXOXOXC.Z.p p.i.;X#XF.;Xs.p ;X-X#XL.7 K.4XG.K.;X..X.&XCXNXNXnXnXnXbX>X|.yXxXuXuXgX1X~ ^ 0XiXuXuXhXhXm w t a.G ` wXHXG.0 i R J J $XvXpX`.f rXDXFXq.e IXV.f iXiXiXeXpXE.m.m.q.w.6Xc.c.8XiX",
"p p i G.G.G.G.G.G.G.G.G.G.i p p p p p p p R.Y.Y.Y.Y.L.Y.Y.Y.Y.Y.Y.Y.L.Y.R.n 2.L.2.n r.r.2.e.r.r.2.r.r.e.2.r.2.>.>.m x >.>.2.r.r.r.r.r.r.r.r.r.r.r.r.m m V.r.t B.N.N.N.U. X` q.g.}  X Xn.l.d.l.l.l.l.} } } } i.5.&._ _ 5.f.d.l.d.l.l.d.l.l.&.l.l.l.d.h A.D.-.5.#XD.@X@X@X@X@X@XA.@XoXQ |.OXOXOXOXOXC.oXOXOXoXg.g.i.a.p.oXC.OXoXC.OXOXZ.Z.+XOXOXC.oXs.OX` #X-X#X;XF.F.-X-X#XI.i #X#XG.G.;X..P %XCXNXNXnXnXnXbX>X|.yXxXuXuXgX1X~ ^ 0XiXuXuXhXhXm w t a.G ` wXHXG.0 i R J J $XvXuXhXl l xXxXxX7._.f M hXeXiXuXiX6X$.m.c 7.B.w.> q.pX",
"t t 3.R.R.R.R.R.R.R.R.R.R.I.G.K.G.K.K.K.P.Y.Y.Y.Y.Y.L.Y.Y.Y.Y.Y.Y.Y.L.R.r.n L.I.x :.r.r.2.e.r.r.2.r.r.e.2.r.2.>.>.m x >.>.2.r.r.r.r.r.r.r.r.r.r.r.r.e.t r.N.m 2.B.N.N.U.h.X.} ..i.l.} g.n.x.l.l.n.g.} x.} } d.5.&._ _ 5.f.d.l.d.l.l.d.l.l.&.l.l.l.n.n 5.D.l.n @X@X@X@X@X@X@X@XA.@X|. XOXOXOXOXOXOXC.oXOXOXoXg.g.i.a.p.p.oXOXoXC.OXOXOXC.oXOXOXC.OX+XOX` g.-XF.;XF.F.-X-X#XT.p -X#XG.i ;X} P %XCXNXNXnXnXnXbX>X|.yXxXuXuXgX1X~ ^ 0XiXuXuXhXhXm w t a.G ` wXHXG.0 i R J J $XvXuXiXeXf y.DXpXGXl l pXiXuXiXiXiXwXB.q.8.,.6X6X8.m.pX",
"e r >.R.P.Y.Y.Y.Y.Y.Y.Y.Y.Y.R.Y.T.R.Y.Y.Y.Y.Y.Y.Y.Y.L.Y.Y.Y.Y.Y.Y.Y.L.R.b >.P.e.z r.r.r.2.e.r.r.2.r.r.e.2.r.2.>.>.m x >.>.2.r.r.r.r.r.r.r.r.r.r.r.e.r.m 4.N.2.m B.N.N.N.` f.f.} f.n.g. Xl.i.l.l.n. X X9.n.n.d.5.&._ _ 5.f.d.l.d.l.l.d.l.l.&.l.l.l.l.5.n A.A.-.d.#X@X@X@X@X@X@XA.OXQ |.OXOXOXOXOXOXC.oXOXOXoXg.g.i.a.p.p.C.OXC.C.OXOXOXC.oXOXOXC.OXOXOXg.` -XF.;XF.F.-X#X-X-XT.-X#XK.7 G.$XP %XNXNXNXnXnXnXbX>X|.yXxXuXuXgX1X~ ^ 0XiXuXuXhXhXm w t a.G ` wXHXG.0 i R J J $XvXiXeXpXeXqXiXeXuXqXiXiXuXiXiXiXiXiXiXiXiXiXiXiXpXiXiX",
"4.4.I.R.Y.Y.Y.Y.Y.Y.Y.Y.Y.Y.Y.Y.L.Y.Y.Y.Y.Y.Y.Y.Y.Y.L.Y.Y.Y.Y.Y.Y.Y.Y.I.n I.P.b b I.r.r.2.r.r.r.2.r.r.e.e.r.2.>.>.m x >.>.e.r.r.r.r.r.r.r.r.r.r.r.r.r.2.t b.V.m r.B.U.h.` n.d.n.l.l.d.} } X.n.l.n. Xi.x.l.l.d.5.5._ _ 5.f.d.l.d.l.l.d.l.l.&.l.l.l.l.n.n 5.D.l.n #X@X@X@X@X@X@XA.|. X+XOXOXOXOXOXOXC.oXOXOXoXg.g.i.a.p.p.oXOXoXC.OXOXOXC.OXOXOXC.OXOXoXZ.` OX#X;XF.F.;X-X-X-X-X-X-XT.7 i $X..%XNXNXNXnXnXnXbX>X|.yXxXuXuXgX1X~ ^ 0XiXuXuXhXhXm w t a.G ` wXHXG.0 i R J J $XvXiXiXuXiXiXiXiXiXiXiXuXiXiXiXiXiXiXuXiXuXiXiXiXuXiXiX",
"K.L.L.L.L.L.L.L.L.L.L.L.L.L.P.L.I.P.L.L.L.L.L.L.L.P.I.L.P.L.L.L.P.L.P.b :.L.r.z 2.e.e.e.2.2.e.e.2.2.e.2.2.e.2.>.>.m x :.>.2.2.e.e.e.e.e.e.e.e.e.e.e.2.t.t >.m.>.m N.m.` f.x.d.d.d.d.k.} }  X Xd. XI f.5.d.d.5.5.&._ _ 5.5.d.l.d.d.l.d.d.d.&.d.d.d.d.l.5.n A.A.n d.@XA.A.A.A.D.C.Q |.Z.C.C.C.C.C.C.C.C.C.C.C.g.g.i.a.p.p.C.C.C.C.C.C.C.C.C.C.C.C.C.C.C.Z.i.i.T.#XF.Z.#X#X#X#X#X#X#X#XG.u $X X%XnXnXnXsXsXbX>X$X|.yXxXuXuXgX1X~ ^ 0XiXuXuXhXhXm w t a.G ` wXHXG.0 i R J J $XvXuXeXuXeXeXuXuXuXeXeXuXuXuXuXuXuXuXuXuXuXuXuXuXuXuXuX",
"K.K.L.P.P.P.P.P.P.P.P.P.P.P.P.P.I.P.P.P.P.P.P.P.P.P.I.L.P.P.P.P.P.P.I.n I.L.b b r.e.e.e.2.e.e.e.2.e.e.2.2.e.2.>.>.m x :.>.2.e.e.e.e.e.e.e.e.e.e.e.e.e.e.>.t b.b.t J.h.` l.d.d.l.l.d.x.g.g.i.I } I I d.d.d.d.5.5.&._ _ 5.f.d.l.d.d.l.d.d.l.&.l.l.l.l.d.l.h 5.A.5.-.@XA.A.A.A.D.i.Q oXC.C.C.C.C.C.oXC.C.oXC.C.g.g.i.a.p.p.C.C.C.C.oXC.oXC.C.C.oXC.C.oXC.C.oX` F.-XF.F.-X#X#X#X#X#X#X#XF.p #X#X%XnXnXBXnXnXbX>X$X|.yXxXuXuXgX1X~ ^ 0XiXuXuXhXhXm w t a.G ` wXHXG.0 i R J J $XvXpXpXpXpXpXpXpXpXpXpXpXpXpXpXpXpXpXpXpXpXpXpXpXpXpXpX",
"K.L.Y.Y.Y.Y.Y.Y.Y.Y.Y.Y.Y.Y.Y.Y.L.Y.Y.Y.Y.Y.Y.Y.Y.Y.L.Y.Y.Y.Y.Y.Y.R.b b P.I.n e.e.r.r.r.2.r.r.r.2.r.r.e.e.r.2.>.>.m x >.>.e.r.r.r.r.r.r.r.r.r.r.r.r.r.2.r.t 2.N.>.m ] f.n.l.d.l.l.l.l.l.n.d.n. X} n.l.d.l.l.d.5.5._ _ 5.f.d.l.d.l.l.d.l.l.&.l.l.l.l.l.n.5.-.A.A.n n.#X@X@X@XOXQ |.OXOXOXOXOXOXOXOXC.oXOXOXoXg.g.i.a.p.p.oXOXoXC.OXOXOXC.OXOXOXC.OXOXOXC.OX` C.:XF.F.;X-X-X-X-X-X-X-X-Xp T.#X%XNXNXNXnXnXnXbX>X|.yXxXuXuXgX1X~ ^ 0XiXuXuXhXhXm w t a.G ` wXHXG.0 i R J J $XvXpXiXiXiXiXiXiXiXiXiXiXpXiXiXiXiXiXiXiXiXiXiXiXiXiXiX",
"K.I.P.Y.Y.Y.Y.Y.Y.Y.Y.Y.Y.Y.Y.Y.L.Y.Y.Y.Y.Y.Y.Y.Y.Y.L.Y.Y.Y.Y.Y.Y.P.n I.P.b b r.2.r.r.r.2.e.r.r.2.r.r.e.2.r.2.>.>.m x >.>.2.r.r.r.r.r.r.r.r.r.r.r.r.r.2.r.>.t V.I.T ` n.l.l.d.l.l.l.l.l.l.d.l.f.g.l.l.d.l.l.d.5.&._ _ 5.f.d.l.d.l.l.d.l.l.&.l.l.l.l.l.l.l.h l.D.5.-.#XD.@X@X|.Q oXOXOXOXOXOXOXOXOXC.oXOXOXoXg.g.i.a.p.p.C.OXC.C.OXOXOXC.oXOXOXC.OXOXoXC.OXg.i.;XF.F.-X#X-X-X-X-X-X-X-Xp -X-X%XNXNXNXnXnXnXbX>X|.yXxXuXuXgX1X~ ^ 0XiXuXuXhXhXm w t a.G ` wXHXG.0 i R J J $XvX).(._.).).(.).(.(.).).(.).(.(.(.(.(.(.(.(.(.(.(.(.(.",
"K.I.P.Y.Y.Y.Y.Y.Y.Y.Y.Y.Y.Y.Y.Y.L.Y.Y.Y.Y.Y.Y.Y.Y.Y.L.Y.Y.Y.Y.Y.R.:.b P.I.z e.e.e.r.r.r.2.e.r.r.2.r.r.e.2.r.2.>.>.m x >.>.2.r.r.r.r.r.r.r.r.r.r.r.r.r.2.e.r.t 2.U._ %.n.l.l.d.l.l.l.l.l.l.d.l.l.l.l.l.d.l.l.d.5.&._ _ 5.f.d.l.d.l.l.d.l.l.&.l.l.l.l.l.l.n.6.-.A.A.n A.@X@X@X X XOXOXOXOXOXOXOXOXOXC.oXOXOXoXg.g.i.a.p.p.C.OXoXC.OXOXOXC.oXOXOXC.OXOXoXC.OXOX` #XF.F.-X#X-X-X-X-X-X-X#Xp K.-X%XMXNXNXnXnXnXbX>X|.yXxXuXuXgX1X~ ^ 0XiXuXuXhXhXm w t a.G ` wXHXG.0 i R J J $XvX_._.q.E.B.(./.q././.B.B.U.(.).).).).).).).).).).).).",
"I.L.Y.Y.Y.Y.Y.Y.Y.Y.Y.Y.Y.Y.Y.Y.L.Y.Y.Y.Y.Y.Y.Y.Y.Y.L.Y.Y.Y.Y.Y.Y.n 2.P.:.n I.e.e.r.r.r.2.e.r.r.2.r.r.e.2.r.2.>.>.m x >.>.2.r.r.r.r.r.r.r.r.r.r.r.r.r.2.e.r.4.m l._ t l.l.l.d.l.l.l.l.l.l.d.l.l.l.l.l.d.l.l.d.5.&._ _ 5.f.d.l.d.l.l.d.l.l.&.l.l.l.l.l.l.l.l.h l.D.5.&.#XD.|.Q p.OXOXOXOXOXOXOXOXOXC.oXOXOXoXg.g.i.a.p.p.C.OXoXC.OXOXOXC.oXOXOXC.OXOXoXC.OXOX` oXF.F.-X#X-X-X-X-X-X-X#Xp 7 L.%XnXNXNXnXnXnXbX>X|.yXxXuXuXgX1X~ ^ 0XiXuXuXhXhXm w t a.G ` wXHXG.0 i R J J $XvX6X/.v :.:.q.:.b 7.7.:.7.:.B._.).).).).).).).).).).).",
">.3.L.Y.Y.Y.Y.Y.Y.Y.Y.Y.Y.Y.Y.Y.L.Y.Y.Y.Y.Y.Y.Y.Y.Y.L.Y.Y.Y.Y.R.2.b I.I.n 2.r.e.e.r.r.r.2.e.r.r.2.r.r.e.2.r.2.>.>.m x >.>.2.r.r.r.r.r.r.r.r.r.r.r.r.r.2.e.r.r.t _ h.;.#.l.l.d.l.l.l.l.l.l.d.l.l.l.l.l.d.l.l.d.5.&._ _ 5.f.d.l.d.l.l.d.l.l.&.l.l.l.l.l.l.l.n.6.6.D.A.n A.@X X XC.OXOXOXOXOXOXOXOXOXC.oXOXOXoXg.g.i.a.p.p.C.OXoXC.OXOXOXC.oXOXOXC.OXOXoXC.OXOXp.i.F.F.-X#X-X-X-X-X-X-X#Xp 7 I.%XnXNXNXnXnXnXbX>X|.yXxXuXuXgX1X~ ^ 0XiXuXuXhXhXm w t a.G ` wXHXG.0 i R J J $XvX6XV.q.7.m.7.b 8.:.q.7.7.8.V.6X).).).).).).).).).).).",
"r ;.3.R.Y.Y.Y.Y.Y.Y.Y.Y.Y.Y.Y.Y.L.Y.Y.Y.Y.Y.Y.Y.Y.Y.L.Y.Y.Y.Y.R.n e.I.>.n b.r.e.e.r.r.r.2.e.r.r.2.r.r.e.2.r.2.>.>.m x >.>.2.r.r.r.r.r.r.r.r.r.r.r.r.r.2.e.r.r.1._ x.x.v l.l.d.l.l.l.l.l.l.d.l.l.l.l.l.d.l.l.d.5.&._ _ 5.f.d.l.d.l.l.d.l.l.&.l.l.l.l.l.l.l.l.l.h n.D.&.5.+XQ |.C.OXOXOXOXOXOXOXOXOXC.oXOXOXoXg.g.i.a.p.p.C.OXoXC.OXOXOXC.oXOXOXC.OXOXoXC.OXoXC.` Z.F.-X#X-X-X-X-X-X-X#XK.W G.%XMXNXNXnXnXnXbX>X|.yXxXuXuXgX1X~ ^ 0XiXuXuXhXhXm w t a.G ` wXHXG.0 i R J J $XvX_.(._.).(.).(.(.q./.(.)./.).(.(.(.(.(.(.(.(.(.(.(.(.",
"4.v 3.R.Y.Y.Y.Y.Y.Y.Y.Y.Y.Y.Y.Y.L.Y.Y.Y.Y.Y.Y.Y.Y.Y.L.Y.Y.Y.R.e.b L.I.n :.r.r.e.e.r.r.r.2.e.r.r.2.r.r.e.2.r.2.>.>.m x >.>.2.r.r.r.r.r.r.r.r.r.r.r.r.r.2.e.r.J.` T 9.l.;.1.l.d.l.l.l.l.l.l.d.l.l.l.l.l.d.l.l.d.5.&._ _ 5.f.d.l.d.l.l.d.l.l.&.l.l.l.l.l.l.l.l.n.-.6.D.n.n  X XOXC.OXOXOXOXOXOXOXOXOXC.oXOXOXC.g.g.i.a.p.p.C.OXC.C.OXOXOXC.oXOXOXC.OXOXoXC.OXoXZ.i.a.F.-X#X-X-X-X-X-X-X-X#XT.7 R VXBXNXnXnXnXbX>X|.yXxXuXuXgX1X~ ^ 0XiXuXuXhXhXm w t a.G ` wXHXG.0 i R J J $XvXwXwXwXwXwXwXwXwXeXeXwXwXwXwXwXeXaXaXaXaXuXwXfXfXfXfX",
"K.3.L.Y.Y.Y.Y.Y.Y.Y.Y.Y.Y.Y.Y.Y.L.Y.Y.Y.Y.Y.Y.Y.Y.Y.P.Y.Y.Y.R.n e.P.>.n b.r.r.e.e.r.r.r.e.r.r.r.2.r.r.e.e.r.2.>.>.m x >.>.e.r.r.r.r.r.r.r.r.r.r.r.r.r.e.e.r.t.` ;.;.l.<.m l.d.l.l.l.l.l.l.d.l.l.l.l.l.d.l.l.d.5.5._ _ 5.f.d.l.d.l.l.d.l.l.&.l.l.l.l.l.l.l.l.l.d.n A.D.u.G .XOXC.OXOXOXOXOXOXOXOXOXC.OXOXOXoXg.g.i.a.p.C.oXOXoXC.OXOXOXC.OXOXOXC.OXOXOXC.OXOXC.+X` F.;X-X-X-X-X-X-X-X-X-X-X7 R VXNXNXnXnXnXbX>X|.yXxXuXuXgX1X~ ^ 0XiXuXuXhXhXm w t a.G ` wXHXG.0 i R J J $XvXiXiXpXpXpXpXiXiXiXuXiXiXiXiXlXQ.a a a a H.tX........",
"4.3.3.3.3.3.3.3.3.3.3.3.3.3.3.3.3.3.3.3.3.3.3.3.3.3.3.3.3.3.:.z 3.3.z v :.;.;.;.;.;.;.;.;.;.;.;.;.;.;.;.;.;.;.m m x x m m ;.;.;.;.;.;.;.;.;.;.;.;.;.;.;.;.4._ _ @.r @.&.r +.&.&.&.&.&.&.&.&.&.&.&.&.&.%.&.&.&.-.-._ _ -.-.%.&.%.&.&.%.&.&.O.&.&.&.&.&.&.&.&.&.&.h -.f.a.G u.u.u.u.u.u.u.u.u.u.u.u.u.u.u.u.u.a.a.` a.a.a.u.u.u.u.u.u.u.u.u.u.u.u.u.u.u.u.u.u.u.p.` u.s.s.s.s.s.s.s.s.s.s.s.7 E $X#X#X@XOXOX+X+X XyXxXuXuXgX1X~ ^ 0XiXuXuXhXhXm w t a.G ` wXHXG.0 i R J J $XvXiXwX6X8X_.).qX8XuXhXiXuXuXeXlXH.4 4 4 4 a MXK Z S Z ",
"K.I.P.Y.Y.Y.Y.Y.Y.Y.Y.Y.Y.Y.Y.P.I.Y.Y.Y.Y.Y.Y.Y.Y.Y.L.P.P.R.b >.P.e.z r.e.e.r.2.2.r.e.r.2.e.e.e.2.e.r.e.2.r.2.>.>.m x >.>.2.e.e.e.e.e.e.e.e.e.e.e.e.r.2.e.e._ <.9.;.@.l.,.+.d.l.l.l.l.l.l.d.l.l.l.l.l.d.l.l.d.5.&._ _ 5.f.d.l.d.l.l.d.l.l.&.l.l.l.l.l.l.l.l.l.l.5.n C.Q _ f.+XC.OXoXoXoXoXoXoXoXOXC.C.OXoXC.g.g.i.a.p.p.C.oXC.C.OXoXOXC.C.OXOXC.oXOXC.C.OXC.C.OXi.i.;X#X#X#X#X#X#X#X#X#X#X7 E VXBXBXnXnXnXbX>X|.yXxXuXuXgX1X~ ^ 0XiXuXuXhXhXm w t a.G ` wXHXG.0 i R J P $XvXhXm.w.:.m.$.6Xq.c.m.eXiXuXeXlXH.4 5 4 4 a MXK S K Z ",
"K.I.P.Y.Y.Y.Y.Y.Y.Y.Y.Y.Y.Y.Y.Y.L.Y.Y.Y.Y.Y.Y.Y.Y.Y.L.Y.R.I.n I.P.b b b.r.r.r.e.e.r.r.r.2.r.r.r.2.r.r.e.e.r.2.>.>.m x >.>.2.r.r.r.r.r.r.r.r.r.r.r.r.r.2.J.%.` 0.9.,.r x.x.+.*.l.l.l.l.l.l.d.l.l.l.l.l.d.l.l.d.5.5._ _ 5.f.d.l.d.l.l.d.l.l.&.l.l.l.l.l.l.l.l.l.l.n.n a. Xu.-.OXC.OXOXOXOXOXOXOXOXOXC.oXOXOXoXg.g.i.a.p.p.oXOXoXC.OXOXOXC.oXOXOXC.OXOXoXC.OXOXC.OXp.` ;X#X-X-X-X-X-X-X-X-X#X7 E VXNXNXnXnXnXbX>X|.yXxXuXuXgX1X~ ^ 0XiXuXuXhXhXt y w _ F F wXFX4.0 0 G K K $XvXxXq.q.$.).q.uXm.$.$.).pXuXeXlXH.4 9 9 4 a MXK Z S Z ",
"K.I.P.Y.Y.Y.Y.Y.Y.Y.Y.Y.Y.Y.Y.Y.L.Y.Y.Y.Y.Y.Y.Y.Y.Y.L.P.R.b :.P.r.z 2.r.r.r.r.e.e.r.r.r.2.e.r.r.2.r.r.e.2.r.2.>.>.m x >.>.2.r.r.r.r.r.r.r.r.r.r.r.r.r.2.e.` =.<.<.x.;.1.l.1.+.l.l.l.l.l.l.d.l.l.l.l.l.d.l.l.d.5.&._ _ 5.f.d.l.d.l.l.d.l.l.&.l.l.l.l.l.l.l.l.l.l.n.f.G i.Z.-.f.oXOXOXOXOXOXOXOXOXOXC.oXOXOXoXg.g.i.a.p.p.C.OXoXC.OXOXOXC.oXOXOXC.OXOXoXC.OXoXC.OXp.` @X-X#X-X-X-X-X-X-X-X#Xu E VXBXNXnXnXnXbX>X|.yXxXuXuXgX1X~ ^ 0XiXuXuXhXxXr y y F F F qXFX4.6 6 G K K $XvXpX_.wX).iX/.uXB.S.).8XiXuXeXlXH.5 4 4 4 a MXK Z Z Z ",
"K.I.P.Y.Y.Y.Y.Y.Y.Y.Y.Y.Y.Y.Y.Y.L.Y.Y.Y.Y.Y.Y.Y.Y.Y.L.Y.I.n I.P.b b r.r.r.r.r.e.e.r.r.r.2.e.r.r.2.r.r.e.2.r.2.>.>.m x >.>.2.r.r.r.r.r.r.r.r.r.r.r.r.r.e.%.` 0.<.<.9.1.r x.x.r 9.l.l.l.l.l.d.l.l.l.l.l.d.l.l.d.5.&._ _ 5.f.d.l.d.l.l.d.l.l.&.l.l.l.l.l.l.l.l.l.l.n.i.G p.C.u.-.+XOXOXOXOXOXOXOXOXOXC.oXOXOXoXg.g.i.a.p.p.C.OXoXC.OXOXOXC.oXOXOXC.OXOXoXC.OXoXC.OXC.` g.;X#X-X-X-X-X-X-X-X#Xs E VXNXNXnXnXnXbX>X|.yXxXuXuXgX1X~ ^ 0XiXuXuXhXxXr y r F F F qXFX4.6 0 G K K $XvXuXiXiXiXeXiXuXpXpXiXiXuXuXeXaXQ.H.H.H.H.!.tX&X&X&X&X",
"I.L.Y.Y.Y.Y.Y.Y.Y.Y.Y.Y.Y.Y.Y.Y.L.Y.Y.Y.Y.Y.Y.Y.Y.Y.L.R.b :.P.r.z e.2.r.r.r.r.e.e.r.r.r.2.e.r.r.2.r.r.e.2.r.2.>.>.m x >.>.2.r.r.r.r.r.r.r.r.r.r.r.r.r.e._ =.<.<.<.<.x.m 1.l.#.;.l.l.l.l.l.d.l.l.l.l.l.d.l.l.d.5.&._ _ 5.f.d.l.d.l.l.d.l.l.&.l.l.l.l.l.l.l.l.l.l.f.Q a.-.C.C.-.p.OXOXOXOXOXOXOXOXOXC.oXOXOXoXg.g.i.a.p.p.C.OXoXC.OXOXOXC.oXOXOXC.OXOXoXC.OXoXC.OXp.p.` -X#X-X-X-X-X-X-X-X#Xi R 4XNXNXnXnXnXbX>X|.yXxXuXuXgX1X~ ^ 0XiXuXuXhXxXr y r F F F qXFX4.6 0 G K K $XvXpXpXpXpXpXpXpXiXiXpXpXpXpXpXpXlXlXlXlXlXlXpXcXcXcXcX",
";.3.r.R.Y.Y.Y.Y.Y.Y.Y.Y.Y.Y.Y.Y.L.Y.Y.Y.Y.Y.Y.Y.Y.Y.L.L.n I.P.b b r.2.r.r.r.r.e.e.r.r.r.2.e.r.r.2.r.r.e.2.r.2.>.>.m x >.>.2.r.r.r.r.r.r.r.r.r.r.r.r.J.=._ 0.<.<.<.<.9.1.m x.d.r x.l.l.l.l.d.l.l.l.l.l.d.l.l.d.5.&._ _ 5.f.d.l.d.l.l.d.l.l.&.l.l.l.l.l.l.l.l.l.n.u.R p.O.f.oXu.%.OXOXOXOXOXOXOXOXOXC.oXOXOXoXg.g.i.a.p.p.C.OXoXC.OXOXOXC.oXOXOXC.OXOXoXC.OXoXC.OXp.p.` OX-X#X-X-X-X-X-X-X#Xp R 4XNXNXnXnXnXbX>X|.yXxXuXuXgX1X~ ^ 0XiXuXuXhXxXr y r F F F qXFX4.6 0 G K K $XvXxXxXxXxXxXxXxXxXxXxXxXxXxXxXxXxXlXlXlXlXxXxXxXxXxXxX",
"e e :.R.Y.Y.Y.Y.Y.Y.Y.Y.Y.Y.Y.Y.L.Y.Y.Y.Y.Y.Y.Y.Y.Y.Y.:.b P.I.n e.r.2.r.r.r.r.e.e.r.r.r.2.e.r.r.2.r.r.e.2.r.2.>.>.m x >.>.2.r.r.r.r.r.r.r.r.r.r.r.r.J._ &.9.<.<.<.<.<.9.r ,.d.1.;.l.l.l.l.d.l.l.l.l.l.d.l.l.d.5.&._ _ 5.f.d.l.d.l.l.d.l.l.&.l.l.l.l.l.l.l.l.l.l.R a.g.%.-.C.C.O.C.OXOXOXOXOXOXOXOXC.oXOXOXoXg.g.i.a.p.p.C.OXoXC.OXOXOXC.oXOXOXC.OXOXoXC.OXoXC.OXp.C.i.p.;X#X-X-X-X-X-X-X#Xp R 4XNXNXnXnXnXbX>X|.yXxXuXuXgX1X~ ^ 0XiXuXuXhXxXr y r F F F qXFX4.6 0 G K K $XvXuXeXeXeXeXeXuXuXeXuXuXuXuXuXiX9X{.{.{.{.dXyXsXtXsXtX",
"m ;.3.R.Y.Y.Y.Y.Y.Y.Y.Y.Y.Y.Y.Y.L.Y.Y.Y.Y.Y.Y.Y.Y.Y.L.n r.P.:.n I.e.2.r.r.r.r.e.e.r.r.r.2.r.r.r.2.r.r.e.e.r.2.>.>.m x >.>.2.r.r.r.r.r.r.r.r.r.r.r.J.<._ <.<.<.<.<.<.<.9.1.+.d.x.v x.l.l.l.d.l.l.l.l.l.d.l.l.d.5.5._ _ 5.f.d.l.d.l.l.d.l.l.&.l.l.l.l.l.l.l.l.n.u.R p.f.f._ g.oX%.%.OXOXOXOXOXOXOXOXC.oXOXOXoXg.g.i.a.p.p.oXOXoXC.OXOXOXC.OXOXOXC.OXOXOXC.OXOXC.OXp.p.oX` ;X#X-X-X-X-X-X-X#XY.R 4XNXNXnXnXnXbX>X|.yXxXuXuXgX1X~ ^ 0XiXuXuXhXxXr y r F F F qXFX4.6 0 G K K $XvXuXiXpXpXiXhXiXiXhXiXuXiXpXeXlXH.d 0 u 5 a MXJ K K K ",
"K.L.P.Y.Y.Y.Y.Y.Y.Y.Y.Y.Y.Y.Y.P.I.Y.Y.Y.Y.Y.Y.Y.P.R.:.b L.I.n >.r.e.2.e.e.e.e.2.2.e.e.e.2.e.e.e.2.e.e.e.2.r.2.>.>.m x :.>.2.e.e.e.e.e.e.e.e.e.e.e.J._ %.<.<.<.<.<.<.<.<.9.r *.l.@.#.l.l.l.d.d.l.l.l.l.d.l.l.d.5.&._ _ 5.f.d.l.d.l.l.d.l.l.&.l.l.l.l.l.l.l.l.l.a.a.f.u.g.%.%.C.p._ C.OXoXoXoXoXoXOXC.C.OXoXC.g.g.i.a.p.p.C.oXC.C.OXoXOXC.C.oXoXC.oXOXC.C.OXC.C.OXp.p.OX` OX-X#X#X#X#X#X#X#X;XR *XBXBXnXnXbX>X>X|.yXxXuXuXgX1X~ ^ 0XiXuXuXhXxXr y r F F F qXFX4.6 0 G K K $XvXpX(.m.V.N.7._.6X8.6XiX6X).iXlXH.4 4 4 4 a MXK Z K Z ",
"K.K.I.L.L.L.L.L.L.L.L.L.L.L.L.L.I.L.L.L.L.L.L.L.L.P.x 2.I.:.n r.2.2.2.2.2.2.2.2.2.e.2.2.2.2.2.2.2.2.2.2.2.e.2.>.>.m x :.:.>.2.2.2.2.2.2.2.2.2.2.e.,._ ,.=.*.*.*.*.*.*.*.=.@.+.d.=.r d.d.d.d.d.d.d.d.d.d.d.d.5.5.&._ _ %.5.d.d.d.d.d.d.d.d.%.d.d.d.d.d.d.d.x.u.R a.f.u.u.u._ g.g.%.%.+XC.C.C.C.C.C.C.C.C.C.C.g.i.i.a.p.p.C.C.C.C.C.C.C.C.C.C.C.C.C.C.C.C.C.C.C.oXp.p.OXi.p.-X#X#X#X#X#X#X#XE.R *XBXnXsXsXbX>X$X|.yXxXuXuXgX1X~ ^ 0XiXuXuXhXxXr y r F F F qXFX4.6 0 G K K $XvXxXq.7.$.B.7.wX8./.$.S.$.q.hXlXH.4 5 5 4 a MXK S K Z ",
"K.L.Y.Y.Y.Y.Y.Y.Y.Y.Y.Y.Y.Y.Y.Y.L.Y.Y.Y.Y.Y.Y.Y.R.e.x L.L.n >.r.r.r.2.r.r.r.r.e.e.r.r.r.2.r.r.r.2.r.r.e.e.r.2.>.>.m x >.>.e.r.r.r.r.r.r.r.r.r.r.J.` %.<.<.9.<.9.9.<.<.<.<.9.r 9.l.;.1.n.l.d.l.l.l.l.l.d.l.l.d.5.5._ _ 5.f.d.l.d.l.l.d.l.l.&.l.l.l.l.l.l.l.l.a.a.f.f.f.f.C.-.%.C.g.-.OXOXOXOXOXOXOXC.oXOXOXoXg.g.i.a.p.p.oXOXoXC.OXOXOXC.OXOXOXC.OXOXOXC.OXoXC.OXp.p.OXg.` ;X#X-X-X-X-X-X-X;XT *XCXNXnXnXnXbX>X|.yXxXuXuXgX1X~ ^ 0XiXuXuXhXxXr y r F F F qXFX4.6 0 G K K $XvXpXV.E.q.wXc.uXm.8.q.$.$.V.iXlXH.4 4 4 4 a MXK Z S Z ",
"K.I.P.Y.Y.Y.Y.Y.Y.Y.R.Y.Y.Y.Y.Y.L.Y.Y.Y.Y.Y.Y.Y.R.n >.P.2.n I.e.r.e.2.r.r.r.r.e.e.r.r.r.2.r.r.r.2.r.r.e.2.r.2.>.>.m x >.>.2.r.r.r.r.r.r.r.r.r.r.0._ 9.=.<.<.<.<.<.9.9.9.<.9.+.;.l.<.+.l.l.d.l.l.l.l.l.d.l.l.d.5.&._ _ 5.f.d.l.d.l.l.d.l.l.&.l.l.l.l.l.l.n.p.R a.f.f.f.f.f.u._ g.OX%.u.OXOXOXOXOXOXC.oXOXOXoXg.g.i.a.p.oXC.OXC.C.OXOXOXC.oXOXOXC.OXOXoXoXOXOXC.OXp.p.OXOX` @X-X#X-X-X-X-X#X;XT =XCXNXnXnXnXbX>X|.yXxXuXuXgX1X~ ^ 0XiXuXuXhXxXr y r F F F qXFX4.6 0 G K K $XvXiXeXiXeXiXeXiXiX_.iX6XwXqXeXlXH.7 u u 5 a MXJ K K K ",
"K.I.P.Y.Y.Y.Y.Y.Y.Y.3.r.I.Y.Y.Y.L.Y.Y.Y.Y.Y.Y.R.r.n I.I.x b e.r.r.e.2.r.r.r.r.e.e.r.r.r.e.2.:.>.>.r.r.e.2.r.2.>.>.m x >.>.2.r.2.:.>.2.r.r.r.r.J.%.%.0.=.<.<.<.<.9.*.#.*.*.<.*.r x.l.;.,.n.d.l.l.l.l.l.5.&.5.d.5.&._ _ 5.f.d.l.d.l.l.d.l.l.-.5.5.l.l.l.l.l.a.R f.f.f.f.f.f.g.-.%.p.%.O.OXOXOXOXOXOXC.oXOXOXoXg.g.i.a.u.p.C.OXoXC.OXOXOXC.oXOXOXC.OXOXOXu.p.p.C.OXp.p.OXOXi.g.;X#X-X-X-X-X#X;XT =XCXNXnXnXnXbX>X|.yXxXuXuXgX1X~ ^ 0XiXuXuXhXxXr y r F F F qXFX4.6 0 G K K $XvXuXuXuXiXuXiXuXuXpXuXiXiXiXuXiX9XdXdXdXdX9XyXsXtXtXtX",
"K.I.Y.Y.Y.Y.Y.Y.R.3.3.3.3.Y.Y.Y.L.Y.Y.Y.Y.Y.Y.R.b 2.L.;.z :.:.r.r.e.2.r.r.r.r.e.e.r.r.r.e.;.2.:.;.r.r.e.2.r.2.>.>.m x >.>.2.r.;.2.;.:.r.r.r.r.t._ <.9.*.<.<.<.<.9.+.*.c #.<.5.;.;.l.<.+.l.d.l.l.l.l.l.-.d.-.5.5.&._ _ 5.f.d.l.d.l.l.d.l.l.-.5.O.l.l.l.l.f.R a.f.f.f.f.f.f.g.u.h C.u.-.f.OXOXOXOXOXC.oXOXOXoXg.g.i.a.u.%.C.OXC.C.OXOXOXC.oXOXOXC.OXOXg.u.p.%.C.OXp.p.OXOXg.i.;X#X-X-X-X-X-X;XT =XNXNXnXnXnXbX>X|.yXxXuXuXgX1X~ ^ 0XiXuXuXhXxXr y r F F F qXFX4.6 0 G K K $XvXxXxXxXxXxXxXxXxXxXxXxXxXxXxXxXxXxXxXxXxXxXxXcXcXcXcX",
"K.L.L.Y.Y.Y.Y.Y.Y.I.3.3.3.Y.Y.Y.L.Y.Y.Y.Y.Y.R.b.n L.I.x b 2.>.r.r.e.2.r.r.r.r.e.e.r.r.r.e.:.:.m :.r.r.e.2.r.2.>.>.m x >.>.2.r.:.:.;.>.r.r.r.J.%.` 0.<.*.<.<.<.<.9.@.@.+.=.9.*.<.r x.x.+.<.d.l.l.l.l.l.&.5.&.5.5.&._ _ 5.f.d.l.d.l.l.d.l.l.-.&.-.d.l.l.n.a.R p.f.f.f.f.f.f.f.g.h u.p.u.-.OXOXOXOXOXC.oXOXOXoXg.g.i.a.a.a.C.OXC.C.OXOXOXC.oXOXOXC.OXOXC.u.p.u.C.OXp.p.OXOXoX` #X-X-X-X-X-X-X;XT |.CXNXnXnXnXbX>X|.yXxXuXuXgX1X~ ^ 0XiXuXuXhXxXr y r F F F qXFX4.6 0 G K K $XvXpXpXpXiXpXxXcXhXpXiXpXpXpXiXiXpXiXiXiXiXiXpXpXpXiXpX",
"r r I.Y.Y.Y.Y.Y.Y.Y.P.Y.Y.Y.Y.Y.L.Y.Y.Y.Y.Y.R.b :.P.2.z r.r.r.r.r.e.2.r.r.r.r.e.e.r.r.r.2.r.e.e.2.r.r.e.e.r.2.>.>.m x >.>.2.r.r.e.e.r.r.r.r.r._ =.<.9.<.<.9.9.<.9.9.<.9.9.<.*.x.;.1.l.,.;.d.l.l.l.l.l.d.d.l.d.5.5._ _ 5.f.d.l.d.l.l.d.l.l.&.l.l.l.l.l.f.R a.f.f.f.f.f.f.f.f.g.%.-.C.C.-.C.OXOXOXOXC.oXOXOXoXg.g.i.a.p.p.oXOXoXC.OXOXOXC.OXOXOXC.OXOXOXC.OXOXC.OXp.p.OXOXOX` OX;X#X-X-X-X-X;X4. XNXNXnXnXnXbX>X|.yXxXuXuXgX1X~ ^ 0XiXuXuXhXxXr y r F F F qXFX4.6 0 G K K $XvXuXuXuXgXuX3XXX1XgXiXuXuXuXiXpXeXeXuXeXuXiXuXeXuXiXuX",
"r e >.R.Y.Y.Y.Y.Y.Y.I.3.P.I.3.L.r.r.3.I.L.3.3.x >.I.b x 2.:.e.>.:.e.:.>.:.2.2.:.2.2.:.2.2.>.>.>.2.:.>.2.:.>.;.>.4.x x :.m >.2.>.>.>.e.:.>.e.%._ #.=.=.@.=.=.@.=.=.#.#.#.=.@.#.=.@.r &.d.r @.d.5.&.d.5.5.5.5.5.-.&._ _ %.%.d.5.&.d.5.&.d.5.5.5.d.d.&.5.a.R u.u.u.u.u.u.u.u.u.u.u.h u.C.%.-.oXp.p.p.C.p.p.C.p.u.i.` a.u.p.p.u.C.C.p.p.p.C.p.p.C.p.p.C.p.p.p.C.C.p.C.p.p.p.Z.i.i.F.#X-X#X#X#X;X4. XNXBXnXnXnXbX>X|.yXxXuXuXgX1X~ ^ 0XiXuXuXhXxXr y r F F F qXFX4.6 0 G K K $XvXiXuXgX3X^ ^ ' ^ ' 7XgXuXiX6XE.pXpXiXhXuXwXwXpXeXqXiX",
"3.3.I.R.R.R.R.R.R.R.r.3.L.3.3.L.3.3.3.I.I.3.x b >.2.z :.:.;.2.:.;.2.:.:.;.2.2.;.2.2.;.2.>.:.:.:.2.;.:.2.:.:.m >.4.r x ;.m >.>.:.:.:.2.;.:.2._ -.+.=.#.+.=.#.+.=.#.@.@.@.=.+.#.=.@.r +.d.@.r d.5.&.d.5.5.&.5.5.-.@._ _ %.%.d.&.&.d.&.&.d.&.5.&.5.d.&.=.R a.%.%.u.u.%.u.%.%.u.%.u.O.-.g.u._ u.u.u.u.C.u.u.C.u.a.i.` a.a.p.p.u.C.g.u.u.u.C.u.p.C.u.p.C.u.p.u.C.p.u.C.p.u.u.p.g.` s.#X;X-X-X-X:XG. XCXNXBXBXNXbXbX|.yXxXuXuXgX1X~ ^ 0XiXuXuXhXxXr y r F F F qXFX4.6 0 G K K $XvXuXgX3X~ <XxXcXlX .^ 0XiXhX8.v q.q.V.q.q.$.q.B.c.$.w.",
"3.3.3.3.3.3.3.3.3.3.3.3.L.3.3.L.3.3.3.I.I.>.z 3.3.x x >.:.:.2.:.:.2.:.:.;.2.2.;.2.2.;.2.>.:.:.:.2.:.:.2.:.:.;.>.4.r x ;.m >.>.:.:.:.2.;.>.&._ #.+.=.#.+.=.#.+.=.#.#.@.#.=.+.#.=.@.+.r 5.=.r 5.5.&.d.5.5.&.5.5.-.@._ _ %.%.d.5.&.d.5.&.d.&.5.&.5.d.&.a.R a.%.%.u.u.%.u.u.%.u.u.u.%.h u.u.%.-.p.u.u.C.u.p.C.u.u.i.` a.a.p.p.u.C.g.u.u.p.C.u.p.C.u.p.C.u.p.u.C.p.u.C.p.u.u.p.C.` p.F.s.Z.Z.s.Z.4.R #X#X#X#X$X$X+X XyXxXuXuXgX1X~ ^ 0XiXuXuXhXxXr y r F F F qXFX4.6 0 G K K $XvXiXuX^ <XKXxXxXxXKX] ' gXpXq.$.v $.v e m.7.7.v 7.$.q.",
"K.K.I.I.I.I.I.I.I.I.3.3.L.3.3.L.3.3.3.I.P.x b I.:.z >.:.:.:.e.:.:.e.:.:.;.2.2.;.2.2.;.2.2.:.:.:.e.:.:.e.:.:.;.>.4.r x :.m >.>.:.:.:.e.;.>._ -.@.+.=.=.+.=.=.+.=.#.@.@.#.=.+.#.=.@.@.r *.5.v +.d.&.d.5.5.&.5.5.-.@._ _ %.%.d.5.&.d.5.&.d.5.5.&.5.d.&.R a.%.%.%.u.u.%.u.u.%.u.u.u.u.-.-.u.u._ u.u.u.C.u.p.C.u.u.i.` a.a.p.p.u.C.C.u.u.p.C.u.p.C.u.p.C.u.p.u.C.g.u.C.p.u.u.p.Z.` i.F.F.F.F.F.@X3.R bXsXsXsX>X$X$X|.yXxXuXuXgX1X~ ^ 0XiXuXuXhXxXr y r F F F qXFX4.6 0 G K K $XvXgX1X^ xXxXxXxXpXDXtX^ 0XiX8X8X).)./._././.6X_.6X6Xq.",
"K.L.Y.Y.Y.Y.Y.Y.Y.R.I.3.I.3.3.I.3.3.3.r.I.z 2.3.x x 2.:.:.;.2.:.:.2.:.:.;.>.>.;.>.>.;.>.:.:.:.:.2.;.:.>.:.:.;.4.;.r x m m :.:.:.:.:.2.;.@._ @.@.+.=.@.+.=.@.+.=.@.#.@.@.=.+.@.=.@.@.+.r &.@.r &.&.5.&.5.&.&.5.-.@._ _ %.%.5.&.&.5.&.&.5.&.5.&.5.5.a.R a.%.%.%.u.%.%.u.%.%.u.%.u.%.u.h %.p.-.-.p.u.C.u.u.C.u.u.i.` a.a.p.p.u.p.p.u.u.u.C.u.p.C.u.p.g.u.p.u.p.p.u.p.p.u.u.p.C.a.` -X-X-X-X-X;XK.R VXNXBXBXnXbXbX|.yXxXuXuXgX1X~ ^ 0XiXuXuXhXxXr y r F F F qXFX4.6 0 G K K $XvXgX3X' xXxXxXxXz e 7X^ 7XiXiXiXpXiXiXhXpXpXiXhXxXxXwX",
"K.I.P.Y.Y.Y.Y.Y.Y.Y.r.3.3.3.3.3.3.3.3.3.b z 3.>.z ;.;.:.:.;.:.;.;.:.;.:.;.:.;.;.:.;.;.:.;.:.:.;.:.;.;.:.;.:.;.m m r x m m ;.;.:.:.;.;.m _ -.+.@.+.@.+.+.@.+.+.@.+.#.@.+.@.+.@.+.+.@.@.r +.&.+.v &.&.&.5.&.&.-.-.-._ _ %.-.&.&.&.&.&.&.&.&.5.&.&.&.R R %.%.%.%.%.%.%.%.%.%.%.%.u.%.u._ -.u.%._ u.u.u.u.u.u.u.a.a.` a.a.u.u.u.u.u.u.u.u.u.u.u.u.u.u.u.u.p.u.u.u.u.u.u.u.u.u.u.u.` #X-X#X-X-X#XL.R VXNXnXnXnXbX>X|.yXxXuXuXgX1X~ ^ 0XiXuXuXhXxXr y r F F F qXFX4.6 0 G K K $XvXgX1X^ aXcXxXxXiXrXA.- eXiXiXq.q.wXw.7.w.:.B.8XV.E.6X",
"K.I.P.Y.Y.Y.Y.Y.Y.Y.I.3.r.3.3.r.3.3.3.r.z :.3.b z 2.:.:.>.:.>.:.:.:.:.>.:.:.:.:.:.:.:.>.:.>.>.:.:.:.:.:.:.:.;.;.;.x x m m :.:.>.:.:.>.@._ #.@.#.@.#.@.@.#.@.@.#.@.=.@.@.#.@.@.@.@.@.@.+.r &.=.r &.5.&.5.&.&.&.-.-._ _ %.%.5.&.&.5.&.&.5.&.5.&.5.a.R a.%.u.u.u.u.%.u.u.%.u.u.%.u.%.u.%.h u.u.O.%.p.p.u.p.p.u.u.i.` a.u.u.u.u.p.u.p.p.p.p.u.p.p.u.p.p.p.p.u.p.u.p.p.u.p.p.p.p.p.` C.;X#X-X-X#X;X XbXNXnXnXnXbX>X|.yXxXuXuXgX1X~ ^ 0XiXuXuXhXxXr y r F F F qXFX4.6 0 G K K $XvXuXgX' ] DXxXxXSXFX< _ cXuXwX8.w.wXq.7.$.$.V.c.v $.7.",
"K.I.P.Y.Y.Y.Y.Y.Y.Y.Y.Y.Y.Y.Y.Y.L.R.R.e.b P.I.n >.r.2.r.r.r.r.r.r.e.2.r.r.r.r.e.e.r.r.r.2.r.r.r.2.r.r.e.e.r.2.>.>.m x >.2.e.r.r.r.r.J.` %.9.<.<.<.<.9.*.<.j.9.j.9.<.<.<.<.<.*.j.9.9.9.9.r =.l.;.1.l.l.d.n.l.l.5.5._ _ 5.f.d.l.d.l.l.d.l.l.&.n.l.a.R f.f.f.f.f.f.f.f.f.f.f.f.f.u.g.f.g.-.u.oXf.-.OXC.OXOXOXoXg.g.i.a.p.p.oXOXC.oXOXOXOXC.OXOXOXC.OXOXoXC.OXoXC.OXp.p.OXOXOXOXOXi.g.;X#X-X-X#X;X&X..CXnXnXnXbX>X|.yXxXuXuXgX1X~ ^ 0XiXuXuXhXxXr y r F F F qXFX4.6 0 G K K $XvXuXiX0X^ <XvXpXDX_ - uXiXuXpXm.q.m.,.V.q.8./.).S.E.B.",
"K.I.Y.Y.Y.Y.Y.Y.Y.Y.Y.Y.Y.Y.Y.Y.I.3.I.x e.P.2.n b.r.e.2.:.:.e.r.r.e.2.r.r.r.r.e.:.>.:.e.2.e.r.r.2.r.r.e.2.r.2.>.>.m x ;.;.:.2.r.r.r.0._ 9.<.<.<.<.<.<.<.@.@.@.@.*.9.<.<.<.<.*.@.@.#.@.x.;.+.l.<.r l.l.d.5.5.&.-.&._ _ 5.f.d.l.d.l.l.d.l.l.&.5.u.R a.f.f.f.f.f.f.f.f.f.f.f.f.f.u.%.u.g.u.-.C.C.-.f.OXp.p.OXoXg.g.i.a.p.p.C.OXOXp.u.C.OXC.oXOXOXC.OXOXoXC.OXoXC.OXp.u.Z.u.C.OXOXg.` ;X#X-X-X#X;X*XI %X*XsX#X#X$X|.yXxXuXuXgX1X~ ^ 0XiXuXuXhXxXr y r F F F qXFX4.6 0 G K K $XvXiXuXgX0X0XiXuXiX1X0XgXuXiXiXiXpXiXiXiXpXpXiXiXiXiXiX",
"r m I.R.Y.Y.Y.Y.Y.Y.Y.Y.Y.Y.Y.Y.L.;.e z P.L.n :.r.r.e.2.e e :.r.r.e.2.r.r.r.r.r.b e z :.e.e.r.r.2.r.r.e.2.r.2.>.>.m e e e e b r.e.J._ %.9.<.<.<.<.<.<.<.#.1 1 1 +.9.<.<.<.<.<.1 1 1 e *.9.r 9.l.;.1.n.d.h c 1 1 -._ _ 5.f.d.l.d.l.l.d.l.l.&.O.2 G g.f.f.f.f.f.f.f.f.f.f.f.f.f.u.O.2 %.C.-.u.oXu.-.+Xu.2 O.oXg.g.i.a.p.p.C.oXOXu.O.O.C.C.oXOXOXC.OXOXoXC.OXoXC.OXC.u.O.O.2 p.OXOX` #X-X-X-X-X#XsXT ....$X=.=.O.i.yXxXuXuXgX1X~ ^ 0XiXuXuXhXxXr y r F F F qXFX4.6 0 G K K $XvXiXiXuXiXiXuXuXuXpXiXuXiXiXiXuXuXuXuXuXuXuXuXuXuXuXuX",
";.r I.Y.Y.Y.Y.Y.Y.Y.Y.Y.Y.Y.Y.Y.r.;.> v Y.e.n r.r.r.e.>.z r :.r.r.r.e.r.r.r.r.r.>.r z >.e.e.r.r.2.r.r.e.e.r.2.>.>.m x x e e ;.r.r.t.` 9.9.9.9.9.9.9.9.9.c c c 1 +.j.<.9.9.9.*.c e e c <.x.;.;.l.<.;.l.d.-.h h h @._ _ 5.f.d.l.d.l.l.d.l.l.5.%.F F Z.f.f.f.f.f.f.f.f.f.f.f.f.f.u.h 2 -.C.u.-.C.C.-.g.p.1 O.oXg.g.i.a.p.C.C.OXOXC.O.2 C.oXoXOXOXC.OXOXOXC.OXOXC.OXC.u.%.-.2 u.OXOX` oX;X#X-X-X#XnXH.aX4X` j.f.O.a.aXxXuXuXgX1X~ ^ 0XiXuXuXhXxXr y r F F F qXFX4.6 0 G K K $XvXiXuXiXuXiXjXjXgXiXuXiXiXiXiXiXiXiXuXuXuXiXuXuXuXiXiX",
"K.K.L.Y.Y.Y.Y.Y.Y.Y.Y.Y.Y.Y.Y.P.L.>.x I.I.x b r.2.e.2.>.2.2.2.e.e.2.2.e.2.2.e.2.>.2.2.e.2.2.e.e.2.2.e.2.2.e.2.4.>.m x :.:.>.2.e.J._ _ <.=.=.=.=.=.=.=.=.#.=.=.=.=.=.=.=.=.=.#.=.=.=.=.=.=.#.r =.d.r *.d.5.d.5.&.&._ _ %.5.d.d.d.d.d.d.d.d.&.a.R u.u.u.u.u.u.u.u.u.u.u.u.u.u.u.u.u.u.u.u.p._ u.oXu._ C.C.oXg.g.i.` a.p.p.C.oXoXp.C.oXC.C.C.oXoXC.oXoXoXC.oXoXC.+Xp.p.+XC.oXC.oXOXi.i.;X#X#X#X#XMXG.W.MX%XbX*X*X|.yXxXuXuXgX1X~ ^ 0XiXuXuXhXxXr y r F F F qXFX4.6 0 G K K $XvXiXuXuXgX0Xh.] XXyXgXuXiXiXiXiXiXuXpXpXpXuXiXpXiXuXiX",
"E.E.E.E.E.E.E.E.E.E.E.E.E.E.E.E.E.m.m.E.U.7.U.U.U.U.U.U.U.U.U.U.U.U.U.U.U.U.U.U.U.U.U.U.U.U.U.U.U.U.U.U.U.U.U.U.U.b.t.U.U.U.U.U.U.h.M.M.M.M.M.M.M.M.M.M.M.M.M.M.M.M.M.M.M.M.M.M.M.M.M.M.M.M.t.v.D.v.t.D.D.D.D.D.M.l.A.A.D.D.D.D.D.D.D.D.S.z.oXC.D.D.D.D.D.D.D.D.D.D.D.D.D.D.D.A.D.D.D.D.D.l.l.#XD.d.#X#X#X#X@X@X@XOX@X@X#X#X#X#X#X#X#X#X#X#X#X#X#X#X#X#X#X#X#X#X@X@X#X#X#X#X#X#X@Xg.;X;X;X;X;XsX;XP.nX*XnX%X&X:XaXhXuXuXgX1X^ ' 0XiXuXuXhXxXr y y F F F qXFX4.6 0 G K K $XvXiXuXgXh.^ ' ] ' ^ 3XgXuXiXiXiXuXiX/.N.U.pX/.q.8XiXuX",
"xXxXxXxXxXxXxXxXxXxXxXxXxXxXxXxXxXSXSXxXxXDXxXxXxXxXxXxXxXxXxXxXxXxXxXxXxXxXxXxXxXxXxXxXxXxXxXxXxXxXxXxXxXxXxXxXxXSXSXxXxXxXxXxXxXcXxXxXxXxXxXxXxXxXxXxXxXxXxXxXxXxXxXxXxXxXxXxXxXxXxXxXxXxXSXxXxXxXSXxXxXxXxXxXxXcXcXxXxXxXxXxXxXxXxXxXxXcXcXcXxXcXcXcXcXcXcXcXcXcXcXcXcXcXcXcXxXcXcXcXcXcXcXcXcXDXxXxXxXcXcXcXcXcXcXcXcXcXcXcXcXcXcXcXcXcXcXcXcXcXcXcXcXcXcXcXcXcXcXcXcXcXcXcXcXcXxXxXxXxXxXxXxXSXxXcXxXvXvXcXxXpXuXiXiXiXiXiXiXiXiXuXhXxXr y r _ F F wXFX4.6 0 G K K $XvXuXgXXX^ 1XFXFXJX3XA D.hXuXiXiXuXpXw.q.v q.:.c q.hXeX",
"iXuXiXiXiXuXiXiXiXiXiXiXiXiXiXiXiXiXiXiXiXuXiXiXiXiXiXiXiXiXiXuXiXiXiXiXiXuXuXuXuXiXuXiXiXiXiXiXiXiXiXiXiXiXiXiXiXuXiXiXuXiXuXiXiXiXiXiXiXiXuXiXiXiXiXiXuXeXeXeXeXeXeXeXeXeXeXeXeXuXiXiXuXuXuXuXiXiXiXiXiXiXiXiXiXgXgXgXgXiXuXiXpXpXpXpXpXuXiXiXiXiXiXiXiXiXiXiXiXiXiXiXiXiXiXiXiXiXuXuXuXeXeXuXuXeXuXuXuXuXuXuXpXxXiXeXwXwXwXwXwXwXwXwXwXwXwXwXwXwXwXwXwXwXwXwXwXwXwXwXwXwXwXwXwXwXwXwXwXwXwXwXwXwXwXwXwXwXuXiXxXpXuXeX7././.w.8.V.pXeXhXhXwXyXeXyXyXyXiXxXeXeXuXyXyXyXuXxXiXeX^ 3XKXxXDX8.y.` < gXuXuXiXuXiX/.v m.,.7.q.m.pXeX",
"iXpXiXuXuXpXuXuXuXpXxXxXxXxXxXxXxXxXxXxXxXxXxXxXxXxXxXxXxXhXxXSXxXxXiXuXuXiXpXiXpXiXiXeXuXuXuXuXuXiXuXiXxXxXxXxXhXxXxXxXxXxXSXxXxXxXxXxXhXxXSXxXxXiXuXiX8X8XqX8XqXqXqX8X8X8XqX8X8X6XeXiXiXpXiXpXiXuXuXuXuXuXuXiXa u i u u s {.&XU { { { X.4XgXuXuXuXuXuXuXuXuXuXuXuXuXuXuXuXuXuXiXwX6X8X8X8XqX8X8XqXqX8X8XqX6X8XpXxXiX8X8XqXqXqXqXqXqXqXqXqXqXqXqXqXqXqXwXwXeXwXwXwXwXwXqXqXqXqXqXqXqXqXqXqXqXqXqXqXqXqXqX8X6XiXxXpXpX_.w.c.V.$.$.q.uXuXhXhXaX}.rX}.}.}.pXxXaX9XW.'.wXW.iXxXgX1X^ xXxXDX8Xe wX0X; 7XiXuXuXiXiX_.qXwXwXqXwX8XiXiX",
"qX_.eXpXpXE.iXpXuXpXxXxXhXFXDXSXiXFXFXDXFXDXxXxXxXxXxXxXxXxXDX8XwXDXiXuXiX6X/.6XB.qX/.xXiXpXiXpXiXqXuXiXxXiXxXxXGXeXxXxXuXiXwXpXxXxXxXxXxXDX_.iXxXiXiXiX8XiXwXeXwXeXwXuXiXeXqXuXiXqXwXiX8XS.6XE.wXpXpXiXiXuXuXgXu 4 4 4 4 5 {...Z Z Z Z S 4XfXuXiXiXiXiXiXiXiXiXiXiXiXiXiXiXiXuXiXwXwXiXiXuXwXuXuXwXwXiXiXeXeX8XhXxXiX8XuXiXiXiXiXiXiXiXiXiXiXiXiXiXiXuXqXqX(.8XwXqX8XeXiXiXiXiXiXiXiXiXiXiXiXiXiXiXiXiXiXiX8XiXxXpXuXeXw.c.m.w.w.m.pXeXhXhXrX}.].}.}.}.pXxXwX'.!.!.W.H.eXxXgX3X' xXxXxXxXxXFX0X- 7XgXuXiXwXqXhXwXuXwXpXpXqX8XeX",
"7.v 8.c.c.$.8.8.6XSX:.E.:./.6XN.8.(.E.(.N.qXSXxXxXxXxXxXxXhXDXb 8.FXiXeXhXm.8.w.6X6Xb V.q.m.q.c.8.$.E.hX6Xv V.(.S.q._.uX$.q.$.wXSXxXxXxXxXxXx N.FXuXuXiX8XeX8.q.q.8._.U.c.q.m.q.wXqXwXxXN.$.V.$.$.8.,.q.8.6XiXgXs 4 5 4 4 5 {...Z S K Z S 4XfXuXiXiXiXiXiXiXiXiXiXiXiXiXiXiXiXuXiXwXeX/.qXB.7./.(.(.:.m.8.B.iX8XhXxXiX8XeXiXuXuXuXuXuXuXuXuXuXuXuXuXiXqXN.6X8.:.N.:.q.hXiXiXuXuXuXuXuXuXuXuXuXuXuXuXuXuXiXeX8XiXxXpXuXiXiXiXpXxXhXiXiXuXhXhXeXrXrXrXrX].pXxXeXeXwX9X9X'.eXxXgX0X^ tXDXxXxXxXKXA.- iXiXuXpXq.8._.:.:.7.wXm.$.$.q.",
"c $.$.:.$.$.c 7.8XxXw.b v 8.$.w.$.v b B.7.m.DXxXxXxXxXxXxXxXSX:.q.DXiXuXiX6X$.$.6X6X$.$.7.$.,.w.$.$.(.hX/.8.B.$.q.z 8.iXv c.V.xXxXxXxXxXxXxXb N.DXuXuXiXqXqXq.B.7.8./.V.$.q.m.7.qXwXwXxXN.c.8.$.7.v v E.w.N.pXgXs 4 5 5 4 5 {...Z S K Z S 4XfXuXiXiXiXiXiXiXiXiXiXiXiXiXiXiXiXuXiXqXeXB.V.E.7./.N.N.q.:.$.N.iX8XhXxXiX8XeXiXuXiXiXiXiXiXiXiXiXiXiXuXiXwXq.E.q.m.:.8.q._.).8XiXuXiXiXiXiXiXiXiXiXiXiXiXuXiXeX8XiXxXpXuXuXiXuXB.N./.iXuXuXhXhXaX].eX].].rXpXxXaXrX].].rX].iXxXiXgX] ' xXxXxXxXyX- _ cXeXuXiXq.8.m.8.v q.N.:.$.v w.",
"6X8X)._.6X(.6X).8XhX6XU.6XB._.B././.).eX8XqXxXxXxXxXxXxXxXhXFXV.(.FXiXuXiX6X).6XS.iXS.8X/.qX/.6X(.(.(.pXwXiXiX(.qX/.).iXm._.6XxXxXxXxXxXhXDXc.8XDXuXiXiX8XeXeXiXwX_.qXeX8XqX).wXeXqXwXiXqXeX8X6X_._._.eX(.8XiXgXi 4 4 4 4 5 {...Z Z S Z S 4XfXuXiXiXiXiXiXiXiXiXiXiXiXiXiXiXiXuXiXwXeXqX(.eXwXwX_.(.qXqXqXwXeX8XhXxXiX8XuXiXiXiXiXiXiXiXiXiXiXiXiXiXiXiX(.(._.eX6XwXqX_.6XqXiXiXiXiXiXiXiXiXiXiXiXiXiXiXiXuX8XiXxXpXuXiXuXq.$.b $.iXuXuXhXhXrX}.].}.V }.pXxXrX].}.}.].}.iXxXiXiXuX' XXcXpXvX_ F gXuXuXuXpXE.c.(.m.B.m.uXm.N.q.S.",
"pXiXpXpXpXpXiXpXiXpXDXFXDXFXDXFXFXDXDXSXDXSXxXxXxXxXxXxXxXxXxXFXDXxXiXuXuXiXpXiXhXiXhXiXpXiXpXiXpXpXpXiXxXxXxXDXSXFXDXxXFXDXDXxXxXxXxXxXxXxXFXDXxXiXiXiX6XqXwXqXwXwXwXwXwXwXwXwXwX6XeXiXiXiXiXiXpXpXpXiXpXiXuXiXs 5 0 5 5 u {...K K K K K 4XgXuXiXiXiXiXiXiXiXiXiXiXiXiXiXiXiXiXiXwX6XwXeXqXwXwXwXeXwXwXwXwX8X8XhXxXiX8XwXwXwXwXwXwXwXwXwXwXwXwXwXwXwXwXiXiXuXeXuXeXeXuXuXeXwXwXwXwXwXwXwXwXwXwXwXwXwXwXwXwX8XiXxXpXuXiXwX:.:.$.:.iXiXuXhXhXrX].].].].}.pXxXrXrX].}.rX].iXxXiXuXiXuXwXiXuXiX0XiXiXuXiXiXuXpXhXpXpXpXpXiXpXpXpXpX",
"eXeXeXeXeXeXeXeXeXiXiXuXiXuXiXuXuXuXiXiXiXiXiXiXiXiXiXiXiXiXiXuXiXiXuXuXuXeXeXeXeXuXeXeXeXeXeXeXeXeXeXuXiXiXiXuXiXuXiXiXuXiXiXiXiXiXiXiXiXiXuXiXiXuXuXuXeXwXwXwXwXwXwXwXwXwXwXwXwXwXuXuXuXuXeXeXeXeXeXuXeXeXuXuX'.{.{.{.{.{.eXsXbXsXnXnXsXyXuXuXuXuXuXuXuXuXuXuXuXuXuXuXuXuXuXuXuXeXwXwXwXwXwXwXwXwXwXwXwXwXwXeXpXxXuXwX8XqX8X8X8X8X8X8X8X8X8X8X8X8X8X8X8X8X8X8X8X8X8X8X8X8X8X8X8X8X8X8X8X8X8X8X8X8X8X8XqX8XwXuXxXpXeXuXiX_._.(.6XiXuXeXhXpXuXiXuXiXiXuXiXxXuXuXuXiXuXuXiXxXiXuXuXuXiXuXuXuXiXuXeXuXuXuXuXeXeXeXeXeXeXuXeXeXeXeX",
"xXxXxXxXxXxXxXxXxXxXxXxXxXxXxXxXxXxXxXxXxXxXxXxXxXxXxXxXxXxXxXxXxXxXxXxXxXxXxXxXxXxXxXxXxXxXxXxXxXxXxXxXxXxXxXxXxXxXxXxXxXxXxXxXxXxXxXxXxXxXxXxXxXxXxXxXxXxXxXxXxXxXxXxXxXxXxXxXxXxXxXxXxXxXxXxXxXxXxXxXxXxXxXxXSXSXSXSXSXSXxXcXcXcXcXcXcXxXxXxXxXxXxXxXxXxXxXxXxXxXxXxXxXxXxXxXxXxXxXxXxXxXxXxXxXxXxXxXxXxXxXxXxXxXxXxXxXxXxXxXxXxXxXxXxXxXxXxXxXxXxXxXxXxXxXxXxXxXxXxXxXxXxXxXxXxXxXxXxXxXxXxXxXxXxXxXxXxXxXxXxXxXxXxXxXSXSXDXSXxXxXxXxXxXxXxXxXxXxXxXxXxXxXxXxXxXxXxXxXxXxXxXxXxXxXxXxXxXxXxXxXxXxXxXxXxXxXxXxXxXxXxXxXxXxXxX",
"eXqXqXqXwXqXqXwXqXqXqXwXqXqX8XwXqXqXqXqXqXqXqXqXqXqXqXqXqXqXqXqXqXqXqXqXqXqXqXqXqXqXqXqXqXqXqXqXqXqXqXqXqXqXqXqXqXqXqXqXqXqXqXqXqXqXqXqXqXqXqXqXqXqXqXqXqXqXqXqXqXqXqXqXqXqXqXqXqXqXqXqXqXqXqXqXqXqXqXqXqXqXqXqXqXqXqXqXqXqXqXqXqXqXqXqXqXqXqXqXqXqXqXqXqXqXqXqXqXqXqXqXqXqXqXqXqXqXqXqXqXqXqXqXqXqXqXqXqXqXqXqXqXqXqXqXqXqXqXqXqXqXqXqXqXqXqXqXqXqXqXqXqXqXqXqXqXqXqXqXqXqXqXqXqXqXqXqXqXqXqXqXqXqXqXqXqXqXqXqXqXqXqXqXqXqXqXqXqXqXqXqXqXqXqXqXqXqXqXqXqXqXqXqXqXqXqXqXqXqXqXqXqXqXqXqXqXqXqXqXqXqXqXqXqXqXqXqXqXqXqXqXqXqXqXqX",
"q./.(.(.B.)._.B./.).(.B./.(.6XU.(.).(.(.(.(.(.(.(.(.(.(.(.(.(.(.(.(.(.(.(.(.(.(.(.(.(.(.(.(.(.(.(.(.(.(.(.(.(.(.(.(.(.(.(.(.(.(.(.(.(.(.(.(.(.(.(.(.(.(.(.(.(.(.(.(.(.(.(.(.(.(.(.(.(.(.(.(.(.(.(.(.(.(.(.(.(.(.(.(.(.(.(.(.(.(.(.(.(.(.(.(.(.(.(.(.(.(.(.(.(.(.(.(.(.(.(.(.(.(.(.(.(.(.(.(.(.(.(.(.(.(.(.(.(.(.(.(.(.(.(.(.(.(.(.(.(.(.(.(.(.(.(.(.(.(.(.(.(.(.(.(.(.(.(.(.(.(.(.(.(.(.(.(.(.(.(.(.(.(.(.(.(.(.(.(.(.(.(.(.(.(.(.(.(.(.(.(.(.(.(.(.(.(.(.(.(.(.(.(.(.(.(.(.(.(.(.(.(.(.(.(.(.(.(.(.(.(.(.(.(.(.(.(.(.(.(.(.(.(.",
"e V.6Xc.w.V.q.8.q.8.E.b 8.N.q.7.8.8.N._.).).).).).).).).).).).).).).).).).).).).).).).).).).).).).).).).).).).).).).).).).).).).).).).).).).).).).).).).).).).).).).).).).).).).).).).).).).).).).).).).).).).).).).).).).).).).).).).).).).).).).).).).).).).).).).).).).).).).).).).).).).).).).).).).).).).).).).).).).).).).).).).).).).).).).).).).).).).).).).).).).).).).).).).).).).).).).).).).).).).).).).).).).).).).).).).).).).).).).).).).).).).).).).).).).).).).).).).).).).).).).).).).).).).).).).).).).).).).",
"z V.6XE.7.$.:.$.$.q.U.v 7.$.7.$.8.b U._.).).).).).).).).).).).).).).).).).).).).).).).).).).).).).).).).).).).).).).).).).).).).).).).).).).).).).).).).).).).).).).).).).).).).).).).).).).).).).).).).).).).).).).).).).).).).).).).).).).).).).).).).).).).).).).).).).).).).).).).).).).).).).).).).).).).).).).).).).).).).).).).).).).).).).).).).).).).).).).).).).).).).).).).).).).).).).).).).).).).).).).).).).).).).).).).).).).).).).).).).).).).).).).).).).).).).).).).).).).).).).).).).).).).).).).).).).).).).",
":./._.B.q.$.q.V.V.m.E.N.m.m.b q.U.c.B.).(.(.(.(.(.(.(.(.(.(.(.(.(.(.(.(.(.(.(.(.(.(.(.(.(.(.(.(.(.(.).).).).).).).).).).).).).).).).).).).).).).).).).).).).).(.(.(.(.(.(.(.(.(.(.(.(.(.(.(.(.(.(.(.(.(.(.(.(.(.(.(.(.(.(.(.).).).).).).).).).).).).).).).).).).).).).).).).).).).).).(.(.(.(.(.(.(.(.(.(.(.(.(.(.(.(.(.(.(.(.(.(.(.(.(.(.(.(.(.(.(.).).).).).).).).).).).).).).).).).).).).).).).).).).).).).(.(.(.(.(.(.(.(.(.(.(.(.(.(.(.(.(.(.(.(.(.(.(.(.(.(.(.(.(.(.(.).).).).).).).).).).).).).).).).).).).).).).).).).).",
"qX6X_.6X6X/.6X6X6X6X6X6X6X).V.6X6X6X6X_._._._._._._._._._._._._._._._._._._._._._._._._._._._._.6X_././././././././././././././././././././././././././././.(.6X_._._._._._._._._._._._._._._._._._._._._._._._._._._._.6X_././././././././././././././././././././././././././././.(.6X_._._._._._._._._._._._._._._._._._._._._._._._._._._._._.6X/././././././././././././././././././././././././././././.6X_._._._._._._._._._._._._._._._._._._._._._._._._._._._._.6X/./././././././././././././././././././././././././.",
"uXiXiXiXuXiXuXuXuXuXuXuXuXiXpXiXuXuXxXiXiXaXaXaXaXaXaXaXaXaXaXaXaXaXaXaXaXaXaXaXaXaXaXaXaXaXaXuXhXiXj.k.k.k.k.k.k.k.k.k.k.k.k.k.k.k.k.k.k.k.k.k.k.k.k.k.k.9.S.xXuXpXpXpXpXpXpXpXpXpXpXpXpXpXpXpXpXpXpXpXpXpXpXpXpXpXpXiXpXpXk.k.k.k.k.k.k.k.k.k.k.k.k.k.k.k.k.k.k.k.k.k.k.k.k.k.k.0.M.xXiXiXgXgXgXgXgXgXgXgXgXgXgXgXgXgXgXgXgXgXgXgXgXgXgXgXgXiXiXhXk.j.k.k.k.k.k.k.k.k.k.k.k.k.k.k.k.k.k.k.k.k.k.k.k.k.k.j.M.xXiXiXiXiXiXiXiXiXiXiXiXiXiXiXiXiXiXiXiXiXiXiXiXiXiXiXiXiXiXxXv.j.k.k.k.k.k.k.k.k.k.k.k.k.k.k.k.k.k.k.k.k.k.k.k.k.",
"iXiXiXuXiXiXuXuXuXuXuXiXuXuXuXiXiXiXxXpXeXQ.Q.Q.Q.Q.Q.Q.Q.Q.Q.Q.Q.Q.Q.Q.Q.Q.Q.Q.Q.Q.Q.Q.Q.Q.Q.eXpXuXj.0.9.9.9.9.9.9.9.9.9.9.9.9.9.9.9.9.9.9.9.9.9.9.9.9.9.9.S.xXiX`.[.[.[.[.[.[.[.[.[.[.[.[.[.[.[.[.[.[.[.[.[.[.[.[.[.wXpXiXk.0.9.9.9.9.9.9.9.9.9.9.9.9.9.9.9.9.9.9.9.9.9.9.9.9.9.9.M.xXiX0X3X3X3X3X3X3X3X3X3X3X3X3X3X3X3X3X3X3X3X3X3X3X3X3X3X0XpXpXz.0.9.9.9.9.9.9.9.9.9.9.9.9.9.9.9.9.9.9.9.9.9.9.9.9.9.0.M.xXiXyXbXbXbXbXbXbXbXbXbXbXbXbXbXbXbXbXbXbXbXbXbXbXbXbXbXyXiXxXM.0.9.9.9.9.9.9.9.9.9.9.9.9.9.9.9.9.9.9.9.9.9.9.9.9.",
"iXiXiXiXeXeXpXpXhXpXiXwXiXuXiXiXiXiXxXpX{.u 5 5 5 5 5 5 5 5 5 5 5 5 5 5 5 5 5 5 5 5 5 5 5 5 u dXlXuXk.*.#.*.*.*.*.*.*.*.*.*.*.#.#.*.*.*.*.*.*.*.*.*.*.*.@.9.S.xXCXM # # # # # # # # # # # # # # # # # # # # # # # # f [.hXiXk.*.@.*.*.*.*.*.*.*.*.*.*.*.*.#.*.*.*.*.*.*.*.*.*.*.@.9.M.xXjX<X) A A A A A A A A A A A A A A A A A A A A A A A ) 3XjXpXz.,.@.*.*.*.*.*.*.*.*.*.*.*.#.#.*.*.*.*.*.*.*.*.*.*.@.w.M.xXgX>XL H H H H H H H H H H H H H H H H H H H H H H H L >XgXhXM.w.@.*.*.*.*.*.*.*.*.*.*.*.*.#.*.*.*.*.*.*.*.*.*.*.",
"iXiXuXiX7.7._.(.B.qX8.N.hXeXiXiXiXiXxXpX{.0 4 4 4 4 4 4 4 4 4 4 5 5 4 5 4 4 4 4 4 4 4 4 4 4 u dXlXuXk.*.*.,.,.,.,.,.,.,.,.,.c c +.e #.9.,.,.,.,.,.,.,.<.*.9.S.xXCXM X @ @ @ @ @ @ @ @ @ # # @ # @ X @ @ @ @ @ @ @ X # [.hXiXk.*.*.,.,.,.,.,.,.,.,.<.c c +.z @.9.,.,.,.,.,.,.,.<.*.9.M.xXjX<XA = = = = = = = = = A A = A = = = = = = = = = = A 3XjXpXz.,.*.<.,.,.,.,.,.,.,.9.c z @.z +.9.,.,.,.,.,.,.,.<.*.w.M.xXgX>XH D D D D D D D D D H H H H D D D D D D D D D D H >XgXhXM.w.*.<.,.,.,.,.,.,.,.9.c e v c +.9.*.,.,.,.,.,.,.<.",
"iXiXuXiX$.$.$.e :.$.$.V.hXeXiXiXiXiXxXpX{.u 4 4 4 4 4 4 4 4 4 5 u 5 5 0 4 4 4 4 4 4 4 4 4 4 u dXlXuXk.*.*.*.*.*.*.*.*.*.*.*.1 z +.e @.,.*.*.*.*.*.*.*.,.*.9.S.xXCXM @ @ @ @ @ @ @ @ @ @ # # # # # @ @ @ @ @ @ @ @ @ # [.hXiXk.*.*.,.*.*.*.*.*.*.*.*.1 1 c e +.<.*.*.*.*.*.*.*.,.*.9.M.xXjX<XA = = = = = = = = = ) A A A A = = = = = = = = = A 3XjXpXz.,.*.,.*.*.*.*.*.*.*.,.1 1 c z +.<.*.*.*.*.*.*.*.,.*.9.M.xXgX>XH D D D D D D D D D L H H H H D D D D D D D D D H >XgXhXM.w.*.,.*.*.*.*.*.*.*.<.1 1 c z c 9.*.*.*.*.*.*.*.,.",
"iXiXuXiXq.8.7.8.(.N.w.(.pXuXiXiXiXiXxXpX{.5 4 4 4 4 4 4 4 4 4 4 4 4 4 4 4 4 4 4 4 4 4 4 4 4 u dXlXuXk.*.*.,.,.,.,.,.,.,.,.*.*.#.*.*.*.,.,.,.,.,.,.,.*.,.*.9.S.xXCXM X X X X X X X X X X X X X X X X X X X X X X X X # [.hXiXk.*.*.,.,.,.,.,.,.,.,.,.*.*.*.*.*.,.,.,.,.,.,.,.*.,.*.9.M.xXjX<XA = = = = = = = = = = = = = = = = = = = = = = = A 3XjXpXz.,.*.,.*.,.,.,.,.,.,.,.*.*.*.*.*.,.,.,.,.,.,.,.*.,.*.w.M.xXgX>XH D D D D D D D D D D D D D D D D D D D D D D D H >XgXhXM.,.*.,.*.,.,.,.,.,.,.,.*.*.*.*.*.,.,.,.,.,.,.,.*.,.",
"iXiXiXiXiXpXhXpXiXpXpXiXuXiXiXiXiXiXxXpX{.s u u u u u u u u u u u u u u u u u u u u u u u u s dXlXuXk.*.#.*.#.#.#.#.#.#.#.#.#.*.*.#.*.#.#.#.#.#.#.#.#.#.#.9.S.xXhXM f f f f f f f f f f f f f f f f f f f f f f f f f [.hXiXk.,.@.*.#.#.#.#.#.#.#.#.#.#.*.*.*.#.#.#.#.#.#.#.#.*.@.9.M.xXjX<X) ) ) ) ) ) ) ) ) ) ) ) ) ) ) ) ) ) ) ) ) ) ) ) ) 3XgXpXz.,.@.*.#.#.#.#.#.#.#.#.#.*.*.#.*.#.#.#.#.#.#.#.#.*.@.9.M.xXgX>XL L L L L L L L L L L L L L L L L L L L L L L L L >XgXhXM.9.@.*.#.#.#.#.#.#.#.#.#.*.*.#.*.#.#.#.#.#.#.#.#.*.",
"iXiXiXiXuXuXuXuXuXuXuXuXiXiXiXiXiXiXxXiXeXfXfXfXfXfXfXfXfXfXfXfXfXfXfXfXfXfXfXfXfXfXfXfXfXfXfXeXhXiXj.j.0.0.0.0.0.0.0.0.0.0.0.0.0.0.0.0.0.0.0.0.0.0.0.0.j.9.S.xXiXwXrXrXrXrXrXrXrXrXrXrXrXrXrXrXrXrXrXrXrXrXrXrXrXrXqXeXpXpXk.j.0.0.0.0.0.0.0.0.0.0.0.0.0.0.0.0.0.0.0.0.0.0.0.0.j.0.M.xXiXyXtXtXtXtXtXtXtXtXtXtXtXtXtXtXtXtXtXtXtXtXtXtXtXtXtXuXiXpXk.j.0.0.0.0.0.0.0.0.0.0.0.0.0.0.0.0.0.0.0.0.0.0.0.0.0.j.M.xXiXuXaXaXaXaXaXaXaXaXaXaXaXaXaXaXaXaXaXaXaXaXaXaXaXaXaXuXiXxXv.j.0.0.0.0.0.0.0.0.0.0.0.0.0.0.0.0.0.0.0.0.0.0.0.0.",
"iXiXiXiXuXiXiXiXiXiXiXiXiXiXiXiXiXiXxXiXuXiXiXiXiXiXiXiXiXiXiXiXiXuXiXiXiXiXiXiXiXiXiXiXiXiXiXuXpXiXj.k.k.k.k.k.k.k.k.k.k.k.k.k.k.k.k.k.k.k.k.k.k.k.k.k.k.0.S.xXuXiXiXiXiXiXiXiXiXiXiXiXiXiXiXiXiXiXiXiXiXiXiXiXiXiXiXuXpXpXk.k.k.k.k.k.k.k.k.k.k.k.k.k.k.k.k.k.k.k.k.k.k.k.k.k.k.j.M.xXiXiXiXiXiXeXeXeXiXiXiXiXiXiXiXiXiXiXeXeXeXeXeXeXiXeXiXuXiXhXk.j.k.k.k.k.k.k.k.k.k.k.k.k.k.k.k.k.k.k.k.k.k.k.k.k.k.j.M.xXiXiXiXuXuXuXuXuXuXuXuXuXuXuXuXuXuXuXeXeXeXeXeXeXuXuXiXiXiXxXv.j.k.k.k.k.k.k.k.k.k.k.k.k.k.k.k.k.k.k.k.k.k.k.k.k.",
"iXiXuXiXiXuXuXeXuXuXuXuXuXiXiXiXiXiXxXiXuXuXuXuXuXuXuXuXuXuXuXuXuXiXiXuXuXuXuXuXuXuXuXuXuXuXuXuXpXiXj.k.k.j.j.z.z.k.j.k.k.k.k.k.k.k.k.k.k.k.z.j.z.k.k.k.k.0.S.xXuXuXuXeXeXhXhXiXeXuXuXuXuXuXuXuXuXuXiXiXiXiXpXuXuXuXuXuXpXpXk.k.k.j.j.z.v.k.j.k.k.k.k.k.k.k.k.k.k.k.k.k.z.k.k.k.k.0.M.xXiXuXuXuXuXgXgXiXuXuXuXuXuXuXuXuXuXuXiXiXpXiXpXiXuXuXuXuXiXhXk.j.k.k.j.k.z.k.j.k.k.k.k.k.k.k.k.k.k.k.k.k.k.z.k.k.k.j.M.xXiXuXiXuXuXiXiXiXuXuXuXuXuXuXuXiXuXiXpXiXiXiXiXiXiXuXiXuXiXxXv.j.k.k.j.k.z.k.j.k.k.k.k.k.k.k.k.k.k.k.k.k.k.k.z.k.",
"iXiXiXeXeXpXpXhXiXhXpXpXiXuXiXiXiXiXxXiXuXiXiXiXiXiXiXiXiXiXiXuXiX_.8XiXuXiXiXiXiXiXiXiXiXiXiXuXhXiXj.k.j.z.z.#.@.j.M.j.k.k.k.k.k.k.k.k.9.w.*.z.*.9.k.k.k.0.S.xXuXiXeXpXhX/.V.wXxXeXiXiXiXiXiXiXuXiXwXqX6X8X).uXiXiXiXuXpXpXk.k.j.k.z.=.-.9.M.j.k.k.k.k.k.k.k.k.w.*.*.,.#.j.k.k.k.0.M.xXiXiXuXiXgX1X3XwXcXuXiXiXiXiXiXiXiXiXuX6X_.6X(.eXiXiXiXuXiXhXk.j.k.k.c.=.&.9.v.j.k.k.k.k.k.k.k.j.w.w.*.w.*.@.9.k.k.j.M.xXiXuXuXiXgXsX>XyXxXiXiXiXiXiXiXuXiXwX).8X6X6XqXqXwXiXiXuXiXxXv.j.k.k.z.<.*.9.z.k.k.k.k.k.k.k.k.w.9.*.w.,.*.9.*.k.",
"iXeXhXq.$.).(.B._.B.).E.qXiXuXiXiXiXxXiXuXiXiXiXiXiXiXiXiXiXuXiXwX7.q.iXuXiXiXiXiXiXiXiXiXiXiXuXhXiXj.j.z.*.: : : : c M.j.k.k.k.k.k.j.k.1 1 z *.1 v z.j.k.0.S.xXuXeXhX(.$ > > $ $.xXeXiXiXiXiXiXuXpXE.:.q.$.$./.pXuXiXuXpXpXk.j.k.9.< : : : 2 v.j.k.k.k.k.k.k.k.9.e > @.c @.z.j.k.0.M.xXiXuXgX0X' ( | S ` gXuXiXiXiXiXiXeXhXm.,.V.w.c.B.hXuXiXuXiXhXk.j.k.9.2 < < < _ v.j.k.k.k.k.k.k.9.e z z 1 c e @.z.k.j.M.xXiXuXiXyX%X%X%XQ =XiXuXiXiXiXiXuXiXeX,.$.:.c q.$.(.pXuXuXiXxXv.j.k.j.2 2 2 , r k.k.k.k.k.k.j.k.e c 1 1 1 1 1 1 *.",
"iXeXhX,.v q.e $.$.7.b e S.pXuXiXiXiXxXiXuXiXiXiXiXiXiXiXiXiXuXiXwXw.q.iXuXiXiXiXiXiXiXiXiXiXiXuXhXiXj.k.,.* e k.k.#.* c M.j.k.k.k.j.k.*.> > c c z c z.j.k.0.S.xXeXiXqX$ y.LXFXqX$ 7.xXeXiXiXiXiXuXiXqXw.q.v :.B.hXeXiXuXpXpXk.k.9.< h v k.=.: 2 M.j.k.k.k.k.j.z.#.z #.1 e w.k.k.k.0.M.xXiXiXuX( <XFXU.7XS ` cXuXiXiXiXiXeXhXq.$.q.:.w.6XiXuXiXuXiXhXk.k.k.< _ j.k.x.< 2 M.j.k.k.k.k.j.k.c *.1 > c c j.k.k.j.M.xXiXuXiX%X*XcXcXpX%X=XgXuXiXiXiXuXiXiXw.:.v v v z E.hXuXuXiXxXv.j.k.2 e j.j.9.2 r z.j.k.k.k.j.z.+.z e 1 1 1 > e #.",
"iXuXiX/.B.w.w./.B.$.:.c.8XiXuXiXiXiXxXiXuXiXiXiXiXiXiXiXiXiXiXuXiXB.(.iXuXiXiXiXiXiXiXiXiXiXiXuXhXiX9.M.> 2 S.j.9.v.+.: z.k.k.k.k.k.k.k.,.@.+.*.+.,.k.k.k.0.S.xXeXCXM M b.V.xXJX_.$ iXiXuXiXiXiXiXiXwX6XE./.N.wXiXuXiXuXpXpXj.v.h 2 M.$ c M.#.: j.k.k.k.k.k.j.z.@.v @.+.c 9.k.k.k.0.M.xXuXjX .| KXpX> rXaXS wXiXuXiXiXiXuXiX8XB.E.B.q.8XiXuXiXuXiXhXk.c.O.2 c.j.#.> @.: 9.k.k.k.k.k.k.k.,.#.@.@.@.*.k.k.k.j.M.xXiXgX$X%XvXxXxXFXxX%XyXiXuXiXiXuXiX8XB.(.(.E.)._.8XiXuXuXiXxXz.k.@.2 z.9.j.k.9., <.k.k.k.k.k.k.w.,.+.#.@.@.#.+.j.",
"iXiXuXiXpXhXxXpXhXN.8XhXuXiXiXiXiXiXxXiXuXiXiXiXiXiXiXiXiXiXuXiXiXxXhXpXiXiXiXiXiXiXiXiXiXiXiXuXhXiX0.M.3 c > e k.9.9.: *.k.k.k.k.k.k.k.k.M.z.v.M.k.k.k.k.0.S.xXeXhXf [.U.:.DXxXSX$ /.hXuXiXiXiXiXuXiXhXxXhXxXiXuXiXiXuXpXpXj.v.2 O.z.#.*.j.k.: @.z.j.k.k.k.k.j.z.M.z.M.M.k.k.k.k.0.M.xXuXjX' <XKXpX8XxXFX[ A.gXuXiXiXiXuXiXhXxXxXxXxXpXiXiXiXuXiXhXk.v.F O.k.k.v e v.3 -.v.j.k.k.k.k.k.k.M.z.M.M.k.j.k.k.j.M.xXiXgX=X*XvXSXuX1 y. X$XcXuXiXiXiXuXhXhXpXxXxXhXhXhXuXiXuXiXxXz.z.r r k.j.*.@.z.2 +.z.j.k.k.k.k.k.k.M.z.v.M.z.z.k.",
"iXiXiXuXiX6XB.qX(.qX_.iXuXiXiXiXiXiXxXiXuXiXiXiXiXiXiXiXiXuXiXqX8X).6X(.eXiXiXiXiXiXiXiXiXiXiXuXhXiX0.v.1 c c +.j.j.9.: 9.k.k.k.k.k.k.k.0.+.9.+.+.0.k.k.k.0.S.xXeXCXl y.IXFXxXSXxX$ 6XpXuXiXiXiXuXiXeX_.(._./.eXiXiXiXuXpXpXj.v.2 h v.j.j.j.j.: *.k.k.k.k.k.k.k.j.+.9.+.v 9.k.k.k.0.M.xXuXjX .<XKXxXDXxXDXS 1XgXuXiXiXuXiXwX(.6X_._.qX6XwXiXiXuXiXhXk.v.F F c.9.k.k.k.: @.z.j.k.k.k.k.k.k.+.9.@.v 9.k.k.k.j.M.xXiXgX=X=XvXxXxX_.vXH OXxXuXiXiXiXuXE.wX8X).6X).6X(.iXuXuXiXxXz.z.O.e z.j.#.$ $.2 @.z.j.k.k.k.k.k.k.@.9.#.c w.k.k.",
"iXiXiXuXpXV.$.$.7.,.8.iXuXiXiXiXiXiXxXiXuXiXiXiXiXiXiXiXiXuXpX/.$.q.$.$.E.pXuXiXiXiXiXiXiXiXiXuXhXiX0.z.+.> k.k.9.k., > M.j.k.k.k.k.j.z.c c 1 > > k.k.k.k.0.S.xXeXhXy.f iXxXxXGXn j SXeXiXiXiXiXeXhXq.w.m.8.q.E.pXuXiXuXpXpXk.z.@.3 *.9.9.k.2 3 M.j.k.k.k.k.j.z.c c e > > 0.k.k.k.0.M.xXuXgX3X( tXcXxXKX] [ gXuXiXiXiXuXiXwX$.$.$.c c.$.6XiXuXuXiXhXk.k.=.< =.j.9.k.2 : v.j.k.k.k.k.j.z.+.c e > > 9.k.k.k.j.M.xXiXiXsXI aXcXxXPX.XH gXuXiXiXiXuXiXm.q.$.7.$.:.$.7._.pXuXiXxXv.k.9., #.j.j.9.1 , k.k.k.k.k.k.j.z.+.c z > > *.k.k.",
"iXiXiXuXpXm.7.N.$.q.q.uXiXiXiXiXiXiXxXiXuXiXiXiXiXiXiXiXiXiXiXwXw.q.v :.B.hXeXiXiXiXiXiXiXiXiXuXhXiXj.k.z.e c k.k.@.3 j.k.k.k.k.k.k.j.z.c +.1 c c k.j.k.k.0.S.xXuXeXhXM M DXxX`.> qXiXuXiXiXiXiXeXpX8.$.q.$.w.8XiXuXiXuXpXpXk.j.v.h h k.k.=.: 9.k.j.k.k.k.k.j.z.c +.1 c c k.k.k.k.0.M.xXiXuXjX . .cXxX0XF 7XgXuXiXiXiXuXiXeX:.7.v v v z (.pXuXuXiXhXk.j.v._ F k.j.*.3 =.z.j.k.k.k.k.j.z.c v e c c j.k.k.k.j.M.xXiXuXxX$X=XcXxXyXH ;XgXuXiXiXuXiXuX8.w.z :.$.,.b 7.).pXuXiXxXv.j.z.+.2 k.0.j.3 @.z.j.k.k.k.k.j.z.+.c z c c 9.k.k.",
"iXiXiXuXpX_.).pX8X/./.pXuXiXiXiXiXiXxXiXuXiXiXiXiXiXiXiXiXiXiXeX8X/.).B.wXiXuXiXiXiXiXiXiXiXiXuXhXiXj.k.k.z.j.k.k.j.k.k.j.k.k.k.k.k.k.k.9.v 9.,.,.k.k.k.k.0.S.xXuXiXuXpXeXuXiXeXiXpXuXiXiXiXiXiXuXiX8XU./.S.m.qXiXuXiXuXpXpXk.k.k.z.j.k.k.j.k.k.j.k.k.k.k.k.k.k.0.v w.,.,.k.k.k.k.0.M.xXiXiXuXgXuXuXuXeXiXiXuXiXiXiXiXuXiX8XS.)._.E.6X6XwXiXiXuXiXhXk.j.k.k.j.k.k.j.k.k.j.k.k.k.k.k.k.k.j.v ,.w.,.k.k.k.k.j.M.xXiXuXuXiXuXuXuXuXiXiXuXiXiXiXuXiXwXc.6X8XE.(.E.).B.iXiXuXiXxXv.j.k.k.k.k.k.j.k.z.j.k.k.k.k.k.k.k.k.+.*.w.*.j.k.k.",
"iXiXiXiXuXiXiXuXiXpXiXuXiXiXiXiXiXiXxXiXuXeXeXeXeXeXeXeXeXeXeXuXiXiXiXpXuXeXeXeXeXeXeXeXeXeXeXuXpXiXj.k.j.0.j.j.j.j.j.0.j.j.j.j.j.j.j.0.k.z.k.k.k.j.j.j.j.0.S.xXuXuXeXeXeXeXeXeXeXeXeXeXeXeXeXeXeXeXiXpXiXpXpXuXeXeXeXuXpXpXk.j.j.j.j.j.j.j.j.j.j.j.j.j.j.j.j.j.j.z.k.k.k.j.j.j.j.0.M.xXiXuXuXyXuXuXuXuXuXyXuXuXuXuXuXuXuXiXpXiXiXpXiXiXuXuXuXuXiXpXk.j.j.j.j.j.j.j.j.j.j.j.j.j.j.j.j.j.j.z.k.k.k.j.j.j.k.j.M.xXiXuXuXuXuXuXuXuXuXuXuXuXuXuXuXuXiXhXiXiXpXpXpXiXpXuXuXuXiXxXv.j.j.j.j.j.j.j.j.j.j.j.j.j.j.j.j.j.j.z.k.k.k.j.j.j.",
"iXiXiXiXiXuXuXiXuXuXuXiXiXiXiXiXiXiXxXiXiXlXlXlXlXlXlXlXlXlXlXlXlXlXlXlXlXlXlXlXlXlXlXlXlXlXlXuXhXiXj.z.z.z.z.z.z.z.z.z.z.z.z.z.z.z.z.z.z.z.z.z.z.z.z.z.z.j.S.xXeXpXhXhXhXhXhXhXhXhXhXhXhXhXhXhXhXhXhXhXhXhXhXhXhXhXhXiXpXpXk.k.v.v.v.v.v.v.v.v.v.v.v.v.v.v.v.v.v.v.v.v.v.v.v.v.v.j.M.xXuXiXjXgXgXjXjXjXgXjXjXjXjXjXjXjXjXgXgXgXgXgXgXgXjXjXjXiXiXhXk.k.c.c.c.c.c.c.c.c.c.c.c.c.c.c.c.c.c.c.c.c.c.c.c.c.c.0.M.xXiXiXgXgXgXgXgXgXgXgXgXgXgXxXxXxXgXiXgXgXgXgXgXgXgXgXgXiXiXxXv.j.n.n.n.n.n.n.n.n.n.n.n.n.n.n.n.n.n.n.n.n.n.n.n.n.",
"iXiXiXiXiXiXiXiXiXiXiXiXiXiXiXiXiXiXxXpX9Xa a a a a a a a a a a a a a a a a a a a a a a a a B 9XlXeXz.x 6 6 6 6 6 6 6 6 6 6 6 6 6 6 6 6 6 6 6 6 6 6 6 6 6 ,.S.xXpXy.l l l l l l l l l l l l l l l l l l l l l l l l l `.hXiXv._ g g g g g g g g g g g g g g g g g g g g g g g g g 6.S.xXgX<X| | | | | | | | | | | | | | | | | | | | | | | | | 2XgXpXc.` / / / / / / / / / / / / / / / / / / / / / / / / / i.V.xXiXsX=X=X=X=X=X=X=X=X=X=X=X=X=X=X=X=X=X=X=X=X=X=X=X=X=XsXiXhXM.1.E E E E E E E E E E E E E E E E E E E E E E E E ",
"iXiXiXiXiXiXiXiXiXiXiXiXiXiXiXiXiXiXxXpX{.5 4 4 4 4 4 4 4 4 4 4 4 4 4 4 4 4 4 4 4 4 4 4 4 4 u dXlXeXz.q                       .                         . :.S.xXCXM X X X X X X X X X X X # X X X X X X X X X X X X # [.hXiXv.j o o o o o o o o o o o O o o o o o o o o o o o o O 6.S.lXjX .A = = = = = = = = = = A A = = = = = = = = = = = A 3XjXpXb.` Z C C C C C C C C C C Z C C C C C C C C C C C C Z ` V.pXgX>XH D D D D D D D D D D H D D D D D D D D D D D D H >XgXhXM.T 9 & % % % % % % % % % 9 % % % % % % % % % % % & ",
"iXiXuXuXiXiXiXuXuXiXiXiXuXiXiXiXiXiXxXpXdXu 4 4 4 4 4 4 4 4 4 4 5 5 u 5 4 4 4 4 4 4 4 4 4 4 u dXlXeXz.q .                   . . . .                     . :.S.xXCXM @ @ @ @ @ @ @ @ @ @ # # # # @ @ @ @ @ @ @ @ @ @ # [.hXiXv.j O o o o o o o o o o O O O O o o o o o o o o o o O 6.S.lXjX<XA = = = = = = = = = A A ) ) = = = = = = = = = = A 3XjXpXm.` Z = C C C C C C C C Z Z Z Z C C C C C C C C C = Z ` V.lXgX>XH D D D D D D D D D H H L L D D D D D D D D D D H >XgXhXM.T 9 & % & & & & & % & % 9 9 9 & % % & & & & & % & ",
"iXuXpXpXuXuXuXiXiXuXuXuXiXuXiXiXiXiXxXpXdX0 4 4 4 4 4 4 4 4 4 4 5 5 5 4 4 4 4 4 4 4 4 4 4 4 u dXlXeXz.q                     . . . .                     . :.S.xXCXM @ @ @ @ @ @ @ @ @ @ @ # # # @ @ @ @ @ @ @ @ @ @ # [.hXiXv.j o o o o o o o o o o O O O O o o o o o o o o o o O 6.S.lXjX<XA = = = = = = = = = = A A A = = = = = = = = = = A 3XjXpXm.` Z = C C C C C C C = C Z Z Z C C C C C C C C C = Z ` V.lXgX>XH D D D D D D D D D D H H H D D D D D D D D D D H >XgXhXM.T 9 & & & & & & & & & % 9 % 9 & & & & & & & & & & ",
"uXpX/./.pXiXiXeXwXpXiXiX/.iXuXiXiXiXxXpX{.d 4 4 4 4 4 4 4 4 4 4 4 4 4 4 4 4 4 4 4 4 4 4 4 4 7 dXlXeXz.q                                                 . :.S.xXCXM X X X X X X X X X X X X X X X X X X X X X X X X # [.hXiXv.j o o o o o o o o o o o o o o o o o o o o o o o o O 6.S.lXjX .A = = = = = = = = = = = = = = = = = = = = = = = A 3XjXpXb.` Z C C C C C C C C C C C C C C C C C C C C C C C Z ` V.pXgX>XH D D D D D D D D D D D D D D D D D D D D D D D H >XgXhXM.T 9 % % % % % % % % % % % % % % % % % % % % % % % ",
"iX6Xw.6X8.m.w.7.$.q.m.q.7.w.qXiXuXiXxXpX9XH.H.H.H.H.H.H.H.H.H.H.H.H.H.H.H.H.H.H.H.H.H.H.H.H.H.wXlXuXk.m q q q q q q q q q q q q q q q q q q q q q q q q x w.S.xXpXV.l M l l l l l l l l l l l l l l l l l l l l l l l _.hXiXc.-.j j j j j j j j j j j j j j j j j j j j j j j j j 5.N.xXgX3X . . . . . . . . . . . . . . . . . . . . . . . . .2XgXpXc.i.{ { { { { { { { { { { { { { { { { { { { { { { { { u.m.xXiXsX*X*X*X*X*X*X*X*X*X*X*X*X*X*X*X*X*X*X*X*X*X*X*X*X*XsXiXhXM.1.E E E E E E E E E E E E E E E E E E E E E E E E ",
"iX6Xw.E.:.$.q.:.$.m.q.$.w.$.E.pXuXiXxXiXuXaXaXaXaXaXaXaXaXaXaXaXaXlXaXaXaXaXaXaXaXaXaXaXaXaXaXuXhXiXj.x.x.x.x.x.x.x.x.x.x.x.x.l.z.x.x.x.x.x.x.x.x.x.x.x.x.9.S.xXuXiXaXaXaXpXpXpXaXpXaXaXaXpXhXaXaXaXpXpXpXpXpXpXaXaXaXuXpXpXk.j.0.0.0.j.k.j.0.k.0.0.0.c.v.0.0.0.0.0.0.j.k.j.0.0.j.0.M.xXiXeXfXfXfXfXfXfXfXfXfXfXfXfXjXfXfXfXfXfXfXfXfXfXfXfXfXeXiXhXz.0.8.8.8.8.8.8.8.8.8.8.8.t.t.8.8.8.8.8.8.8.8.8.8.8.8.0.M.xXiXeXrXrXrXrXrXrXrXrXrXrXrXrXgXrXrXrXrXrXrXrXrXrXrXrXrXeXiXxXv.9.9.9.9.9.9.9.9.9.9.9.9.9.n.9.9.9.9.9.9.9.9.9.9.9.",
"uXpX(.(.(.6XqX8X/.wX6X).qX/.wXiXuXiXxXpXwX6XwXwX8X8X8XwX8X8XwXwX6XwX6XwXwX8XqX8XqX6X_.8XwXwX6XwXhXuXk.*.@.#.#.@.@.#.#.@.#.#.@.*.w.@.#.#.#.#.#.@.+.@.#.#.@.9.S.xXiX8X8XwXqX8X6XqXqX_.qXqXqX6XqX6XwXqXqXqXqX6X_.6XqXwX6XwXpXiXk.*.@.*.#.@.@.@.#.@.#.#.@.*.9.@.*.#.#.#.#.@.+.@.#.*.@.9.M.xXiXqX6XwXqX6X6X6XwX6XwXwXqX6XwX6XwXqXqXqXqX6X6X6XqXwX6XwXpXpXz.*.@.=.#.@.@.@.=.@.#.=.#.#.9.@.=.#.#.#.#.@.@.@.#.=.@.,.M.xXiXqX6XwXwX8X6X8XwX6XwXwXwX6XwX6XwXwXqXwXqX8X6X6XwXwX6XqXiXxXM.,.@.*.#.#.@.@.*.@.#.#.#.#.9.@.#.#.#.#.#.#.@.@.#.*.",
"iXuXpXpXpXiXiXiXpXiXiXpXiXpXiXuXiXiXxXpXwXqXiXiXB.V.V.(.B./.pXiXqXwXqXiXpX_.q.q.(.V.8._.pXiXqXwXhXuXk.*.*.9.#.z c c +.c #.9.*.*.9.*.9.*.z e v c e c 9.,.*.9.S.xXiXqXeXpXqXm.N.V.).V.8XpXuXqXwXwXiXeXm.q./.B.q.B.pXiXqXwXpXiXk.*.*.9.*.c c c +.c @.9.*.*.9.*.<.*.z e v c e c <.,.*.9.M.xXiXqXwXpXwXm.N.V.).V.6XpXuXqXwXwXiXiXm.8.U.U.q.V.iXiXwXwXpXpXz.,.*.9.*.c c c +.c @.9.*.*.9.*.,.,.c e c v e c ,.,.*.9.M.xXiXqXwXpXeXV.N.V.).V.).pXiXqXwXqXiXiXV.8.B.E.q.m.iXiXwXqXiXxXM.w.*.<.*.c c c +.c +.9.*.*.9.*.,.<.c e c v e z *.<.",
"iXiXuXuXuXuXuXuXuXuXuXuXuXuXuXiXiXiXxXpXwXqXiXiXU.q.V.m.V.E.iXiX8XwX8XuXiX6X7.m.V.).m.).iXiXqXwXhXuXk.*.*.,.*.e c z c c #.<.*.*.9.*.,.*.e e c +.c c <.*.*.9.S.xXiXqXwXiXeXq.m.m.N.V.6XiXeXqXwXwXiXiXq.q.V./.B.V.iXiXqXwXpXiXk.*.*.,.*.z c z c c @.<.*.*.9.#.,.,.z e c +.c c ,.,.*.9.M.xXiXqXwXiXuXm.m.m.V.V._.iXeXqXwXqXiXiXm.8.V./.U.V.iXiXqXwXpXpXz.,.*.,.*.z z c c c +.<.*.*.9.#.*.,.z 1 c v v c *.,.*.9.M.xXiXqXwXiXiXV.m.m.V.V.).iXuX8XwXqXiXiXV.8.V.E./.m.uXiXwXqXiXxXM.w.*.,.,.c z c c c +.<.*.*.9.#.*.<.c 1 c v +.z *.,.",
"iXiXiXiXiXiXiXiXiXiXiXiXiXiXiXiXiXiXxXpXwXqXiXiXeXeXwXeXwXeXiXiXqXwX8XiXiXiXuXuXwXiXeXeXiXiXqXwXhXuXk.*.*.,.*.*.*.*.*.*.*.*.*.*.9.*.,.*.*.*.*.*.*.*.*.,.#.9.S.xXiX8XeXiXeXeXwXeXwXwXiXiXeXqXwXwXiXiXuXiXwXuXeXwXiXiXqXwXpXiXk.*.*.,.*.*.*.*.*.*.*.*.*.*.9.#.,.*.*.*.*.*.*.*.*.,.*.9.M.xXiXqXwXiXuXeXwXeXwXwXiXiXuX8XwXqXiXiXuXiXwXeXuXwXiXiXwXwXpXpXz.,.*.,.*.*.*.*.*.*.*.*.*.*.9.#.,.*.*.*.*.*.*.*.*.,.*.w.M.xXiXqXwXiXuXeXwXeXwXwXiXiXiX8XwXqXiXiXuXiXeXeXuXwXuXiXwXqXiXxXM.,.*.,.*.*.*.*.*.*.*.*.*.*.9.#.,.*.*.*.*.*.*.*.*.,.",
"iXiXiXiXiXiXiXiXiXiXiXiXiXiXiXiXiXiXxXpXeX6X8X8XqXqXqXqXqX8X8X8X6XeX6X8X8X8X8X8XqX8XqX8X8X8X6XeXhXuXk.,.#.*.*.*.*.*.*.*.#.*.#.*.9.@.*.#.*.*.*.*.*.*.#.*.#.9.S.xXiXqX6X8X8XqXqXqXqXqX8X8X6XqXwX6X8X8X8X8XqX8X8XqX8X8X6XwXpXiXk.,.#.*.*.*.*.*.*.*.#.*.#.*.9.#.*.#.*.*.*.*.*.*.#.*.#.9.M.xXiXwX6X8X8XqXqXqXqXqX8X8X8X8XeX6X8X8X8X8XqX8X8XqX8X8X6XwXpXpXz.9.#.*.*.*.*.*.*.*.#.*.#.*.0.#.*.#.*.*.*.*.*.*.#.*.#.9.M.xXiXwX6X8X8XqXqXqXqXqX8X8X8X8XeX6X8X8X8X8XqX8X8XqX8X8X6XwXiXxXM.9.#.*.#.*.*.*.*.*.*.#.#.*.0.#.#.#.*.*.*.*.#.*.#.*.",
"iXiXiXiXiXiXiXiXiXiXiXiXiXiXiXiXiXiXxXiXuXuXeXeXeXeXeXeXeXeXeXeXuXiXuXeXeXeXeXeXeXeXeXeXeXeXuXuXpXiXj.k.j.j.j.j.j.j.j.j.j.j.j.k.k.j.j.j.j.j.j.j.j.j.j.j.k.0.S.xXuXiXuXeXeXeXeXeXeXeXeXeXeXuXiXuXeXeXeXeXeXeXeXeXeXeXuXuXpXpXk.k.j.j.j.j.j.j.j.j.j.j.j.k.k.j.j.j.j.j.j.j.j.j.j.j.k.j.M.xXiXuXuXeXeXeXeXeXeXeXeXeXeXuXiXuXeXeXeXeXeXeXeXeXeXeXuXuXiXhXk.j.k.j.j.j.j.j.j.j.j.j.j.k.k.j.j.j.j.j.j.j.j.j.j.j.k.j.M.xXiXuXuXeXeXeXeXeXeXeXeXeXeXuXiXuXeXeXeXeXeXeXeXeXeXeXuXuXiXxXv.j.k.j.j.j.j.j.j.j.j.j.j.k.k.k.j.j.j.j.j.j.j.j.j.j.",
"iXuXuXiXuXuXiXiXuXuXiXiXuXiXiXiXiXiXxXiXuXiXiXiXiXiXiXiXiXiXiXiXuXiXiXiXiXiXiXiXiXiXiXiXuXiXiXuXhXiXj.k.k.k.k.k.k.k.k.k.k.k.k.k.k.k.k.k.k.k.k.k.k.k.k.k.k.0.S.xXuXiXiXiXiXiXiXiXiXiXiXiXiXuXiXiXiXiXiXiXiXiXiXiXuXiXiXuXpXpXk.k.k.k.k.k.k.k.k.k.k.k.k.k.k.k.k.k.k.k.k.k.k.k.k.k.k.0.M.xXiXiXiXiXiXiXiXiXiXiXiXiXiXuXiXiXiXiXiXiXiXiXiXiXuXuXiXuXiXhXk.j.k.k.k.k.k.k.k.k.k.k.k.k.k.k.k.k.k.k.k.k.k.k.k.k.k.j.M.xXiXuXiXiXiXiXiXiXiXiXiXiXiXuXiXiXiXiXiXiXiXiXiXiXiXuXiXuXiXxXv.j.k.k.k.k.k.k.k.k.k.k.k.k.k.k.k.k.k.k.k.k.k.k.k.k.",
"uXpXpXeXiXiXuXuXiXiXuXuXuXuXuXiXiXiXxXiXiXxXxXxXxXxXxXxXxXxXxXxXxXxXxXxXxXxXxXxXxXxXhXxXSXxXxXiXpXiXj.j.j.j.9.9.9.9.9.9.9.9.9.j.9.9.9.9.9.9.9.9.9.9.k.j.0.9.S.xXuXpXxXxXxXxXxXxXxXxXxXxXxXxXxXxXxXxXxXxXxXxXhXxXSXxXxXiXpXpXk.j.j.j.9.9.9.9.9.9.9.9.9.j.9.9.9.9.9.9.9.j.9.9.k.j.9.0.M.xXuXpXxXxXxXxXxXxXxXxXxXxXxXxXxXxXxXxXxXxXxXxXhXxXSXSXxXiXiXhXz.j.j.j.9.9.9.9.9.9.9.9.9.j.j.9.9.9.9.9.9.j.9.9.j.k.9.j.M.xXiXiXxXxXxXxXxXxXxXxXxXxXxXxXxXxXxXxXxXxXxXxXhXxXxXSXxXiXiXxXv.0.j.j.9.9.9.9.9.9.9.9.9.j.j.9.9.9.9.9.9.j.9.9.j.k.",
"iX(.(.iX6X6XxXhX/.8XpXiXwXiXiXiXiXiXxXiXiXxXiXFXDXDXFXFXDXFXDXFXiXpXxXxXxXxXxXxXxXxXhXDX6XeXSXuXpXiXj.j.,.9.k.j.k.k.k.k.k.j.k.*.9.9.9.9.9.9.9.9.9.j.@.*.k.9.S.xXeXhXpXxXFXDXDXFXFXDXFXSXDXeXxXxXxXxXxXxXxXxXxXDX8XwXDXiXpXpXk.j.,.9.k.j.j.k.k.k.k.j.k.*.9.9.9.9.9.9.9.9.9.j.#.#.k.9.M.xXuXpXpXxXGXDXDXFXFXDXFXSXFXeXxXxXxXxXxXxXxXxXxXSXqXqXDXiXiXhXk.j.9.9.k.j.j.k.k.k.k.j.k.*.9.9.9.9.9.9.9.9.9.j.*.#.k.9.M.xXiXpXpXhXGXDXDXFXFXDXFXSXFXuXxXxXxXxXxXxXxXxXxXSXwX6XDXiXiXxXv.j.9.9.k.j.j.k.k.k.k.j.k.*.9.j.9.9.9.9.9.9.9.j.*.@.",
"iX$.m.m.$.7.7.c.:.$.(.w.c.,.V.pXuXiXxXiXpXqXq.E.B.m.(.E.(.N.6X8Xq.qXDXxXxXxXxXxXxXxXxXSXb q.FXeXpXiX0.z.c c +.z c +.O.+.c *.c z j.9.9.9.9.9.9.9.9.k.> e k.9.S.xXeXxXB.V./.m.B./.E.(.N.eX/.q.xXxXxXxXxXxXxXxXhXDX$.8.FXuXpXpXk.z.c c +.c c +.v +.c *.+.e 9.9.9.9.9.9.9.9.9.k.1 1 k.9.M.xXeXxXE.m./.m.B./.E.(.N.wX(.q.xXxXxXxXxXxXxXxXhXFX7.:.FXiXiXhXk.z.O.c +.c c +.v +.c *.+.1 9.j.9.9.9.9.9.9.9.k.1 > k.9.M.xXuXxX(.m./.V.N./.E.(.V.wX).q.pXxXxXxXxXxXxXxXhXFXq.b DXiXiXxXv.k.+.z +.c c +.c +.c #.@.1 ,.j.9.9.9.9.9.9.9.k.z > ",
"iXB.v $.7.v v $.c.q.$.z v 8.q.iXuXiXxXiXpXeX7.q.:.7.v v N.8.8.$.z eXDXxXxXxXxXxXxXxXxXxXb c.DXuXpXiX0.k.c 1 1 1 1 > 1 c 1 1 3 1 k.9.9.9.9.9.9.9.9.j.> e k.9.S.xXeXxX/.,.q.$.:.c :.B.7.8.c :.DXxXxXxXxXxXxXxXxXSX:.8.DXiXpXpXk.k.+.1 1 1 1 > > c 1 1 > > j.9.9.9.9.9.9.9.9.j.1 1 k.9.M.xXeXxX(.,.q.$.:.c $.B.7.8.c $.xXxXxXxXxXxXxXxXhXDX8.7.DXiXiXhXk.k.+.1 1 1 1 > > c 1 1 > > 9.9.9.9.9.9.9.9.9.k.1 1 j.0.M.xXuXxX6X,.q.$.7.v $.B.7.8.v v xXxXxXxXxXxXxXxXhXDXq.:.SXiXiXxXv.k.@.1 1 1 1 > > c 1 1 > > 9.j.9.9.9.9.9.9.9.k.z > ",
"iX/._.8XE.8X_._./.wX(.(.6X8X8XiXiXiXxXiXpXeXN.wX_./.E.(.eXqX).m.B.pXxXxXxXxXxXxXxXxXhXFXV.).DXuXpXiXj.k.+.+.*.+.+.v #.*.#.c c +.j.9.9.9.9.9.9.9.9.k.c +.k.9.S.xXeXxX).E.wX(./.E.6XeXqXB.m.).xXxXxXxXxXxXxXxXhXFXB./.FXuXpXpXk.k.+.c *.+.+.v @.*.#.c c +.j.9.9.9.9.9.9.9.9.k.c v k.9.M.xXeXxX_.S.wX(./.E.6XeXqXU.m./.xXxXxXxXxXxXxXxXhXFXU.B.FXiXiXhXk.k.@.c *.+.+.v @.*.#.v c +.9.9.9.9.9.9.9.9.9.k.v c k.9.M.xXuXhX6XB.wX)./.E._.eXqX/.m./.xXxXxXxXxXxXxXxXhXDX(.V.FXiXiXxXv.k.#.c *.+.+.v @.*.#.+.c v 9.j.9.9.9.9.9.9.9.k.+.c ",
"iXpXpXiXpXiXpXpXpXiXpXpXiXiXiXiXiXiXxXiXiXxXFXSXDXDXDXDXSXSXDXFXFXxXxXxXxXxXxXxXxXxXxXxXFXDXxXiXpXiXj.j.j.k.j.k.k.k.j.j.j.k.k.k.9.9.9.9.9.9.9.9.9.9.k.k.9.9.S.xXuXpXDXDXSXDXDXDXSXSXSXFXFXDXxXxXxXxXxXxXxXxXxXxXFXDXxXiXpXpXk.j.j.k.j.k.k.k.j.j.j.k.k.k.9.9.9.9.9.9.9.9.9.9.k.k.9.0.M.xXuXpXDXDXSXDXDXDXSXSXSXFXFXDXxXxXxXxXxXxXxXxXxXxXFXFXxXiXiXhXz.j.j.k.j.k.k.k.j.j.j.k.k.k.9.9.9.9.9.9.9.9.9.9.k.k.9.j.M.xXiXiXDXFXSXDXDXDXDXSXSXFXFXFXxXxXxXxXxXxXxXxXxXxXDXFXxXiXiXxXv.0.j.k.j.k.k.k.j.j.j.k.k.k.9.9.9.9.9.9.9.9.9.9.k.k.",
"iXuXuXuXuXuXuXuXuXuXuXuXuXuXuXiXiXiXxXiXuXiXiXiXiXiXiXiXiXiXiXiXiXiXiXiXiXiXiXiXiXiXiXiXiXiXiXuXpXiXj.k.j.j.j.j.j.j.j.j.j.j.j.j.k.j.j.j.j.j.j.j.j.k.j.j.k.9.S.xXuXiXiXiXiXiXiXiXiXiXiXiXiXiXiXiXiXiXiXiXiXiXiXiXiXiXiXuXpXpXk.k.j.j.j.j.j.j.j.j.j.j.j.j.k.j.j.j.j.j.j.k.j.k.j.j.k.0.M.xXiXiXiXiXiXiXiXiXiXiXiXiXiXiXiXiXiXiXiXiXiXiXiXiXiXiXiXuXiXhXk.j.j.j.j.j.j.j.j.j.j.j.j.j.j.j.j.j.j.j.j.k.j.k.j.j.k.j.M.xXiXiXiXiXiXiXiXiXiXiXiXiXiXiXiXiXiXiXiXiXiXiXiXiXiXiXiXiXiXxXv.j.j.j.j.j.j.j.j.j.j.j.j.j.j.j.j.j.j.j.j.k.j.j.j.j.",
"iXiXiXiXiXiXiXiXiXiXiXiXiXiXiXiXiXiXxXiXuXuXuXuXuXuXeXeXuXuXuXuXuXuXuXuXuXuXuXuXeXeXuXuXuXuXuXuXhXiXj.k.k.k.k.j.j.k.k.k.k.k.k.k.k.k.k.k.k.k.j.j.k.k.k.k.k.0.S.xXuXuXuXuXuXeXeXeXuXuXuXuXuXuXuXuXuXuXuXeXeXeXuXuXuXuXuXuXpXpXk.k.k.k.k.j.j.k.k.k.k.k.k.k.k.k.k.k.k.k.j.j.k.k.k.k.k.j.M.xXiXuXuXuXuXuXuXuXuXuXuXuXuXuXuXuXuXuXuXuXuXeXuXuXuXuXuXuXiXhXk.j.k.k.k.k.j.k.k.k.k.k.k.k.k.k.k.k.k.k.j.j.k.k.k.k.k.j.M.xXiXuXuXuXuXuXuXuXuXuXuXuXuXuXuXuXuXuXuXuXuXuXuXuXuXuXuXuXiXxXv.j.k.k.k.k.j.k.k.k.k.k.k.k.k.k.k.k.k.k.j.j.k.k.k.k.",
"uXuXuXiXuXuXiXiXiXiXiXiXiXiXiXiXiXiXxXiXuXiXiXuXeXpXlXlXiXuXiXiXiXiXiXiXiXiXuXiXlXlXpXeXuXiXiXuXpXiXj.k.k.j.k.z.z.k.j.k.k.k.k.k.k.k.k.k.j.k.M.M.k.j.k.k.k.0.S.xXuXiXiXeXiXhXCXpXeXiXiXiXiXiXiXiXiXiXeXpXCXxXiXeXiXiXiXuXpXpXk.k.k.j.k.v.v.k.j.k.k.k.k.k.k.k.k.k.j.k.v.M.k.j.k.k.k.0.M.xXiXiXiXuXiXgXjXgXuXuXiXiXiXiXiXiXiXiXuXiXjXcXiXuXiXiXiXuXiXhXk.j.k.j.k.z.v.k.j.k.k.k.k.k.k.k.k.k.j.k.v.M.k.j.k.k.k.j.M.xXiXuXiXuXiXgXxXiXuXuXiXiXiXiXiXiXiXiXuXiXxXcXiXuXiXiXiXuXiXxXv.j.k.k.k.z.v.k.j.k.k.k.k.k.k.k.k.k.j.k.z.M.k.j.k.k.",
"pXiXhXiXpXpXeXuXuXuXuXuXuXuXuXuXiXiXxXiXuXiXuXiXlXW.!.W.iXaXeXiXiXiXiXiXiXeXpXiXW.G.E.lXiXuXiXuXhXiXj.k.j.z.j.@.+.,.z.k.k.k.k.k.k.k.k.k.z.,.c O.k.z.j.k.k.0.S.xXuXiXeXhXeXy.y.`.xXuXuXiXiXiXiXiXuXuXhX`.y.y.eXhXeXiXiXuXpXpXk.k.j.z.k.-.O.*.v.k.k.k.k.k.k.k.k.k.v.9.O.O.j.v.j.k.k.0.M.xXiXiXuXgXiX3XXX1XjXiXuXiXiXiXiXiXiXuXjX0XXXh.wXgXuXiXiXuXiXhXk.j.j.k.k.&.-.=.c.k.k.k.k.k.k.k.k.j.c.9.-.O.9.M.j.k.k.j.M.xXiXuXuXiXiX>X$X7XcXiXuXiXiXiXiXiXiXuXgXyX$X.X0XcXuXiXiXuXiXxXv.j.k.k.k.#.+.*.z.k.k.k.k.k.k.k.k.j.z.9.+.O.9.M.j.k.",
"(.wXS.eX)._.hXiXpXiXpXpXpXpXpXiXuXiXxXiXuXiXiXiXa s a s s '.pXuXiXiXiXiXeXpXW.s a p 4 t pXiXiXuXhXiXj.j.z.@.> 1 1 > c z.j.k.k.k.k.k.k.k.e > 1 : : @.z.j.k.0.S.xXuXeXhX~.f l l f z hXuXiXiXiXiXiXuXhXM f M j $ V.hXeXiXuXpXpXk.j.z.&.< < 2 < h z.k.k.k.k.k.k.j.z.h < 2 3 : O.v.j.k.0.M.xXiXuXgX1X( | | (  .gXiXiXiXiXiXiXuXgX .( | [ - A.gXuXiXuXiXhXk.j.k.=.< < 2 < F k.k.k.k.k.k.k.j.c.O.< 2 3 : O.v.j.k.j.M.xXiXuXiXsX%X%X=XL H iXiXuXiXiXiXiXuXgX$XQ =XL Y |.cXuXiXuXiXxXv.j.k.9.2 2 2 2 2 k.k.k.k.k.k.k.j.z.+., 2 , : e M.j.",
":.q.V.iX$.$.q.V.q.B.q.w.7.B.8./.pXuXxXiXuXeXlXa a HXUXUX!.0 wXiXuXiXiXuXiX9Xs Q.yXm.GX0 t xXeXuXhXiXj.z.*.> #.k.z.9.3 1 M.j.k.k.k.j.z.e > k.z ,.O.* 9.k.k.0.S.xXeXpX`.f [.IX8X/.> n SXeXiXiXiXeXCXM f FXV.eX/.@ ).pXuXuXpXpXk.k.9.3 -.k.v.9.3 2 M.j.k.k.k.j.v._ < k.c #.@.* =.z.k.0.M.xXuXiX0X( 3XKXKXcX^ _ cXuXiXiXiXuXjXXX( HXU.'.tX- 1XgXuXuXiXhXk.k.j.< -.k.v.0.< < M.j.k.k.k.j.v.-.< x.c $.=.* @.v.j.j.M.xXiXiXuXQ *XPX/.`.L H cXuXiXiXiXuXgX$XQ SX/.[.BXY OXcXuXuXiXxXv.j.k.2 O.k.z.k.2 , M.j.k.k.k.j.z.@., 9.v v 9.: O.M.",
"w.v (.iX:./.q.w.c $.e 7.w.:.$.q.iXuXxXiXeXpX'.s xXSXhXe ~.t 4.xXeXiXiXeXlXH.H.IXU.z UXgX0 9XiXeXhXiX0.M.1 c z.j.z > @.: k.k.k.k.k.k.9.> <.z.> c S.> 2 M.j.0.S.xXeXCXl M IXcXe /.iX$ eXiXuXiXuXiXwXf rXIXz m.IXn z SXeXuXpXpXj.v.h 2 v.j.c $ #.: 9.k.k.k.k.k.j.< =.M.> z S.2 < M.j.0.M.xXuXjX . .KXSX/.q qXS 0XiXuXiXiXiXiX( 2XPXv q.IXh.[ cXuXuXiXhXk.v._ 2 c.j.+.$ #.: *.k.k.k.k.k.k.< @.M.> 1 S.2 3 M.j.j.M.xXiXgX$X=XvXFXe B.LXY 7XiXuXiXiXuXiX%XbXPX$.:.IX+XH cXuXuXiXxXz.z.+.2 z.j.#.$ #.: #.z.j.k.k.j.z.2 +.M.1 > S.O.3 M.",
"B.6XV.wX6XiX8XqX/.S./.6X8XB.7.E.(.pXxXiXeXlXW.a HXxXiXm.UXG.t SXeXiXiXeXlXa Q.HXhXpXxXHX0 P.lXeXhXiX0.z.> @.j.k.v @.k.: *.k.k.k.j.z.*.> j.9.9.9.k.c 3 M.j.0.S.xXeXhXf ~.FXxXwXxXSX$ /.hXuXiXuXpX`.f SXxXpXhXFXV.> xXeXuXpXpXj.v.2 -.k.k.+.+.z.: @.z.j.k.k.k.5.< 9.9.9.9.k.O.: v.j.0.M.xXuXjX' <XvXSX)./.JX[ A.gXuXiXuXiX0X( lXxXpXpXDX1XF gXuXuXiXhXk.v.F O.k.j.+.v v.3 O.v.j.k.k.k.9.< 9.j.9.9.k.@.: k.k.j.M.xXiXgX=X*XvXxXeXpXKXH oXcXuXiXiXiXyX%XpXxXpXhXcXsXH iXiXuXiXxXz.z.r r k.j.@.c M., c M.j.k.k.k.k.2 *.j.9.9.j.*.: j.",
"pXiXxXiXpXpXiXiXxXxXhXpXxXiXuXpXiXiXxXiXeXpXW.s HXxXxXDXIXt t SXeXiXiXeXlXH.H.UXxXxXSXxX0 _.pXeXhXiX0.M.1 c z.9.k.z.*.: 9.k.k.k.k.k.9.> 9.j.j.9.M.2 > M.j.0.S.xXeXCXl y.LXxXSXDXiX$ qXiXuXiXuXiXqXf pXDXxXxXIX7.h SXeXuXpXpXj.v.2 h v.9.k.z.9.: *.k.k.k.k.k.0.< *.k.j.9.M.2 3 M.j.0.M.xXuXjX . .KXlXDXFXxXS 7XgXuXiXuXiXuX( tXvXxXxXPXA.[ cXuXuXiXhXk.v._ F v.9.k.k.k.: =.z.j.k.k.k.k.< =.k.j.9.v.O.3 M.j.j.M.xXiXgX*X=XvXxXSXxXvXH #XxXuXiXiXuXiX%XnXvXxXxXKX$XH cXuXuXiXxXz.z.O.2 z.9.j.k.z.: @.z.j.k.k.k.z.2 @.k.9.9.z.+.: z.",
"eXpX7./.7.8Xm.B.6X/.8X8XS.8XiXuXiXiXxXiXuXuXlXa H.HXxXSXW.4 9XiXuXiXiXuXaX'.u dXSXxXHXt w lXeXuXhXiX0.z.#.> *.j.9.j.3 2 M.j.k.k.k.j.z.1 1 j.9.j.@.* *.z.k.0.S.xXeXhX[.f qXDXxXFXh h SXeXiXiXiXeXCXl l DXxXDXqX$ ~.hXeXuXpXpXk.k.=.3 &.j.9.k.3 3 M.j.k.k.k.j.v.h < j.9.j.=.* -.v.k.0.M.xXuXgX1X( 2XcXxXFX_ [ cXuXiXiXiXuXjX .| cXxXxXaXA A.gXuXuXiXhXk.k.9.< %.j.9.k.< 3 M.j.k.k.k.j.v._ < 9.9.9.<.: O.M.j.j.M.xXiXiXyXI bXcXxXFX XH cXuXiXiXiXuXxX$X%XxXxXxXpXY |.cXuXuXiXxXv.k.0., +.j.9.k.2 3 z.j.k.k.k.j.z.+., 9.9.9.9.: e M.",
"uXhX$.v b :.e v $.z 8.:.$.q.pXuXiXiXxXiXuXuXiX9Xa eXpXxXt I.lXeXiXiXiXiXeXlX!.H.lXxX9Xw wXiXuXuXhXiXj.j.z.c c k.k.@.> k.k.k.k.k.k.k.k.j.1 ,.j.z.2 c M.j.k.0.S.xXuXeXCXM M SXxX/.h iXiXuXiXiXiXuXiXuXl `.hXDXb $.xXeXiXuXpXpXk.j.v.O.h k.k.=.3 j.k.k.k.k.k.k.k.k.2 =.k.z.2 2 M.j.k.0.M.xXiXuXjXXX .cXxX0X[ wXiXuXiXiXiXuXiXiX| 3XxXcXh.` cXuXiXuXiXhXk.j.v.-.F k.j.*.< 9.k.k.k.k.k.k.k.k.F &.k.z.h 2 M.j.k.j.M.xXiXuXgX$X=XxXxXyXH 7XiXuXiXiXiXiXuXiX=X#XxXcX.XR cXuXiXuXiXxXv.j.z.#.e k.j.9., ,.k.j.k.k.k.k.k.z.r @.k.z.O.2 M.j.",
"uXiXB.8.c.$.7.q.q.m.8.:.b S.pXuXiXiXxXiXuXiXuXiXlXuXuXuXpXpXuXiXiXiXiXiXiXuXpXaXuXuXuXlXiXuXiXuXhXiXj.k.k.z.k.k.k.k.z.k.k.k.k.k.k.k.k.k.z.k.k.k.k.z.j.k.k.0.S.xXuXiXeXhXpXuXuXiXhXiXuXiXiXiXiXiXuXiXhXiXuXuXpXhXuXiXiXuXpXpXk.k.k.z.k.k.k.k.v.k.k.k.k.k.k.k.k.k.v.k.k.k.k.v.j.k.k.0.M.xXiXiXuXgXgXuXuXuXgXiXuXiXiXiXiXiXuXiXgXiXuXuXiXgXuXiXiXuXiXhXk.j.k.k.k.k.k.k.v.k.k.k.k.k.k.k.k.k.c.k.k.k.k.v.k.k.k.j.M.xXiXuXuXiXiXuXuXuXxXiXuXiXiXiXiXiXiXiXgXiXuXuXiXxXuXiXiXuXiXxXv.j.k.k.k.k.k.k.z.k.j.k.k.k.k.k.k.k.z.k.k.k.k.z.k.k.",
"iXuXpXhXhXxXxXpXiXiXxXuX_.xXuXiXiXiXxXiXuXiXiXuXeXiXuXuXeXeXiXiXiXiXiXiXiXiXeXeXiXuXuXeXuXiXiXuXhXiXj.k.k.j.j.k.j.j.j.k.k.k.k.k.k.k.k.k.j.k.j.j.j.j.k.k.k.0.S.xXuXiXiXeXeXiXuXuXeXuXiXiXiXiXiXiXiXuXeXuXuXuXeXeXiXiXiXuXpXpXk.k.k.j.j.k.j.j.j.k.k.k.k.k.k.k.k.k.j.k.j.j.j.j.k.k.k.0.M.xXiXuXiXuXuXiXuXuXeXuXiXiXiXiXiXiXiXuXeXuXuXuXeXeXiXiXiXuXiXhXk.j.k.j.j.k.j.j.j.j.k.k.k.k.k.k.k.k.j.j.k.j.j.j.k.k.k.j.M.xXiXuXiXuXuXuXuXuXuXeXuXiXiXiXiXiXiXiXuXuXuXuXuXuXiXiXiXuXiXxXv.j.k.j.j.k.j.j.j.j.k.k.k.k.k.k.k.k.j.j.k.j.j.j.k.k.",
"uXiX6XqXE.V.N.eXpX8XV.N./.qXiXuXiXiXxXiXuXiXuXiXhXiXpXpXpXiXuXiXiXiXiXiXiXuXpXpXiXpXpXpXiXiXiXuXhXiXj.k.k.z.z.k.z.z.z.k.k.k.k.k.k.k.k.k.z.k.k.z.z.k.k.k.k.0.S.xXuXiXuXiXpXiXpXiXpXiXuXiXiXiXiXiXuXiXhXiXpXpXpXiXuXiXiXuXpXpXk.k.k.z.z.k.z.z.z.k.k.k.k.k.k.k.k.k.z.k.k.z.z.k.k.k.k.0.M.xXiXiXuXpXpXiXpXpXpXiXiXiXiXiXiXiXiXiXhXiXiXpXpXpXuXiXiXuXiXhXk.j.k.k.z.k.z.z.z.k.k.k.k.k.k.k.k.k.z.k.k.z.z.k.k.k.k.j.M.xXiXuXeXpXiXpXiXpXiXpXiXuXiXiXiXiXiXiXpXiXiXpXpXpXuXiXiXuXiXxXv.j.k.k.z.k.z.z.z.k.k.k.k.k.k.k.k.k.z.k.k.z.z.z.k.k.",
"uXpXm.w.$.$.v eXqX:.$.b $.N.pXeXiXiXxXiXuXuXiXqX8.wXN.V.q._.iXuXiXiXiXiXuXpXS.m.eXq.N.q.iXiXiXuXhXiXj.k.z.+.+.9.c +.c k.k.k.k.k.k.k.k.0.c 9.@.c c #.k.j.k.0.S.xXuXuXpXeXq.wXm.B.c.(.pXuXiXiXiXuXiXeX8.8XE.m.c./.pXuXiXuXpXpXk.j.z.+.v 0.c +.c k.k.k.k.k.k.k.k.j.c ,.#.c c @.z.j.k.0.M.xXiXuXpXS.m.eXq.N.q.iXiXiXiXiXiXiXiXiXq._.(.c.m.E.pXuXiXuXiXhXk.j.z.@.c j.c +.c j.k.k.k.k.k.k.k.k.c *.*.c c @.z.j.k.j.M.xXiXuXxXB./.c.8Xm.B.c.).pXuXiXiXiXuXiXq.(._.q.m.B.pXuXiXuXiXxXv.j.z.#.c k.c +.c 0.k.k.k.k.k.k.k.k.c #.,.c v +.z.j.",
"uXpXq.$.,.$.b (.6X$.:.$.:.m.pXeXiXiXxXiXuXuXhXB.7.N.m.v :.m.pXeXiXiXiXiXuXiXq.q.N.8.v 8.).pXuXuXhXiXj.k.0.z c +.e > c w.k.k.k.k.k.j.z.#.e +.v > 1 c z.j.k.0.S.xXuXiXwXB.v V.S.b w.c.pXeXiXiXiXuXpX(.7.V.V.b $.c.iXuXiXuXpXpXk.k.k.c c +.z > c *.z.k.k.k.k.j.z.*.e v +.1 1 c k.j.k.0.M.xXiXuXiXq.q.N.8.v 8.).pXuXiXiXiXuXpX_.7.m.V.$.$.q.iXuXiXuXiXhXk.j.k.c c +.c > z #.z.j.k.k.k.k.z.*.e c +.1 1 c j.k.k.j.M.xXiXwX6Xc.B.N./.B.b w.c.pXeXiXiXuXpX6X7.m.N.$.b q.eXiXiXuXiXxXv.0.z.c z +.c > z @.z.j.k.k.k.k.k.9.e c +.1 > c 9.k.",
"uXpX)./.6X6X(.B.iX).6X_.E.).pXuXiXiXxXiXuXuXpX_.$.m.q.,.:.S.pXuXiXiXiXiXuXpXm.,.V.7.,.7.qXiXuXuXhXiXj.k.k.c e v 1 1 z 0.k.k.k.k.k.k.k.w.1 c c 1 1 +.z.j.k.0.S.xXuXiXqX6X7.c./.,.$.N.pXuXiXiXiXuXiX8X:.q.q.:.:.V.pXuXiXuXpXpXk.j.k.c 1 v e 1 e 9.k.k.k.k.k.k.k.9.1 c c 1 1 c z.j.k.0.M.xXiXuXpXm.,.V.7.,.7.qXiXuXiXiXiXuXiXwX,.q.c.:.:.m.pXuXiXuXiXhXk.j.z.v 1 v e 1 1 9.k.k.k.k.k.k.k.9.e c c 1 1 c k.j.k.j.M.xXiXeX6X).m.$.B.E.,.$.N.pXuXiXiXuXiXeX7.8.m.:.:.q.iXuXiXuXiXxXv.0.z.+.1 v z 1 1 ,.k.k.k.k.k.k.k.j.z z c 1 1 c k.k.",
"iXuXiXiXpXiXpXiXuXpXiXpXiXiXuXiXiXiXxXiXuXiXuXiXqXeXwXeXwXuXiXiXiXiXiXiXuXiXeXwXeXwXuXwXiXuXiXuXhXiXj.k.k.0.9.j.9.j.9.k.k.k.k.k.k.k.k.k.9.0.9.j.9.j.k.k.k.0.S.xXuXuXiXiXwXuX6XeXwXuXiXiXiXiXiXiXuXiXwXeXwXeXwXeXiXiXiXuXpXpXk.k.k.j.9.j.9.j.9.k.k.k.k.k.k.k.k.k.9.0.9.0.0.j.k.k.k.0.M.xXiXuXiXeXwXeXwXuXwXiXuXiXiXiXiXiXuXiXwXwXwXwXeXeXiXuXiXuXiXhXk.j.k.j.9.j.9.k.9.k.k.k.k.k.k.k.k.k.9.0.0.0.0.0.k.k.k.j.M.xXiXiXpXuXwX6XqX6XeXwXuXiXiXiXiXiXuXiXwXwXeXwXeXwXiXuXiXuXiXxXv.j.k.j.9.j.9.k.9.k.k.k.k.k.k.k.k.k.9.9.0.9.j.0.k.k.",
"iXiXuXuXuXuXuXuXiXuXuXuXuXuXiXiXiXiXxXiXuXiXiXuXiXiXiXiXiXiXiXiXiXiXiXiXiXuXiXiXiXiXiXiXuXiXiXuXhXiXj.k.k.k.k.k.k.k.k.k.k.k.k.k.k.k.k.k.k.k.k.k.k.k.k.k.k.0.S.xXuXiXuXiXiXiXiXiXiXiXiXiXiXiXiXiXiXuXiXiXiXiXiXiXuXiXiXuXpXpXk.k.k.k.k.k.k.k.k.k.k.k.k.k.k.k.k.k.k.k.k.k.k.k.k.k.k.0.M.xXiXiXuXiXiXiXiXiXiXuXiXiXiXiXiXiXiXuXiXiXiXiXiXiXuXiXiXuXiXhXk.j.k.k.k.k.k.k.k.k.k.k.k.k.k.k.k.k.k.k.k.k.k.k.k.k.k.j.M.xXiXuXuXiXiXiXiXiXiXiXiXiXiXiXiXiXiXuXiXiXiXiXiXiXuXiXiXuXiXxXv.j.k.k.k.k.k.k.k.k.k.k.k.k.k.k.k.k.k.k.k.k.k.k.k.k.",
"iXiXiXiXiXiXiXiXiXiXiXiXiXiXiXiXiXiXxXiXuXiXiXiXuXiXuXuXuXiXiXiXiXiXiXiXiXiXiXuXiXuXuXuXiXiXiXuXhXiXj.k.k.k.k.k.k.k.k.k.k.k.k.k.k.k.k.k.k.k.k.k.k.k.k.k.k.0.S.xXuXiXiXiXuXiXuXuXuXiXiXiXiXiXiXiXiXiXuXuXuXuXuXiXiXiXiXuXpXpXk.k.k.k.k.k.k.k.k.k.k.k.k.k.k.k.k.k.k.k.k.k.k.k.k.k.k.0.M.xXiXuXiXiXuXiXuXuXuXiXiXiXiXiXiXiXiXiXuXuXuXuXuXuXiXiXiXuXiXhXk.j.k.k.k.k.k.k.k.k.k.k.k.k.k.k.k.k.k.k.k.k.k.k.k.k.k.j.M.xXiXuXiXiXuXuXuXuXuXuXiXiXiXiXiXiXiXiXuXuXuXuXuXuXiXiXiXuXiXxXv.j.k.k.k.k.k.k.k.k.k.k.k.k.k.k.k.k.k.k.k.k.k.k.k.k.",
"iXiXiXiXiXiXiXiXiXiXiXiXiXiXiXiXiXiXxXiXuXiXiXiXuXuXuXuXuXiXiXiXiXiXiXiXiXiXiXuXeXeXeXuXiXiXiXuXhXiXj.k.k.k.j.j.j.j.k.k.k.k.k.k.k.k.k.k.k.j.j.j.j.k.k.k.k.0.S.xXuXiXiXiXuXuXuXuXuXiXiXiXiXiXiXiXiXiXuXeXeXeXuXiXiXiXiXuXpXpXk.k.k.k.j.j.j.j.k.k.k.k.k.k.k.k.k.k.k.j.j.j.j.k.k.k.k.0.M.xXiXuXiXiXuXuXuXuXuXiXiXiXiXiXiXiXiXiXuXuXeXeXuXiXiXiXiXuXiXhXk.j.k.k.j.j.j.j.k.k.k.k.k.k.k.k.k.k.k.j.j.j.j.k.k.k.k.j.M.xXiXuXiXiXuXuXuXeXuXiXiXiXiXiXiXiXiXiXiXuXeXeXuXiXiXiXiXuXiXxXv.j.k.k.j.j.j.j.k.k.k.k.k.k.k.k.k.k.k.j.j.j.j.k.k.k.",
"iXiXiXuXuXuXuXuXuXuXuXiXiXiXiXiXiXiXxXiXuXiXiXuXiXlXlXlXiXuXiXiXiXiXiXiXiXiXeXgXjXjXjXiXuXiXiXuXhXiXj.k.k.j.z.M.M.M.k.k.k.k.k.k.k.k.k.j.k.M.M.M.z.j.k.k.k.0.S.xXuXiXiXuXpXlXlXlXiXuXiXiXiXiXiXiXiXuXiXjXjXjXgXeXiXiXiXuXpXpXk.k.k.j.z.M.M.M.k.j.k.k.k.k.k.k.k.k.k.v.M.M.v.j.k.k.k.0.M.xXiXuXiXuXiXlXlXlXiXuXiXiXiXiXiXiXiXuXuXjXjXjXgXuXiXiXiXuXiXhXk.j.k.j.z.M.M.M.k.j.k.k.k.k.k.k.k.k.k.v.M.M.v.j.k.k.k.j.M.xXiXuXiXuXiXlXlXxXiXuXiXiXiXiXiXiXiXuXuXjXjXjXjXuXuXiXiXuXiXxXv.j.k.j.k.M.M.M.k.j.k.k.k.k.k.k.k.k.j.v.M.M.v.j.k.k.",
"iXiXuXiXpXpXpXiXiXiXiXiXiXiXiXiXiXiXxXiXuXiXuXiXeXK.G.K.9XlXuXiXiXiXiXiXiXuXjX~.[ [ h.uXgXuXiXuXhXiXj.k.k.v.@.2 2 c k.k.j.k.k.k.k.k.j.k.k.h < 2 @.v.j.k.k.0.S.xXuXiXuXlXW.K.G.L.iXiXuXiXiXiXiXiXuXiXiXh.[ [ ~.jXuXiXiXuXpXpXk.k.j.v.#.2 2 r k.k.j.k.k.k.k.k.j.k.k.c 2 2 -.v.j.k.k.0.M.xXiXiXuXlX9XK.G.K.uXiXuXiXiXiXiXiXuXiXgX^.[ [ ~.jXuXiXiXuXiXhXk.j.j.v.*.2 2 e j.z.j.k.k.k.k.k.k.k.z.O.2 2 -.v.k.k.k.j.M.xXiXuXuXlX9XK.G.3.wXpXuXiXiXiXiXiXuXiXgX^.[ [ ^.gXiXuXiXuXiXxXv.j.j.z.,.2 2 e 9.z.j.k.k.k.k.k.k.k.v.O.2 2 O.v.k.k.",
"iXuXpX).)._.(.wXiXwXV.eXuXiXiXiXiXiXxXiXuXuXiX9XW K.R.K.W R.lXuXiXiXiXiXuXjXh.g h.^.[ g 0XiXuXuXhXiXj.j.z.2 : e e , , j.k.k.k.k.k.k.k.9.3 < h 2 : h v.j.k.0.S.xXuXuXlXK.W R.R.W W eXiXuXiXiXiXuXiXwXg [ ^.h.g ] jXuXiXuXpXpXk.j.v.e : e e , , 9.k.k.k.k.k.k.k.j.3 3 h 2 : 2 v.j.k.0.M.xXiXuXlXL.W R.R.W W 9XiXuXiXiXiXuXiXuXg [ ^.h.g [ gXuXiXuXiXhXk.j.v.O.: 2 r , 3 <.k.j.k.k.k.k.k.k.3 3 h 1 : 2 z.j.k.j.M.xXiXuXlXR.W K.R.T y 6XpXuXiXiXiXuXiXiX[ g ^.^.g [ gXuXiXuXiXxXv.0.z.+.: 2 r , : *.z.j.k.k.k.k.k.z.< 3 h 1 : < k.k.",
"iXeXxX$.b $.$.V.b m.v m.xXeXiXiXiXiXxXiXuXuXpXW R.UXHXIXgXW 9XiXuXiXiXuXgX~.g pXKXKXIXh.g jXuXuXhXiX0.v.+.: j.z.z.S.2 2 M.j.k.k.k.j.v.< 2 M.k.M.k.: @.z.k.0.S.xXeXlXW.W xXHXHXUXK.G.lXuXiXiXiXeXjX[ ] PXKXIXGXg ~.gXuXuXpXpXk.z.@.: 9.z.z.S.2 , M.j.k.k.k.j.M.2 2 M.k.M.z.: -.v.k.0.M.xXuXiX;XW hXHXUXIXK.W lXuXiXiXiXeXjX[ [ KXKXPXLXg ^.jXuXuXiXhXk.k.*.: *.z.z.S.e , z.j.k.k.k.j.M.2 3 v.k.M.M.3 c v.j.j.M.xXiXiX9XW uXUXb rXI.y pXuXiXiXiXeXjX] [ KXKXLXIXg h.jXeXuXiXxXv.k.9.: #.M.z.S.c 3 k.k.k.k.k.j.M.h 3 z.z.v.S.3 h M.",
"uXiX8Xw.,.7.q.$.z q.$.w.qXiXuXiXiXiXxXiXuXpX;XW HXxXSXb 7.3.4.xXeXiXiXeXjX[ h.KXlXiXy.8Xg 1XgXeXhXiX0.M., O.z.j.+.$ +.: 9.k.k.k.k.k.*.: 9.9.j.v v 2 2 M.j.0.S.xXeXlXW R.HXhXDXxXxXW wXiXuXiXuXiX0Xg lXxXxX/.U.^.[ jXeXuXpXpXj.M.2 e z.j.#.$ v : *.k.k.k.k.k.9.: 9.j.j.+.c h < M.j.0.M.xXuXlXK.R.HXxXwXe /.r ).pXuXiXuXiXwXg aXcXxX).U.^.j jXeXuXiXhXk.M.2 2 z.9.*.$ v : @.z.j.k.k.k.k.3 =.j.j.@.c c 3 v.j.j.M.xXiXlXK.K.UXhXv wXJXy E.lXuXiXuXiXiXg 0XDXxX6XV.~.g gXuXuXiXxXz.M.e 2 z.9.,.$ c : O.M.j.k.k.k.z.3 @.k.9.#.z O.3 k.",
"iXiXeXpXiX6XwX6XeX6XeX)./.pXuXiXiXiXxXiXeXlXR.W HXxXxXm.iXs.T xXeXiXiXeXjX[ ^.KXSXwXz (.g n.hXeXhXiX0.v., +.k.j.@.c 9.: *.z.k.k.j.z.&.3 k.9.k.1 > 1 : M.j.0.S.xXeXlXW :XHXxX/.hXSXW 9XiXuXiXuXgX~.g cXxXFX8.b n.g xXeXuXpXpXj.M., O.k.j.#.z j.: @.z.j.k.k.k.*.3 9.9.k.e > c : M.j.0.M.xXuXlXW R.HXSXwXm.cXr E.lXuXiXuXiX0Xg lXxXFXc.b ~.g hXuXuXiXhXk.M.2 e k.j.*.z k.: O.M.j.k.k.k.9.3 9.9.k.c > O.: k.k.j.M.xXuXlXK.R.HXxXDXxXGXr b.xXuXiXuXiXwXg aXxXFXN.x ~.< iXiXuXiXxXz.M.2 2 z.j.,.z j.3 e M.j.k.k.k.k.3 =.0.k.c > +.: j.",
"uXiXwX_.pXhX6XxXpXhXhXhXxXiXuXiXiXiXxXiXuXiX9XW hXSXxXFXIXr 3.xXeXiXiXeXjX] [ KXxXxXIXaX; qXiXeXhXiX0.M.2 2 M.9.j.M.+.: k.k.k.k.k.k.0.: =.k.9.k.S.3 2 M.j.0.S.xXeXlXK.K.UXFXz y.jXW uXiXuXiXuXiXuXg 0XKXxXSXIX_ h cXeXuXpXpXj.M.1 2 M.9.j.M.=.* 0.k.k.k.k.k.k.: @.z.9.j.S.< 3 M.j.0.M.xXuXlXK.K.UXxXxXLXiXy wXiXuXiXiXuXgXg ~.KXxXSXIX_ j cXeXuXiXhXk.M.r , M.9.j.M.9.* <.k.k.k.k.j.z.3 O.v.9.j.S.2 3 M.j.j.M.xXiXlXY.W UXxXxXSXxXy 6XpXuXiXiXuXjXg ~.KXxXSXIXh.g cXeXuXiXxXz.z.O., z.9.j.z.k.* #.z.j.k.k.j.v.3 h v.9.j.S.h : M.",
"eXhXm.v N.q.8.m.E.N.m.S.q.wXiXuXiXiXxXiXuXuXlXK.W xXxXHX3.y iXiXuXiXiXuXiXeXg ^.FXxXxX< _ cXeXuXhXiXj.k.<.: O.k.9.*.* e M.j.k.k.k.j.M.h : 9.9.k.1 * 9.k.k.0.S.xXuXiXwXW W.FXiX).W P.lXuXiXiXiXeXjXh.g lXxXFXn.; qXiXuXuXpXpXk.k.9.: r k.9.9.: 2 M.j.k.k.k.j.v.c : 9.9.k.c * *.k.k.0.M.xXiXiXeXW R.HXxXxXy 4.xXeXiXiXiXuXjX^.g aXxXDX~.; 7XgXuXuXiXhXk.k.k.: e k.9.9.: 2 M.j.k.k.k.j.v.-.: *.j.j.O.* =.z.k.j.M.xXiXuXiXW L.HXxXSXr T xXeXiXiXiXuXgX~.g 0XDXDX~.; ~.hXuXuXiXxXv.j.z., 2 k.9.j.: , M.j.k.k.k.j.z.@.: @.j.j.@.* -.v.",
"eXhXc.v v c $.z $.z $.c z 6XiXuXiXiXxXiXuXiXiXiXL.eXpXpX3.6XpXuXiXiXiXiXuXgX~.^.hXhX6X6.gXuXiXuXhXiXj.j.z.@.+.k.k.#.e M.j.k.k.k.k.k.k.z.h *.k.z.h @.v.j.k.0.S.xXuXuXlX;XR.pXxX9XY.pXuXiXiXiXiXiXuXgXh.7XgXxXd.~.hXeXiXuXpXpXk.j.z.#.O.k.k.*.1 z.j.k.k.k.k.k.j.v.c *.k.z.c -.M.j.k.0.M.xXiXuXpX9XR.pXpX9X3.pXuXiXiXiXiXiXuXgX^.~.gXxXl.n.hXeXiXuXiXhXk.j.z.*.O.k.k.<.1 z.k.k.k.k.k.k.j.v.O.&.k.z.O.O.M.j.k.j.M.xXiXuXiX9XY.pXpXwX3.iXiXiXiXiXiXiXuXjX^.~.hXxXn.n.xXeXiXuXiXxXv.j.z.<.r k.k.9.2 k.k.k.k.k.k.k.j.v.O.@.k.z.O.c M.j.",
"uXiX6X).B.B.(.S.B.m.B.N.B.eXiXiXiXiXxXiXuXiXiXiXlXiXuXuXxXiXuXiXiXiXiXiXiXuXgXgXuXuXiXxXuXiXiXuXhXiXj.k.j.z.z.k.k.k.M.j.k.k.k.k.k.k.k.k.v.k.k.j.v.z.j.k.k.0.S.xXuXiXuXiXpXuXeXiXlXuXiXiXiXiXiXiXiXuXjXiXuXeXhXgXeXiXiXuXpXpXk.k.j.k.z.k.k.k.M.j.k.k.k.k.k.k.k.j.v.k.k.j.v.z.j.k.k.0.M.xXiXiXuXiXlXuXuXiXxXuXiXiXiXiXiXiXiXuXjXiXuXeXhXhXeXiXiXuXiXhXk.j.j.k.z.k.k.k.M.k.k.k.k.k.k.k.k.j.v.k.k.j.z.v.j.k.k.j.M.xXiXuXuXiXlXuXuXiXxXuXuXiXiXiXiXiXiXuXgXgXuXeXgXhXeXiXiXuXiXxXv.j.k.k.v.k.k.k.M.k.k.k.k.k.k.k.k.j.v.z.k.k.z.v.j.k.",
"iXiXpXhXxXpXhXpXpXxXxXxXhXpXiXiXiXiXxXiXuXiXiXiXuXuXiXuXuXuXiXiXiXiXiXiXiXiXuXeXiXiXuXeXuXiXiXuXhXiXj.k.k.k.k.k.k.j.j.k.k.k.k.k.k.k.k.k.j.j.k.k.j.j.k.k.k.0.S.xXuXiXiXiXuXiXiXuXuXiXiXiXiXiXiXiXiXiXeXuXiXiXuXeXiXiXiXuXpXpXk.k.k.k.k.k.k.j.j.k.k.k.k.k.k.k.k.k.j.j.k.k.j.j.k.k.k.0.M.xXiXuXiXiXuXiXiXuXuXuXiXiXiXiXiXiXiXiXeXuXiXiXuXeXiXiXiXuXiXhXk.j.k.k.k.k.k.j.j.k.k.k.k.k.k.k.k.k.j.j.k.k.k.j.k.k.k.j.M.xXiXuXuXiXuXiXiXiXuXiXiXiXiXiXiXiXiXiXeXuXiXiXuXeXiXiXiXuXiXxXv.j.k.k.k.k.k.j.j.k.k.k.k.k.k.k.k.k.j.j.k.k.k.j.k.k.",
"iXeXB.).).qX_.eXeX).(.qX_.B.eXiXiXiXxXiXuXiXiXuXeXiXeXiXeXiXiXiXiXiXiXiXiXiXiXiXiXuXiXuXiXiXiXuXhXiXj.k.k.0.j.k.k.k.j.k.k.k.k.k.k.k.k.k.k.k.j.k.j.k.k.k.k.0.S.xXuXiXiXwXiXuXiXiXiXiXiXiXiXiXiXiXiXiXiXiXeXiXeXiXuXiXiXuXpXpXk.k.k.j.j.k.j.k.j.k.k.k.k.k.k.k.k.k.k.k.j.k.j.k.k.k.k.0.M.xXiXuXiXeXeXiXuXiXeXiXuXiXiXiXiXiXiXiXiXiXeXiXeXiXuXiXiXuXiXhXk.j.k.j.0.k.j.k.j.k.k.k.k.k.k.k.k.k.k.k.j.k.j.k.k.k.k.j.M.xXiXuXiXeXiXiXuXeXeXwXiXiXiXiXiXiXiXiXiXiXeXiXeXiXuXiXiXuXiXxXv.j.k.j.0.k.j.k.j.k.k.k.k.k.k.k.k.k.k.k.j.k.j.k.k.k.",
"pX6X:.$.$.8.$.iX6Xv $.w.7.w.6XpXuXiXxXiXuXuXiXwX8.7.q.qX:./.pXuXiXiXiXiXiXuXiX8.V.7.w.q.iXuXiXuXhXiXj.k.k.*.e 1 +.*.1 9.k.k.k.k.k.k.j.z.c v z z z j.k.k.k.0.S.xXuXiXiXm.7.w.w.8.,.S.pXuXiXiXiXiXuXhXc.m.8.w.w.eXiXuXiXuXpXpXk.j.k.w.z e c ,.1 *.k.k.k.k.k.k.j.z.c c z z e 9.k.k.k.0.M.xXiXuXiX8Xw.7.c.6X$._.pXuXiXiXiXiXuXhXm.c.8.w.7.wXiXuXiXuXiXhXk.j.k.9.z e c 9.1 *.z.j.k.k.k.k.j.z.+.c c z e 9.k.k.k.j.M.xXiXiXqX$.(.V.8.c.q.,./.pXuXiXiXiXuXhXN.q.q.w.7.8XiXuXiXuXiXxXv.j.k.9.c e c 9.1 #.z.j.k.k.k.k.j.z.+.c c z 1 ,.k.k.",
"iX6X:.N.N.N.7.N.8Xm.N.N.8.$.8XiXuXiXxXiXuXiXuXiXq.:.q.m.8.m.pXeXiXiXiXiXiXeXpXq.w.7.b q.wXiXiXuXhXiXj.k.k.9.1 e c c e @.z.j.k.k.k.k.j.z.+.1 c > c *.z.k.k.0.S.xXuXuXiXB.$.w.b $.$.m.pXeXiXiXiXiXuXpXU.:.q.c 8.).pXuXiXuXpXpXk.k.k.j.z 1 c v e +.z.j.k.k.k.k.j.z.@.1 c > c #.z.j.k.0.M.xXiXuXiXeX8.,.q.m.w.N.hXeXiXiXiXiXuXpX/.$.q.c 8./.pXuXiXuXiXhXk.j.k.k.c 1 c v z v z.j.k.k.k.k.j.z.*.1 c > z @.z.j.k.j.M.xXiXpX(.7.m.V.v c.E.q.qXiXuXiXiXiXuXpX_.$.m.c w.U.hXuXiXuXiXxXv.j.k.k.c 1 c v z c z.j.k.k.k.k.k.k.*.1 c > z +.z.j.",
"iXuX_.iXiXuXwX).iXiXiXuXeX_.uXiXiXiXxXiXuXuXpX(.$.N.8.E.w.(.pXuXiXiXiXiXiXuXpX/.B.q.q.m.pXuXiXuXhXiXj.j.z.v z c c +.z 9.k.k.k.k.k.k.j.z.*.@.c c c k.k.k.k.0.S.xXuXiXwX$.V.q.c.q.8./.pXuXiXiXiXiXuXpX_.E.q.m.q.uXiXiXiXuXpXpXk.j.z.+.e v c @.z w.k.k.k.k.k.k.k.k.,.@.c c c j.k.k.k.0.M.xXiXuXpXS.,.V.q.U.w.6XiXuXiXiXiXiXuXiX6XE.q.m.8.wXiXuXiXuXiXhXk.j.z.#.1 +.c @.z *.k.k.k.k.k.k.k.k.w.@.c c z 9.k.k.k.j.M.xXiXiXwX8.V.E.q.:.N.S.pXuXiXiXiXiXuXiX8XE.q.m.8.qXiXuXiXuXiXxXv.j.z.*.1 +.z @.z #.z.j.k.k.k.k.k.k.9.@.c c z 9.k.k.",
"iXiXiXuXuXiXiXpXiXiXuXiXiXiXiXiXiXiXxXiXuXiXuXiXiXiXpXiXpXiXuXiXiXiXiXiXiXiXuXiXiXpXpXiXiXiXiXuXhXiXj.k.k.k.k.k.k.k.z.k.k.k.k.k.k.k.k.k.k.k.k.z.k.k.k.k.k.0.S.xXuXiXiXiXiXpXpXpXpXiXuXiXiXiXiXiXiXuXiXiXpXpXpXiXuXiXiXuXpXpXk.k.k.k.k.k.z.k.z.k.k.k.k.k.k.k.k.k.k.k.k.z.k.k.k.k.k.0.M.xXiXiXuXiXiXiXpXiXpXiXuXiXiXiXiXiXiXuXiXpXiXpXpXiXuXiXiXuXiXhXk.j.k.k.k.k.z.k.z.k.k.k.k.k.k.k.k.k.k.k.k.z.k.k.k.k.k.j.M.xXiXuXiXpXpXiXpXpXiXpXuXiXiXiXiXiXiXuXiXpXiXpXpXiXuXiXiXuXiXxXv.j.k.k.k.k.z.k.k.k.k.k.k.k.k.k.k.k.k.k.k.z.z.k.k.k.",
"iXiXuXiXiXiXuXuXiXiXiXiXiXuXiXiXiXiXxXiXuXiXiXuXuXuXuXuXuXuXiXiXiXiXiXiXiXiXiXuXuXuXuXuXiXiXiXuXhXiXj.k.k.k.k.k.j.k.j.k.k.k.k.k.k.k.k.k.k.j.j.j.j.k.k.k.k.0.S.xXuXiXiXuXuXuXuXuXuXuXiXiXiXiXiXiXiXiXuXuXuXuXuXuXiXiXiXuXpXpXk.k.k.k.k.k.j.k.j.k.k.k.k.k.k.k.k.k.k.j.j.j.j.k.k.k.k.0.M.xXiXuXiXuXuXuXuXuXuXuXiXiXiXiXiXiXiXiXuXuXuXuXuXuXiXiXiXuXiXhXk.j.k.k.k.k.j.k.j.k.k.k.k.k.k.k.k.k.k.j.k.j.j.k.k.k.k.j.M.xXiXuXuXuXuXiXuXuXiXuXiXiXiXiXiXiXiXiXuXuXuXuXuXuXiXiXiXuXiXxXv.j.k.k.k.k.j.k.j.k.k.k.k.k.k.k.k.k.k.j.k.j.j.k.k.k.",
"iXiXiXiXiXiXiXiXiXiXiXiXiXiXiXiXiXiXxXiXuXiXiXiXiXiXiXiXiXiXiXiXiXiXiXiXiXiXiXiXiXiXiXiXiXiXiXuXhXiXj.k.k.k.k.k.k.k.k.k.k.k.k.k.k.k.k.k.k.k.k.k.k.k.k.k.k.0.S.xXuXiXiXiXiXiXiXiXiXiXiXiXiXiXiXiXiXiXiXiXuXiXiXiXiXiXiXuXpXpXk.k.k.k.k.k.k.k.k.k.k.k.k.k.k.k.k.k.k.k.k.k.k.k.k.k.k.0.M.xXiXuXiXiXiXiXiXiXiXiXiXiXiXiXiXiXiXiXiXiXiXiXiXiXiXiXiXuXiXhXk.j.k.k.k.k.k.k.k.k.k.k.k.k.k.k.k.k.k.k.k.k.k.k.k.k.k.j.M.xXiXuXiXiXiXiXiXiXiXiXiXiXiXiXiXiXiXiXiXiXiXiXiXiXiXiXiXuXiXxXv.j.k.k.k.k.k.k.k.k.k.k.k.k.k.k.k.k.k.k.k.k.k.k.k.k.",
"iXiXiXiXuXiXiXiXiXiXuXiXiXiXiXiXiXiXxXiXuXiXiXiXuXuXiXuXuXiXiXiXiXiXiXiXiXiXiXeXuXiXeXuXiXiXiXuXhXiXj.k.k.k.j.k.k.j.j.k.k.k.k.k.k.k.k.k.j.j.k.k.j.k.k.k.k.0.S.xXuXiXiXiXuXuXiXuXuXiXiXiXiXiXiXiXiXiXuXeXiXuXeXuXiXiXiXuXpXpXk.k.k.k.j.k.k.j.j.k.k.k.k.k.k.k.k.k.k.j.k.k.j.k.k.k.k.0.M.xXiXuXiXiXuXuXiXuXuXiXiXiXiXiXiXiXiXiXuXuXiXuXuXuXiXiXiXuXiXhXk.j.k.k.j.j.k.j.j.k.k.k.k.k.k.k.k.k.k.j.k.k.j.k.k.k.k.j.M.xXiXuXiXiXuXuXiXuXuXiXiXiXiXiXiXiXiXiXuXuXiXiXuXuXiXiXiXuXiXxXv.j.k.k.j.j.k.j.j.k.k.k.k.k.k.k.k.k.k.j.k.k.j.k.k.k.",
"iXiXiXiXiXuXuXuXuXuXiXuXuXiXiXiXiXiXxXiXuXiXiXuXiXlXuXiXlXuXiXiXiXiXiXiXiXuXuXlXpXiXlXpXeXiXiXuXhXiXj.k.k.k.M.k.k.M.k.j.k.k.k.k.k.k.k.j.k.z.k.k.M.k.k.k.k.0.S.xXuXiXuXiXlXiXiXlXiXuXiXiXiXiXiXiXiXeXpXCXiXpXCXiXuXiXiXuXpXpXk.k.k.k.M.z.k.M.z.j.k.k.k.k.k.k.k.j.k.v.k.k.v.k.k.k.k.0.M.xXiXiXiXuXlXiXiXlXiXuXiXiXiXiXiXiXiXuXiXjXiXiXjXiXuXiXiXuXiXhXk.j.k.k.M.z.k.M.z.j.k.k.k.k.k.k.k.j.k.v.k.k.M.k.k.k.k.j.M.xXiXuXiXuXlXiXuXlXiXuXiXiXiXiXiXiXiXuXiXgXiXiXgXiXuXiXiXuXiXxXv.j.k.j.M.z.k.M.z.j.k.k.k.k.k.k.k.j.k.v.k.k.M.k.j.k.",
"iXiXeXeXeXpXpXiXpXpXuXpXiXiXiXiXiXiXxXiXuXiXuXlX:X! ! ! ,XiXiXiXiXiXiXiXuXiXpXH.s s a W.lXeXiXuXhXiXj.k.k.k.2 , , 2 *.z.j.k.k.k.k.k.j.z.*.1 > > c k.k.k.k.0.S.xXuXuXiXiX,X! ! ! 9XiXuXiXiXiXiXiXeXhX`.l f f M iXiXuXiXuXpXpXk.k.k.k.e , , , =.z.j.k.k.k.k.k.j.z.5.2 < < h k.k.k.k.0.M.xXiXuXiXiX,X! ! ! :XlXuXiXiXiXiXiXuXgX0X| ( (  .uXiXuXiXuXiXhXk.j.k.z.T , , , #.z.j.k.k.k.k.k.j.k.9.F < < F j.k.k.k.j.M.xXiXuXiXiX,X! ! ! :XlXuXiXiXiXiXiXuXiXyX=X%X%X=XyXiXuXiXuXiXxXv.j.k.z.O., , , @.M.j.k.k.k.k.k.j.k.9.r 2 2 e 9.k.j.",
"uXpXB.$.:._._.6X).6Xq.V.iXuXiXiXiXiXxXiXuXuXlX:X! :XhXsX! ,XlXuXiXiXiXiXuXpXa a dXfX!.u W.lXuXuXhXiXj.k.k., 2 =.=.2 : *.z.j.k.k.k.j.z.#.> c *.#.> 1 z.k.k.0.S.xXuXiXiX! ! BXgX,X! :XiXuXiXiXiXeXpX[.f y.rX`.l f pXuXiXuXpXpXk.k.z.2 , #.=.e : #.z.j.k.k.k.j.k.*.3 h =.&.2 < k.k.k.0.M.xXiXuXiX! ! nXgX:X! :XlXuXiXiXiXuXgX0X( <XtXtX .( iXiXuXuXiXhXk.j.z.2 , @.=.O.: +.z.j.k.k.k.k.k.9.< _ =.=.2 < j.k.k.j.M.xXiXuXlX,X! sXhX:X! :XlXuXiXiXiXuXiXyXQ *XaXaX=XQ yXiXuXuXiXxXv.j.M.2 , @.=.O.: O.M.j.k.k.k.k.k.9.2 e *.*.e , 9.k.",
"uXiX6Xq.7.$.:.7.z $.$.$._.pXuXiXiXiXxXiXuXiXuX! nXHXxXcXcX! :XlXuXiXiXeXlX!.s UXHXxXUXQ.s aXuXuXhXiX0.M.e , M.j.k.M.e , z.j.k.k.k.k.k.> +.z.j.k.z.> +.z.k.0.S.xXuXlX,X! HXcXDXPX:X! lXuXiXiXiXuXhXf y.IXSXFXLXf y.CXeXuXpXpXj.M.O., v.k.k.M.O., k.k.k.k.k.j.v.< O.v.j.k.v.< O.v.j.0.M.xXuXlX:X! HXcXDXUX:X! iXiXiXiXiXuXjX' <XKXcXDXKX|  .jXuXuXiXhXk.z.+., k.k.k.M.+., k.k.k.k.k.j.v.2 _ m.j.k.c.2 _ v.j.j.M.xXiXiX:X! cXcXxXvXnX! uXiXiXiXiXuXcX X*XPXcXcXvX=X=XgXuXuXiXxXz.k.#.3 j.k.j.M.#.3 9.k.k.k.k.j.v.e e v.j.j.v.e e v.",
"uXiX8XV.E.m.B.E.8.m.7./.q.eXiXuXiXiXxXiXuXlX:X! cXhXSXFXHX,X,XlXuXiXiXeXlXa !.HXhXDXDXHXs W.pXeXhXiX0.M., +.k.j.+.$ v : *.k.k.k.k.k.*.> j.9.9.9.M.c 1 M.j.0.S.xXuXlX! :XcXSXeXV.iX! 9XiXuXiXuXpX`.f xXxXxXpXIXV.l CXeXuXpXpXj.M.2 O.k.j.@.$ c : #.z.j.k.k.k.9.< 9.9.9.9.v.-.2 v.k.0.M.xXuXlX! :XcXSXqX> B.E ;XlXuXiXuXiX0X( lXxXxXpXKX2X' gXuXuXiXhXk.M.2 e k.j.*.$ c 3 +.v.j.k.k.k.j.< =.0.9.9.z.=.< z.k.j.M.xXiXlX,X,XHXhXDXFXcX! :XlXuXiXiXiXuX%XaXxXxXpXFXnX%XiXuXuXiXxXz.M.2 2 z.9.*.$ z , O.M.j.k.k.k.k.2 *.j.9.9.k.*.2 k.",
"iXiXiXiXpXxXiXiXiXeXiXiX6XeXiXiXiXiXxXiXuXlX:X! cXDX_.7.FX,X,XlXuXiXiXeXlXa !.HXFXq.V.UXs W.pXeXhXiX0.M., +.k.j.*.+.9.: *.k.k.k.k.k.*.> j.9.j.> 1 +.1 M.j.0.S.xXuXlX! :XcXDX6Xe /.! 9XiXuXiXuXpX`.f SXxXDXn 8.[.f CXeXuXpXpXj.M.2 O.k.j.*.+.0.: #.z.j.k.k.k.9.< 9.9.k.> 1 &.< v.k.0.M.xXuXlX! :XvXxXiX(.cXE ;XlXuXiXuXiX0X( lXxXFXb b 2X( gXuXuXiXhXk.M.2 e z.j.,.+.k.: +.M.j.k.k.k.j.< 9.9.k.> > =.< k.k.j.M.xXiXlX,X,XvXFXm.8.UX! :XlXuXiXiXiXuX%XaXxXFX7.x BX%XiXiXuXiXxXz.M.2 2 z.9.9.+.k.: c M.j.k.k.k.k.2 *.j.k.1 > ,.2 k.",
"iXiXuXiX).c.wXiXiXiXiXiXiXiXiXiXiXiXxXiXuXiXuX! sXHXiXz rX! :XlXuXiXiXeXlX!.s HXFXU.b {.s iXiXeXhXiX0.M.e , z.9.j.M.2 : M.j.k.k.k.k.k.> +.k.j.*.+.> +.z.k.0.S.xXuXlX,X! vXxXSXIX-XE pXuXiXiXiXuXpXf y.GXxXwX).j b CXeXuXpXpXj.M.O., k.9.j.M.O.: z.k.k.k.k.j.z.< O.k.j.*.v < h v.j.0.M.xXuXlX:X! cXxXxXLX:XE iXiXuXiXiXuXgX' <XKXxXuX`.' ] jXuXuXiXhXk.z.+., k.9.9.M.+.: j.k.k.k.k.j.v.2 _ k.9.*.v 2 F M.j.j.M.xXiXiX:X! xXDX6Xn yX! uXiXuXiXiXuXxX X*XvXxXiX[. X XcXuXuXiXxXz.k.#.3 9.9.9.z.=.* 9.k.k.k.k.j.v.e e k.9.9.v 2 2 M.",
"iXiXuXiX8X$.q.q.:.q.$.N.pXuXiXiXiXiXxXiXuXuXlX:X! hXSXcX,X! lXuXiXiXiXiXuXlXa H.HXDXiXu W.lXuXuXhXiXj.k.k., e k.j.@.* #.z.j.k.k.k.j.z.#.> <.9.z.1 3 z.k.k.0.S.xXuXiXiX! ,XcXxX9XE ;XlXuXiXiXiXeXhX~.f qXxXJX7.> pXiXuXuXpXpXk.k.z., 2 k.j.*.* +.v.j.k.k.k.j.z.=.3 =.j.z.h : k.k.k.0.M.xXiXuXlX! ,XcXxXiXE T.lXuXiXiXiXuXgX1X( 2XcXKXA.S eXiXuXuXiXhXk.j.v., 2 k.9.9.: O.M.j.k.k.k.k.k.5.< &.j.z.O.: 0.k.k.j.M.xXiXuXlX! ,XcXDXxX! :XlXuXiXiXiXuXiXyXI bXcXFX$XY wXiXuXuXiXxXv.0.M.2 , k.9.9.: 1 M.j.k.k.k.k.k.9., @.j.k.@.: 9.k.",
"iXiXeXhXq.w.8.$.q.7.z B.pXuXiXiXiXiXxXiXuXiXuXiXsXyXiXiX;XuXiXiXiXiXiXiXuXiXeXW.iXiX9XE.pXuXiXuXhXiXj.k.k.9.*.k.k.<.*.z.j.k.k.k.k.k.j.z.,.9.k.k.#.0.k.k.k.0.S.xXuXuXiXuX9XiXiX9X7XlXuXiXiXiXiXiXeXhX`.qXiXiX~.wXpXuXiXuXpXpXk.j.k.j.=.k.k.9.=.v.j.k.k.k.k.k.j.z.*.9.k.k.=.9.k.j.k.0.M.xXiXuXiXuXsXiXiXwX;XlXuXiXiXiXiXiXuXgX0X0XiXiX1X0XgXuXiXuXiXhXk.j.k.j.=.k.k.9.#.z.j.k.k.k.k.k.j.k.5.9.k.k.=.9.z.j.k.j.M.xXiXuXiXiX:XiXiXwX;XiXuXiXiXiXiXiXuXiXsXsXiXiX;X7XgXuXiXuXiXxXv.j.k.k.=.k.k.0.@.z.j.k.k.k.k.k.j.k.9.<.k.k.*.<.z.j.",
"iXiXuXiX_.(.6X6XwXwX6XwXiXuXiXiXiXiXxXiXuXiXiXuXiXiXuXeXiXuXuXiXiXiXiXiXiXuXiXaXuXuXiXpXeXiXiXuXhXiXj.k.k.k.k.k.k.k.k.j.k.k.k.k.k.k.k.j.k.k.k.j.z.k.k.k.k.0.S.xXuXiXuXiXiXuXuXiXiXeXuXiXiXiXiXiXiXeXpXiXuXeXpXiXuXiXiXuXpXpXk.k.k.k.k.k.k.k.z.j.k.k.k.k.k.k.k.j.k.k.k.j.z.k.j.k.k.0.M.xXiXiXiXuXiXuXuXiXiXuXuXiXiXiXiXiXiXuXgXiXuXuXgXiXuXiXiXuXiXhXk.j.k.k.k.k.k.k.z.j.k.k.k.k.k.k.k.j.k.k.k.j.k.k.j.k.k.j.M.xXiXuXiXiXiXuXuXiXpXuXiXiXiXiXiXiXiXuXiXiXuXuXiXiXuXiXiXuXiXxXv.j.k.k.k.k.k.k.z.j.k.k.k.k.k.k.k.j.k.k.k.j.k.k.j.k.",
"iXiXuXiXuXwXeXpXiXpXwXwXeXiXiXiXiXiXxXiXuXiXiXuXiXiXiXpXiXiXuXiXiXiXiXiXiXiXuXiXiXiXpXiXiXuXiXuXhXiXj.k.k.k.k.k.k.k.k.k.k.k.k.k.k.k.k.k.k.k.k.z.k.k.k.k.k.0.S.xXuXiXuXiXiXiXiXiXiXpXpXuXiXiXiXiXiXiXuXiXuXpXiXiXuXiXiXuXpXpXk.k.k.k.k.k.k.k.k.k.k.k.k.k.k.k.k.k.k.k.k.k.k.k.k.k.k.0.M.xXiXiXuXiXiXiXiXiXiXiXiXuXiXiXiXiXiXiXuXiXuXpXiXpXiXiXiXuXiXhXk.j.k.k.k.k.k.k.k.k.k.k.k.k.k.k.k.k.k.k.k.k.k.k.k.k.k.j.M.xXiXuXiXuXiXiXiXpXiXiXuXiXiXiXiXiXiXiXuXiXuXpXiXiXiXiXiXuXiXxXv.j.k.k.k.k.k.k.k.k.k.k.k.k.k.k.k.k.k.k.k.k.k.k.k.k.",
"uXpXB.N.,.$.$.wXiXc.$.$.:./.pXuXiXiXxXiXuXiXuXiXqXwXwX/.6X6XiXuXiXiXiXiXiXuXiX8XwXqX/.qX8XiXiXuXhXiXj.k.k.*.9.0.9.9.w.,.9.k.k.k.k.k.k.k.j.,.k.*.9.*.k.k.k.0.S.xXuXuXiXqXwXqXwX8X6X(._.iXuXiXiXiXiXiXuX6XiX_.qX_.iXuXiXuXpXpXk.k.k.*.w.j.9.9.,.w.9.k.k.k.k.k.k.k.k.,.k.*.9.*.k.k.k.0.M.xXiXuXiX6X6XeXwXwX6X6X8XiXuXiXiXiXiXiXiX6XiX_.qX_.iXiXiXuXiXhXk.j.k.w.,.j.9.0.*.w.w.k.k.k.k.k.k.k.k.,.k.*.9.*.k.k.k.j.M.xXiXuXuXiX6X8XeX).6X6XiXuXiXiXiXiXiXiXiX6XiX6XqX_.uXiXiXuXiXxXv.j.k.9.*.k.9.j.*.9.w.k.k.k.k.k.k.k.k.,.k.,.9.*.j.k.",
"uXpXq.$.$.$.v wX).$.$.v $.m.pXeXiXiXxXiXuXiXuXpXm.c.xXw.v w.qXiXuXiXiXiXiXeXpXq.N.pX,.v c.pXuXuXhXiXj.k.k.#.c e @.+.1 1 v z.j.k.k.k.j.z.c c 9.1 1 e ,.k.k.0.S.xXuXuXpXm.8.$.6X_.$.m.w.hXeXiXiXiXuXpXq.8.qX,.$.,.6XpXuXuXpXpXk.k.k.*.c e +.@.1 1 c k.j.k.k.k.j.z.c e 9.e 1 1 *.z.k.0.M.xXiXuXuX_.8.w.V.E.$.$.q.iXuXiXiXiXuXpXm.,.wX7.$.:.).pXuXuXiXhXk.j.k.*.z z c #.1 1 c k.k.k.k.k.j.z.+.1 9.e 1 1 #.z.k.j.M.xXiXuXuXiXB.,.pX8.q.:.eXiXiXiXiXiXuXpXN.$.wXw.$.$./.pXuXuXiXxXv.j.k.w.z c c *.1 1 c j.k.k.k.k.j.z.+.1 0.z 1 1 @.z.",
"uXpXN.q.m.m.q.V.eXq.V.q.q.B.pXuXiXiXxXiXuXiXuX/.(.q.eXq.q.7.6XiXuXiXiXiXiXwX/.E.m.wXq.:.$.wXiXeXhXiXj.j.@.v z > z c 1 1 c k.j.k.k.k.k.#.1 1 c z > e *.z.k.0.S.xXuXeXE.).w.$.q._.$.q.(.pXuXiXiXuXiX/.:.$.m.8.v w.(.pXuXuXpXpXk.j.#.+.z > e v 1 1 c k.k.k.k.k.k.#.1 1 c c > e #.z.k.0.M.xXiXiX/.N.w.c :.V.$.$.q.uXuXiXiXuXiX).,.$.m.q.v 7.E.pXuXuXiXhXk.k.#.+.z > 1 v 1 1 c j.k.k.k.k.k.*.e 1 c c > e @.z.j.j.M.xXiXiXeXE.E.$._.w./.$.wXiXuXiXiXuXiX_.w.$.m.q.v ,.B.hXeXuXiXxXv.k.#.+.z > 1 +.1 > c 9.k.k.k.k.k.*.z 1 c c > 1 +.z.",
"iXiXeXeXhXpXpXwXiXpXpXpXeXeXiXiXiXiXxXiXuXiXuXpXwX).(.6X6XN.iXuXiXiXiXiXiXuXpXqX).(.6X_.B.iXuXuXhXiXj.k.z.c @.w.@.#.@.+.*.k.k.k.k.k.k.z.,.+.*.+.#.+.k.k.k.0.S.xXuXuXpXqX6XE.E.S.U.(.eXiXiXiXiXiXuXpX6XN.).N.(.N.uXiXiXuXpXpXk.j.z.v +.9.@.#.@.@.#.k.k.k.k.k.k.z.w.+.*.+.#.+.j.k.k.0.M.xXiXuXhXN.N.8XS./.B.S./.pXuXiXiXiXuXpX8XN.).B./.N.eXiXiXuXiXhXk.j.z.+.v 9.@.#.+.@.#.k.k.k.k.k.k.k.9.+.*.+.#.+.0.k.k.j.M.xXiXuXuXpXE.S.B.q.B.S.iXiXiXiXiXiXuXiXwXN.).B./.N.wXiXuXuXiXxXv.0.z.@.c 9.@.#.+.@.@.k.k.k.k.k.k.k.9.+.*.+.#.+.9.k.",
"iXuXiXiXeXuXuXiXuXuXuXeXiXiXuXiXiXiXxXiXuXiXiXuXiXpXpXiXiXhXiXiXiXiXiXiXiXiXuXiXpXpXiXiXpXiXiXuXhXiXj.k.k.v.z.z.z.z.z.z.z.k.k.k.k.k.k.k.k.z.z.z.z.z.k.k.k.j.S.xXuXiXuXiXiXpXpXpXpXpXiXiXiXiXiXiXiXuXiXhXpXhXpXhXiXiXiXuXpXpXk.k.k.v.z.k.z.z.z.z.z.k.k.k.k.k.k.k.k.z.z.z.z.z.k.k.k.j.M.xXiXiXuXhXpXiXpXpXpXpXpXuXiXiXiXiXiXuXiXhXpXhXpXhXiXiXiXuXiXhXz.k.k.z.z.k.z.z.z.z.z.k.k.k.k.k.k.k.k.z.z.z.z.v.k.k.k.j.M.xXiXuXiXuXpXpXpXhXpXpXiXiXiXiXiXiXiXuXiXhXpXpXpXhXiXiXiXuXiXxXM.k.k.z.v.k.z.z.z.z.z.k.k.k.k.k.k.k.k.z.z.z.z.z.k.k.",
"iXiXuXuXiXiXiXuXiXiXiXiXuXuXiXiXiXiXxXiXeXuXuXuXuXeXeXeXeXeXuXuXuXuXuXuXuXuXuXuXeXeXeXeXeXuXuXeXpXuX9.9.9.9.9.9.9.9.9.9.9.9.9.9.9.9.9.9.9.9.9.9.9.9.9.9.9.9.M.xXeXuXuXuXeXeXeXeXeXeXuXuXuXuXuXuXuXuXeXeXeXeXeXeXuXuXuXeXpXiX9.9.9.9.9.9.9.9.9.9.9.9.9.9.9.9.9.9.9.9.9.9.9.9.9.9.9.9.M.xXuXuXuXeXeXeXeXeXeXeXeXuXuXuXuXuXuXuXeXeXeXeXeXeXuXuXuXeXiXpXj.9.9.9.9.9.9.9.9.9.9.9.9.9.9.9.9.9.9.9.9.9.9.9.9.9.9.9.z.xXiXuXuXuXeXeXeXeXeXeXuXuXuXuXuXuXuXuXeXeXeXeXeXeXuXuXuXeXiXxXk.9.9.9.9.9.9.9.9.9.9.9.9.9.9.9.9.9.9.9.9.9.9.9.9.9.",
"iXiXiXiXiXiXiXiXiXiXiXiXiXiXiXiXiXiXxXxXhXhXhXhXhXhXhXhXhXhXhXhXhXhXhXhXhXhXhXhXhXhXhXhXhXhXhXhXxXhX6X6X6X6X6X6X6X6X6X6X6X6X6X6X6X6X6X6X6X6X6X6X6X6X6X6X6X6XwXxXhXhXhXhXhXhXhXhXhXhXhXhXhXhXhXhXhXhXhXhXhXhXhXhXhXhXhXhXxXxX6X6X6X6X6X6X6X6X6X6X6X6X6X6X6X6X6X6X6X6X6X6X6X6X6X6X6X6XwXxXxXhXhXhXhXhXhXhXhXhXhXhXhXhXhXhXhXhXhXhXhXhXhXhXhXhXhXhXxXxX8X6X6X6X6X6X6X6X6X6X6X6X6X6X6X6X6X6X6X6X6X6X6X6X6X6X6X6XqXxXxXhXhXhXhXhXhXhXhXhXhXhXhXhXhXhXhXhXhXhXhXhXhXhXhXhXhXhXxXxXqX6X6X6X6X6X6X6X6X6X6X6X6X6X6X6X6X6X6X6X6X6X6X6X6X6X",
"iXiXiXiXiXiXiXiXiXiXiXiXiXiXiXiXiXiXxXxXpXhXhXhXhXhXhXhXhXhXhXhXhXhXhXhXhXhXhXhXhXhXhXhXhXhXhXhXpXhXxXxXxXxXxXxXxXxXxXxXxXxXxXxXxXxXxXxXxXxXxXxXxXxXxXxXxXxXxXpXhXhXhXhXhXhXhXhXhXhXhXhXhXhXhXhXhXhXhXhXhXhXhXhXhXhXhXhXpXhXxXxXxXxXxXxXxXxXxXxXxXxXxXxXxXxXxXxXxXxXxXxXxXxXxXxXxXxXxXpXhXhXhXhXhXhXhXhXhXhXhXhXhXhXhXhXhXhXhXhXhXhXhXhXhXhXhXhXhXpXxXxXxXxXxXxXxXxXxXxXxXxXxXxXxXxXxXxXxXxXxXxXxXxXxXxXxXxXxXpXhXhXhXhXhXhXhXhXhXhXhXhXhXhXhXhXhXhXhXhXhXhXhXhXhXhXhXhXhXpXxXxXxXxXxXxXxXxXxXxXxXxXxXxXxXxXxXxXxXxXxXxXxXxXxXxX",
"iXiXiXiXiXiXiXiXiXiXiXiXiXiXiXiXiXiXxXiXeXuXuXuXuXuXuXuXuXuXuXuXuXuXuXuXuXuXuXuXuXuXuXuXuXuXuXuXuXuXeXeXeXeXeXeXeXeXeXeXeXeXeXeXeXeXeXeXeXeXeXeXeXeXeXeXeXeXeXuXuXuXuXuXuXuXuXuXuXuXuXuXuXuXuXuXuXuXuXuXuXuXuXuXuXuXuXuXuXuXeXeXeXeXeXeXeXeXeXeXeXeXeXeXeXeXeXeXeXeXeXeXeXeXeXeXeXeXeXuXuXuXuXuXuXuXuXuXuXuXuXuXuXuXuXuXuXuXuXuXuXuXuXuXuXuXuXuXuXuXeXeXeXeXeXeXeXeXeXeXeXeXeXeXeXeXeXeXeXeXeXeXeXeXeXeXeXeXeXuXuXuXuXuXuXuXuXuXuXuXuXuXuXuXuXuXuXuXuXuXuXuXuXuXuXuXuXuXuXuXeXeXeXeXeXeXeXeXeXeXeXeXeXeXeXeXeXeXeXeXeXeXeXeXeXeX",
"iXiXiXiXiXiXiXiXiXiXiXiXiXiXiXiXiXiXxXiXuXiXiXiXiXiXiXiXiXiXiXiXiXiXiXiXiXiXiXiXiXiXiXiXiXiXiXiXiXiXiXiXiXiXiXiXiXiXiXiXiXiXiXiXiXiXiXiXiXiXiXiXiXiXiXiXiXiXiXiXiXiXiXiXiXiXiXiXiXiXiXiXiXiXiXiXiXiXiXiXiXiXiXiXiXiXiXiXiXiXiXiXiXiXiXiXiXiXiXiXiXiXiXiXiXiXiXiXiXiXiXiXiXiXiXiXiXiXiXiXiXiXiXiXiXiXiXiXiXiXiXiXiXiXiXiXiXiXiXiXiXiXiXiXiXiXiXiXiXiXiXiXiXiXiXiXiXiXiXiXiXiXiXiXiXiXiXiXiXiXiXiXiXiXiXiXiXiXiXiXiXiXiXiXiXiXiXiXiXiXiXiXiXiXiXiXiXiXiXiXiXiXiXiXiXiXiXiXiXiXiXiXiXiXiXiXiXiXiXiXiXiXiXiXiXiXiXiXiXiXiXiXiXiXiXiX",
"iXiXiXiXiXiXiXiXiXiXiXiXiXiXiXiXiXiXxXiXuXiXiXiXiXiXiXiXiXiXiXiXiXiXiXiXiXiXiXiXiXiXiXiXiXiXiXiXiXiXiXiXiXiXiXiXiXiXiXiXiXiXiXiXiXiXiXiXiXiXiXiXiXiXiXiXiXiXiXiXiXiXiXiXiXiXiXiXiXiXiXiXiXiXiXiXiXiXiXiXiXiXiXiXiXiXiXiXiXiXiXiXiXiXiXiXiXiXiXiXiXiXiXiXiXiXiXiXiXiXiXiXiXiXiXiXiXiXiXiXiXiXiXiXiXiXiXiXiXiXiXiXiXiXiXiXiXiXiXiXiXiXiXiXiXiXiXiXiXiXiXiXiXiXiXiXiXiXiXiXiXiXiXiXiXiXiXiXiXiXiXiXiXiXiXiXiXiXiXiXiXiXiXiXiXiXiXiXiXiXiXiXiXiXiXiXiXiXiXiXiXiXiXiXiXiXiXiXiXiXiXiXiXiXiXiXiXiXiXiXiXiXiXiXiXiXiXiXiXiXiXiXiXiXiXiX",
"iXiXiXiXiXiXiXiXiXiXiXiXiXiXiXiXiXiXxXiXuXiXiXiXiXiXiXiXiXiXiXiXiXiXiXiXiXiXiXiXiXiXiXiXiXiXiXiXiXiXiXiXiXiXiXiXiXiXiXiXiXiXiXiXiXiXiXiXiXiXiXiXiXiXiXiXiXiXiXiXiXiXiXiXiXiXiXiXiXiXiXiXiXiXiXiXiXiXiXiXiXiXiXiXiXiXiXiXiXiXiXiXiXiXiXiXiXiXiXiXiXiXiXiXiXiXiXiXiXiXiXiXiXiXiXiXiXiXiXiXiXiXiXiXiXiXiXiXiXiXiXiXiXiXiXiXiXiXiXiXiXiXiXiXiXiXiXiXiXiXiXiXiXiXiXiXiXiXiXiXiXiXiXiXiXiXiXiXiXiXiXiXiXiXiXiXiXiXiXiXiXiXiXiXiXiXiXiXiXiXiXiXiXiXiXiXiXiXiXiXiXiXiXiXiXiXiXiXiXiXiXiXiXiXiXiXiXiXiXiXiXiXiXiXiXiXiXiXiXiXiXiXiXiXiXiX",
"iXiXiXiXiXiXiXiXiXiXiXiXiXiXiXiXiXiXxXiXuXiXiXiXiXiXiXiXiXiXiXiXiXiXiXiXiXiXiXiXiXiXiXiXiXiXiXiXiXiXiXiXiXiXiXiXiXiXiXiXiXiXiXiXiXiXiXiXiXiXiXiXiXiXiXiXiXiXiXiXiXiXiXiXiXiXiXiXiXiXiXiXiXiXiXiXiXiXiXiXiXiXiXiXiXiXiXiXiXiXiXiXiXiXiXiXiXiXiXiXiXiXiXiXiXiXiXiXiXiXiXiXiXiXiXiXiXiXiXiXiXiXiXiXiXiXiXiXiXiXiXiXiXiXiXiXiXiXiXiXiXiXiXiXiXiXiXiXiXiXiXiXiXiXiXiXiXiXiXiXiXiXiXiXiXiXiXiXiXiXiXiXiXiXiXiXiXiXiXiXiXiXiXiXiXiXiXiXiXiXiXiXiXiXiXiXiXiXiXiXiXiXiXiXiXiXiXiXiXiXiXiXiXiXiXiXiXiXiXiXiXiXiXiXiXiXiXiXiXiXiXiXiXiXiXiX",
"iXiXiXiXiXiXiXiXiXiXiXiXiXiXiXiXiXiXxXiXuXiXiXiXiXiXiXiXiXiXiXiXiXiXiXiXiXiXiXiXiXiXiXiXiXiXiXiXiXiXiXiXiXiXiXiXiXiXiXiXiXiXiXiXiXiXiXiXiXiXiXiXiXiXiXiXiXiXiXiXiXiXiXiXiXiXiXiXiXiXiXiXiXiXiXiXiXiXiXiXiXiXiXiXiXiXiXiXiXiXiXiXiXiXiXiXiXiXiXiXiXiXiXiXiXiXiXiXiXiXiXiXiXiXiXiXiXiXiXiXiXiXiXiXiXiXiXiXiXiXiXiXiXiXiXiXiXiXiXiXiXiXiXiXiXiXiXiXiXiXiXiXiXiXiXiXiXiXiXiXiXiXiXiXiXiXiXiXiXiXiXiXiXiXiXiXiXiXiXiXiXiXiXiXiXiXiXiXiXiXiXiXiXiXiXiXiXiXiXiXiXiXiXiXiXiXiXiXiXiXiXiXiXiXiXiXiXiXiXiXiXiXiXiXiXiXiXiXiXiXiXiXiXiXiXiX",
"iXiXiXiXiXiXiXiXiXiXiXiXiXiXiXiXiXiXxXiXuXiXiXiXiXiXiXiXiXiXiXiXiXiXiXiXiXiXiXiXiXiXiXiXiXiXiXiXiXiXiXiXiXiXiXiXiXiXiXiXiXiXiXiXiXiXiXiXiXiXiXiXiXiXiXiXiXiXiXiXiXiXiXiXiXiXiXiXiXiXiXiXiXiXiXiXiXiXiXiXiXiXiXiXiXiXiXiXiXiXiXiXiXiXiXiXiXiXiXiXiXiXiXiXiXiXiXiXiXiXiXiXiXiXiXiXiXiXiXiXiXiXiXiXiXiXiXiXiXiXiXiXiXiXiXiXiXiXiXiXiXiXiXiXiXiXiXiXiXiXiXiXiXiXiXiXiXiXiXiXiXiXiXiXiXiXiXiXiXiXiXiXiXiXiXiXiXiXiXiXiXiXiXiXiXiXiXiXiXiXiXiXiXiXiXiXiXiXiXiXiXiXiXiXiXiXiXiXiXiXiXiXiXiXiXiXiXiXiXiXiXiXiXiXiXiXiXiXiXiXiXiXiXiXiXiX",
"iXiXiXiXiXiXiXiXiXiXiXiXiXiXiXiXiXiXxXiXuXiXiXiXiXiXiXiXiXiXiXiXiXiXiXiXiXiXiXiXiXiXiXiXiXiXiXiXiXiXiXiXiXiXiXiXiXiXiXiXiXiXiXiXiXiXiXiXiXiXiXiXiXiXiXiXiXiXiXiXiXiXiXiXiXiXiXiXiXiXiXiXiXiXiXiXiXiXiXiXiXiXiXiXiXiXiXiXiXiXiXiXiXiXiXiXiXiXiXiXiXiXiXiXiXiXiXiXiXiXiXiXiXiXiXiXiXiXiXiXiXiXiXiXiXiXiXiXiXiXiXiXiXiXiXiXiXiXiXiXiXiXiXiXiXiXiXiXiXiXiXiXiXiXiXiXiXiXiXiXiXiXiXiXiXiXiXiXiXiXiXiXiXiXiXiXiXiXiXiXiXiXiXiXiXiXiXiXiXiXiXiXiXiXiXiXiXiXiXiXiXiXiXiXiXiXiXiXiXiXiXiXiXiXiXiXiXiXiXiXiXiXiXiXiXiXiXiXiXiXiXiXiXiXiXiX",
"iXiXiXiXiXiXiXiXiXiXiXiXiXiXiXiXiXiXxXiXuXiXiXiXiXiXiXiXiXiXiXiXiXiXiXiXiXiXiXiXiXiXiXiXiXiXiXiXiXiXiXiXiXiXiXiXiXiXiXiXiXiXiXiXiXiXiXiXiXiXiXiXiXiXiXiXiXiXiXiXiXiXiXiXiXiXiXiXiXiXiXiXiXiXiXiXiXiXiXiXiXiXiXiXiXiXiXiXiXiXiXiXiXiXiXiXiXiXiXiXiXiXiXiXiXiXiXiXiXiXiXiXiXiXiXiXiXiXiXiXiXiXiXiXiXiXiXiXiXiXiXiXiXiXiXiXiXiXiXiXiXiXiXiXiXiXiXiXiXiXiXiXiXiXiXiXiXiXiXiXiXiXiXiXiXiXiXiXiXiXiXiXiXiXiXiXiXiXiXiXiXiXiXiXiXiXiXiXiXiXiXiXiXiXiXiXiXiXiXiXiXiXiXiXiXiXiXiXiXiXiXiXiXiXiXiXiXiXiXiXiXiXiXiXiXiXiXiXiXiXiXiXiXiXiXiX",
"iXiXiXiXiXiXiXiXiXiXiXiXiXiXiXiXiXiXxXiXuXiXiXiXiXiXiXiXiXiXiXiXiXiXiXiXiXiXiXiXiXiXiXiXiXiXiXiXiXiXiXiXiXiXiXiXiXiXiXiXiXiXiXiXiXiXiXiXiXiXiXiXiXiXiXiXiXiXiXiXiXiXiXiXiXiXiXiXiXiXiXiXiXiXiXiXiXiXiXiXiXiXiXiXiXiXiXiXiXiXiXiXiXiXiXiXiXiXiXiXiXiXiXiXiXiXiXiXiXiXiXiXiXiXiXiXiXiXiXiXiXiXiXiXiXiXiXiXiXiXiXiXiXiXiXiXiXiXiXiXiXiXiXiXiXiXiXiXiXiXiXiXiXiXiXiXiXiXiXiXiXiXiXiXiXiXiXiXiXiXiXiXiXiXiXiXiXiXiXiXiXiXiXiXiXiXiXiXiXiXiXiXiXiXiXiXiXiXiXiXiXiXiXiXiXiXiXiXiXiXiXiXiXiXiXiXiXiXiXiXiXiXiXiXiXiXiXiXiXiXiXiXiXiXiXiX",
"iXiXiXiXiXiXiXiXiXiXiXiXiXiXiXiXiXiXxXiXuXiXiXiXiXiXiXiXiXiXiXiXiXiXiXiXiXiXiXiXiXiXiXiXiXiXiXiXiXiXiXiXiXiXiXiXiXiXiXiXiXiXiXiXiXiXiXiXiXiXiXiXiXiXiXiXiXiXiXiXiXiXiXiXiXiXiXiXiXiXiXiXiXiXiXiXiXiXiXiXiXiXiXiXiXiXiXiXiXiXiXiXiXiXiXiXiXiXiXiXiXiXiXiXiXiXiXiXiXiXiXiXiXiXiXiXiXiXiXiXiXiXiXiXiXiXiXiXiXiXiXiXiXiXiXiXiXiXiXiXiXiXiXiXiXiXiXiXiXiXiXiXiXiXiXiXiXiXiXiXiXiXiXiXiXiXiXiXiXiXiXiXiXiXiXiXiXiXiXiXiXiXiXiXiXiXiXiXiXiXiXiXiXiXiXiXiXiXiXiXiXiXiXiXiXiXiXiXiXiXiXiXiXiXiXiXiXiXiXiXiXiXiXiXiXiXiXiXiXiXiXiXiXiXiXiX",
"iXiXiXiXiXiXiXiXiXiXiXiXiXiXiXiXiXiXxXiXuXiXiXiXiXiXiXiXiXiXiXiXiXiXiXiXiXiXiXiXiXiXiXiXiXiXiXiXiXiXiXiXiXiXiXiXiXiXiXiXiXiXiXiXiXiXiXiXiXiXiXiXiXiXiXiXiXiXiXiXiXiXiXiXiXiXiXiXiXiXiXiXiXiXiXiXiXiXiXiXiXiXiXiXiXiXiXiXiXiXiXiXiXiXiXiXiXiXiXiXiXiXiXiXiXiXiXiXiXiXiXiXiXiXiXiXiXiXiXiXiXiXiXiXiXiXiXiXiXiXiXiXiXiXiXiXiXiXiXiXiXiXiXiXiXiXiXiXiXiXiXiXiXiXiXiXiXiXiXiXiXiXiXiXiXiXiXiXiXiXiXiXiXiXiXiXiXiXiXiXiXiXiXiXiXiXiXiXiXiXiXiXiXiXiXiXiXiXiXiXiXiXiXiXiXiXiXiXiXiXiXiXiXiXiXiXiXiXiXiXiXiXiXiXiXiXiXiXiXiXiXiXiXiXiXiX",
"iXiXiXiXiXiXiXiXiXiXiXiXiXiXiXiXiXiXxXiXuXiXiXiXiXiXiXiXiXiXiXiXiXiXiXiXiXiXiXiXiXiXiXiXiXiXiXiXiXiXiXiXiXiXiXiXiXiXiXiXiXiXiXiXiXiXiXiXiXiXiXiXiXiXiXiXiXiXiXiXiXiXiXiXiXiXiXiXiXiXiXiXiXiXiXiXiXiXiXiXiXiXiXiXiXiXiXiXiXiXiXiXiXiXiXiXiXiXiXiXiXiXiXiXiXiXiXiXiXiXiXiXiXiXiXiXiXiXiXiXiXiXiXiXiXiXiXiXiXiXiXiXiXiXiXiXiXiXiXiXiXiXiXiXiXiXiXiXiXiXiXiXiXiXiXiXiXiXiXiXiXiXiXiXiXiXiXiXiXiXiXiXiXiXiXiXiXiXiXiXiXiXiXiXiXiXiXiXiXiXiXiXiXiXiXiXiXiXiXiXiXiXiXiXiXiXiXiXiXiXiXiXiXiXiXiXiXiXiXiXiXiXiXiXiXiXiXiXiXiXiXiXiXiXiXiX",
"iXiXiXiXiXiXiXiXiXiXiXiXiXiXiXiXiXiXxXiXuXiXiXiXiXiXiXiXiXiXiXiXiXiXiXiXiXiXiXiXiXiXiXiXiXiXiXiXiXiXiXiXiXiXiXiXiXiXiXiXiXiXiXiXiXiXiXiXiXiXiXiXiXiXiXiXiXiXiXiXiXiXiXiXiXiXiXiXiXiXiXiXiXiXiXiXiXiXiXiXiXiXiXiXiXiXiXiXiXiXiXiXiXiXiXiXiXiXiXiXiXiXiXiXiXiXiXiXiXiXiXiXiXiXiXiXiXiXiXiXiXiXiXiXiXiXiXiXiXiXiXiXiXiXiXiXiXiXiXiXiXiXiXiXiXiXiXiXiXiXiXiXiXiXiXiXiXiXiXiXiXiXiXiXiXiXiXiXiXiXiXiXiXiXiXiXiXiXiXiXiXiXiXiXiXiXiXiXiXiXiXiXiXiXiXiXiXiXiXiXiXiXiXiXiXiXiXiXiXiXiXiXiXiXiXiXiXiXiXiXiXiXiXiXiXiXiXiXiXiXiXiXiXiXiXiX",
"iXiXiXiXiXiXiXiXiXiXiXiXiXiXiXiXiXiXxXiXuXiXiXiXiXiXiXiXiXiXiXiXiXiXiXiXiXiXiXiXiXiXiXiXiXiXiXiXiXiXiXiXiXiXiXiXiXiXiXiXiXiXiXiXiXiXiXiXiXiXiXiXiXiXiXiXiXiXiXiXiXiXiXiXiXiXiXiXiXiXiXiXiXiXiXiXiXiXiXiXiXiXiXiXiXiXiXiXiXiXiXiXiXiXiXiXiXiXiXiXiXiXiXiXiXiXiXiXiXiXiXiXiXiXiXiXiXiXiXiXiXiXiXiXiXiXiXiXiXiXiXiXiXiXiXiXiXiXiXiXiXiXiXiXiXiXiXiXiXiXiXiXiXiXiXiXiXiXiXiXiXiXiXiXiXiXiXiXiXiXiXiXiXiXiXiXiXiXiXiXiXiXiXiXiXiXiXiXiXiXiXiXiXiXiXiXiXiXiXiXiXiXiXiXiXiXiXiXiXiXiXiXiXiXiXiXiXiXiXiXiXiXiXiXiXiXiXiXiXiXiXiXiXiXiXiX",
"iXiXiXiXiXiXiXiXiXiXiXiXiXiXiXiXiXiXxXiXuXiXiXiXiXiXiXiXiXiXiXiXiXiXiXiXiXiXiXiXiXiXiXiXiXiXiXiXiXiXiXiXiXiXiXiXiXiXiXiXiXiXiXiXiXiXiXiXiXiXiXiXiXiXiXiXiXiXiXiXiXiXiXiXiXiXiXiXiXiXiXiXiXiXiXiXiXiXiXiXiXiXiXiXiXiXiXiXiXiXiXiXiXiXiXiXiXiXiXiXiXiXiXiXiXiXiXiXiXiXiXiXiXiXiXiXiXiXiXiXiXiXiXiXiXiXiXiXiXiXiXiXiXiXiXiXiXiXiXiXiXiXiXiXiXiXiXiXiXiXiXiXiXiXiXiXiXiXiXiXiXiXiXiXiXiXiXiXiXiXiXiXiXiXiXiXiXiXiXiXiXiXiXiXiXiXiXiXiXiXiXiXiXiXiXiXiXiXiXiXiXiXiXiXiXiXiXiXiXiXiXiXiXiXiXiXiXiXiXiXiXiXiXiXiXiXiXiXiXiXiXiXiXiXiXiX",
"uXuXuXuXuXuXuXuXuXuXuXuXuXuXuXuXuXuXxXiXeXuXuXuXuXuXuXuXuXuXuXuXuXuXuXuXuXuXuXuXuXuXuXuXuXuXuXuXuXuXuXuXuXuXuXuXuXuXuXuXuXuXuXuXuXuXuXuXuXuXuXuXuXuXuXuXuXuXuXuXuXuXuXuXuXuXuXuXuXuXuXuXuXuXuXuXuXuXuXuXuXuXuXuXuXuXuXuXuXuXuXuXuXuXuXuXuXuXuXuXuXuXuXuXuXuXuXuXuXuXuXuXuXuXuXuXuXuXuXuXuXuXuXuXuXuXuXuXuXuXuXuXuXuXuXuXuXuXuXuXuXuXuXuXuXuXuXuXuXuXuXuXuXuXuXuXuXuXuXuXuXuXuXuXuXuXuXuXuXuXuXuXuXuXuXuXuXuXuXuXuXuXuXuXuXuXuXuXuXuXuXuXuXuXuXuXuXuXuXuXuXuXuXuXuXuXuXuXuXuXuXuXuXuXuXuXuXuXuXuXuXuXuXuXuXuXuXuXuXuXuXuXuXuXuXuX",
"hXhXhXhXxXxXhXhXxXxXxXxXxXxXhXxXhXpXxXhXhXxXxXhXhXxXxXxXxXxXxXxXhXhXhXhXhXxXxXhXhXxXxXxXxXxXxXxXxXxXxXxXxXxXxXxXxXxXxXxXxXxXxXxXxXxXxXxXxXxXxXxXxXxXxXxXxXxXxXxXxXxXxXxXxXxXxXxXxXxXxXxXxXxXxXxXxXxXxXxXxXxXxXxXxXxXxXxXxXxXxXxXxXxXxXxXxXxXxXxXxXxXxXxXxXxXxXxXxXxXxXxXxXxXxXxXxXxXxXxXxXxXxXxXxXxXxXxXxXxXxXxXxXxXxXxXxXxXxXxXxXxXxXxXxXxXxXxXxXxXxXxXxXxXxXxXxXxXxXxXxXxXxXxXxXxXxXxXxXxXxXxXxXxXxXxXxXxXxXxXxXxXxXxXxXxXxXxXxXxXxXxXxXxXxXxXxXxXxXxXxXxXxXxXxXxXxXxXxXxXxXhXhXhXhXhXhXhXhXxXxXhXhXhXhXhXxXxXhXhXhXhXhXhXpXhX",
"xXxXxXhXhXpXpXpXhXpXpXpXhXhXhXpXxXcXxXxXhXpXhXpXpXhXpXpXpXhXhXhXhXxXxXxXxXpXhXpXpXpXhXpXpXhXhXhXhXhXhXhXhXhXhXhXhXhXhXhXhXhXhXhXhXhXhXhXhXhXhXhXhXhXhXhXhXhXhXhXhXhXhXhXhXhXhXhXhXhXhXhXhXhXhXhXhXhXhXhXhXhXhXhXhXhXhXhXhXhXhXhXhXhXhXhXhXhXhXhXhXhXhXhXhXhXhXhXhXhXhXhXhXhXhXhXhXhXhXhXhXhXhXhXhXhXhXhXhXhXhXhXhXhXhXhXhXhXhXhXhXhXhXhXhXhXhXhXhXhXhXhXhXhXhXhXhXhXhXhXhXhXhXhXhXhXhXhXhXhXhXhXhXhXhXhXhXhXhXhXhXhXhXhXhXhXhXhXhXhXhXhXhXhXhXhXhXhXhXhXhXhXhXhXhXhXhXhXhXhXhXhXhXxXpXxXxXhXhXpXpXxXxXhXhXhXpXhXhXxXxXxXhXhXcXhX",
"z.z.z.wXuXiXiXiXuXiXpXiXuXuXeXiX(.%.u.u.qXiXuXiXiXuXiXpXiXuXuXiXwXM.z.z.7XiXeXiXiXiXuXiXiXuXuXuXuXuXuXuXuXuXuXuXuXuXuXuXuXuXuXuXuXuXuXuXuXuXuXuXuXuXuXuXuXuXuXuXuXuXuXuXuXuXuXuXuXuXuXuXuXuXuXuXuXuXuXuXuXuXuXuXuXuXuXuXuXuXuXuXuXuXuXuXuXuXuXuXuXuXuXuXuXuXuXuXuXuXuXuXuXuXuXuXuXuXuXuXuXuXuXuXuXuXuXuXuXuXuXuXuXuXuXuXuXuXuXuXuXuXuXuXuXuXuXuXuXuXuXuXuXuXuXuXuXuXuXuXuXuXuXuXuXuXuXuXuXuXuXuXuXuXuXuXuXuXuXuXuXuXuXuXuXuXuXuXuXuXuXuXuXuXuXuXuXuXuXuXuXuXuXuXuXuXuXuXuXuXuXeXwXwXiX7X8XwXwXiXiX`.`.qXwXwXuXuXwXA.f.n.7XuX%.D.",
"F u.%.qXiXiXf.D.gXwX7X7XiXiXuXxXz.-.-.F 6XiXiXd.A.gXwX7X7XiXuXiXwXu.F 2 S.pXiXD.f.iXuX7X7XeXiXiXiXiXiXiXiXiXiXiXiXiXiXiXiXiXiXiXiXiXiXiXiXiXiXiXiXiXiXiXiXiXiXiXiXiXiXiXiXiXiXiXiXiXiXiXiXiXiXiXiXiXiXiXiXiXiXiXiXiXiXiXiXiXiXiXiXiXiXiXiXiXiXiXiXiXiXiXiXiXiXiXiXiXiXiXiXiXiXiXiXiXiXiXiXiXiXiXiXiXiXiXiXiXiXiXiXiXiXiXiXiXiXiXiXiXiXiXiXiXiXiXiXiXiXiXiXiXiXiXiXiXiXiXiXiXiXiXiXiXiXiXiXiXiXiXiXiXiXiXiXiXiXiXiXiXiXiXiXiXiXiXiXiXiXiXiXiXiXiXiXiXiXiXiXiXiXiXiXiXiXiXiXuXpX7XD.x.D.S.M.x.7XuX8X^.^.j 6.~.pXiXwXD.f.%.7XwX%.d.",
"%.O.< wXiXqXF %.hX(.%.n.iXuXuXxXD.O.=.S.7XpXwX_ _ gX7X&.l.iXuXiX6XqXz.%.qXiXiX%.F wXeXf.f.wXiXuXiXiXiXiXiXiXiXiXiXiXiXiXiXiXiXiXiXiXiXiXiXiXiXiXiXiXiXiXiXiXiXiXiXiXiXiXiXiXiXiXiXiXiXiXiXiXiXiXiXiXiXiXiXiXiXiXiXiXiXiXiXiXiXiXiXiXiXiXiXiXiXiXiXiXiXiXiXiXiXiXiXiXiXiXiXiXiXiXiXiXiXiXiXiXiXiXiXiXiXiXiXiXiXiXiXiXiXiXiXiXiXiXiXiXiXiXiXiXiXiXiXiXiXiXiXiXiXiXiXiXiXiXiXiXiXiXiXiXiXiXiXiXiXiXiXiXiXiXiXiXiXiXiXiXiXiXiXiXiXiXiXiXiXiXiXiXiXiXiXiXiXiXiXiXiXiXiXiXiXiXiXuXiX8Xu.u.=.7XD.=.7XiX`.^.^.6.j ^.hXiX8X7Xl.A.7XwXf.f.",
"=.O.F eXiXpX8XeXiXiXxXgXuXiXuXgXE.%.z.(.8XiXpXqXwXiXiXhXgXiXuXiXqXS.x.=.6XiXiXeX8XpXuXhXhXiXuXiXiXiXiXiXiXiXiXiXiXiXiXiXiXiXiXiXiXiXiXiXiXiXiXiXiXiXiXiXiXiXiXiXiXiXiXiXiXiXiXiXiXiXiXiXiXiXiXiXiXiXiXiXiXiXiXiXiXiXiXiXiXiXiXiXiXiXiXiXiXiXiXiXiXiXiXiXiXiXiXiXiXiXiXiXiXiXiXiXiXiXiXiXiXiXiXiXiXiXiXiXiXiXiXiXiXiXiXiXiXiXiXiXiXiXiXiXiXiXiXiXiXiXiXiXiXiXiXiXiXiXiXiXiXiXiXiXiXiXiXiXiXiXiXiXiXiXiXiXiXiXiXiXiXiXiXiXiXiXiXiXiXiXiXiXiXiXiXiXiXiXiXiXiXiXiXiXiXiXiXiXiXuXpX(.z.iX7XS.7X8X(.eXpX~.~.qX_.~.iXiXwXD.l.A.(.iX_ D.",
"iXiXhXiXiXuXiXiXuXuXeXuXiXiXiXuXiXiXeXwXiXiXuXiXiXuXuXeXuXiXiXiXiXeXuXiXuXiXuXiXiXuXiXuXuXuXiXiXiXiXiXiXiXiXiXiXiXiXiXiXiXiXiXiXiXiXiXiXiXiXiXiXiXiXiXiXiXiXiXiXiXiXiXiXiXiXiXiXiXiXiXiXiXiXiXiXiXiXiXiXiXiXiXiXiXiXiXiXiXiXiXiXiXiXiXiXiXiXiXiXiXiXiXiXiXiXiXiXiXiXiXiXiXiXiXiXiXiXiXiXiXiXiXiXiXiXiXiXiXiXiXiXiXiXiXiXiXiXiXiXiXiXiXiXiXiXiXiXiXiXiXiXiXiXiXiXiXiXiXiXiXiXiXiXiXiXiXiXiXiXiXiXiXiXiXiXiXiXiXiXiXiXiXiXiXiXiXiXiXiXiXiXiXiXiXiXiXiXiXiXiXiXiXiXiXiXiXiXiXuXiX6XeXiXiXgXiXiXpXiXuXhXhXiXiXgXuXiXiXeXuXwXuXiXgXwX"
};
