/* XPM */
static char *mb_gate_stereo[] = {
/* columns rows colors chars-per-pixel */
"256 256 256 2 ",
"   c #5C3802",
".  c #653800",
"X  c #463B3B",
"o  c #3D5809",
"O  c #024D2D",
"+  c #00542B",
"@  c #025833",
"#  c #294E36",
"$  c #435E0D",
"%  c #47590F",
"&  c #436502",
"*  c #4F700C",
"=  c #5F582A",
"-  c #67254E",
";  c #044D5F",
":  c #3B4847",
">  c #005669",
",  c #044C76",
"<  c #0E6D71",
"1  c #504F4F",
"2  c #665855",
"3  c #53645A",
"4  c #76725C",
"5  c #6D6952",
"6  c #695B63",
"7  c #56696C",
"8  c #7B7866",
"9  c #707070",
"0  c #4D5C68",
"q  c #353737",
"w  c #923337",
"e  c #A7312F",
"r  c #98502E",
"t  c #8C1A56",
"y  c #8F5E54",
"u  c #984F42",
"i  c #B3534A",
"p  c #817E6C",
"a  c #8C7471",
"s  c #B3726C",
"d  c #A06561",
"f  c #D1554F",
"g  c #CB7671",
"h  c #DF675F",
"j  c #DC4D37",
"k  c #5C840A",
"l  c #6C9219",
"z  c #70972F",
"x  c #29A26D",
"c  c #549574",
"v  c #7A847A",
"b  c #699859",
"n  c #28A326",
"m  c #A48453",
"M  c #8C8A7C",
"N  c #888575",
"B  c #989679",
"V  c #8E8D6D",
"C  c #A6927B",
"Z  c #A6BB6E",
"A  c #8EA15E",
"S  c #C98477",
"D  c #EC847F",
"F  c #BEDA52",
"G  c #004C91",
"H  c #3C55BB",
"J  c #0A718E",
"K  c #524A91",
"L  c #5E6783",
"P  c #70768F",
"I  c #564DAA",
"U  c #5066BF",
"Y  c #7376AB",
"T  c #6B5BB3",
"R  c #3E5DC6",
"E  c #2D6CE4",
"W  c #716FCF",
"Q  c #4E6FEE",
"!  c #6D79E7",
"~  c #6065CC",
"^  c #3C34B2",
"/  c #91728E",
"(  c #B26D95",
")  c #8D71B1",
"_  c #9C5992",
"`  c #C8768A",
"'  c #C55A86",
"]  c #847BD4",
"[  c #8A7AE0",
"{  c #C965D4",
"}  c #8B3E93",
"|  c #1697AA",
" . c #228FA7",
".. c #3096AC",
"X. c #31AAB3",
"o. c #149DA5",
"O. c #778C89",
"+. c #5498A7",
"@. c #5FA7B5",
"#. c #55A8B5",
"$. c #4AAAB5",
"%. c #70AFB7",
"&. c #68A19A",
"*. c #38B8C4",
"=. c #2E89C9",
"-. c #5694C4",
";. c #7987D8",
":. c #7289E8",
">. c #6DB2C9",
",. c #62C3C8",
"<. c #8A8985",
"1. c #928D84",
"2. c #95948B",
"3. c #99968D",
"4. c #9B998D",
"5. c #979485",
"6. c #9D9C94",
"7. c #989894",
"8. c #8E9093",
"9. c #A69888",
"0. c #A09E97",
"q. c #AD9B93",
"w. c #A19E98",
"e. c #AA9893",
"r. c #B29C97",
"t. c #B6898C",
"y. c #A6A38C",
"u. c #A5A49D",
"i. c #ACA49C",
"p. c #AAA797",
"a. c #B4A29C",
"s. c #B4A99B",
"d. c #B2B598",
"f. c #9C92A2",
"g. c #9190B1",
"h. c #AB9DA8",
"j. c #AB93B0",
"k. c #95ACB2",
"l. c #A7A6A1",
"z. c #A9A7A1",
"x. c #ABAAA3",
"c. c #AEAEAA",
"v. c #A9A6A5",
"b. c #B1A5A3",
"n. c #BAA6A1",
"m. c #B3ABA5",
"M. c #BDAAA5",
"N. c #B3ADA9",
"B. c #BCACAA",
"V. c #B3A4AC",
"C. c #B2B1AA",
"Z. c #BCB4AC",
"A. c #B9B6A7",
"S. c #BAADB2",
"D. c #B6A9B5",
"F. c #BEB3B2",
"G. c #BDBCB5",
"H. c #BFBDB8",
"J. c #B7B3BB",
"K. c #A8ACB5",
"L. c #93AA90",
"P. c #C98F90",
"I. c #EC9794",
"U. c #C1ADAA",
"Y. c #C5A7A7",
"T. c #C4B1AE",
"R. c #C6B8AC",
"E. c #C3B5B3",
"W. c #C3BAB5",
"Q. c #C2B4BD",
"!. c #C5BCB9",
"~. c #C9BCBD",
"^. c #CAB7B5",
"/. c #D1B3B3",
"(. c #D0A6A3",
"). c #B3C58E",
"_. c #B4C7B2",
"`. c #95C7A6",
"'. c #C3C1B6",
"]. c #C6C4B9",
"[. c #C8C6BB",
"{. c #CBC9BE",
"}. c #C9C6B5",
"|. c #DAC4BC",
" X c #DADABB",
".X c #C7CFB1",
"XX c #E0DEA4",
"oX c #8F91D1",
"OX c #A49AC9",
"+X c #95B6C8",
"@X c #ABA5C8",
"#X c #B9B8C5",
"$X c #B0AED0",
"%X c #8C93E4",
"&X c #B3AEE8",
"*X c #9BA5E8",
"=X c #C3B6C2",
"-X c #C7BAC6",
";X c #CABDC3",
":X c #CABDC9",
">X c #C4BBCA",
",X c #D1B7CB",
"<X c #D19FD6",
"1X c #AFC9C9",
"2X c #9AC6CD",
"3X c #CFC2C6",
"4X c #CCCBC2",
"5X c #CAC6CA",
"6X c #D1C3C6",
"7X c #D2CDC5",
"8X c #D2C5CA",
"9X c #D3CCCC",
"0X c #DACAC5",
"qX c #D2D1C6",
"wX c #D5D3CC",
"eX c #D9D6CE",
"rX c #DADACA",
"tX c #CACAD4",
"yX c #D5CBD4",
"uX c #D6D5D3",
"iX c #D9D7D0",
"pX c #DBD9D2",
"aX c #DDDCDA",
"sX c #D6D7D9",
"dX c #CAD5D0",
"fX c #E1DCD4",
"gX c #E1DED9",
"hX c #E8DBD8",
"jX c #E3D3CA",
"kX c #DCE2D8",
"lX c #D6E1CF",
"zX c #E1E5D4",
"xX c #E4E3DD",
"cX c #E9E5DD",
"vX c #E9E9DC",
"bX c #EAE8D5",
"nX c #CAC5E3",
"mX c #D9D6E5",
"MX c #DDDBE4",
"NX c #DBD9E7",
"BX c #CED1EC",
"VX c #E2DDE4",
"CX c #E6E5E1",
"ZX c #E9E6E1",
"AX c #EBEAE4",
"SX c #E3E2EA",
"DX c #EEEDE9",
"FX c #E7E9E5",
"GX c #F0EFEA",
"HX c #F5EBE4",
"JX c #F2F1EC",
"KX c #F8F6E8",
"LX c #F6F5F1",
"PX c #FAF7F5",
"IX c #EAEDEF",
"UX c #DCE9E4",
/* pixels */
"iXiXiXiXiXpXpXpXiXpXfXfXfXfXpXiXpXiXpXpXpXpXpXpXpXpXpXpXpXpXpXpXpXpXpXpXpXpXpXpXpXpXpXpXpXpXpXpXpXpXpXpXpXpXpXpXpXpXpXpXpXpXpXpXpXpXpXpXpXpXpXpXpXpXpXpXpXpXpXpXpXpXpXpXpXpXpXpXpXpXpXpXpXpXpXpXpXpXpXpXpXpXpXpXpXpXpXpXpXpXpXpXpXpXpXpXpXpXpXpXpXpXpXpXpXpXpXpXpXpXpXpXpXpXpXpXpXpXpXpXpXpXpXpXpXpXpXpXpXpXpXpXpXpXpXpXpXpXpXpXpXpXpXpXpXpXpXpXpXpXpXpXpXpXpXpXpXpXiXpXpXiXpXpXpXpXpXpXpXpXfXpXpXpXpXfXpXiXpXpXpXpXpXpXpXpXiXpXiXpXpXpXpXpXpXfXpXpXfXpXiXpXpXpXfXpXpXfXpXfXpXpXfXpXpXfXpXiXpXpXpXpXpXpXiXpXpXpXiXfXpXpXpXpXfXpX",
"hXhXhXhXpXiXpXiXfXdX1X1X1X1XpXpXiXpXpXpXpXpXpXpXpXpXpXpXpXpXpXpXpXpXpXpXpXpXpXpXpXpXpXpXpXpXpXpXpXpXpXpXpXpXpXpXpXpXpXpXpXpXpXpXpXpXpXpXpXpXpXpXpXpXpXpXpXpXpXpXpXpXpXpXpXpXpXpXpXpXpXpXpXpXpXpXpXpXpXpXpXpXpXpXpXpXpXpXpXpXpXpXpXpXpXpXpXpXpXpXpXpXpXpXpXpXpXpXpXpXpXpXpXpXpXpXpXpXpXpXpXpXpXpXpXpXpXpXpXpXpXpXpXpXpXpXpXpXpXpXpXpXpXpXpXpXpXpXpXpXpXpXpXpXpXpXpXiXpXiX5XpX9X9X9XiX9XwXwXwX#X5X5X5X9X5XwXpX5XiX9XwXwXwX5X5XpXiXpX5X5XiXwX9XwX#X5X5X1X9XpX9X5X5X#X5X5X5XwX5X9XwX#X9XiX#XwXpX9XwX9XwX5XwXpXeXG.pXpX1XeXdX5X5X1XdX",
"+X+X+X+XdXpXiXfX1X`.`.F Z `.2XdXpXiXpXpXpXpXpXpXpXpXpXpXpXpXpXpXpXpXpXpXpXpXpXpXpXpXpXpXpXpXpXpXpXpXpXpXpXpXpXpXpXpXpXpXpXpXpXpXpXpXpXpXpXpXpXpXpXpXpXpXpXpXpXpXpXpXpXpXpXpXpXpXpXpXpXpXpXpXpXpXpXpXpXpXpXpXpXpXpXpXpXpXpXpXpXpXpXpXpXpXpXpXpXpXpXpXpXpXpXpXpXpXpXpXpXpXpXpXpXpXpXpXpXpXpXpXpXpXpXpXpXpXpXpXpXpXpXpXpXpXpXpXpXpXpXpXpXpXpXpXpXpXpXpXpXpXpXpXpXpXpXiXpXwXg.wXk.J.J.9XJ.#X5XpXK.J.J.#X#Xk.K.fXg.5XJ.K.1X#XK.J.#XzX5XK.#XiX#Xk.iXK.#XJ.K.9XpXk.#X9Xk.5XK.J.#XK.K.J.K.5XK.#XK.iX9XK.J.5Xg.J.pXwXc.iXfX+.1Xk.%.k.+.k.",
"| | | | $.uXfX1X`.F ). X.XF Z 2XdXpXiXpXpXpXpXpXpXpXpXpXpXpXpXpXpXpXpXpXpXpXpXpXpXpXpXpXpXpXpXpXpXpXpXpXpXpXpXpXpXpXpXpXpXpXpXpXpXpXpXpXpXpXpXpXpXpXpXpXpXpXpXpXpXpXpXpXpXpXpXpXpXpXpXpXpXpXpXpXpXpXpXpXpXpXpXpXpXpXpXpXpXpXpXpXpXpXpXpXpXpXpXpXpXpXpXpXpXpXpXpXpXpXpXpXpXpXpXpXpXpXpXpXpXpXpXpXpXpXpXpXpXpXpXpXpXpXpXpXpXpXpXpXpXpXpXpXpXpXpXpXpXpXpXpXpXpXpXpXpXiXpXwXK.J.K.#XJ.wXJ.#X5XvX#X5X5X5X#XK.J.5Xg.K.#XK.K.#X#XeXK.zXJ.5X#X5XK.g.wX#X9X#XJ.wXpX5XK.iXJ.eXK.#X5Xg.J.#XK.5XK.vXK.5XzXg.#X5Xk.J.pXwXC.pXpX%.%.%.k.k.%.k.",
"+X+X+XX.| 1XsX`.F {.gXsXaXaX_.$.2XpXiXiXpXpXpXpXpXpXpXpXpXpXpXpXpXpXpXpXpXpXpXpXpXpXpXpXpXpXpXpXpXpXpXpXpXpXpXpXpXpXpXpXpXpXpXpXpXpXpXpXpXpXpXpXpXpXpXpXpXpXpXpXpXpXpXpXpXpXpXpXpXpXpXpXpXpXpXpXpXpXpXpXpXpXpXpXpXpXpXpXpXpXpXpXpXpXpXpXpXpXpXpXpXpXpXpXpXpXpXpXpXpXpXpXpXpXpXpXpXpXpXpXpXpXpXpXpXpXpXpXpXpXpXpXpXpXpXpXpXpXpXpXpXpXpXpXpXpXpXpXpXpXpXpXpXpXpXpXpXiXpX9XJ.K.J.5XJ.K.#X#XK.9X#X5X#XJ.#XK.J.J.#XJ.K.9Xk.#XK.K.5XfX5XK.K.J.J.#X#X#X5X#XK.9XpX#XK.9XJ.wXK.#X5XJ.#XJ.K.9XJ.K.K.pX5XJ.J.#XK.J.pXwXc.pXpXk.%.k.K.k.%.k.",
"hXhXbX>.| 1X1X%._.aXeXfX1X2XhX%.+XdXpXiXpXpXpXpXpXpXpXpXpXpXpXpXpXpXpXpXpXpXpXpXpXpXpXpXpXpXpXpXpXpXpXpXpXpXpXpXpXpXpXpXpXpXpXpXpXpXpXpXpXpXpXpXpXpXpXpXpXpXpXpXpXpXpXpXpXpXpXpXpXpXpXpXpXpXpXpXpXpXpXpXpXpXpXpXpXpXpXpXpXpXpXpXpXpXpXpXpXpXiXiXiXiXiXiXiXiXiXiXiXiXiXiXiXiXiXiXiXiXiXiXiXiXiXiXiXiXiXiXiXiXiXiXiXiXiXiXiXiXiXiXiXiXiXiXiXiXiXiXiXiXiXiXiXiXiXiXiXiXiXiXeXiXeXiXiX5XpXeX5XwXeXeXwXwXeX5XeXwXpXiXwXiXeXeX9X9XpXiXpXwX9XeXiXpXwXeXiXeX5XwXpX9XwXpXwXiXwX5XwXiXeXwX5XwXpX5XiXpXwXpXeXeX9XeXpXeX4XiXiXwXeXwXwXwX1XiX",
"dXdXdX$.| 1XpX+XX.%.fXiXdXuXhX+X@.dXpXiXpXpXpXpXpXpXpXpXpXpXpXpXpXpXpXpXpXpXpXpXpXpXpXpXpXpXpXpXpXpXpXpXpXpXpXpXpXpXpXpXpXpXpXpXpXpXpXpXpXpXpXpXpXpXpXpXpXpXpXpXpXpXpXpXpXpXpXpXpXpXpXpXpXpXpXpXpXpXpXpXpXpXpXpXpXpXpXpXpXpXpXpXpXpXpXpXpXiXpXxXxXxXxXxXxXxXxXxXxXxXxXxXxXxXxXxXxXxXxXxXxXxXxXxXxXxXxXgXgXxXxXgXgXxXxXxXgXgXxXxXxXxXxXxXxXxXxXxXxXgXxXxXxXxXxXxXxXxXxXxXxXxXxXxXxXxXgXxXxXxXxXxXxXxXxXxXxXxXgXxXxXxXxXxXxXxXaXaXaXaXgXaXaXaXaXaXaXaXxXgXaXgXaXpXaXaXgXzXaXaXaXgXzXgXaXxXxXaXxXxXxXxXxXxXgXgXxXgXgXxXxXxXxXxXcXxX",
"| | | | X.dXdX%.| $.hXpXpXiXhX+X>.dXpXiXpXpXpXpXpXpXpXpXpXpXpXpXpXpXpXpXpXpXpXpXpXpXpXpXpXpXpXpXpXpXpXpXpXpXpXpXpXpXpXpXpXpXpXpXpXpXpXpXpXpXpXpXpXpXpXpXpXpXpXpXpXpXpXpXpXpXpXpXpXpXpXpXpXpXpXpXpXpXpXpXpXpXpXpXpXpXpXpXpXpXpXpXpXpXpXpXiXpXxXxXxXxXxXxXxXxXxXxXxXxXxXxXxXxXxXxXxXxXxXxXxXxXxXxXxXxXxXZXAXxXxXZXcXxXxXxXxXxXxXxXxXxXxXxXxXxXxXxXxXxXxXxXxXxXxXxXxXxXxXxXxXxXxXxXxXxXxXxXxXxXxXxXxXxXxXxXxXxXxXxXxXxXxXxXxXxXgXgXxXZXgXgXgXgXaXaXaXaXgXgXgXgXxXxXxXaXgXgXgXgXgXgXgXxXxXxXcXcXcXxXZXxXxXZXZXAXZXxXCXCXxXCXxXxXxXcX",
"$.$.$.#.1XhX1XX.#.| +XpXiXpXuX#.+XdXpXiXpXpXpXpXpXpXpXpXpXpXpXpXpXpXpXpXpXpXpXpXpXpXpXpXpXpXpXpXpXpXpXpXpXpXpXpXpXpXpXpXpXpXpXpXpXpXpXpXpXpXpXpXpXpXpXpXpXpXpXpXpXpXpXpXpXpXpXpXpXpXpXpXpXpXpXpXpXpXpXpXpXpXpXpXpXpXpXpXpXpXpXpXpXpXpXiXpXxXxXxXxXcXxXxXxXxXxXxXxXxXxXxXxXxXxXxXxXxXxXxXxXxXxXxXxXxXxXeX{.xXDX7XiXDXZXAXxXxXxXAXAXZXAXZXAXAXCXCXAXxXxXxXxXxXxXxXxXxXxXxXxXxXxXxXxXxXxXxXxXxXxXxXxXxXxXcXxXxXxXxXxXxXxXxXxXgXgXxXiXL.gXgXgXaXxXcXcXcXgXaXaXxX+X%.1XxXaXgXgXgXgXgXxXxXxXkXsXsXsXxXwXgXaXeXqX{.wXxXpXeXxXpXxXxXxXaX",
"fXfXpXfXfXiXpXfX@.| ..X.+XhX>.@.1XpXiXpXpXpXpXpXpXpXpXpXpXpXpXpXpXpXpXpXpXpXpXpXpXpXpXpXpXpXpXpXpXpXpXpXpXpXpXpXpXpXpXpXpXpXpXpXpXpXpXpXpXpXpXpXpXpXpXpXpXpXpXpXpXpXpXpXpXpXpXpXpXpXpXpXpXpXpXpXpXpXpXpXpXpXpXpXpXpXpXpXpXpXpXpXpXpXiXpXxXxXxXxXcXdX1XcXxXxXxXxXxXxXxXxXxXxXxXxXxXxXxXxXxXxXxXxXxXxXxX5.{.7XA.m.W.A.4XZ.y.s.AXA.A.4XA.'.A.G.'.4XA.y.m.AXxXxXxXxXxXxXxXxXxXxXxXxXxXxXxXxXxXxXxXxXxXcX1X1XcXxXxXxXxXxXxXxXgXgXaXZX_.n .XCXaXxXdX1X1X2XaXgXgXgX@.#.2XcXaXgXgXgXgXxXxXxXcXdX>.>.+XDX4.Z.Z.9.y.'.4.s.'.p.wXA.wXCXcXdX",
"iXiXiXiXiXiXfX1XX.2X$...@.>.#.1XuXpXiXpXpXpXpXpXpXpXpXpXpXpXpXpXpXpXpXpXpXpXpXpXpXpXpXpXpXpXpXpXpXpXpXpXpXpXpXpXpXpXpXpXpXpXpXpXpXpXpXpXpXpXpXpXpXpXpXpXpXpXpXpXpXpXpXpXpXpXpXpXpXpXpXpXpXpXpXpXpXpXpXpXpXpXpXpXpXpXpXpXpXpXpXpXpXiXpXxXxXxXxXxXcX2XsXcXxXxXxXxXxXxXxXxXxXxXxXxXxXxXxXxXxXxXxXxXxXxXCX[.A.5.9.p.B y.B 4XW.].xXp.W.B G.4.y.p.A.5.y.9.qXZXxXxXxXxXxXxXxXxXxXxXxXxXxXxXxXxXxXxXxXxXxXxXkX2XkXxXxXxXxXxXxXgXgXgXaXCXb n b ZXpXxX2X%.%.$.dXxXaXaX%.%.%.cXaXgXgXgXxXxXxXxXcXdX>.>.2XAXm.y.p.m.p.{.A.y.p.p.pXA.wXCXxXsX",
"pXpXiXpXpXpXiXpXpXiXX.1X>.>.2XdXpXiXpXpXpXpXpXpXpXpXpXpXpXpXpXpXpXpXpXpXpXpXpXpXpXpXpXpXpXpXpXpXpXpXpXpXpXpXpXpXpXpXpXpXpXpXpXpXpXpXpXpXpXpXpXpXpXpXpXpXpXpXpXpXpXpXpXpXpXpXpXpXpXpXpXpXpXpXpXpXpXpXpXpXpXpXpXpXpXpXpXpXpXpXpXpXiXpXxXxXxXxXxXxXcXsX1XcXxXxXxXxXxXxXxXxXxXxXxXxXxXxXxXxXxXxXxXxXxXxXxX'.p.p.A.G.p.A.'.m.Z.A.CX9.s.m.qXm.A.{.y.p.Z.Z.A.ZXxXxXxXxXxXxXxXxXxXxXxXxXxXxXxXxXxXxXxXxXxXcX1XdXcXxXxXxXxXxXgXgXgXgXxXrX`.aX`.aXgXaXxXcXcXgXxXaXgXxX+X%.1XxXaXgXgXxXxXxXxXxXcXdX>.>.2XCX'.p.s.W.p.'.A.qX5.].p.s.xXxXcXdX",
"iXiXiXiXiXiXiXiXpXiX1XiXdXdXpXpXiXiXiXiXiXiXiXiXiXiXiXiXiXiXiXiXiXiXiXiXiXiXiXiXiXiXiXiXiXiXiXiXiXiXiXiXiXiXiXiXiXiXiXiXiXiXiXiXiXiXiXiXiXiXiXiXiXiXiXiXiXiXiXiXiXiXiXiXiXiXiXiXiXiXiXiXiXiXiXiXiXiXiXiXiXiXiXiXiXiXiXiXiXiXiXiXpXxXxXxXxXxXxXxXxXcXcXxXxXxXxXxXxXxXxXxXxXxXxXxXxXxXxXxXxXxXxXxXxXxXxXwXaXZXeXgXcXeXxXpXaXaXgXp.pXxXxXxXeXpXaXCXwXxXpXxXxXxXxXxXxXxXxXxXxXxXxXxXxXxXxXxXxXxXxXxXxXxXcXcXxXxXxXxXxXgXgXgXgXgXgXgXCXgXCXgXgXgXaXaXaXgXaXgXgXgXxXxXxXaXgXgXxXxXxXxXxXxXxXxXkXxXkXxXxXxXxXxXpXwXxXxXxXcXiXxXxXxXxXkX",
"pXpXpXpXpXpXpXpXpXpXfXpXpXfXpXpXpXpXpXpXpXpXpXpXpXpXpXpXpXpXpXpXpXpXpXpXpXpXpXpXpXpXpXpXpXpXpXpXpXpXpXpXpXpXpXpXpXpXpXpXpXpXpXpXpXpXpXpXpXpXpXpXpXpXpXpXpXpXpXpXpXpXpXpXpXpXpXpXpXpXpXpXpXpXpXpXpXpXpXpXpXpXpXpXpXpXpXpXpXpXpXaXxXxXxXxXxXxXxXxXxXxXxXxXxXxXxXxXxXxXxXxXxXxXxXxXxXxXxXxXxXxXxXxXxXxXxXCXxXxXZXxXxXZXxXCXxXCXxXeXCXxXxXxXCXCXxXxXZXxXCXxXxXxXxXxXxXxXxXxXxXxXxXxXxXxXxXxXxXxXxXxXxXxXxXxXxXxXxXxXgXxXxXxXxXxXxXxXaXxXaXxXxXxXxXxXxXxXxXxXxXxXaXaXaXxXxXxXxXxXxXxXxXxXxXxXxXxXxXxXxXxXxXxXCXZXxXxXxXxXCXxXxXxXxXxX",
"xXxXxXxXxXxXxXxXxXxXxXxXxXxXxXxXxXxXxXxXxXxXxXxXxXxXxXxXxXxXxXxXxXxXxXxXxXxXxXxXxXxXxXxXxXxXxXxXxXxXxXxXxXxXxXxXxXxXxXxXxXxXxXxXxXxXxXxXxXxXxXxXxXxXxXxXxXxXxXxXxXxXxXxXxXxXxXxXxXxXxXxXxXxXxXxXxXxXxXxXxXxXxXxXxXxXxXxXxXxXxXxXxXxXxXxXxXxXxXxXxXxXxXxXxXxXxXxXxXxXxXxXxXxXxXxXxXxXxXxXxXxXxXxXxXxXxXxXxXxXxXxXxXxXxXxXxXxXxXCXxXxXxXxXxXxXxXxXxXxXxXxXxXxXxXxXxXxXxXxXxXxXxXxXxXxXxXxXxXxXxXxXxXxXxXxXxXxXxXxXxXxXxXxXxXxXxXxXxXxXxXxXxXxXxXxXxXxXxXxXxXxXxXxXxXxXxXxXxXxXxXxXxXxXxXxXxXxXxXxXxXxXxXxXxXxXxXxXxXxXxXxXxXxXxXxX",
"4X{.4X4X4X4X{.4X4X4X4X4X4X4X4X4X4X4X4X4X4X4X4X4X4X4X4X4X4X4X4X4X4X4X4X4X4X4X4X4X4X4X4X4X4X4X4X4X4X4X4X4X4X4X4X4X4X4X4X4X4X4X4X4X4X4X4X4X4X4X4X4X4X4X4X4X4X4X4X4X4X4X4X4X4X4X4X4X4X4X4X4X4X4X4X4X4X4X4X4X4X4X4X4X4X4X4X4X4X4X4X4X4X4X4X4X4X4X4X4X4X4X4X4X4X4X4X4X4X4X4X4X4X4X4X4X4X4X4X4X4X4X4X4X4X4X4X4X4X4X4X4X4X4X4X4X4X4X4X{.4X4X4X4X4X4X4X4X4X4X4X4X4X4X4X4X4X4X4X4X4X4X4X4X4X4X4X4X4X4X4X4X4X4X4X4X4X4X4X4X4X4X4X4X4X4X4X{.4XxXaXpXpXpXpXpXaXpXpXpXpXpXpXxXpXpXaXpXiXpXpXpXxXgXiXaXpXpXpXpXiXaXxX4X{.4X4X4X{.{.{.{.{.{.4X4X",
"'.[.'.Z.'.G.[.'.].G.'.].].].[.].].].].].].].].].].].].].].].].].].].].].].].].].].].].].].].].].].].].].].].].].].].].].].].].].].].].].].].].].].].].].].].].].].].].].].].].].].].].].].].].].].].].].].].].].].].].].].].].].].].].].].].].].].].].].].].].].].].].].].].].].].].].].].].].].].].].].].].].].].].].].].].].].].].].].].].].].].].].].].].].].].].].].].].].].].].].].].].].].].].].].].].].].].].].].].].].].{.xXpXiXiXpX7X'.Z.].7XpXiXiXpXxXpXpX7XwXxXpXiXiXxXaXpX4XqXaXpXaXpXaXxX[.[.'.G.'.4X{.{.{.[.{.Z.[.",
"B {.9.m.p.B A.9.A.B 9.p.A.m.4X[.[.[.[.[.[.[.[.[.[.[.[.[.[.[.[.[.[.[.[.[.[.[.[.[.[.[.[.[.[.[.[.[.[.[.[.[.[.[.[.[.[.[.[.[.[.[.[.[.[.[.[.[.[.[.[.[.[.[.[.[.[.[.[.[.[.[.[.[.[.[.[.[.[.[.[.[.[.[.[.[.[.[.[.[.[.[.[.[.[.[.[.[.[.[.[.[.[.[.[.[.[.[.[.[.[.[.[.[.[.[.[.[.[.[.[.[.[.[.[.[.[.[.[.[.[.[.[.[.[.[.[.[.[.[.[.[.[.[.[.[.[.[.[.[.[.[.[.[.[.[.[.[.[.[.[.[.[.[.[.[.[.[.[.[.[.[.[.[.[.[.[.[.[.[.[.[.[.[.[.[.[.[.[.[.[.[.[.[.[.[.[.[.{.xXpXiXiXpX[.m.Z.A.{.pXiXiXpXxXiXgXp.m.m.4XpXiXxXxXW.9.p.'.qXp.s.xXxX{.'.B A.Z.s.A.s.A.W.m.y.{.",
"9.Z.y.A.B B s.V 9.B m.5.B s.4X].[.[.[.[.[.[.[.[.[.[.[.[.[.[.[.[.[.[.[.[.[.[.[.[.[.[.[.[.[.[.[.[.[.[.[.[.[.[.[.[.[.[.[.[.[.[.[.[.[.[.[.[.[.[.[.[.[.[.[.[.[.[.[.[.[.[.[.[.[.[.[.[.[.[.[.[.[.[.[.[.[.[.[.[.[.[.[.[.[.[.[.[.[.[.[.[.[.[.[.[.[.[.[.[.[.[.[.[.[.[.[.[.[.[.[.[.[.[.[.[.[.[.[.[.[.[.[.[.[.[.[.[.[.[.[.[.[.[.[.[.[.[.[.[.[.[.[.[.[.[.[.[.[.[.[.[.[.[.[.[.[.[.[.[.[.[.[.[.[.[.[.[.[.[.[.[.[.[.[.[.[.[.[.[.[.[.[.[.[.[.[.[.{.xXpXiXiXaX'.m.aXs.{.pXiXiXpXxXiXaXA.0.4.p.gXeXgXZXy.4Xm.M A.M A.xXgX[.[.p.y.B y.5.9.y.p.V y.{.",
"s.[.y.9.y.m.9.Z.y.s.4Xs.A.A.4X[.[.[.[.[.[.[.[.[.[.[.[.[.[.[.[.[.[.[.[.[.[.[.[.[.[.[.[.[.[.[.[.[.[.[.[.[.[.[.[.[.[.[.[.[.[.[.[.[.[.[.[.[.[.[.[.[.[.[.[.[.[.[.[.[.[.[.[.[.[.[.[.[.[.[.[.[.[.[.[.[.[.[.[.[.[.[.[.[.[.[.[.[.[.[.[.[.[.[.[.[.[.[.[.[.[.[.[.[.[.[.[.[.[.[.[.[.[.[.[.[.[.[.[.[.[.[.[.[.[.[.[.[.[.[.[.[.[.[.[.[.[.[.[.[.[.[.[.[.[.[.[.[.[.[.[.[.[.[.[.[.[.[.[.[.[.[.[.[.[.[.[.[.[.[.[.[.[.[.[.[.[.[.[.[.[.[.[.[.[.[.[.[.{.xXpXiXiXpX{.A.s.V Z.aXiXiXpXxXiXgXs.y.W.A.aXeXxXxX[.4.i.A.B p.m.xXxX[.].p.9.p.y.B A.s.5.5.p.{.",
"].].].W.].].'.[.].'.'.].].].].].].].].].].].].].].].'.'.].'.'.'.'.].].].].].].].].].].[.[.].].].[.].].].].].].].].].].].].].].].].].].].].].].].].].].].].].].].].].].].[.].].].].].].].].].].].].].].].].].].].].].].].].].].].].].'.[.].].].].].].].].].].].].].].].].].].].].].].].].].].].].].].].].].].].].].].].].].].].].].].].].].].].].].].].].].].].].].].].].].'.[.].].].].].].].].].].].].].].].].].].].].].].].].].{.xXpXiXiXpXqX4X4X'.4XpXiXiXpXxXpXiXeXiXpXpXiXiXxXaXpXwXiXpXwXpXwXaXxX[.].W.[.[.y.p.{.].].].[.].",
"gXpXaXgXaXaXgXaXaXgXgXaXgXpXaXgXgXgXgXaXgXpXaXgXgXaXgXxXaXxXgXgXxXpXaXgXgXaXpXgXaXpXpX7XqXiXpXpXqXaXgXgXgXgXgXgXgXgXgXgXgXgXgXgXgXgXaXgXpXaXgXgXgXgXgXgXgXgXgXgXpXpXpXwX5XaXpXaXpXaXgXgXgXgXaXpXgXgXaXgXpXaXgXgXaXpXgXgXpXpXgXaXpXaXgXqXaXgXgXgXgXgXgXgXgXgXgXgXgXgXgXgXgXaXgXpXaXgXgXgXgXgXgXgXgXgXaXpXgXgXgXgXgXaXgXpXaXgXgXgXgXgXpXgXgXaXgXpXaXgXgXaXpXgXgXpXpXgXaXpXaXxXqXpXgXgXgXgXgXgXgXgXgXgXgXgXgXgXgXgXaXgXpXaXaXpXpXuX5XxXpXiXpXiXpXaXaXgXpXiXpXiXpXxXpXiXpXpXiXiXpXiXxXgXeXpXpXiXpXiXpXaXxXqXqXwXqXqX7XwXqXqXqXqXqXqX",
"JXcXJXJXJXJXJXJXJXJXJXJXJXcXJXJXJXJXJXJXJXZXDXJXJXJXAXpX9XgXuXuXiXxXJXJXJXDXZXJXHXfXhXd.d.pXxXAXG.JXJXJXJXJXJXJXJXJXJXJXJXJXJXJXJXJXJXJXCXJXJXJXJXJXJXJXJXJXJXJXzXxXvX4X@XSXSXDXCXDXJXJXJXJXJXcXJXJXJXJXZXDXJXJXDXZXJXJXAXAXLXJXcXJXLXH.DXJXJXJXJXJXJXJXJXJXJXJXJXJXJXJXJXJXJXZXGXJXJXJXJXJXJXJXJXJXJXcXJXJXJXJXJXJXLXZXDXJXJXJXJXJXcXJXJXJXLXZXDXJXJXGXZXJXJXAXAXJXJXcXJXLX!.AXLXJXJXJXJXJXJXJXJXJXJXJXJXJXJXJXJXJXZXDXDXFXSXmX@XcXpXiXpXpXiXxXxXxXiXpXpXiXpXxXpXiXiXiXiXiXiXiXxXgXeXiXiXiXiXiXiXpXxXpXpXpXpXpXpXpXpXpXpXpXpXpX",
"GXxXDXGXDXDXDXDXDXDXDXDXGXxXDXGXDXDXDXDXJXxXAXGXDXJXgX~.!.;X;X;X;X9XxXAXJXAXcXGXAXfXhXd.d.pXzXvXG.DXGXDXDXDXDXDXDXDXDXDXDXDXDXDXDXDXDXJXxXDXGXDXDXDXDXDXDXDXDXDXaXxXzX4X@XSXVXFXxXAXJXDXDXDXDXxXGXDXDXJXxXAXGXGXAXxXJXJXZXZXJXDXxXDXJXH.AXGXDXDXDXDXDXDXDXDXDXDXDXDXDXDXDXDXJXxXAXGXDXDXDXDXDXDXDXGXDXxXGXDXDXDXDXDXJXcXAXJXDXDXDXDXxXDXDXDXJXxXAXGXGXAXxXJXJXZXZXJXDXxXDXJX!.ZXJXDXDXDXDXDXDXDXDXDXDXDXDXDXDXDXDXJXxXAXAXCXCXmX@XcXpXiXpXpXiXxXxXxXiXpXpXiXpXxXeX|.|.|.0X|.|.0XxXaX0X|.|.0X|.|.|.pXxXiXiXiXiXpXhXfXfXhXfXiXiXiX",
"JXxXDXGXGXGXGXGXGXGXGXGXJXxXDXGXGXGXGXGXJXxXAXGXDXJXaX;X~.6X3X3X6X~.;X9XAXxXxXGXAXfXhXd.d.pXzXZXG.DXGXGXGXGXGXGXGXGXGXGXGXGXGXGXGXGXGXJXxXDXJXGXGXGXGXGXGXGXGXGXaXxXzX4X@XSXVXFXxXAXJXGXGXGXDXxXJXGXGXJXxXAXJXJXAXxXJXJXZXZXJXDXxXGXJXH.AXJXGXGXGXGXGXGXGXGXGXGXGXGXGXGXGXGXJXxXDXJXGXGXGXGXGXGXGXGXDXxXJXGXGXGXGXGXJXCXAXJXGXGXGXGXxXGXGXGXJXcXAXJXJXDXxXJXJXZXZXJXGXxXDXJX!.ZXJXGXGXGXGXGXGXGXGXGXGXGXGXGXGXGXGXJXxXAXAXCXCXmX@XcXpXiXpXpXiXxXZXxXiXpXpXiXpXxXeX|.|.|.0X|.|.0XxXaX0X|.|.0X|.|.|.pXxXpXpXiXfXwXk.@.#.%.1XfXiXiX",
"JXxXDXGXGXGXGXGXGXGXGXGXJXxXDXGXGXGXGXGXJXxXDXJXJXJXpX;X~.6X3X3X6X~.3X3X6X~.iXJXAXfXhXd.d.pXzXZXG.DXGXGXGXGXGXGXGXGXGXGXGXGXGXGXGXGXGXJXxXDXJXGXGXGXGXGXGXGXGXGXaXxXzX4X@XSXVXFXxXAXJXGXGXGXDXxXJXGXGXJXxXAXJXJXAXxXJXJXZXZXJXDXxXGXJXH.AXJXGXGXGXGXGXGXGXGXGXGXGXGXGXGXGXGXJXxXDXJXGXGXGXGXGXGXGXGXDXxXJXGXGXGXGXGXJXCXAXJXGXGXGXGXxXGXGXGXJXcXAXJXJXDXxXJXJXZXZXJXGXxXDXJX!.ZXJXGXGXGXGXGXGXGXGXGXGXGXGXGXGXGXGXJXxXAXAXCXCXmX@XcXpXiXpXiXfX%.$.%.fXiXpXiXpXxXeX|.|.|.0X|.|.0XxXaX0X|.|.0X|.|.|.pXxXpXiXfX1X....%.%.#. .%.fXiX",
"JXxXDXGXGXGXGXGXGXGXGXGXJXxXDXGXGXGXGXGXJXcXCXpXpXpX8X3X~.6X3X3X6X~.3X3X6X;X9XDXZXfXhXd.d.pXzXZXG.DXGXGXGXGXGXGXGXGXGXGXGXGXGXGXGXGXGXJXxXDXJXGXGXGXGXGXGXGXGXGXaXxXzX4X@XSXVXFXxXAXJXGXGXGXDXxXJXGXGXJXxXAXJXJXAXxXJXJXZXZXJXDXxXGXJXH.AXJXGXGXGXGXGXGXGXGXGXGXGXGXGXGXGXGXJXxXDXJXGXGXGXGXGXGXGXGXDXxXJXGXGXGXGXGXJXCXAXJXGXGXGXGXxXGXGXGXJXcXAXJXJXDXxXJXJXZXZXJXGXxXDXJX!.ZXJXGXGXGXGXGXGXGXGXGXGXGXGXGXGXGXGXJXxXAXAXCXCXmX@XcXpXiXpXiXfX#. .@.fXiXpXiXpXxXeX|.|.|.0X|.|.0XxXaX0X|.|.0X|.|.|.pXxXiXfX1X..%.xXHXHXHX1X..k.fX",
"JXxXDXGXGXGXGXGXGXGXGXGXJXxXDXGXGXGXGXGXJXZXgX;X;X;X3X3X~.6X3X3X6X~.3X3X6X;X;X3XiXfXhXd.d.pXzXZXG.DXGXGXGXGXGXGXGXGXGXGXGXGXGXGXGXGXGXJXxXDXJXGXGXGXGXGXGXGXGXGXaXxXzX4X@XSXVXFXxXAXJXGXGXGXDXxXJXGXGXJXxXAXJXJXAXxXJXJXZXZXJXDXxXGXJXH.AXJXGXGXGXGXGXGXGXGXGXGXGXGXGXGXGXGXJXxXDXJXGXGXGXGXGXGXGXGXDXxXJXGXGXGXGXGXJXCXAXJXGXGXGXGXxXGXGXGXJXcXAXJXJXDXxXJXJXZXZXJXGXxXDXJX!.ZXJXGXGXGXGXGXGXGXGXGXGXGXGXGXGXGXGXJXxXAXAXCXCXmX@XcXpXiXpXiXfX@. .@.fXiXpXiXpXxXeX|.|.|.0X|.|.0XxXaX0X|.|.0X|.|.|.pXxXiXfX#.@.HXxXxXxXxXHX1X..dX",
"JXxXDXGXGXGXGXGXGXGXGXGXJXxXDXGXGXGXGXGXJXZXgX3X6X6X3X3X~.6X3X3X6X~.3X3X6X;X~.;X9XfXhXd.d.pXzXZXG.DXGXGXGXGXGXGXGXGXGXGXGXGXGXGXGXGXGXJXxXDXJXGXGXGXGXGXGXGXGXGXaXxXzX4X@XSXVXFXxXAXJXGXGXGXDXxXJXGXGXJXxXAXJXJXAXxXJXJXZXZXJXDXxXGXJXH.AXJXGXGXGXGXGXGXGXGXGXGXGXGXGXGXGXGXJXxXDXJXGXGXGXGXGXGXGXGXDXxXJXGXGXGXGXGXJXCXAXJXGXGXGXGXxXGXGXGXJXcXAXJXJXDXxXJXJXZXZXJXGXxXDXJX!.ZXJXGXGXGXGXGXGXGXGXGXGXGXGXGXGXGXGXJXxXAXAXCXCXmX@XcXpXiXpXiXfX@. .@.fXiXpXiXpXxXeX|.|.|.0X|.|.0XxXaX0X|.|.0X|.|.|.pXxXpXdX..1XZXxXxXxXxXgXxX$.+X",
"JXxXDXGXGXGXGXGXGXGXGXGXJXxXDXGXGXGXGXGXJXZXgX3X3X3X3X3X~.6X3X3X6X~.3X3X6X;X~.;X8XfXhXd.d.pXzXZXG.DXGXGXGXGXGXGXGXGXGXGXGXGXGXGXGXGXGXJXxXDXJXGXGXGXGXGXGXGXGXGXaXxXzX4X@XSXVXFXxXAXJXGXGXGXDXxXJXGXGXJXxXAXJXJXAXxXJXJXZXZXJXDXxXGXJXH.AXJXGXGXGXGXGXGXGXGXGXGXGXGXGXGXGXGXJXxXDXJXGXGXGXGXGXGXGXGXDXxXJXGXGXGXGXGXJXCXAXJXGXGXGXGXxXGXGXGXJXcXAXJXJXDXxXJXJXZXZXJXGXxXDXJX!.ZXJXGXGXGXGXGXGXGXGXGXGXGXGXGXGXGXGXJXxXAXAXCXCXmX@XcXpXiXpXiXfX@. .@.fXiXpXiXpXxXeX|.|.|.0X|.|.0XxXaX0X|.|.0X|.|.|.pXxXfX1X..dXcXxXCXiXp 5 }.+.&.",
"GXxXDXDXDXDXDXDXDXDXDXDXDXxXDXDXDXDXDXDXGXcXpX;X3X3X3X3X~.3X3X3X3X~.;X3X3X;X~.3X;X^.0XA.d.pXzXvXG.DXDXDXDXDXDXDXDXDXDXDXDXDXDXDXDXDXDXDXxXAXDXDXDXDXDXDXDXDXDXDXpXzXzX4X@XSXVXFXgXAXGXDXDXDXDXxXDXDXDXGXxXAXDXDXAXxXGXGXCXZXGXDXxXDXJXG.AXGXDXDXDXDXDXDXDXDXDXDXDXDXDXDXDXDXGXxXAXDXDXDXDXDXDXDXDXDXDXxXDXDXDXDXDXDXGXxXZXGXDXDXDXDXxXDXDXDXGXxXAXGXDXAXxXGXGXZXcXGXDXxXDXJXH.CXGXDXDXDXDXDXDXDXDXDXDXDXDXDXDXDXDXGXxXFXFXSXSXmX@XcXpXiXpXiXfX@. .@.fXiXpXiXpXxXeX|.|.|.0X|.|.0XxXaX0X|.|.0X|.|.|.pXxXfXdX..1XcXxXxXxX7X{.zX0 8.",
"PXAXLXLXLXLXLXLXLXLXLXLXLXAXLXLXLXLXLXLXPXDXgX8X8X8X8X8X;X8X8X8X8X;X8X8X8X6X3X8X6X^.;Xs.d.kXvXGX'.LXJXJXLXPXPXPXPXPXPXPXPXPXPXPXPXPXPXPXHXPXPXPXPXPXPXPXLXJXLXLXxXAXvXwX@XDXSXJXFXJXPXLXLXLXLXAXLXLXLXPXAXJXLXPXJXAXPXPXDXGXPXLXAXLXPX].JXPXLXLXLXLXLXLXLXLXLXLXLXLXLXLXLXLXPXAXJXLXLXLXLXLXLXLXLXLXLXAXPXLXLXLXLXLXPXDXJXPXLXLXLXLXAXLXLXLXPXDXJXPXLXJXAXPXPXGXDXPXLXAXLXPX].DXPXLXLXLXLXLXLXLXLXLXKXKXKXKXKXKXKXKXvXKXJXAXAXmX@XxXpXiXpXiXfX@. .@.fXiXpXiXpXxXeX|.|.|.0X|.|.0XxXaX0X|.|.0X|.|.|.pXxXiXfX$.%.HXxXxXxXCXLX1X; _.",
"4X'.4X4X4X4X4X4X4X4X4X4X4X'.4X4X4X4X4X4X4X].G.V.B.B.B.B.b.B.B.B.B.b.V.B.B.V.V.B.V.b.V.9.4.G.].[.u.4XuXuX4X_._._.).).).).).).).Z L.L.`.`.`.`.)..X.X.X_.'.9XuX9X4XG.'.'.C.g.5X-X5X'.4X4X4X4X4X4X'.4X4X4X4X].4X4X4X4X].4X4X[.[.4X4X'.4X4Xu.4X4X4X4X4X4X4X4X4X4X4X4X4X4X4X4X4X4X4X].4X4X4X4X4X4X4X4X4X4X4X'.4X4X4X4X4X4X4X].[.4X4X4X4X4X'.4X4X4X4X].[.4X4X4X].4X4X[.].4X4X'.4X7Xu.[.4X4X4X4X4X4X4X4XqX5XtXnX&X&X&X&X&X&X*X&X&X*X*X%XOXvXpXiXpXiXfX@. .@.fXiXpXiXpXxXeX|.|.|.0X|.|.0XxXaX0X|.|.0X|.|.|.pXxXiXfX1X .2XcXxXxXcX5X< O.gX",
"iX4XeXiXiXiXiXiXiXiXiXiXiX4XiXiXiXiXpXpXpXwX[.F.E.E.E.F.B.E.E.E.E.B.F.E.E.F.S.E.S.M.B.9.9.b.m.S.w.b.Z A z z A Z Z ).).).L.+.o.o.o.o.X.X.o.o.o.x x b A A z A ).pX9X4X{.G.j.tX5XuX4XwXiXiXiXiXiX4XiXiXiXpX4XwXiXiXwX4XpXpXqXqXpXiX4XiXpXc.wXiXiXiXiXiXiXiXiXiXiXiXiXiXiXiXiXiXpX4XwXiXiXiXiXiXiXiXiXiXiX4XiXiXiXiXiXiXpX7XwXpXiXiXiXiX4XiXiXiXpX7XwXiXiXwX4XpXpXwXqXpXiX4XiXpXc.qXpXiXiXiXiXuXpXuXOX] *X&X&XnXnXnXnXnXnXnXnXnXnX&X@XvXpXiXpXiXfX@. .@.fXiXpXiXpXxXeX|.|.|.0X|.|.0XxXaX0X|.|.0X|.|.|.pXxXpXiXfXk.$.pXxXaXcXO.7 iXpX",
"LXZXJXLXLXLXLXLXLXLXLXLXLXZXJXLXLXLXZXpXgX9X9X8X8X8X8X8X;X8X8X8X8X;X6X8X8X3X;X8X6X^.;Xa.p.!.6XW.V B B .XzXvXAXAXAXKX2X*.*.,.2XdXkXzXzXvXrXkXdX1X,.*.*.2XrX).Z A ).GXAXqX@XIXSXDXZXGXLXLXLXLXJXZXLXLXLXLXAXJXLXLXJXAXLXLXDXDXLXJXZXLXPX].JXLXLXLXLXLXLXLXLXLXLXLXLXLXLXLXLXLXLXAXJXLXLXLXLXLXLXLXLXLXJXZXLXLXLXLXLXLXLXAXGXLXLXLXLXLXZXLXLXLXLXAXGXLXLXJXAXLXLXDXDXLXLXZXJXPX].DXLXLXLXLXLXPXIX*X&XIXDXDXDXAXFXFXFXDXaXCXSXMXMXnX@XcXpXiXpXiXfX@. .@.fXiXpXiXpXxXeX|.|.|.0X|.|.0XxXaX0X|.|.0X|.|.|.pXxXpXiXiXpXwXpXiXiXpXwXiXpXiX",
"GXxXDXDXDXDXDXDXDXDXDXDXGXxXDXDXDXJXpX;X3XQ.;X3X3X3X3X3X~.3X3X3X3X~.;X3X3X;X~.3X;XE.~.q.p.!.y.A B !.;X8XzXkXlXbXlX$.X.2XzXbXbXzXzXzXkXzXrXzXzXbXbXzX2XX.X.kXHX.XA A rXuX@XSXVXFXxXAXGXDXDXDXDXxXGXDXDXJXxXAXGXGXAXxXJXGXZXZXJXDXxXDXJXG.AXGXDXDXDXDXDXDXDXDXDXDXDXDXDXDXDXDXJXxXAXGXDXDXDXDXDXDXDXDXDXxXGXDXDXDXDXDXJXcXAXGXDXDXDXDXxXDXDXDXJXxXAXGXGXAXxXGXGXZXCXJXDXxXDXJXW.ZXJXDXDXDXJXSX%XBXDXSXSXSXSXSXSXSXSXSXsXMXNXmXmXnX@XcXpXiXpXiXfX@. .@.fXiXpXiXpXxXeX|.|.|.0X|.|.0XxXaX0X|.|.0X|.|.|.pXxXpXiXiXiXpXiXiXiXiXpXpXiXpX",
"JXxXDXGXGXGXGXGXGXGXGXGXJXxXDXGXDXJXpX;X8X~.3X6X3X3X3X3X~.6X3X3X6X~.3X3X6X;X~.3X;X^.~.r.p.V V W.i.W.W.!.].wXbXdXo.#.zXbXzXkXkXkXkXkXkXzXrXkXkXkXkXkXbXbX,.o.1XHXpX).z d.$XCXVXFXxXAXJXGXGXGXDXxXJXGXGXJXxXAXJXJXAXxXJXJXZXZXJXDXxXGXJXH.AXJXGXGXGXGXGXGXGXGXGXGXGXGXGXGXGXGXJXxXDXJXGXGXGXGXGXGXGXGXDXxXJXGXGXGXGXGXJXCXAXJXGXGXGXGXxXGXGXGXJXcXAXJXJXDXxXJXJXZXZXJXGXxXDXJX!.ZXJXGXGXGXJX%XnXDXVXSXSXSXSXSXSXSXSXSXaXMXNXmXmXnX@XcXpXiXpXiXfX@. .@.fXiXpXiXpXxXeX|.|.|.0X|.|.0XxXaX0X|.|.0X|.|.|.pXxXpXiXpXiXpXhXfXfXhXfXiXiXpX",
"JXxXDXGXGXGXGXGXGXGXGXGXJXxXDXGXGXJXpX;X6X~.3X6X3X3X3X3X~.6X3X3X6X~.3X3X6X;X~.3X;X^.~.a.b B !.E.w.W.!.!.W.|.1Xo.2XbXzXkXzXzXzXzXzXzXzXzXrXkXzXzXzXzXkXkXbX1Xo.2X XlX.Xz u.IXMXFXxXAXJXGXGXGXDXxXJXGXGXJXxXAXJXJXAXxXJXJXZXZXJXDXxXGXJXH.AXJXGXGXGXGXGXGXGXGXGXGXGXGXGXGXGXGXJXxXDXJXGXGXGXGXGXGXGXGXDXxXJXGXGXGXGXGXJXCXAXJXGXGXGXGXxXGXGXGXJXcXAXJXJXDXxXJXJXZXZXJXGXxXDXJX!.ZXJXGXDXKX&X&XDXVXSXSXSXSXSXSXSXSXSXSXaXMXNXmXmXnX@XcXpXiXpXiXfX@. .@.fXiXpXiXpXxXeX|.|.|.0X|.|.0XxXaX0X|.|.0X|.|.|.pXxXpXiXiXfXdX%.$.$.@.1XfXpXiX",
"JXxXDXGXGXGXGXGXGXGXGXGXJXxXDXGXGXJXiX;X6X~.3X6X3X3X3X3X~.6X3X3X6X~.3X3X6X;X~.9X;XT.^.V B Z.Z.E.w.W.!.!.~.J.o.%.bXkXzXzXzXzXzXzXzXzXzXzXrXkXzXzXzXzXzXzXkXbX1Xo.`.rXrX_.z qXSXFXxXAXJXGXGXGXDXxXJXGXGXJXxXAXJXJXAXxXJXJXZXZXJXDXxXGXJXH.AXJXGXGXGXGXGXGXGXGXGXGXGXGXGXGXGXGXJXxXDXJXGXGXGXGXGXGXGXGXDXxXJXGXGXGXGXGXJXCXAXJXGXGXGXGXxXGXGXGXJXcXAXJXJXDXxXJXJXZXZXJXGXxXDXJX!.ZXJXDXJXSX%XSXSXSXSXSXSXSXSXSXSXSXSXSXaXMXNXmXmXnX@XcXpXiXpXiXfX@. .@.fXiXpXiXpXxXpX X X XrX X XrXxXaXrX X XrX X X XpXxXpXiXfX2X..$.+X+X%. .%.pXpX",
"JXxXDXGXGXGXGXGXGXGXGXGXJXxXDXGXGXJXuX;X6X~.3X6X3X3X3X3X~.6X3X3X6X~.3X3X6X3X;XP.` ` d y a.A.Z.E.w.!.!.!.~.X.@./.!.[.[.4XkXzXzXzXzXzXzXzXrXkXzXzXzXzXzXzXzXkXbX1Xo.1X X[.8.A MXDXxXAXJXGXGXGXDXxXJXGXGXJXxXAXJXJXAXxXJXJXZXZXJXDXxXGXJXH.AXJXGXGXGXGXGXGXGXGXGXGXGXGXGXGXGXGXJXxXDXJXGXGXGXGXGXGXGXGXDXxXJXGXGXGXGXGXJXCXAXJXGXGXGXGXxXGXGXGXJXcXAXJXJXDXxXJXJXZXZXJXGXxXDXJX!.ZXJXDXKX&X&XDXSXSXSXSXSXSXSXSXSXSXSXSXaXMXNXmXmXnX@XcXpXiXpXiXfX@. .@.fXiXpXiXpXxXpX X X XrX X XrXxXaXrX X XrX X X XpXxXiXfX1X .+XcXHXHXHXdX..%.fX",
"JXxXDXGXGXGXGXGXGXGXGXGXJXxXDXGXGXJXyX;X6X~.3X6X3X3X3X3X~.6X3X3X6X~.3X3X8X;Xg P./.p.V t.d r.G.E.w.!.!./.#.X./.!.!.W.W.!.!.4XzXzXzXzXzXzXrXkXzXzXzXzXzXzXzXzXkXbX+Xo.qX'.@Xd.A LXgXAXJXGXGXGXDXxXJXGXGXJXxXAXJXJXAXxXJXJXZXZXJXDXxXGXJXH.AXJXGXGXGXGXGXGXGXGXGXGXGXGXGXGXGXGXJXxXDXJXGXGXGXGXGXGXGXGXDXxXJXGXGXGXGXGXJXCXAXJXGXGXGXGXxXGXGXGXJXcXAXJXJXDXxXJXJXZXZXJXGXxXDXJX!.ZXJXJXSX%XSXSXSXSXSXSXSXSXSXSXSXSXSXSXaXMXNXmXmXnX@XcXpXiXpXiXfX@. .@.fXiXpXiXpXxXpXrXrXrXrXrX XrXxXaXrX X XrX X X XpXxXiXfX#.%.HXxXxXxXxXHX1X..1X",
"JXxXDXGXGXGXGXGXGXGXGXDXGXxXDXGXDXJX9X;X6X~.;X3X3X3X3X3X~.3X3X3X6X~.;X6X;Xg P.6X^.V n.9.C s a.W.e.W.~.k.o.W.!.!.!.!.!.J.!.}.rXzXzXzXkXzXrXkXzXzXzXzXzXzXzXzXzXkXjX%.X.}.v.VXA ).IXZXJXDXGXGXDXxXGXGXDXJXxXAXJXJXAXxXJXJXZXZXJXDXxXDXJXH.AXJXGXGXGXGXGXGXGXGXGXGXGXGXGXGXGXDXJXxXAXGXGXGXGXGXGXGXGXGXDXxXJXDXGXGXGXDXJXcXAXJXDXGXGXGXxXGXGXDXJXcXAXJXGXAXxXJXJXZXZXJXDXxXDXJX!.ZXGXKX&X&XDXSXSXSXSXSXSXSXSXSXSXSXSXSXaXMXNXmXmXnX@XcXpXiXpXiXfX@. .@.fXiXpXiXpXxXrXXXXXXX XXXXX XxXaXrX X XrX X X XpXxXpXdX..1XZXxXxXxXiXeXgX$.+X",
"JXxXGXJXJXJXJXJXJXJXJXJXJXxXJXJXJXJXyX3X8X~.3X6X6X6X6X3X~.6X6X6X8X~.3X8X` P.~.,XB C T.9.9.r.s T.u.!.H.o.k.~.!.!.!.!.oX:.%XoX~.zXzXzXbXbXrXkXzXzXzXzXzXzXzXzXzXzXqXrXX.#.V.uXwXA eXGXJXJXJXJXJXxXJXJXJXJXCXDXJXJXDXCXJXJXAXAXJXJXxXJXJX!.DXJXJXJXJXJXJXJXJXJXJXJXJXJXJXJXJXJXJXcXDXJXJXJXJXJXJXJXJXJXGXxXJXJXJXJXJXJXJXZXAXJXJXJXJXJXxXJXJXJXJXZXAXJXJXDXcXJXJXAXZXJXJXxXJXLX'.AXJXDX*XSXSXSXSXSXSXSXSXSXSXSXSXSXSXSXMXVXVXNXNXnX@XcXpXiXpXiXfX@. .@.fXiXpXiXpXSXXXF F F F F F XXVXgXrX X XrX X X XpXxXfX1X..dXcXxXCXiXp 5 }.+.&.",
"ZXaXcXZXZXZXZXZXZXZXZXZXZXpXxXxXxXxX3X~.;XQ.~.;X;X;X;X~.Q.;X;X;X;XQ.5XP.P.!.^.s.V n.n.9.9.m.t.s 0./.#.$.^.E.R.F.J.;.oXF.D.oX;.wXrXrX1X%X[.rXrXrXrXrXrXrXrXrXrXrX{. X.Xo.%.qXuXd.A DXcXZXZXZXCXaXZXZXCXZXgXxXZXZXxXgXZXZXxXxXZXcXaXCXAXF.xXZXZXZXZXZXZXZXZXZXZXZXZXZXZXZXZXCXZXaXxXZXZXZXZXZXZXZXZXZXcXaXZXZXZXZXZXCXZXgXxXZXZXZXZXZXaXZXZXCXZXgXxXZXZXxXaXZXZXxXxXZXCXaXcXAXG.aXHXnX*XCXmXMXMXMXMXMXMXMXMXMXMXMXMXMXsXsXmXsXyX>X@XcXpXiXpXiXfX@. .@.fXiXpXiXpXxXrXXXXXXX XXXXX XxXaXrX X XrX X X XpXxXpXdX..1XZXxXxXxXeXwXxX0 8.",
"AXgXZXAXAXAXAXAXAXAXAXAXAX3X~.;X;X;X;X;X;X!.~.;X;X;X;X;X!.;X;X;X;X;XY.g ~.T.E.V a.n.n.9.9.a.Z.t.s k.o.G.R.J.oX;.;.OXR.E.W.R.%XoXbXdX;.oX%XzXlXrXrXrXrXrXrXrXrXrX{.{. X`.o.4XqXaXA .XJXZXAXAXZXgXAXAXZXAXxXcXAXAXcXxXAXAXxXxXAXZXgXZXAXG.xXAXAXAXAXAXAXAXAXAXAXAXAXAXAXAXAXZXAXgXCXAXAXAXAXAXAXAXAXAXZXgXAXAXAXAXAXZXAXxXxXAXAXAXAXAXgXAXAXZXAXxXxXAXAXCXgXAXAXxXxXAXAXgXZXDXG.xXDX*XBXVXMXMXMXMXMXMXMXMXMXMXMXMXMXMXsXmXmXmXmXtX@XcXpXiXpXiXfX@. .@.fXiXpXiXpXxXpXrXrXrXrXrXrXrXxXaXrX X XrX X X XpXxXiXfX#.%.HXxXxXxXxXKXJ.; 1X",
"JXxXGXJXJXJXJXJXJXJXJXJXJX3X3X6X6X6X6X6X6X~.3X6X6X6X6X3X~.6X6X6X8X~.g /.~.,XC B ^.a.Y.9.9.n.M.Z.g ..%.#XoX:.OX!.!.!.!.!.!.!.!.:.*X:.@X}.;.5XrXzXzXzXzXzXzXzXzXzXqXrXrX}...$.fXkX.XA LXJXJXJXJXxXJXJXJXJXcXDXJXJXDXcXJXJXZXAXJXJXxXJXJX!.DXJXJXJXJXJXJXJXJXJXJXJXJXJXJXJXJXJXJXcXDXJXJXJXJXJXJXJXJXJXGXxXJXJXJXJXJXJXJXZXAXJXJXJXJXJXxXJXJXJXJXZXAXJXJXDXcXJXJXAXZXJXJXxXGXLX!.DXNX*XDXSXSXSXSXSXSXSXSXSXSXSXSXSXSXSXMXVXVXNXmXnX@XcXpXiXpXiXfX@. .@.fXiXpXiXpXxXrX X X XrX X XrXxXaXrX X XrX X X XpXxXiXfX1X .+XcXxXxXZX1X< O.gX",
"JXxXDXGXGXGXGXGXGXGXGXGXGX3X3X3X3X3X3X3X6X~.;X3X3X3X3X3X~.3X3X3X9XP.P.3X~.E.V U.U.n.Y.9.9.n.M.T.&. .%X;.OXJ.}.!.!.!.!.!.!.!.!.J.:.@X^.!.oX;.^.qXkXzXzXzXzXzXzXzXqXrXrX_.h.X.>.bXaXZ ).PXDXGXDXxXGXGXDXJXxXAXJXJXAXxXJXJXZXZXJXDXxXDXJXH.AXJXGXGXGXGXGXGXGXGXGXGXGXGXGXGXGXDXJXxXAXJXGXGXGXGXGXGXGXGXDXxXJXGXGXGXGXDXJXcXAXJXGXGXGXGXxXGXGXDXJXcXAXJXGXAXxXJXJXZXZXJXDXxXDXJXH.HX&XnXAXSXSXSXSXSXSXSXSXSXSXSXSXSXSXSXaXMXNXmXmXnX@XcXpXiXpXiXfX@. .@.fXiXpXiXpXxXpX X XrXrX X XrXxXaXrX X XrX X XrXpXxXpXiXfX+X$.uXgXaXcXO.L pXpX",
"JXxXDXGXGXGXGXGXGXGXGXGXGX3X3X3X3X3X3X3X6X~.3X6X3X3X3X3X~.6X3X8X/.g ~.^.,XB C ^.U.n.Y.9.9.n.M.U.X.U OX].^.!.!.!.!.!.!.!.!.!.!.!.!.!.!.!.T.oX;.W.qXzXzXzXzXzXzXzXqXrXrX_.K.1Xo.1XfXrXA AXJXGXDXxXJXGXGXJXxXAXJXJXAXxXJXJXZXZXJXDXxXGXJXH.AXJXGXGXGXGXGXGXGXGXGXGXGXGXGXGXGXGXJXxXDXJXGXGXGXGXGXGXGXGXDXxXJXGXGXGXGXGXJXCXAXJXGXGXGXGXxXGXGXGXJXcXAXJXJXDXxXJXJXZXZXJXGXxXDXJX'.CX*XVXSXSXSXSXSXSXSXSXSXSXSXSXSXSXSXSXaXMXNXmXmXnX@XcXpXiXpXiXfX@. .@.fXiXpXiXpXxXeX0X0X0XwX9X9XwXxXaX0X0X|.9XtXtXtXpXxXpXiXiXfXiXiXeXeXiXiXpXpXiX",
"JXxXDXGXGXGXGXGXGXGXGXGXGX;X3X3X3X3X3X3X6X~.3X6X3X3X3X3X~.6X3X9X` P.~.~.T.V U.T.U.n.Y.9.9.b.Y.%.X.Y.g W.!.!.!.!.!.!.!.!.!.!.!.!.!.!.!.!.F.^.oX;.oXrXzXzXzXzXzXzXqXrXrX_.k.fX2Xo.4XAX).).PXDXDXxXJXGXGXJXxXAXJXJXAXxXJXJXZXZXJXDXxXGXJXH.AXJXGXGXGXGXGXGXGXGXGXGXGXGXGXGXGXGXJXxXDXJXGXGXGXGXGXGXGXGXDXxXJXGXGXGXGXGXJXCXAXJXGXGXGXGXxXGXGXGXJXcXAXJXJXDXxXJXJXZXZXJXGXxXDXJX[.&X&XDXSXSXSXSXSXSXSXSXSXSXSXSXSXSXSXSXaXMXNXmXmXnX@XcXpXiXpXiXfX@. .@.fXiXpXiXpXxXeX0X0X0XwX9X9XwXxXaX0X0X|.9XtXtXtXpXxXpXiXpXiXeXpXgXxXaXeXeXiXpX",
"JXxXDXGXGXGXGXGXGXGXGXGXDX;X3X3X3X3X3X3X6X~.3X6X3X3X3X3X~.6X8XY.` ~.^.,XB 9.T.T.U.n.Y.9.9.s.K.| -.^.t.P.4XW.!.!.!.!.!.!.!.!.!.!.!.!.!.!.F.W.!.!.;.OX{.qXzXkXzXzXqXrXrX_.K.uXfX,.X.zXzXA vXJXDXxXJXGXGXJXxXAXJXJXAXxXJXJXZXZXJXDXxXGXJXH.AXJXGXGXGXGXGXGXGXGXGXGXGXGXGXGXGXGXJXxXDXJXGXGXGXGXGXGXGXGXDXxXJXGXGXGXGXGXJXCXAXJXGXGXGXGXxXGXGXGXJXcXAXJXJXDXxXJXJXZXZXJXGXxXDXJX].%XBXFXSXSXSXSXSXSXSXSXSXSXSXSXSXSXSXSXaXMXNXmXmXnX@XcXpXiXpXiXfX@. .@.fXiXpXiXpXxXeX0X0X0XwX9X9XwXxXaX0X|.|.9XtXtXtXpXxXpXpXiXpXCXqXA.d.{.xXaXeXpX",
"JXxXDXGXGXGXGXGXGXGXGXGXDX;X3X3X3X3X3X3X6X~.3X6X3X3X3X3X~.6X8X` Y.^.~.T.V T.M.T.U.n.Y.9.9.(.#.X.q.T.T.s E.!.!.!.!.!.!.!.!.!.!.!.!.!.!.!.F.W.!.!.#X;.^.!.eXzXzXzXqXrXrX'.v.wXwXbX$.X.HX).Z PXAXxXJXGXGXJXxXAXJXJXAXxXJXJXZXZXJXDXxXGXJXH.AXJXGXGXGXGXGXGXGXGXGXGXGXGXGXGXGXGXJXxXDXJXGXGXGXGXGXGXGXGXDXxXJXGXGXGXGXGXJXCXAXJXGXGXGXGXxXGXGXGXJXcXAXJXJXDXxXJXJXZXZXJXGXxXDXLXK.%XDXSXSXSXSXSXSXSXSXSXSXSXSXSXSXSXSXSXaXMXNXmXmXnX@XcXpXiXpXiXfX@. .@.fXiXpXiXpXxXiX0X0X0XwXwX9XwXxXaX0X|.|.9XtXtXtXpXxXpXiXpXpXV % % % % 5 {.gXeX",
"JXxXDXGXGXGXGXGXGXGXGXJXDX;X3X3X3X3X3X3X6X~.3X6X3X3X3X3X~.9XY.` 3XT.,XB y.E.M.T.U.n.Y.9.9.i.o.v.q.U.W.P.P.4XW.!.!.!.!.!.!.!.!.!.!.!.!.!.F.W.!.!.!.oXoXJ.!.wXzXzX{.qX}._.f.~.wXpXjX$.X.zXA xXJXxXJXGXGXJXxXAXJXJXAXxXJXJXZXZXJXDXxXGXJXH.AXJXGXGXGXGXGXGXGXGXGXGXGXGXGXGXGXGXJXxXDXJXGXGXGXGXGXGXGXGXDXxXJXGXGXGXGXGXJXCXAXJXGXGXGXGXxXGXGXGXJXcXAXJXJXDXxXJXJXZXZXJXGXxXDXKXOX&XDXSXSXSXSXSXSXSXSXSXSXSXSXSXSXSXSXSXaXMXNXmXmXnX@XcXpXiXpXiXfX@. .@.fXiXpXiXpXxXeX|.|.0X9X5X5XwXxXaX0X0X|.9XtXtXtXpXxXiXpXpX5 % C qXwXA.= % }.aX",
"GXxXDXDXDXDXDXDXDXDXDXDXAX~.3X3X3X3X3X3X3X~.;X3X3X3X3X3X~.8X` Y.~.^.M.V E.U.M.T.U.n.Y.9.9.#.=.Y.e.U.T.T.s T.!.W.W.W.W.W.W.W.W.W.W.W.W.!.F.W.!.W.!.J.%X:.@X^.4XrXZ.Z.Z.m.f.F.wXkX4X^.$.*.L.Z PXkXDXDXDXGXxXAXDXGXAXxXGXGXCXZXGXDXxXDXJXG.AXGXDXDXDXDXDXDXDXDXDXDXDXDXDXDXDXDXGXxXAXDXDXDXDXDXDXDXDXDXDXxXGXDXDXDXDXDXGXxXZXGXDXDXDXDXxXDXDXDXGXxXAXGXDXAXxXGXGXZXcXGXDXxXDXJX*XmXSXSXSXSXSXSXSXSXSXSXSXSXSXSXSXSXSXSXsXMXNXmXmXnX@XcXpXiXpXiXfX@. .@.fXiXpXiXpXCX|.S S S k.g.g.#XcXaX0X0X|.9XtXtXtXpXxXeXxXB % {.LXZXCXDXDX5 = pX",
"LXAXLXLXLXLXLXLXLXLXLXLXJX3X8X8X8X8X8X8X8X;X6X8X8X8X8X8X5X(.P.6X~.;XB p.~.T.U.^.T.Y.Y.C 8.| k.T.e.E.E.!.P.P.4X~.~.~.~.~.~.~.~.~.~.~.~.[.W.~.].~.~.~.|.=X:.J.}.~.Z.E.W.m.f.Q.].iX!.W.|.%.o.x UXHXLXLXLXLXFXAXLXLXJXAXLXLXDXDXLXLXZXLXDX'.JXLXLXLXLXLXLXLXLXLXLXLXLXLXLXLXLXLXLXAXJXLXLXLXLXLXLXLXLXLXLXAXLXLXLXLXLXLXLXAXJXLXLXLXLXLXZXLXLXLXLXAXJXLXLXJXAXLXLXDXDXLXLXZXPXNXoXDXIXIXIXIXIXIXIXIXIXIXIXIXIXIXIXIXIXIXMXSXSXNXNXnX@XcXpXiXpXiXfX@. .@.fXiXpXiXpXCX|.g S S k.g.g.#XcXaX0X0X|.9XtXtXtXpXxXpXiX% B LXaXxXxXxXAXqX% d.",
"4X].4X4X4X4X4X4X4X4X4X4X4XV.B.S.B.B.B.B.S.V.B.S.B.B.S.B.N.g r.B.B.q.V a.a.r.q.r.r.q.q.t...+.r.q.1.r.r.r.r.s b.m.b.b.b.b.b.b.b.b.b.b.b.b.i.b.b.b.b.b.v.n.f.! D.b.i.i.i.0.8.v.z.z.i.x.x.Y.l...o.,.1XdX7XjX|.^.jXjX0X7XeXeX7X7XwXwX{.wX3Xi.7XwXwXwXwXwXwXwXwXwXwXwXwXwXwXwXwXwXwX{.7XwXwXwXwXwXwXwXwXwX7X{.wXwXwXwXwXwXwX7X7XwXwXwXwXwX{.wXwXwXwX7X7XwXwX7X{.wXwX7X7XwXwX{.rX&Xg.3X8X8X8X8X8X8X8X8X8X8X8X8X8X8X8X8X5X8X;X3X5X:X>X$X@XcXpXiXpXiXfX@. .@.fXiXpXiXpXCX|.g S S k.g.g.#XcXaX0X|.|.9XtXtXtXpXxXaX}.% }.AXxXAXxXxXxXFX= V ",
"eX4XwXwXwXwXwXwXwXwXwXeXwXB.F.F.F.F.F.F.F.B.S.F.F.F.F.H.t.` S.M.T.V 9.n.a.a.r.a.r.r.g.~ | 7.r.a.5.a.a.a.m.t.s C.m.N.N.N.N.N.N.N.N.N.N.N.b.m.N.N.N.N.N.N.M.OX;.M.i.s.s.w.f.b.v.m.x.m.N.N.M.}.b @.*.o.o.X.+.@.%.k.k.k.+X2Xk.+X1X1Xk.1Xk.8.1X1X1X1X1X1X1X1X1X1X1X1X1X1X1X1X1X1X1XK.1X1X1X1X1X1X1X1X1X1X1XK.1X1X1X1X1X1X1X_._.1X1X1X1X1XK.1X1X1X1XK._.1X1X1XK.1X1X_._.1X1XK.1X;.k.+X+X+X+X+X+X+X+X+X+X+X+X+X+X+X+X+X+X+Xk.+X+X+X+X+X@XcXpXiXpXiXfX@. .@.fXiXpXiXpXCX|.g S S k.g.g.#XcXaX0X0X|.9XtXtXtXpXxXgX'.% {.FXCX'.pXxXxXDX= V ",
"LXAXJXLXLXLXLXLXLXLXLXLXGX;X8X8X8X8X8X8X8X;X6X8X8X8X8X9X` /.;X;XE.V E.E.^.T.U.E.T.(.oXX.+.Y.B.T.e.E.E.E.E.E.g ^.[.~.~.~.~.~.~.~.~.~.~.~.E.!.~.~.~.~.~.~.~.!.;.!.T.E.E.m.f.Q.F.!.E.!.~.~.!.9XZ d.PXUXdX2X@.#.,.*.*.*.*.*.*.*.*.*.X.*.X.X.*.*.*.*.*.*.*.*.*.*.*.*.*.*.*.*.*.*.*.*.*.*.*.*.*.*.*.*.*.*.*.*.*.*.*.*.*.*.*.*.*.*.*.*.*.*.*.*.*.*.*.*.*.*.*.*.*.*.*.*.*.*.*.*.*.*.X.*.*.*.*.*.*.*.*.*.*.*.*.*.*.*.*.*.*.*.*.*.*.*.*.*.+XcXpXiXpXiXfX@. .@.fXiXpXiXpXCX|.g S S k.g.g.#XcXaX0X0X|.9XtXtXtXpXxXpXqX% y.PXZ.5 pXxXCXpX% y.",
"GXxXDXDXDXDXDXDXDXDXDXGXZX~.3X3X3X3X3X3X3X~.;X3X3X3X8XY.` ;X^.,XB B ^.T.T.U.B.T.K.oX:.| 6.a.M.U.e.T.T.T.U.W.P.P.[.W.!.!.!.!.!.!.!.!.W.!.F.W.!.!.!.!.!.!.W.}.oXoXR.Z.Z.x.f.F.F.E.F.W.!.!.!.!.W.V xXLXHX0X~.,XcXPXHXZXLXJXAXfX8XuX3XyX8Xh.pXJXDXDXDXDXDXDXDXDXDXDXDXDXDXDXDXDXDXxXAXDXDXDXDXDXAXDXDXDXDXxXDXDXDXDXDXDXGXxXZXDXDXDXDXDXxXDXDXDXGXxXAXDXDXAXxXDXDXZXCXJXAXvX*XBXH.mXSXSXSXSXSXSXSXSXSXSXSXSXSXSXSXSXSXSXsXMXNXmXmXnX@XcXpXiXpXiXfX@. .@.fXiXpXiXpXCX|.g S S k.g.g.#XcXaX0X0X|.9XtXtXtXpXxXeXCXV = FXB p.DXxXGXV % wX",
"JXxXDXGXGXGXJXJXJXJXJXJXAX~.3X3X3X3X3X3X6X~.3X6X3X3X8X` Y.;X~.E.V M.U.T.E.U.B.R.oXOX$...t.n.M.U.e.T.T.T.T.T.T.s E.!.!.!.!.!.!.!.!.!.!.!.F.W.!.!.!.!.!.!.!.!.!.;.K.R.Z.b.f.F.F.W.F.W.!.!.!.W.3XB d.PXfX3X~.;X8XDXFXgXGXJXAXiX3X3X~.3X8Xv.9XJXGXGXGXGXGXGXGXGXGXGXGXGXGXGXGXGXJXxXDXJXGXGXGXGXcXGXGXJXGXxXJXGXGXGXGXGXJXZXAXJXGXGXGXGXxXGXGXGXJXcXAXJXJXDXxXJXJXAXZXJXJXyX%XDXJ.MXSXSXSXSXSXSXSXSXSXSXSXSXSXSXSXSXSXSXMXVXVXNXmXnX@XcXpXiXpXiXfX@. .@.fXiXpXiXpXCX|.g S S k.g.g.#XcXaX0X0X|.9XtXtXtXpXxXiXpXwX= = zXCXxXAXB % d.gX",
"JXxXDXGXGXGXDXAXDXAXAXDXCX~.3X3X3X3X3X3X6X~.3X6X3X8XY.` !.^.,XB B T.T.R.R.R.B.D.;.v.X.5.9.n.M.U.e.T.T.T.T.T.W.P.P.4XW.!.!.!.!.!.!.!.!.!.F.W.!.!.!.!.!.!.!.!.!.@XoXR.Z.x.7.E.F.W.F.W.!.!.!.!.!.N.A JXpX3X~.;X8XgX9X6XAXJXAX9X3X3X~.3X6Xv.;XZXJXDXGXGXGXGXGXDXDXDXGXGXGXGXGXDXJXxXAXJXDXDXGXDXhXDXGXGXDXxXJXDXGXGXGXDXJXCXAXJXDXGXGXGXxXDXGXDXJXcXAXJXGXAXxXJXJXZXZXJXKX$X&XDXJ.MXSXSXSXSXSXSXSXSXSXSXSXSXSXSXSXSXSXSXaXMXNXmXmXnX@XcXpXiXpXiXfX@. .@.fXiXpXiXpXCX|.g g S k.g.g.#XcXaX0X|.|.9XtXtXtXpXxXpXeXaX{.Z iXpXpXgXp.y.xXeX",
"JXxXDXGXGXJXpX3X8X8X8X8X8X~.3X3X3X3X3X3X6X~.3X6X3X8X` Y.Q.~.^.V T.B.D.@XoXoX;.;.OX#.#.t.9.n.M.U.e.T.T.T.T.T.T.U.s E.!.!.!.!.!.!.!.!.!.!.F.W.!.!.!.!.!.!.!.!.!.!.;.K.R.m.Y oXE.E.F.W.!.!.!.!.W.~.B _.hX3X~.;X6X8X;XQ.gXGXxX9X3X3X~.3X6Xb.;XpXGXGXGXGXGXGXGXGXGXGXDXFXGXGXGXGXJXxXDXJXGXGXJXDXiXGXGXGXDXxXJXGXGXGXGXGXJXCXAXJXGXGXGXGXxXGXGXGXJXcXAXJXJXDXxXJXJXZXZXJXDX%XBXDXJ.MXSXSXSXSXSXSXSXSXSXSXSXSXSXSXSXSXSXSXaXMXNXmXmXnX@XcXpXiXpXiXfX@. .@.fXiXpXiXpXCX|.g S S k.g.g.#XcXaX0X0X|.9XtXtXtXpXxXpXpXeXpXgXiXiXiXiXaXgXeXpX",
"JXxXDXGXGXJXiX;X3X3X3X3X3X~.3X3X3X3X3X3X6X~.3X3X8XY.g |./.,XC C ^.;.oXoXOXOXK./.N.o.N.9.9.n.M.U.e.T.T.T.T.T.T.W.P.P.4XW.!.!.!.!.!.!.!.!.F.W.!.!.!.!.!.!.!.!.!.!.K.:.Z.j.;.;.J.W.F.W.!.!.!.!.W.E.A.A 8X3X~.;X3X3X3X~.pXhX;X3X6X3X~.3X6Xb.3X;XpXJXDXGXGXGXGXGXGXJXDXMXGXGXGXGXJXxXDXJXGXGXJXAX9XDXJXGXDXxXJXGXGXGXGXGXJXCXAXJXGXGXGXGXxXGXGXGXDXxXAXJXJXDXxXJXJXZXCXKXmX*XSXSXJ.MXSXSXSXSXSXSXSXSXSXSXSXSXSXSXSXSXSXSXaXMXNXmXmXnX@XcXpXiXpXiXfX@. .@.fXiXpXiXpXCX|.S S S k.g.g.#XcXaX0X0X|.9XtXtXtXpXxXpXiXpXiXeXfXhXhXfXpXeXiXpX",
"JXxXDXGXGXJXyX3X6X3X3X3X6X~.3X3X3X3X3X3X6X~.;X3X5X` V.$XOX$XO.g.%XoXR.R.R.T.U./.$.+.(.9.9.n.M.U.e.T.T.T.T.T.T.E.Y.s !.!.!.!.!.!.!.!.!.!.F.W.!.!.!.!.!.!.!.!.!.!.R.OX;.W g.oX@XW.F.W.!.!.!.!.!.Z.3XB s.yX~.;X6X6X;X~.6X0X;X;X6X3X~.3X6Xb.3X3XyXJXGXGXGXGXJXZXfXZXFXyXDXGXGXGXJXxXDXJXGXGXJXcX6XZXJXGXDXxXJXGXGXGXGXGXJXCXAXJXGXGXGXGXxXGXGXGXZXxXAXJXJXDXxXJXJXZXCXLX&X$XSXSXJ.mXSXSXSXSXSXSXSXSXSXSXSXSXSXSXSXSXSXSXaXMXNXmXmXnX@XcXpXiXpXiXfX@. .@.fXiXpXiXpXCX|.g S S k.g.g.#XcXaX0X0X|.9XtXtXtXpXxXpXpXiXfXiX+X>.>.+XdXfXiXiX",
"JXxXDXJXGXJX9X3X3X3X3X3X3X~.3X3X3X3X3X3X6X~.3X0X/.g %XoXoX;.g.OXOXV.T.T.T.B.Y.K.| b.Y.9.9.n.M.U.e.T.T.T.T.T.T.U.W.P.P.[.W.!.!.!.!.!.!.!.F.W.!.!.!.!.!.!.!.!.!.!.Z.R.Z.v.w.OX;.W.Z.W.!.!.!.!.!.Z.~.A.V 8X~.;X3X3X;X~.3X3X;X;X6X3X~.3X6Xv.;X3X8XDXDXhXZXJXJXgX;X9X9X8XDXGXGXDXJXxXAXJXGXDXJXhX;XxXJXGXDXxXJXDXGXGXGXDXJXCXAXJXGXGXGXGXxXGXDXhXjXxXAXGXGXAXxXJXJXZXZXJX%X5XyXVXK.sXSXSXSXSXSXSXSXSXSXSXSXSXSXSXSXSXSXSXaXMXNXmXmXnX@XcXpXiXpXiXfX@. .@.fXiXpXiXpXCX|.g S S k.g.g.#XcXaX0X|.|.9XtXtXtXpXxXpXiXfX1X-.=.>.>.-.=.+XfXiX",
"GXxXDXGXGXGX9X3X6X6X6X6X6X~.3X6X6X6X6X6X8X~.=X&Xj.g.%X/./.A s./.R.U.T.T.E.U.Y.X.@.Y.Y.9.9.n.M.U.e.T.T.T.T.T.T.T.E.Y.s !.!.!.!.!.!.!.!.!.F.!.!.!.!.!.!.!.!.!.!.!.Z.Z.R.m.f.E.;.J.J.W.!.!.!.!.!.F.!.3XB A.3X3X6X6X3X~.8X6X;X;X8X3X~.6X8Xb.3X6X3XpXjX0XuXJXJXpX3X6X3X8XAXJXJXJXJXcXDXJXJXJXJXhX;XgXJXJXGXxXJXJXJXJXJXJXJXcXAXJXJXJXJXJXxXJXDXeX9XxXAXcXJXDXcXJXJXAXHXBXoX9XtXVXK.sXSXSXSXSXSXSXSXSXSXSXSXSXSXSXSXSXSXSXMXVXVXNXmXnX@XcXpXiXpXiXfX@. .@.fXiXpXiXpXCX|.g g S k.g.g.#XcXaX0X0X0XwXuXuXuXaXxXiXpXtX=.>.aXvXHXcX2X=.+XfX",
"3X~.3X3X3X3X;X;X;X;X;X;X;XQ.;X;X;X;X;X;X;X^.%XoX) oX@X~.9.V E.B.B.M.M.U.B.Y.k.| M.a.n.9.9.a.n.M.e.U.U.U.U.U.U.U.U.E.s P.!.E.E.E.E.E.E.E.Z.F.E.E.E.E.E.E.E.E.E.E.B.Z.A.i.f.T.oXoX! oXR.F.E.E.E.Z.E.!.p.V ;X~.;X;X~.!.;X;X!.~.;X;XQ.;X;Xh.~.;X;X~.;X;X;XxXAX8X~.;X;X;XgXZXZXZXZXgXxXxXxXaXZX9XQ.iXhXfXZXaXZXZXZXZXZXFXZXeXxXZXxXxXxXZXaXAXfX6X;XeXgX0XxXfXgXcXZXgXvX&X@X3X:XsXh.yXMXmXmXMXMXMXMXyXsXMXMXMXMXMXMXMXMXMXsXsXmXsXsX>X@XcXpXiXpXiXfX@. .@.fXiXpXiXpXCX|.g S S k.g.g.#XcXaX/././.6X1X1X1XpXxXiXfX-.-.vXcXxXxXxXHX+X=.dX",
";XQ.;X;X;X;X;X;X;X;X;X;X;XQ.;X;X;X;X;X;X;X^.%XP.P.~./.~.V s.U.U.U.M.B.U.B.Y.X.%.Y.a.Y.9.9.a.n.M.e.U.U.U.U.U.U.U.U.T.n.s W.E.E.E.E.E.E.W.Z.E.E.E.E.E.E.E.E.E.E.E.B.Z.A.z.f.Z.K.Q ;.oXW.E.E.E.E.Z.E.E.!.V m.;X;X;X~.!.;X;X~.~.;X;XQ.;X;Xh.~.;X;X;X;X;X;XfXcX3X;X;X;X~.uXgXgXsXAXgXxXyX9X9XyX;X~.9X8X3XxXaXZXCXZXZXxXhXgX~.xXZXpXgXpXAXaXAXpX~.;X6XpX6XjX8XaXfXAXxXsX%X=X:X:XsXh.tXmXsXsXMXMXmXMXtXtXMXMXMXMXMXMXMXMXMXsXsXmXmXsXtX@XcXpXiXpXiXfX@. .@.fXiXpXiXpXCX|.S S S k.g.g.#XcXkXg f f t.:.:.:.sXxXpXdX=.1XvXxXxXxXCXZXxX-.+X",
"6X~.3X6X6X6X3X6X6X6X3X3X6X~.6X0X0X0X6X:X5X#X;.` ~.~.,Xs.V ^.T.T.E.B.T.T./.%.X./.U.n.Y.9.9.n.M.U.e.T.T.T.T.T.T.T.T.T.W.s Y.].!.!.!.!.!.!.F.!.!.!.!.!.!.!.!.!.!.!.Z.Z.Z.b.f.E.J.oXF.;.#X!.!.!.!.F.!.!.;Xs.B 8X3X6X3X~.6X6X;X;X8X3X~.3X0Xb.3X6X6X6X6X6X3X9XpX6X6X6X6X3X9XaXyX9XJXxXiX8X8X8X8X6X8X8X6X3XCXaXAXCXJXDX9X0XpX~.gXDXfXxXfXGXpXLXgX3X6X6XgX8XiX8XfXpXJXHX&XOX;X5X5XsXh.yXNXmXmXSXSXMXSXmXmXSXSXSXSXSXSXSXSXSXMXVXVXNXmXnX@XcXpXiXpXiXfX@. .@.fXiXpXiXpXCX|.g S S k.g.g.#XcXaX|.|.|.8XtXtXtXpXxXfX1X=.dXcXxXCXpXV 5 }.-.%.",
"3X~.3X3X3X6X6X6X6X6X6X6X3X@X$X$X$X$X;.%X%X:.) P.;X^.,XV 9.^.T.T.T.M.U.T.Z.o.k./.U.n.Y.9.9.n.M.U.e.T.T.T.T.T.T.T.T.T.E.Y.s ].W.!.!.!.!.!.F.W.!.!.!.!.!.!.!.!.!.!.Z.Z.Z.b.f.F.F.W.R.j.oXR.!.!.!.F.!.!.W.~.V G.8X3X;X~.6X6X;X;X6X3X~.6X$Xh.3X3X3X3X3X3X3X3X3X3X3X3X3X3X3X3X6X3XpXeX3X3X3X3X3X3X(.;X3X3XaXuXgXuXJXaX;X3X9X~.8XZXeXgX9XZX3XcXpX;X3X3XfX6X9X6XeX9XJXAX%X>X-X-X:XsXh.tXtXyXtXSXSXMXMXtXmXmXmXSXSXSXSXSXSXSXaXMXNXmXmXnX@XcXpXiXpXiXfX@. .@.fXiXpXiXpXCX|.S S S K.g.g.#XcXaX0X0X0XwXtXtXuXpXxXfXtX=.1XcXxXxXxX'.G.fXL &.",
"6X~.3X6X6X3X%X%X%X%X%XoX;.%X%X%X%X%X$X6X3X!.g ^.~.;XM.V U.T.T.T.T.M.B./.#.$.Y.T.U.n.Y.9.9.n.M.U.e.T.T.T.T.T.T.T.T.T.T.E.s Y.!.!.!.!.!.!.F.W.!.!.!.!.!.!.!.!.!.!.Z.Z.Z.b.f.F.F.E.F.!.oXg.}.!.!.Z.!.!.W.3Xy.m 8X3X;X~.6X6X;X3X8X3X=X&XQ g.6X3X3X3X3X3X3X3X3X3X3X3X3X3X3X3X3X3X6X3X3X6X3X3X3X3Xf /.8X3X9X3XsX8XCXiX;X6X6X~.3XxX9XgX6XfX~.jXiX3X6X;XeX3X6X6X9X9XKXmX*X9X=XQ.:XyXh.>X5XyX5XMXMXMXmXtXsXmXmXSXSXSXSXSXSXSXaXMXNXmXmXnX@XcXpXiXpXiXfX@. .@.fXiXpXiXpXCX|.s s S g.&.O.J.cXaX0X|.|.9XtXtXtXpXxXpXpX-.>.HXxXxXxXFXLX5X, #X",
"%X%X%X%X%X:.*X:X>X>X>X>X>X~.0X0X0X0X6X3X9XP.P.3X^.,XB y.U.T.T.T.T.M./.k.o.B.U.T.U.n.Y.9.9.n.M.U.e.T.T.T.T.T.T.T.T.T.T.E.P.P.[.W.!.!.!.!.F.W.!.!.!.!.!.!.!.!.!.!.Z.Z.Z.b.f.F.F.W.F.W.].W D.!.!.F.!.!.!.!.V.) ;X6X;X~.6X6X3XY./.5X:.T _ ;.6X3X3X3X3X3X3X3X3X3X3X3X3X3X3X3X3X3X6X~.3X3X3X3X8X/.j /.8X3X3X;X9X3XaXyX;X3X6X~.3XgX6XpX6X0X~.8X8X3X6X;X0X3X3X3X3X8XHX&X&X8X-XQ.-XyXh.-X:XyX5XmXNXmXsX5XyXmXmXSXSXSXSXSXSXSXaXMXNXmXmXnX@XcXpXiXpXiXfX@. .@.fXiXpXiXpXFX}.d d s 8.Y P K.cXaX0X|.|.9XtXtXtXpXxXiXfX+X=.1XcXxXxXxXuXK L fX",
">X=X>X:X:X:X6X6X6X6X6X6X6X~.3X3X3X3X3X3X3Xg /.~.~.T.V E.M.T.T.T.T.U.U.o.k./.B.T.U.n.Y.9.9.n.M.U.e.T.T.T.T.T.T.T.T.T.T.T.E.s U.!.!.!.!.!.F.W.!.!.!.!.!.!.!.!.!.!.Z.Z.Z.b.f.F.F.W.F.W.!.@X;.5XR.(.!.!.!.}.@XQ b.8X;X~.3X3X|.oXoXtX) h P.;.8X3X3X3X3X3X3X3X3X3X3X3X3X3X3X3X3X3X6X~.3X3X3X3X8X/.j /.8X3X3X~.6X3XuX9X3X3X6X~.3XpX3X8X6X3X~.3X3X3X6X~.6X3X3X3X~.8XyX%X5X:X-XJ.-XtXh.=X:XtX:XmXmXsXyX:X5XmXmXMXSXSXSXSXSXSXaXMXNXmXmXnX@XcXpXiXpXiXfX@. .@.fXiXpXiXpXFX}.s s s g.Y Y K.cXaX0X|.|.9XtXtXtXpXxXpXiXfX>.-.sXxXaXcX&.K wXpX",
"6X~.6X6X6X6X3X3X3X3X3X3X3X~.3X3X3X3X3X9XY.` ;X^.,XB 9.^.M.T.T.T.T.Y.$.$./.B.B.T.U.n.Y.9.9.n.M.U.e.T.T.T.T.T.T.T.T.T.T.T.W.P.P.4XW.!.!.!.F.W.!.!.!.!.!.!.!.!.!.!.Z.Z.Z.b.f.F.F.W.F.W.!.}.oXj.g ) !.!.!.W.oXoXp 4X3X~.8X0X|.:.:.$X) 9X~.] 5X6X3X3X3X3X3X3X3X3X3X3X3X3X3X3X3X3X6X~.3X3X3X3X8XJ._ (.5X3X3X~.6X3X9X8X3X3X6X~.3X9X3X6X3X3X~.3X3X3X6X~.3X6X3X3X~.8X@X$X3X;X$XoX;X5Xh.=X#X5X:XyXyXsXtX:X5XyXsXNXSXSXSXSXSXSXaXMXNXmXmXnX@XcXpXiXpXiXfX@. .@.fXiXpXiXpXFX}.s s s g.Y Y K.cXaX0X|.|.9XtXtXtXpXxXpXiXpXpXdXiXiXeXpX5XwXfXiX",
"3X~.3X3X3X3X3X3X3X3X3X3X3X~.3X3X3X3X3X8X` Y.~.~.^.V T.T.M.T.T.T./.%.o.T.T.U.B.T.U.n.Y.9.9.n.M.U.e.T.T.T.T.T.T.T.T.T.T.T.T.T.s E.!.!.!.!.F.W.!.!.!.!.!.!.!.!.!.!.Z.Z.Z.b.f.F.F.W.F.W.!.!.#XW W :.j.].!.oXg.$XP S ,X~.$X$X:.( oXoXg.0X/.) #X6X3X3X3X3X3X3X3X3X3X3X3X3X3X3X3X3X6X~.3X3X3X3X8X@XT (.5X3X3X~.6X3X8X3X3X3X6X~.;X3X3X3X3X3X~.3X3X3X6X~.;X6X3X3X~.8XOXtX:X;X@X%X;X:Xh.~.%X$X;XtXyXyX5X:X5XtXtXmXSXSXSXSXSXSXaXMXNXmXmXnX@XcXpXiXpXiXfX@. .@.fXiXpXiXpXFX}.d s s g.Y Y K.cXaX0X|.|.9XtXtXtXpXxXpXiXiXiXpXiXpXpXiXpXpXiXpX",
"3X~.3X3X3X3X3X3X3X3X3X3X3X~.3X3X3X3X8XY.` !.^.,Xy.B ^.U.M.T.Z./.k.o.c.T.T.U.M.T.U.n.Y.9.9.s.M.U.e.T.T.T.T.T.T.T.T.T.T.T.U.W.P.P.[.W.W.!.F.W.!.!.!.!.!.!.!.W.W.!.Z.Z.Z.x.f.F.F.E.Z.W.!.W.W.#X#XK.) R.W.;.F.H.W T Y.Y.T ~ / h %XT P.tX/.) $X0X6X3X3X3X3X3X3X3X3X3X3X6X3X3X3X3X3X~.;X3X3X3X8XD.T (.5X3X3X~.3X3X3X3X3X3X3X~.;X3X3X3X3X3X~.3X3X3X6X~.;X3X3X;X~.-XoX8X=X;X@X%X;X:Xh.~.%X$X;XtXtXyX:X:X:X3XtXmXMXSXSXSXSXSXsXMXNXmXmXnX@XcXpXiXpXiXfX@. .@.fXiXpXiXpXFX}.d s s g.Y Y K.cXaX0X|.|.9XtXtXtXpXxXpXiXiXeXaXaXqXqXpXgXpXiXpX",
"8X;X8X8X8X8X8X8X8X8X8X8X8X;X8X8X8X8X9X` (.~.~.~.V T.^.E.B.E./.k.o.k./.E.^.T.U.^.T.Y.Y.9.9.M.U.T.e.E.^.^.^.^.^.^.^.^.^.^.E.^.T.g !.].~.[.W.~.~.~.~.~.~.~.~.~.~.~.Z.E.W.m.f.Q.Q.!.E.!.].~.~.].}.H.) P.@XoXW.!.$X;.W W j.f f h *X;./.8X0X( %X8X>X8X8X8X8X8X8X8X8X8X8X>X8X8X8X8X8X;X8X8X8X8X0Xj.~ (.yX8X8X;X8X8X8X8X8X8X8X3X6X8X8X8X8X8X;X8X8X8X9X3X6X8X8X6X6X@X@X;X-X8XOX;.6X8XoX@X%X$X6XtXyXsX5X5X8X$XtXmXSXIXIXIXIXIXVXSXSXNXNXnX@XcXpXiXpXiXfX@. .@.fXiXpXiXpXFX}.s s s g.Y Y K.cXaX0X|.|.5X$X$X1XpXxXpXiXiXgX).z l l z Z iXpXeX",
"S.V.S.S.S.S.S.S.S.S.S.S.S.V.S.S.S.F.Y.s B.a.B.9.V n.a.a.r.n.@.o.7.r.r.a.a.r.r.a.r.q.r.C C e.q.r.5.a.a.a.a.a.a.a.a.a.a.a.a.r.b.s t.N.b.m.i.b.m.m.m.m.m.m.m.m.m.m.i.i.i.0.8.v.v.b.i.b.m.m.m.m.b.s.oX~ Q j.s.x.M.y.i W K.g g g oXoXB.S.J.g ) %X! F.F.J.J.S.S.F.F.T.S.! @XT.S.S.S.V.B.S.S.S.T.( ~ t.F.S.S.V.S.S.S.S.S.S.S.V.B.S.S.S.S.S.V.S.S.F.P.n.S.S.S.B.B.g.V.V.V.D.! :.S.B.! oX;.oXS.D.J.J.D.D.S.:.@XJ.5X5X5X5X5X5X-X5X5X>X>X$X@XcXpXiXpXiXfX@. .@.fXiXpXiXpXFX}.s s s g.Y Y K.cXaX7X7XjX$XE Q Q sXxXiXiXaXZ k A )..XZ l z wXpX",
"S.V.S.S.S.S.S.S.S.S.S.S.S.V.S.S.S.J.s t.B.b.V.V a.n.Y.a.&.o.X.x.a.r.a.a.a.r.r.a.r.q.r.C C q.q.r.5.a.a.a.a.a.a.a.a.a.a.a.a.a.a.r.s m.m.m.z.m.m.m.m.m.m.m.m.m.m.m.i.i.i.0.8.v.v.b.z.b.m.m.m.m.m.s.K.;.g r.x.b.m.S.V y.Q.J.B.B.J.J.V.S.F.e.s Q ;.h.(.oX;.T.J.P.f OXD.Q oXT.S.S.F.V.S.S.S.S.U.] ! t.E.S.S.V.S.S.S.S.S.S.F.B.B.F.S.S.S.S.V.S.S.J.h t.J.S.S.F.j.g.S.V.V.D.Q Q ;.T.! oXoXQ ;.E.D.J.S.D.D.:.OXJ.#X5X5X5X5XtX>X5X5X>X>X$X@XcXpXiXpXiXfX@. .@.fXiXpXiXpXFX}.s s s g.Y Y K.cXkXS s f f.Q Q Q sXxXeXgXd.k .XIXAXAXDXkXz A aX",
"0X,X0X0X0X0X0X0X0X0X0X0XjX,X0X0XjX|.g |.|.|.s.B Q.k.%.X.X.%./.T.E.U.E.^.^.T.U.^.T.M.Y.9.9.M.U.T.e.E.^.E.E.E.E.E.E.E.E.E.E.E.T.!.P.Y.4X~.W.!.~.~.~.~.~.~.~.~.~.~.Z.E.W.m.f.Q.Q.!.E.!.].~.~.~.~.E.~.!.R.~.W.!.~.3Xs.B yX8X3X3X8X8X;X8X8XV.Q.@X*X! ( ( ! :XuXP._ :.>X~ OX0X8X8X8X;X6X8X8X8X5X%XoXoX0X8X8X;X8X8X8X8X8X8X8X3X6X8X8X8X8X8X;X8X8XyXh P.yX8X8X9XOX$X8X-X-X>X! Q %X>X! oX%XQ :.>X:X$X$X$X:.:.&XyXmXIXIXIXIXIXVXSXSXNXNXnX@XcXpXiXpXiXfX@. .@.fXiXpXiXpXFX}.d s s g.Y Y K.cXkXs i i / Q Q Q sXxXiXpXz Z JXzXxXxXzXDX.Xk .X",
"+Xk.k.k.k.k.k.k.k.k.k.k.k.k.k.k.+X&.&.%.@.#.....X.X.$.k.Y./.T.T.T.M.U.T.T.U.M.T.U.n.Y.9.9.s.M.U.e.T.T.T.T.T.T.T.T.T.T.T.T.T.T.E.n.s !.!.F.W.!.!.!.!.!.!.!.!.!.!.Z.Z.Z.x.f.F.F.E.Z.W.!.W.!.!.W.Z.!.!.!.!.F.W.!.W.~.V Z.8X~.;X3X3X~.3X6Xv.3X8X6X:.T d T $X0Xj.Q :.$X) oX8X3X3X3X~.;X:X6X6X@Xg.^.W #X6X;X~.3X3X3X3X3X3X3X~.;X3X3X3X3X3X~.3X3X6X) j.6X3X6X-XoX-X-X=XQ.>XQ Q %X*X} oX:.Q ! :.*X$X%X$XQ Q *X3XtXSXSXSXSXSXsXMXNXmXmXnX@XcXpXiXpXiXfX@. .@.fXiXpXiXpXFX}.d s s g.Y Y K.cXkXg i f / Q Q Q sXxXaX{.l .XFXxXxXZXxXxXCXz Z ",
"X.X.X.X.X.X.X.X.X.X.X.X.X.X.X.X.X...$.#.@.&.&.k.c.T././.M.T.T.T.T.M.U.T.T.U.B.T.U.n.Y.9.9.n.M.U.e.T.T.T.T.T.T.T.T.T.T.T.T.T.T.T.E.s Y.].Z.W.!.!.!.!.!.!.!.!.!.!.Z.Z.Z.b.f.F.F.W.F.W.!.!.!.!.!.F.!.!.!.!.F.W.!.!.~.y.B yX~.;X6X3X~.3X6Xb.;X3X0X%XQ W _ oX|.OX_ ) ] ( oX8X3X3X3X~.#X:.>X0XoX( |.) $X0X6X~.3X3X3X3X3X3X6X~.;X6X8X5X5X3X~.5X5X|.W j.7X5X~.@XOX3X-X=X=X#XQ Q oX%Xi oX:.~ W :.%X*X%X@XQ Q *X3XtXSXSXSXSXSXaXMXNXmXmXnX@XcXpXiXpXiXfX@. .@.fXiXpXiXpXFX}.s s s g.Y Y K.cXkXg i f / Q Q Q sXxXaX.Xl  XZXxXxXwXxXxXAXz A ",
"8X~.6X8X8X8X8X8X8X0X0X0X0X~.0XeXI.P.0X/.|.C r./.T.T.T.T.M.T.T.T.T.M.U.T.T.U.B.T.U.n.Y.9.9.n.M.U.e.T.T.T.T.T.T.T.T.T.T.T.T.T.T.T.E.Y.s [.Z.W.!.!.!.!.!.!.!.!.!.!.Z.Z.Z.b.f.F.F.W.F.W.!.!.!.!.!.F.!.!.!.!.F.W.!.!.W.E.V !.;X;X6X3X~.3X6Xb.;X3X6X>X:.:.j.Q %X%Xg i ~ P.oX5X6X3X6X~.:.Q OX9XW P.0X) %X#X#X=X3X3X3X3X3X3X6X~.;XtXP.P.(.3X~.P.~.6X! ) /.P.h oXJ.;X-X=X=X#XQ Q oXoXi oX:.T ) Q :.oX:.oX:.:.%X:XtXNXSXSXSXSXaXMXNXmXmXnX@XcXpXiXpXiXfX@. .@.fXiXpXiXpXFX}.s s s g.Y Y K.cXkXg i f / Q Q Q sXxXpXqXl ).DXzXDXV 9.DXxXz d.",
"3X~.3X3X3X3X3X3X3X3X3X3X3X~.3X3Xg ^.~.;XB.V E.T.T.T.T.T.M.T.T.T.T.M.U.T.T.U.B.T.U.n.Y.9.9.n.M.U.e.T.T.T.T.T.T.T.T.T.T.T.T.T.T.T.T.E.s Y.G.W.!.!.!.!.!.!.!.!.!.!.Z.Z.Z.b.f.F.F.W.F.W.!.!.!.!.!.F.!.!.!.!.F.W.!.!.W.!.y.y.8X~.6X3X~.3X6Xb.;X6X3X6X6X6X>XW W :./.P.D./.) $X0X3X3X#X! W %X$X) 6X6Xj.Q W :.*X0X3X3X3X3X3X3X;X;X/.g ` ( 6X^.( P.h ! _ D _ _ j.-X5X-X=XQ.#XQ _ oX] i ] :.T s Q :.%X:.oX%X_ oX:XtXmXSXSXSXSXaXMXNXmXmXnX@XcXpXiXpXiXfX@. .@.fXiXpXiXpXFX}.s s s g.Y Y K.cXkXg i f / Q Q Q sXxXeXgXA z DXxXZX{.5 FX).l qX",
"3X~.3X3X3X3X3X3X3X3X3X3X3X~.9X(.P.3X^.,XB C ^.T.T.T.T.T.M.T.T.T.T.M.U.T.T.U.B.T.U.n.Y.9.9.n.M.U.e.T.T.T.T.T.T.T.T.T.T.T.T.T.T.T.T.E.P.P.H.W.!.!.!.!.!.!.!.!.!.!.Z.Z.Z.b.f.F.F.W.F.W.!.!.!.!.!.F.!.!.!.!.F.W.!.!.W.E.W.V !.;X6X3X~.3X6Xb.;X6X3X3X3X6X5X@Xf j.9X9X8X0X( oX=X6X$X:._ f Q W P.8X6X@XQ ~ ! :.$X6X6X3X3X6X%X@X3Xj _ %X;.~.^.:.g i ! W ( Q W T.U.g -X=XQ.$XQ s W ) C ) Q ) f Q ;.! ! %X#Xf W %X5XmXSXSXSXSXaXMXNXmXmXnX@XcXpXiXpXiXfX@. .@.fXiXpXiXpXFX}.d s s g.Y Y K.cXkXg i f / Q Q Q sXxXiXaX{.l A xXxXxXpX).k Z gX",
"6X~.3X3X3X3X3X3X3X3X3X3X3X~.6X` /.~.~.E.V M.U.T.T.T.T.T.M.T.T.T.T.M.U.T.T.U.B.T.U.n.Y.9.9.n.M.U.e.T.T.T.T.T.T.T.T.T.T.T.T.T.T.T.T.T.T.s M.!.!.!.!.!.!.!.!.!.!.!.Z.Z.Z.b.f.F.F.W.F.W.!.!.!.!.!.F.!.!.!.!.F.W.!.!.W.Z.3XB y.8X3X3X~.3X6Xb.;X6X3X3X3X3X3X6Xf (.5X;X;X8Xg T Q :.@XQ d f Q T (.5X6X#X) ! Q Q Q *X3X3X8X>XQ ! |.) Q W ! ;XQ.;.g.Q :.! W :.! h j.) ~.=X~.$XQ j.] ) P.) Q ) g ~ T ~ W %X(.f ~ Q >XmXSXSXSXSXaXMXNXmXmXnX@XcXpXiXpXiXfX@. .@.fXiXpXiXpXFX}.d s s g.Y Y K.cXkXg i f / Q Q Q sXxXiXeXgX.XA eXaXpXCXZ Z gXiX",
"3X~.3X3X3X3X3X3X3X3X3X3X3X3XY.` ;X^.,X9.9.T.U.T.T.T.T.T.M.T.T.T.T.M.U.T.T.U.B.T.U.n.Y.9.9.n.M.U.e.T.T.T.T.T.T.T.T.T.T.T.T.T.T.T.T.T.W.P.t.].W.!.!.!.!.!.!.!.!.!.Z.Z.Z.b.f.F.F.W.F.W.!.!.!.!.!.F.!.!.!.!.F.W.!.!.W.F.~.Z.V ;X6X3X~.3X6Xv.;X6X3X3X3X3X3X3X(.;X3X3X3XtXg f / T Q ) P.P.Q ;.|.3X6X^.S D.W Q Q Q %X:.@XOX_ W :.:.$X! ! (.T.W W Q *XOXW :.Q W ;.! =X-X#XOXQ @Xs ( n.) Q g.D.~ ) T W ] j j ~ Q >XsXSXSXSXSXaXMXNXmXmXnX@XcXpXiXpXiXfX@. .@.fXiXpXiXpXFX}.s s s g.Y Y K.cXkXg i f / Q Q Q sXxXiXpXeXaXgXpXiXiXeXaXgXiXiX",
"6X~.3X6X6X6X6X6X6X6X6X6X6X3X` Y.;X~.^.V T.U.T.E.T.T.T.T.M.E.T.T.E.B.T.T.E.U.U.T.U.n.Y.9.9.n.M.U.e.T.T.T.T.T.T.T.T.T.T.T.T.T.T.T.T.T.E.T.s E.!.!.!.!.!.!.!.!.!.!.Z.Z.Z.b.f.F.F.W.F.W.!.!.!.!.!.F.!.!.!.!.E.W.!.!.W.E.!.3XB s.yX3X~.6X8Xb.3X6X6X6X6X6X6X6X9X6X6X6X6XyXg h /.j.! f ~./._ %X0X3X6X6X5X0XoXQ ] :.:.Q ~ ) f ` Q :.3XQ ! ) g.W ! %X0X$X! ! Q :.! ! t.Y.oXQ Q $XS P.V.) T g #X~ _ _ T ) j j W Q #XyXSXSXSXSXMXVXVXNXmXnX@XcXpXiXpXiXfX@. .@.fXiXpXiXpXFX}.s s s g.Y Y K.cXkXg i f / Q Q Q sXxXiXpXpXiXiXpXpXpXpXiXeXiXpX",
";XQ.;X;X;X;X;X;X;X;X;X;X3XY.` ~.^.;Xy.B ^.n.B.U.U.U.U.U.M.U.U.U.U.M.B.U.U.M.M.U.Y.a.n.9.9.a.n.M.e.U.U.U.U.U.U.U.U.U.U.U.U.U.U.U.U.U.U.E.t.t.!.E.E.E.E.E.E.E.E.E.B.Z.A.i.f.S.S.F.Z.F.E.E.E.E.E.Z.E.E.E.W.Z.F.E.E.F.Z.E.W.m.V 3X~.Q.;X;Xh.~.;X;X;X;X;X;X;X~.;X;X;X~.5XP.S tX>X~.T.;X~.D.@X[.;X;X;X~.;X;X@Xf ( ! Q ) Q D.~.Q ;.;X! :.! ;.! :.;X[.$XQ oX%X%X:.:.W OXoXW W @X-X>Xa.) } h #Xf _ _ _ ( f f W ! @X3XMXMXMXMXsXsXmXsXsX>X@XcXpXiXpXiXfX@. .@.fXiXpXiXpXFX}.d s s g.Y Y K.cXkXg i f / Q Q Q sXxXiXiXiXiXiXiXiXiXiXiXiXiXiX",
";XQ.;X;X;X;X;X;X;X;X;X~.5X` (.~.^.^.V s.U.M.M.U.U.U.U.U.n.U.U.U.U.M.B.U.U.M.M.U.Y.a.n.9.9.a.n.M.e.U.U.U.U.U.U.U.U.U.U.U.U.U.U.U.U.U.U.U.a.s E.E.E.E.E.E.E.E.E.E.B.Z.A.i.f.S.S.F.Z.F.E.E.E.E.E.Z.E.E.E.E.Z.F.E.E.F.Z.E.E.W.V s.3XQ.;X;Xh.~.;X;X;X;X;X;X;X;X;X;X;X;X;X~.;X;X~.;XQ.~.;X3X~.;X;X;X;X;X;X~.~./.j T g.6X%X#X^.g.%X|.:.%XOX) Q :.~.;X#XQ #X#X$XoX%XQ oXoXj ) OX~.=Xv.( s Y.U.j _ _ h g g g ;.:.OX3XMXMXMXMXsXsXmXsXsX>X@XcXpXiXpXiXfX@. .@.fXiXpXiXpXFX}.d s s g.Y Y K.cXkXg i f / Q Q Q sXxXpXpXpXpXpXpXpXpXpXpXpXpXpX",
"6X~.3X6X6X6X6X6X6X6X6X8X/.g ;X^.,Xs.B ^.T.B.T.E.T.T.T.T.M.E.T.T.E.B.T.T.E.U.U.T.U.n.Y.9.9.n.M.U.e.T.T.T.T.T.T.T.T.T.T.T.T.T.T.T.T.T.T.T.Z.t.P.4X!.!.!.!.!.!.!.!.Z.Z.Z.m.f.F.F.W.F.W.!.!.!.!.!.F.!.!.!.!.E.W.!.!.W.E.!.!.!.p.B 8X~.6X8Xb.3X6X6X6X6X6X6X6X6X6X6X6X6X6X6X6X6X6X6X~.3X6X3X6X6X6X6X6X6X6X3X~.tXP._ j.0X3X6X5X(.( 9X:.$X|.( Q %X0X8X#X! >X;X-XQ.OXQ ;.] /.oX@X;X:XK.g h tXY.j h g f g T.(.W _ oX8XSXSXSXSXMXVXVXNXmXnX@XcXpXiXpXiXfX@. .@.fXiXpXiXpXFX}.d s s g.Y Y K.cXkXg i f / Q Q Q sXcXxXxXxXxXxXxXxXxXxXxXxXxXxX",
"3X~.3X3X3X3X3X3X3X3X3X9XP.P.;X^.;XV s.E.T.M.U.T.T.T.T.T.M.T.T.T.T.M.U.T.T.U.B.T.U.n.Y.9.9.n.M.U.e.T.T.T.T.T.T.T.T.T.T.T.T.T.T.T.T.T.T.T.B.Y.s !.!.!.!.!.!.!.!.!.Z.Z.Z.b.f.F.F.W.F.W.!.!.!.!.!.F.!.!.!.!.F.W.!.!.W.F.!.!.F.!.V Z.;X3X6Xv.;X3X3X3X3X3X3X3X3X3X3X3X3X3X3X3X3X3X6X~.3X3X3X3X3X3X3X3X3X3X3X~.3XyXP.P.tX3X6X5X(.S 9X%X>X0X#X! *X0X8XOX! >X-X=X~.OX:.W ) ;X=XS.-X:XK.P.g tX^.g h f f g tX;XW _ oX8XSXSXSXSXaXMXNXmXmXnX@XcXpXiXpXiXfX@. .@.fXiXpXiXpXFX}.s s s g.Y Y K.cXkXg i f / Q Q Q sXxX{.{.{.{.{.{.{.{.4X{.{.{.{.",
"6X~.3X3X3X3X3X3X3X3X6X~.` E.^.,Xs.V ^.T.T.M.U.T.T.T.T.T.M.T.T.T.T.M.U.T.T.U.B.T.U.n.Y.9.9.n.M.U.e.T.T.T.T.T.T.T.T.T.T.T.T.T.T.T.T.T.T.T.M.E.s n.].!.!.!.!.!.!.!.Z.Z.Z.b.f.F.F.W.F.W.!.!.!.!.!.F.!.!.!.!.F.W.!.!.W.F.!.!.E.!.p.B :X3X6Xb.;X6X3X3X3X3X3X3X3X3X3X3X3X3X3X3X3X3X6X~.3X3X3X3X3X3X3X3X3X3X3X~.6X3X;X6X3X3X6X;X;X3X3X3X3X3X~.3X:X6X3XoX:.>X-X=XQ.$X%X:.oX~.>XQ.-X:Xv.Q.^.-X-XtXg h h P.tX~.] d oX8XSXSXSXSXaXMXNXmXmXnX@XcXpXiXpXiXfX@. .@.fXiXpXiXpXFX}.s s s g.Y Y K.cXkXg i f / Q Q Q sXxX[.[.'.'.4X{.[.4XZ.[.{.4X].",
"6X~.3X3X3X3X3X3X3X3X9XP.P.~.^.,XB p.^.T.T.M.U.T.T.T.T.T.M.T.T.T.T.M.U.T.T.U.B.T.U.n.Y.9.9.n.M.U.e.T.T.T.T.T.T.T.T.T.T.T.T.T.T.T.T.T.T.T.M.E.Y.s ].W.!.!.!.!.!.!.Z.Z.Z.b.f.F.F.W.F.W.!.!.!.!.!.F.!.!.!.!.F.W.!.!.W.F.!.!.E.E.~.V Z.8X6Xb.;X6X3X3X3X3X3X3X3X3X3X3X3X3X3X3X3X3X6X~.3X3X3X3X3X3X3X3X3X3X3X~.6X3X3X3X3X3X6X~.;X6X3X3X3X3X~.3X3X8X@Xg.=X-X-X-XQ.>X:XoXj.3X-XQ.-X:Xh.=X:X-X-X5XS g g P.tX~.] d oX5XVXSXSXSXaXMXNXmXmXnX@XcXpXiXpXiXfX@. .@.fXiXpXiXpXFX}.d s s g.Y Y K.cXkXg i f / Q Q Q sXxX[.4Xy.p.A.s.W.m.9.A.Z.p.A.",
"6X~.3X3X3X3X3X3X3X3X;Xg ^.E.;XM.V ^.T.T.T.M.U.T.T.T.T.T.M.T.T.T.T.M.U.T.T.U.B.T.U.n.Y.9.9.n.M.U.e.T.T.T.T.T.T.T.T.T.T.T.T.T.T.T.T.T.T.T.M.U.E.s Y.].!.!.!.!.!.!.Z.Z.Z.b.f.F.F.W.F.W.!.!.!.!.!.F.!.!.!.!.F.W.!.!.W.F.!.!.E.E.3Xy.B yX6Xb.;X6X3X3X3X3X3X3X3X3X3X3X3X3X3X3X3X3X6X~.3X3X3X3X3X3X3X3X3X3X3X~.6X3X3X3X3X3X6X~.;X6X3X3X3X3X~.3X3X6XOXD.;X-X-X-XQ.-X5XP.P.5X-XQ.-X:Xh.=X-X-X-XtXP.g Y.Y.>X~.oXi oX5XVXSXSXSXaXMXNXmXmXnX@XcXpXiXpXiXfX@. .@.fXiXpXiXpXFX}.d s s g.Y Y K.cXkXg i f / Q Q Q sXxX[.].B B 9.y.p.V 5.9.9.y.9.",
"6X~.3X3X3X3X3X3X3X9X(.P.3XT.,XB y.^.T.T.T.M.U.T.T.T.T.T.M.T.T.T.T.M.U.T.T.U.B.T.U.n.Y.9.9.n.M.U.e.T.T.T.T.T.T.T.T.T.T.T.T.T.T.T.T.T.T.T.M.U.E.P.P.[.W.!.!.!.!.!.Z.Z.Z.b.f.F.F.W.F.W.!.!.!.!.!.F.!.!.!.!.F.W.!.!.W.F.!.!.E.E.!.W.V ~.8Xv.;X6X3X3X3X3X3X3X3X3X3X3X3X3X3X3X3X3X6X~.3X3X3X3X3X3X3X3X3X3X3X~.6X3X3X3X3X3X6X~.;X6X3X3X3X3X~.3X6X=XOX=X=X-X-X-XQ.-X-X=X=X-X-XQ.-X:Xh.=X-X-X-X5XP.g tX-X-X;X) i W *XCXSXSXSXaXMXNXmXmXnX@XcXpXiXpXiXfX@. .@.fXiXpXiXpXFX}.d s s g.Y Y K.cXkXg i f / Q Q Q sXxX4XZ.m.s.p.A.9.5.s.y.p.A.5.",
"6X~.3X3X3X3X3X3X3X6X` /.~.^.T.V T.T.T.T.T.M.U.T.T.T.T.T.M.T.T.T.T.M.U.T.T.U.B.T.U.n.Y.9.9.n.M.U.e.T.T.T.T.T.T.T.T.T.T.T.T.T.T.T.T.T.T.T.M.T.T.E.s T.!.!.!.!.!.!.Z.Z.Z.b.f.F.F.W.F.W.!.!.!.!.!.F.!.!.!.!.F.W.!.!.W.F.!.!.E.E.!.;XB y.yXv.;X6X3X3X3X3X3X3X3X3X3X3X3X3X3X3X3X3X6X~.3X3X3X3X3X3X3X3X3X3X3X~.6X3X3X3X3X3X6X~.;X6X3X3X3X3X~.3X8XOX@X=X=X-X-X-XQ.-X-X=X=X-X-XQ.-X:Xh.=X-X-X-X-X=XQ.-X-X-X>Xh h W :.VXSXSXSXaXMXNXmXmXnX@XcXpXiXpXiXfX@. .@.fXiXpXiXpXFX}.s s s g.Y Y K.cXkXg i f / Q Q Q sXxX].].[.[.[.[.[.[.[.p.W.].{.",
"3X~.3X3X3X3X3X3X9X(.` ;X^.~.B 9.^.T.T.T.T.M.U.T.T.T.T.T.M.T.T.T.T.M.U.T.T.U.M.T.U.n.Y.9.9.n.M.U.e.T.T.T.T.T.T.T.T.T.T.T.T.T.T.T.T.T.T.T.M.U.T.E.P.P.[.W.!.!.!.!.Z.Z.Z.x.f.F.F.E.Z.W.!.!.!.!.W.Z.!.!.W.!.F.W.!.!.W.F.!.!.E.E.!.!.m.V 6Xv.;X3X3X3X3X3X3X3X3X3X3X3X3X3X3X3X3X3X3X~.;X3X3X3X3X3X3X3X3X3X3X~.3X3X3X3X3X3X3X~.;X3X3X3X3X3X~.6X;XoX-XQ.=X-X-X=XQ.-X-X=X=X-X-XJ.-X:Xh.=X-X-X-X-X-X-X-X-X-X>Xh S W Q MXSXSXSXsXMXNXmXmXnX@XcXpXiXpXiXfX@. .@.fXiXpXiXpXFX}.s s s g.Y Y K.cXkXg i f / Q Q Q sXxXwXqXqXqXqXqXqXwXqXwXwXwXqX",
"8X;X8X8X8X8X8X8X9X` /.;X;XU.V T.^.E.E.E.^.U.T.^.E.E.^.E.U.^.E.E.^.U.E.^.^.T.U.T.T.M.Y.9.9.M.U.T.e.E.E.E.E.E.E.E.E.E.E.E.E.E.E.E.E.E.E.^.U.E.^.E.E.g E.[.~.~.~.~.Z.E.E.m.f.Q.Q.!.E.!.~.~.~.~.~.E.~.~.~.[.W.!.~.~.!.W.].].W.W.[.!.~.B d.D.3X8X8X8X8X8X8X8X8X8X8X8X8X8X8X8X8X8X8X;X6X8X8X8X8X8X8X8X8X8X8X;X8X8X8X8X8X8X8X3X3X8X8X8X8X8X;X9X@XOX8X=X-X:X:X:X=X:X:X-X-X:X:X=X:X5XV.-X:X:X:X:X:X:X:X:X:XtXg P.) Q VXIXIXIXMXSXSXNXNXnX@XcXpXiXpXiXfX@. .@.fXiXpXiXpXFX}.d s s g.Y Y K.cXkXg i f / Q Q Q sXxXpXpXiXpXiXpXiXpXpXpXpXpXpX",
"F.V.S.F.F.F.S.F.Y.s S.M.T.B V M.a.a.a.a.a.r.a.a.a.a.a.a.r.a.a.a.a.r.a.a.a.a.r.a.r.q.r.C C q.r.a.5.a.a.a.a.a.a.a.a.a.a.a.a.a.a.a.a.a.a.a.r.a.a.a.m.s t.C.m.m.m.m.i.i.i.0.8.v.v.b.z.m.N.m.m.m.m.z.m.m.m.N.b.m.m.m.m.b.N.N.b.b.N.m.b.p.V w.B.F.F.F.F.F.F.F.F.F.F.F.F.F.F.F.F.F.F.B.S.F.F.F.F.F.F.F.F.F.S.V.F.F.F.F.F.F.F.B.S.F.F.F.F.F.V.E.g.V.S.V.D.D.D.D.V.D.D.D.V.D.D.V.D.D.w.V.D.D.D.D.D.D.D.D.D.J.g S _ ! 5XtX5XtX5X5X5X5X>X$X@XcXpXiXpXiXfX@. .@.fXiXpXiXpXFX}.d s s g.Y Y K.cXkXg i f / Q Q Q sXxXiXpXaXaXaXaXxXpXaXpXpXiXiX",
"S.V.B.S.S.S.B.F.s r.B.M.n.V a.a.a.a.a.a.a.q.r.a.a.a.a.r.q.a.a.a.a.q.r.a.a.r.r.r.r.q.r.C C e.q.r.5.r.a.a.a.a.a.a.a.a.a.a.a.a.a.a.a.a.a.a.q.r.a.a.a.r.s b.m.b.m.m.i.i.i.0.8.v.v.b.i.b.m.m.m.m.b.i.m.m.b.m.i.b.m.m.b.i.m.m.z.z.m.b.i.B.V N S.S.S.S.S.S.S.S.S.S.S.S.S.S.S.S.S.S.S.V.B.S.S.S.S.S.S.S.S.S.S.V.S.S.S.S.S.S.S.V.B.S.S.S.S.S.B.j.g.S.D.V.V.D.D.V.V.D.D.V.V.D.D.V.D.D.7.V.D.D.D.D.D.D.D.D.V.J.g t.g :.$X5X5X5X#X5X5X#X#X$X@XcXpXiXpXiXfX@. .@.fXiXpXiXpXFX}.d s s g.Y Y K.cXkXg i f / Q Q Q sXxXpX{.p.Z.s.m.4.qXm.4XeXpXiX",
"8X;X8X8X8X8X9X/.` ;X~.,Xs.V ^.E.^.^.^.E.^.U.E.^.^.^.^.E.U.^.E.E.^.U.E.^.^.T.U.^.T.Y.Y.9.9.M.U.T.q.E.^.^.^.^.^.^.^.^.^.^.^.^.^.^.^.^.E.^.U.E.^.^.T.!.P.P.4X~.~.~.Z.E.W.m.f.Q.Q.!.E.!.[.~.~.~.~.E.~.~.~.[.W.!.].].!.W.[.[.W.!.[.~.E.3XA.V yX8X8X8X8X8X8X8X8X8X8X8X8X8X8X8X8X8X8X;X8X8X8X8X8X8X8X8X8X8X8X;X8X8X8X8X8X8X8X3X6X8X8X8X8X8X6XOX$X6X:X-X-X:X:X:X=X:X:X-X-X:X:X=X:X8XV.-X:X:X:X:X:X:X:X:X:X:X-XQ.h oXBXIXIXIXVXSXSXNXNXnX@XcXpXiXpXiXfX@. .@.fXiXpXiXpXFX}.s s s g.Y Y K.cXkXg i f / Q Q Q sXxXgXA.5.p.4.].4.xXp.p.B W.aX",
"3X~.3X3X3X;X9XP.P.;X^.;XV a.E.T.T.T.T.T.T.M.U.T.T.T.T.T.M.T.T.T.T.M.U.T.T.U.M.T.U.n.Y.9.9.s.M.U.e.T.T.T.T.T.T.T.T.T.T.T.T.T.T.T.T.T.T.T.M.U.T.T.T.E.Y.s !.W.W.!.Z.Z.Z.x.f.F.F.E.Z.W.!.W.W.!.W.Z.!.W.W.!.F.W.!.!.W.F.!.!.E.E.!.W.Z.W.~.V Z.8X3X3X3X3X3X3X3X3X3X3X3X3X3X3X3X3X3X~.;X3X3X3X3X3X3X3X3X3X3X~.3X3X3X3X3X3X3X~.;X3X3X3X3X6XJ.oX-X-X-XQ.=X-X-X=XQ.-X-X=X=X-X-XJ.-X:Xh.=X-X-X-X-X-X-X-X-X-X-X>X-Xj _ BXZXSXSXsXMXNXmXmXnX@XcXpXiXpXiXfX@. .@.fXiXpXiXpXFX!.y y d P L L v.cXkXs u u / R H U uXxXgXA.p.m.s.7Xp.xXp.9.m.s.xX",
"6X~.3X3X3X6X~.g ~.^.,Xs.V U.T.T.T.T.T.T.T.M.U.T.T.T.T.T.M.T.T.T.T.M.U.T.T.U.B.T.U.n.Y.9.9.n.M.U.e.T.T.T.T.T.T.T.T.T.T.T.T.T.T.T.T.T.T.T.M.T.T.T.T.T.W.s Y.].W.!.Z.Z.Z.b.f.F.F.W.F.W.!.!.!.!.!.F.!.!.!.!.F.W.!.!.W.F.!.!.E.E.!.!.F.W.3XM B yX3X3X3X3X3X3X3X3X3X3X3X3X3X3X3X3X6X~.3X3X3X3X3X3X3X3X3X3X3X~.6X3X3X3X3X3X6X~.;X6X3X3X3X0Xj.@X3X-X-X=X=X-X-X-XQ.-X-X=X=X-X-XQ.-X:Xh.=X-X-X-X-X-X-X-X-X-X-X-X-Xf ) BXAXSXSXaXMXNXmXmXnX@XcXpXiXpXiXfX@. .@.fXiXpXiXpXFX!.y y d P L L v.cXxXs u u / R H U uXxXpX4XwX7XwXeX[.aXG.'.4X4XpX",
"6X~.3X3X3X9XP.P.;X^.,XV s.U.T.T.T.T.T.T.T.M.U.T.T.T.T.T.M.T.T.T.T.M.U.T.T.U.B.T.U.n.Y.9.9.n.M.U.e.T.T.T.T.T.T.T.T.T.T.T.T.T.T.T.T.T.T.T.M.T.T.T.T.T.E.Y.s ].W.!.Z.Z.Z.b.f.F.F.W.F.W.!.!.!.!.!.F.!.!.!.!.F.W.!.!.W.F.!.!.E.E.!.!.F.!.!.r.V W.8X3X3X3X3X3X3X3X3X3X3X3X3X3X3X3X6X~.3X3X3X3X3X3X3X3X3X3X3X~.6X3X3X3X3X3X6X~.;X6X3X3X6X3XoX=X-X-X-X=X=X-X-X-XQ.-X-X=X=X-X-XQ.-X:Xh.=X-X-X-X-X-X-X-X-X-X-X-X-Xh ) BXAXSXSXaXMXNXmXmXnX@XcXpXiXpXiXfX@. .@.fXiXpXiXpXFX!.y y d P L L v.cXxXs u u / R H U uXxXiXpXpXpXpXiXpXiXaXaXpXpXiX",
"6X~.3X3X3X;Xg ^.~.;XM.V ^.M.T.T.T.T.T.T.T.M.U.T.T.T.T.T.M.T.T.T.T.M.U.T.T.U.B.T.U.n.Y.9.9.n.M.U.e.T.T.T.T.T.T.T.T.T.T.T.T.T.T.T.T.T.T.T.M.T.T.T.T.T.T.E.s Y.].!.Z.Z.Z.b.f.F.F.W.F.W.!.!.!.!.!.F.!.!.!.!.F.W.!.!.W.F.!.!.E.E.!.!.F.!.!.v.y.B yX3X3X3X3X3X3X3X3X3X3X3X3X3X3X3X6X~.3X3X3X3X3X3X3X3X3X3X3X~.6X3X3X3X3X3X6X~.;X6X3X3X8X@XOX3X-X-X-X=X=X-X-X-XQ.-X-X=X=X-X-XQ.-X:Xh.=X-X-X-X-X-X-X-X-X-X-X-X-X/.oXnXAXSXSXaXMXNXmXmXnX@XcXpXiXpXiXfX@. .@.fXiXpXiXpXFX!.y y d P L L v.cXxXs u u / R H U uXxXpXpXpXpXpXpXpXpXpXpXpXpXpX",
"6X~.3X3X9XP.P.3X^.,XB y.^.M.T.T.T.T.T.T.T.M.U.T.T.T.T.T.M.T.T.T.T.M.U.T.T.U.B.T.U.n.Y.9.9.n.M.U.e.T.T.T.T.T.T.T.T.T.T.T.T.T.T.T.T.T.T.T.M.T.T.T.T.T.T.E.P.t.[.W.Z.Z.Z.b.f.F.F.W.F.W.!.!.!.!.!.F.!.!.!.!.F.W.!.!.W.F.!.!.E.E.!.!.F.!.!.w.E.V ~.6X3X3X3X3X3X3X3X3X3X3X3X3X3X3X6X~.3X3X3X3X3X3X3X3X3X3X3X~.6X3X3X3X3X3X6X~.;X6X3X3X6XOXD.:X-X-X-X=X=X-X-X-XQ.-X-X=X=X-X-XQ.-X:Xh.=X-X-X-X-X-X-X-X-X-X-X-X-X6XoXnXAXSXSXaXMXNXmXmXnX@XcXpXiXpXiXfX@. .@.fXiXpXiXpXFX!.y y d P L L v.cXkXs u u / R H U uXcXxXxXxXxXxXxXxXxXxXxXxXxXxX",
"6X~.3X3X3Xg /.~.~.T.V E.T.M.T.T.T.T.T.T.T.M.U.T.T.T.T.T.M.T.T.T.T.M.U.T.T.U.B.T.U.n.Y.9.9.n.M.U.e.T.T.T.T.T.T.T.T.T.T.T.T.T.T.T.T.T.T.T.M.T.T.T.T.T.T.T.E.s U.!.Z.Z.Z.b.f.F.F.W.F.W.!.!.!.!.!.F.!.!.!.!.F.W.!.!.W.F.!.!.E.E.!.!.F.!.!.w.;Xy.y.yX3X3X3X3X3X3X3X3X3X3X3X3X3X3X6X~.3X3X3X3X3X3X3X3X3X3X3X~.6X3X3X3X3X3X6X~.;X6X3X6X#XOXQ.-X-X-X-X=X=X-X-X-XQ.-X-X=X=X-X-XQ.-X:Xh.=X-X-X-X-X-X-X-X-X-X-X-X-X;XoX&XDXSXSXaXMXNXmXmXnX@XcXpXiXpXiXfX@. .@.fXiXpXiXpXFX!.y y d P L L v.cXxXs u u / R H U uXxXpXpXpXpXpXpXpXpXpXpXpXpXpX",
"3X~.;X9X(.` ;X^.,XB 9.^.T.M.T.T.T.T.T.T.T.M.U.T.T.T.T.T.M.T.T.T.T.M.U.T.T.U.B.T.U.n.Y.9.9.n.M.U.e.T.T.T.T.T.T.T.T.T.T.T.T.T.T.T.T.T.T.T.M.T.T.T.T.T.T.T.W.P.P.[.Z.Z.Z.b.f.F.F.W.F.W.!.!.!.!.!.F.!.!.!.!.F.W.!.!.W.F.!.!.E.E.!.!.F.!.!.w.W.E.V 3X3X3X3X3X3X3X3X3X3X3X3X3X3X3X6X~.3X3X3X3X3X3X3X3X3X3X3X~.3X3X3X3X3X3X6X~.;X6X3X8XOX@XQ.-X-X-X-X=X=X-X-X-XQ.-X-X=X=X-X-XQ.-X:Xh.=X-X-X-X-X-X-X-X-X-X-X-X-X6XoX&XDXSXSXaXMXNXmXmXnX@XcXpXiXpXiXfX@. .@.fXiXpXiXpXFX!.y y d P L L v.cXxXs u u / R H U uXxXiXiXpXiXpXpXiXpXiXiXiXiXiX",
"6X~.3X8X` Y.;X~.^.V T.T.T.M.T.T.T.T.T.T.E.B.T.T.T.T.T.T.M.E.T.T.E.B.T.T.E.U.U.T.U.n.Y.9.9.n.M.U.e.T.T.T.T.T.T.T.T.T.T.T.T.T.T.T.T.T.T.E.M.T.T.T.T.T.T.T.T.T.s E.Z.Z.Z.b.f.F.F.W.F.W.!.!.!.!.!.F.!.!.!.!.E.W.!.!.W.E.!.!.E.W.!.!.F.!.~.w.W.3XB p.yX3X6X6X6X6X6X6X6X6X6X6X6X6X6X~.3X6X6X6X6X6X6X6X6X6X3X~.6X6X6X6X6X6X8X;X;X6X6X-XOX:XQ.-X-X-X:X=X-X:X-X-X=X:X:X=X=X:X-XQ.-X:Xh.=X:X-X-X-X-X-X-X-X-X-X-X-X6XoX&XDXSXSXMXVXVXNXmXnX@XcXpXiXpXiXfX@. .@.fXiXpXiXpXFX!.y y d P L L v.cXxXs u u / R H U uXxXiXpXeXpXeXeXpXeXaXiXaXpXpX",
";XQ.3XY.` ~.^.;X9.B ^.B.U.M.U.U.U.U.U.U.U.M.B.U.U.U.U.U.M.U.U.U.U.M.U.U.U.M.M.U.Y.a.Y.9.9.a.n.M.e.U.U.U.U.U.U.U.U.U.U.U.U.U.U.U.U.U.U.U.M.U.U.U.U.U.U.U.U.E.t.t.F.Z.A.z.f.F.S.F.Z.F.W.E.E.E.E.Z.E.E.E.W.Z.F.W.W.F.Z.W.W.Z.F.W.E.Z.E.W.w.F.!.m.V 3X;X;X;X;X;X;X;X;X;X;X;X;X;X;X!.~.;X;X;X;X;X;X;X;X;X;XQ.;X;X;X;X;X;X;X!.~.;X6XOXOX;XJ.=X=X=X=XJ.Q.=X=X=XJ.=X=XQ.J.=X=XJ.=X-Xh.J.=X=X=X=X=X=X=X=X=X=X=X=X;XoX&XCXMXMXsXsXmXmXmXtX@XcXpXiXpXiXfX@. .@.fXiXpXiXpXFX!.y y d P L L v.cXxXs u u / R H U uXxXaX'.y.m.p.s.M wXG.5.Z.eXwX",
";XQ.3X` Y.~.^.^.V n.U.U.U.n.U.U.U.U.U.U.U.M.M.U.U.U.U.B.n.U.U.U.U.M.M.U.U.M.M.U.Y.a.n.9.9.a.s.M.e.B.U.U.U.U.U.U.U.U.U.U.U.U.U.U.U.U.U.U.n.B.U.U.U.U.U.U.U.U.Y.s M.Z.A.i.f.S.B.F.B.F.E.E.E.E.E.Z.E.E.E.E.Z.F.E.E.F.Z.E.E.Z.Z.E.E.Z.E.W.0.F.E.~.B s.3X~.;X;X;X;X;X;X;X;X;X;X;X;XQ.~.;X;X;X;X;X;X;X;X;X~.Q.;X;X;X;X;X;X;X!.~.;X;XoX#X=XJ.=X=X=X=XJ.Q.=X=XQ.J.=X=XJ.J.=X=XJ.=X=Xh.J.=X=X=X=X=X=X=X=X=X=X=X=X~.oX&XCXmXMXsXsXmXsXsX>X@XcXpXiXpXiXfX@. .@.fXiXpXiXpXFX!.y y d P L L v.cXkXs u u / R H U uXxXgXA.5.p.4.4Xp.xX5.pXB p.A.",
"6X;X/.` ;X^.,Xp.B ^.T.T.E.M.T.T.T.T.T.T.E.B.T.E.T.T.T.T.M.E.T.T.E.B.T.T.T.U.U.T.U.n.Y.9.9.n.M.U.e.T.T.T.T.T.T.T.T.T.T.T.T.T.T.T.T.T.T.E.M.T.T.T.T.T.T.T.T.T.W.P.t.H.Z.m.f.F.F.W.F.W.!.!.!.!.!.F.!.!.!.!.E.W.!.!.W.E.!.!.E.W.!.!.F.!.~.w.W.!.~.m.B 8X3X6X6X6X6X6X6X6X6X6X6X6X8X~.3X6X6X6X6X6X6X6X6X6X3X~.6X6X6X6X6X6X8X;X;X9X@XOX3X-XQ.-X-X-X:X=X-X:X:X-X=X:X:X=X=X:X-XQ.-X:Xh.=X:X-X-X-X-X-X-X-X-X-X-X-X6XOX&XDXSXSXMXVXVXNXmXnX@XcXpXiXpXiXfX@. .@.fXiXpXiXpXFX!.y y d P L L v.cXxXs u u / R H U uXxXgXZ.A.A.A.7Xp.xXp.p.p.y.5.",
"3X5XP.(.;X^.;XV s.E.T.T.T.M.T.E.T.T.T.T.T.M.U.T.T.T.T.T.M.T.T.T.T.M.U.E.E.U.B.T.U.n.Y.9.9.n.M.U.e.T.T.T.T.T.T.E.E.T.T.T.T.T.T.T.T.T.T.T.M.T.T.T.T.T.T.E.T.T.E.Y.s F.Z.b.f.F.F.W.F.W.!.!.!.!.W.E.!.!.!.!.F.W.!.!.W.F.!.!.E.E.!.!.F.!.!.w.!.!.!.~.V Z.8X3X3X3X3X3X3X3X3X3X3X3X6X~.3X8X6X3X3X3X3X3X3X3X3X~.3X3X3X3X3X3X6X~.3X8XOX#X;X-XQ.-X-X-X-X=X=X-X-X-XQ.-X-X=X=X:X-XQ.-X:Xh.=X-X-X-X-X-X-X-X-X-X-X-X-X3XOX&XDXSXSXaXMXNXmXmXnX@XcXpXiXpXiXfX@. .@.fXiXpXiXpXFX!.y y d P L L v.cXxXs u u / R H U uXxXpXwXeXwXeXiXqXpXeXW.pX4X{.",
"8XT.g ~.^.,Xs.V ^.T.T.T.T.M.U.M.U.T.T.T.T.M.U.T.T.T.T.T.M.T.T.T.T.B.U.M.M.B.U.T.U.n.Y.9.9.n.M.U.e.T.T.T.T.T.T.M.M.U.T.T.T.T.T.T.T.T.T.T.M.T.T.T.T.T.E.M.U.U.U.W.s r.G.b.f.F.F.W.F.W.!.!.!.!.!.N.F.F.W.!.F.W.!.!.W.F.!.!.E.E.!.!.F.!.~.w.Z.W.E.;Xp.B yX3X3X3X3X3X3X3X3X3X3X3X6X~.E.!.~.3X3X3X3X3X3X3X3X~.6X3X3X3X3X3X6X;XW.#XOX;X-X-XQ.-X-X-X-X=X=X-X-X-XQ.-X-X=XS.=X=XQ.-X:Xh.=X-X-X-X-X-X-X-X-X-X-X-X-X3XOX*XDXSXSXaXMXNXmXmXnX@XcXpXiXpXiXfX@. .@.fXiXpXiXpXFX!.y y d P L L v.cXxXs u u / R H U uXxXiXpXiXpXiXiXpXiXiXaXiXpXpX",
"9XP.P.;X^.,XV s.^.T.T.T.T.M.9.a.9.n.E.T.T.M.U.T.T.T.T.T.M.T.T.T.T.U.e.r.a.9.U.T.U.n.Y.9.9.n.M.U.e.T.T.T.T.E.r.q.r.9.E.T.T.T.T.T.T.T.T.T.M.T.T.T.T.E.a.e.n.9.T.E.r.s G.b.f.F.F.W.F.W.!.!.!.~.Z.e.i.9.!.!.F.W.!.!.W.F.!.!.E.E.!.!.F.!.~.5.b.9.B.!.~.V W.8X3X3X3X3X3X3X3X3X3X3X8Xb.b.B.e.8X3X3X3X3X3X3X3X~.6X3X3X3X3X3X8XN.a.g.f.;X-X-XQ.-X-X-X-X=X=X-X-X-XQ.-X:XD.h.b.7.S.-X:Xh.=X-X-X-X-X-X-X-X-X-X-X-X-X3XOX*XDXSXSXaXMXNXmXmXnX@XcXpXiXpXiXfX@. .@.fXiXpXiXpXFX!.y y d P L L v.cXxXs u u / R H U uXxXaXaXaXaXaXaXaXaXaXpXaXaXaX",
";Xg ^.~.;XM.V ^.T.T.T.T.T.M.9.^.r.n.E.T.T.M.U.T.T.T.T.T.M.T.T.T.T.U.9.T.a.q.U.T.U.n.Y.9.9.n.M.U.e.T.T.T.T.^.9.M.M.9.T.T.T.T.T.T.T.T.T.T.M.T.T.T.T.^.q.a.q.a T.T.B.s a.N.f.F.F.W.F.W.!.!.W.~.b.e.!.9.Z.~.F.W.!.!.W.F.!.!.E.E.!.!.F.!.!.5.F.5.q.!.;Xy.B yX3X3X3X3X3X3X3X3X3X3X8Xe.;XE.B.8X3X3X3X3X3X3X3X~.6X3X3X3X3X3X8Xi.S.) 3.-X-X-XQ.-X-X-X-X=X=X-X-X-XQ.-X:XV.V.Q.2.D.:X:Xh.=X-X-X-X-X-X-X-X-X-X-X-X-X3XOX*XDXSXSXaXMXNXmXmXnX@XcXpXiXpXiXfX@. .@.fXiXpXiXpXFX!.y y d P L L v.cXkXs u u / R H U uXcXxXxXxXxXxXxXxXxXxXxXxXxXxX",
"P.P.;X^.,XB y.^.T.T.T.T.T.U.a.r.M.M.E.T.T.M.U.T.T.T.T.T.M.T.T.T.T.U.a.q.e.r.U.T.U.n.Y.9.9.n.M.U.e.T.T.T.T.E.M.q.r.r.T.T.T.T.T.T.T.T.T.T.M.T.T.T.T.T.U.e.M.a.U.T.B.r.C N.f.F.F.W.F.W.!.!.!.!.W.e.m.i.E.!.F.W.!.!.W.F.!.!.E.E.!.!.F.!.~.4.i.b.m.!.!.W.V ~.6X3X3X3X3X3X3X3X3X3X8XS.b.F.~.6X3X3X3X3X3X3X3X~.6X3X3X3X3X3X8X^.g.j.V.-X-X-XQ.-X-X-X-X=X=X-X-X-XQ.-X:XQ.h.S.V.Q.-X:Xh.=X-X-X-X-X-X-X-X-X-X-X-X-X;XOX*XDXSXSXaXMXNXmXmXnX@XcXpXiXpXiXfX@. .@.fXiXpXiXpXFX!.y y d P L L v.cXxXs u u / R H U uXxXiXiXiXiXiXfXhXhXfXpXiXiXiX",
"g Y.~.~.U.V E.T.T.T.T.T.T.M.E.E.T.T.T.T.T.M.U.T.T.T.T.T.M.T.T.T.T.M.T.E.^.T.M.T.U.n.Y.9.9.n.M.U.e.T.T.T.T.T.T.E.T.E.T.T.T.T.T.T.T.T.T.T.M.T.T.T.T.T.T.E.T.E.T.T.n.B.s q.f.F.F.E.F.W.!.!.!.!.!.E.!.!.!.!.F.W.!.!.W.F.!.!.E.E.!.W.F.!.!.i.!.~.!.!.W.3Xy.y.yX3X3X3X3X3X3X3X3X3X3X;X6X8X6X3X3X3X3X3X3X3X3X~.3X3X3X3X3X3X6X;XoX-X:X-X-X-XQ.-X-X-X-X=X=X-X-X-XQ.-X-X=X-X:X:XQ.-X:Xh.=X-X-X-X-X-X-X-X-X-X-X-X-X;X@X*XDXSXSXaXMXNXmXmXnX@XcXpXiXpXiXfX@. .@.fXiXpXiXpXFX!.y y d P L L v.cXxXs u u / R H U uXxXiXpXiXpXfX1Xk.%.+XuXfXiXpX",
"` T.n.Y.V 9.B.q.n.B.r.a.U.a.a.r.r.U.a.q.M.n.r.a.q.M.M.q.a.U.r.r.U.a.a.a.q.M.n.q.a.a.r.C B a.s.q.r.U.a.q.M.n.r.a.q.M.M.q.a.U.r.a.q.a.U.r.r.B.n.q.n.M.r.a.q.n.B.r.r.B.t.s 8.z.S.b.i.Z.Z.i.N.E.b.m.i.m.E.b.i.F.B.s.b.i.F.B.i.B.F.i.b.E.m.m.a.b.E.m.i.F.N.V B.V.!.~.m.F.;XB.B.;XE.B.S.V.~.E.b.Q.~.B.B.m.E.~.B.B.;XF.V.~.!.j.g.V.J.Q.V.D.=XV.D.V.D.=XV.V.=XS.h.J.Q.V.D.V.S.Q.V.D.Q.D.V.V.V.=XD.V.D.-X-X-X-X-X;X@X*XDXVXSXsXMXNXmXmXnX@XcXpXiXpXiXfX@. .@.fXiXpXiXpXFX!.y y d P L L v.cXxXs u u / R H U uXxXiXiXfXdX#...#.#.....2XfXiX",
"Y.B.a.r.V M.n.e.n.M.q.r.U.r.a.q.r.U.a.e.M.n.q.r.e.M.M.e.a.U.q.q.B.a.r.r.q.M.a.e.a.a.q.C V a.s.e.r.U.a.e.M.n.r.a.e.M.M.e.a.B.r.r.e.a.U.r.q.B.a.e.n.M.r.a.e.n.M.q.q.n.q.d 8.z.S.x.q.Z.Z.q.m.F.i.m.i.m.E.i.i.F.m.i.i.i.F.N.q.B.F.i.a.E.s.m.i.i.E.m.q.Z.E.V 5.V.W.!.b.S.;XV.b.~.F.B.B.b.~.E.b.E.~.b.B.b.F.~.b.N.;XB.b.!.W.g.V.h.J.J.h.D.=XV.V.h.D.=XV.h.=XS.h.S.Q.V.D.h.S.=Xh.V.=XV.V.V.V.=XD.h.D.:X:X:X:X:X6X@X*XLXSXIXMXSXSXNXNXnX@XcXpXiXpXiXfX@. .@.fXiXpXiXpXFX!.y y d P L L v.cXkXs u u / R H U uXxXiXpXdX..#.dXcXZXxX+X .2XfX",
"^.M.n.B V U.a.e.n.M.q.r.U.r.a.q.r.U.a.e.M.n.q.r.q.M.M.e.a.U.r.q.B.a.r.r.q.M.a.e.a.a.q.C B a.s.e.r.U.a.e.M.n.r.a.e.M.M.e.a.B.r.r.q.a.U.r.q.B.a.e.n.M.r.a.e.n.M.q.q.n.p.s s v.B.b.q.Z.Z.q.m.E.i.m.i.m.E.a.i.F.m.i.i.i.F.B.q.B.F.i.s.E.b.m.i.a.E.m.i.Z.Z.9.V V.Q.!.b.F.;XN.b.~.F.B.B.b.~.E.b.E.~.V.B.b.E.~.b.B.;XS.b.~.D.g.S.h.J.J.h.D.=XV.V.h.D.=XV.V.=XS.h.S.Q.V.D.h.S.=XV.V.=XD.V.V.V.=XD.h.D.D.D.D.D.D.S.j.%XuXtXtX5X5XtX5X5X$X@XcXpXiXpXiXfX@. .@.fXiXpXiXpXFX!.y y d P L L v.cXkXs u u / R H U uXxXiXfX%.$.cXcXxXxXxXHX+X..dX",
"^.Y.r.V e.B.n.e.n.M.q.r.U.r.a.q.r.U.a.e.M.n.q.r.e.M.M.e.a.U.r.q.U.a.r.r.q.B.a.e.a.a.q.C B a.s.e.r.U.a.e.M.n.r.a.e.M.M.e.a.U.r.r.q.a.U.r.q.B.a.e.n.M.r.a.e.n.M.q.q.n.q.9.s r.S.b.q.Z.Z.q.m.E.i.m.i.m.E.a.i.F.m.i.i.i.F.B.q.B.F.i.s.E.b.m.i.a.E.m.q.Z.B.b.V 4.;X!.b.F.;XV.b.;XF.B.B.b.~.E.b.E.~.m.B.b.E.~.b.B.;XS.b.~.oXj.S.h.J.J.h.D.=XV.V.h.D.=XV.V.=XS.h.S.Q.V.D.h.S.=XV.V.=XD.V.V.V.=XD.h.D.D.V.V.V.V.V.j.%X5X5X5X#X>X>X#X#X@X@XcXpXiXpXiXfX@. .@.fXiXpXiXpXFX!.y y d P L L v.cXxXs u u / R H U uXxXpXwX..1XHXkXxXxXxXxXkX..+X",
"T.T.B V r.M.n.e.n.M.q.r.U.r.a.q.r.U.a.e.M.n.q.r.e.M.M.e.a.B.r.q.B.a.r.r.q.M.a.e.a.a.q.C B a.s.e.r.B.a.e.M.n.r.a.e.M.M.e.a.B.r.r.q.a.U.r.q.M.a.e.n.M.r.a.e.n.M.q.q.n.q.e.d t.J.b.q.Z.Z.q.m.F.i.m.i.m.F.a.i.F.m.i.i.i.F.B.q.B.F.i.s.E.b.m.i.i.F.m.q.Z.B.b.y.V ;X!.b.S.;XV.b.~.F.B.B.b.~.E.b.E.~.m.B.b.E.~.b.B.;XS.b.J.g.V.D.h.J.J.h.D.=XV.V.h.D.=XV.V.Q.D.h.S.Q.V.D.h.S.Q.V.V.=XD.V.V.V.=XD.h.D.:X:X:X:X:X8X$X*XLXIXIXVXSXSXVXNXnX@XcXpXiXpXiXfX@. .@.fXiXpXiXpXFX!.y y d P L L v.cXxXs u u / R H U uXxXfX1X..dXcXxXxXAXZXxXcX#.%.",
"n.a.V 9.q.a.q.q.r.r.q.r.a.q.a.r.q.a.q.q.a.q.q.r.q.a.r.q.r.r.q.q.a.q.a.r.q.a.q.e.r.q.q.C B q.q.e.q.a.q.q.a.q.r.a.e.a.r.q.r.r.q.r.q.r.r.q.q.a.q.q.r.r.q.a.e.r.r.q.q.q.9.9./ s z.w.q.m.i.i.a.b.i.N.i.i.b.i.i.m.i.a.a.i.m.i.i.b.s.i.i.m.i.m.i.i.m.i.i.m.i.i.m.V p.B.b.B.B.b.b.B.b.B.B.b.B.V.b.B.B.b.B.b.B.B.b.m.B.b.m.g.j.V.D.h.V.V.h.V.V.h.V.V.V.V.h.V.D.V.h.V.V.V.D.h.V.V.h.V.V.h.V.V.V.D.V.h.D.-X-X-X-X-X;X@X%XFXVXSXsXMXNXmXmXnX@XcXpXiXpXiXfX@. .@.fXiXpXiXpXFX!.y y d P L L v.cXxXs u u / R H U uXxXfXdX..dXcXxXAXp.].AXcX#.k.",
"n.B V r.e.r.e.e.q.q.e.q.r.e.a.q.q.r.e.e.r.e.q.r.e.r.q.e.q.q.e.q.r.e.r.r.e.r.e.e.q.e.e.C V q.9.9.q.r.e.e.r.e.r.a.e.r.q.e.q.q.e.r.e.q.q.e.q.r.e.e.r.q.q.a.e.q.q.e.e.q.9.9.8.s t.u.q.i.i.q.i.i.q.m.i.i.i.q.i.a.q.i.i.q.a.q.q.i.i.q.i.i.q.m.i.i.i.q.q.i.i.i.b.B V V.z.b.m.b.b.B.z.B.B.b.B.b.b.m.b.b.B.b.m.b.b.b.N.b.h.g.h.V.D.h.V.h.h.V.V.h.V.h.V.V.h.h.V.h.h.V.h.h.D.h.V.V.h.h.V.h.V.h.h.V.h.h.V.-X-X-X-X-X;X$X%XAXSXSXaXMXNXmXmXnX@XcXpXiXpXiXfX@. .@.fXiXpXiXpXFX!.y y d P L L v.cXkXs u u / R H U uXxXpXpX$.+XHXkXDXp.5 cXdX..1X",
"T.V q.n.a.n.a.a.a.a.a.a.n.r.n.a.a.n.a.a.n.a.a.n.a.n.a.a.a.a.a.a.n.r.n.n.a.a.a.a.a.r.r.C C r.r.r.q.a.a.a.n.a.n.n.a.n.a.a.a.a.a.n.a.a.a.a.a.a.a.a.a.a.a.M.a.a.a.a.r.a.q.e.8.t.s m.b.N.m.m.N.N.m.B.m.m.N.m.b.B.m.N.m.b.B.m.b.m.m.m.m.B.m.b.m.m.B.m.m.B.m.m.N.N.V m.F.F.E.S.F.E.S.E.E.B.E.F.S.E.F.F.E.S.E.S.S.F.E.T.j.j.S.D.S.D.S.D.D.D.D.D.S.D.D.D.D.D.S.D.V.S.D.D.S.D.S.D.D.D.V.D.S.D.D.S.D.D.S.-X-X-X-X-X;X$X%XFXSXSXMXMXNXmXmXnX@XcXpXiXpXiXfX@. .@.fXiXpXiXpXFX!.y y d P L L v.cXkXs u u / R H U uXxXiXfX+X..1XcXxXFXy.qX#.#.pX",
"M.V ^.E.^.E.E.E.E.E.E.E.E.B.E.^.^.E.E.E.E.U.T.E.E.T.E.T.B.^.^.^.E.U.T.E.E.U.U.T.U.n.Y.9.9.n.M.U.e.E.E.^.^.^.T.T.E.T.E.E.E.E.E.E.E.E.T.E.B.E.^.^.E.^.E.T.E.E.E.E.M.U.T.a.f.E.s Y.G.W.~.!.!.!.!.F.[.~.~.[.W.W.~.!.W.E.!.~.W.W.~.!.F.!.~.w.!.~.!.!.!.!.!.!.!.3Xy.y.yX3X6X6X6X6X8X~.8X9X6X6X8X6X6X6X6X8X6X~.8X8X8X6XoX=X:X=X=X:X:X:X:X:XQ.:X:X:X:X=X-X:X:X-X=X:X:X=X=X:X:XQ.-X:Xh.-X:X:X:X-X:X:X:X-X-X-X-X-X;X$X%XSXSXSXsXSXSXNXNXnX@XcXpXiXpXiXfX@. .@.fXiXpXiXpXFX!.y y d P L L v.cXxXs u u / R H U uXxXiXiXfX%...pXxXkXHX%...dXpX",
"V 9.B.a.a.M.T.T.T.T.T.T.T.M.a.M.a.T.T.T.T.M.U.T.T.T.T.T.M.a.n.a.E.M.U.T.T.U.B.T.U.n.Y.9.9.n.M.U.e.n.M.a.n.n.E.T.T.T.T.T.T.T.T.T.T.T.T.T.U.M.a.n.M.a.T.T.T.T.T.T.M.a.a.9.1.b.r.s G.E.!.!.!.!.W.F.N.Z.B.Z.m.W.!.!.W.F.!.!.E.E.!.W.F.!.!.i.Z.Z.!.!.W.!.!.!.!.!.W.V ~.6X3X3X3X3X3X;XE.E.3X6X3X3X3X3X3X3X3X~.W.F.6X@XOX3X-X=X=X-X-X-X-X-XQ.S.S.-X:XQ.=X-X-X-XQ.-X-X=X=X-X-XQ.-X:XV.S.Q.D.Q.:X-X-X-X-X-X-X-X-X;X#X%XSXSXSXMXyXyXtXtXnX@XcXpXiXpXiXfX@. .@.fXiXpXiXpXFX!.y y d P L L v.cXxXs u u / R H U uXxXiXiXpXpX1XiXiXiXpX5XdXfXiX",
"V U.M.M M 9.E.T.T.T.T.T.T.U.9.p M a.^.T.T.M.U.T.T.T.T.T.a.N 9.M M.U.U.T.T.U.B.T.U.n.Y.9.9.n.M.B.q.5.5.M N 9.T.T.T.T.T.T.T.T.T.T.T.T.T.T.M.U.M M N M a.E.T.T.T.T.M.9.p N 4 M B.s n.!.!.!.!.!.!.Z.M 9.M M 4.!.!.!.W.F.!.!.E.E.!.!.F.!.!.z.4.5.4.W.!.!.!.!.!.W.3Xy.y.yX3X3X3X3X6X;XE.1.4.~.6X3X3X3X3X3X3X;XN.M e.g.#X;X-X=X=X-X-X-X-X-XJ.1.0.0.-X=X=X-X-X-XQ.-X-X=X=X-X-XQ.-X:XV.0.3.3.M V.:X-X-X-X-X-X-X-X;X#X%XSXSXSXMXuX6.l.3.K.@XcXpXiXpXiXfX@. .@.fXiXpXiXpXFX!.y y d P L L v.cXxXs u u / R H U uXxXiXiXiXpXfXpXiXiXiXpXpXiXpX",
"y.E.a.M 5.9.E.T.T.T.T.T.T.U.a.p B q.^.T.T.M.U.T.T.T.T.T.M.9.p B n.U.U.T.T.U.B.T.U.n.Y.9.9.n.M.B.q.q.B M N 5.U.T.T.T.T.T.T.T.T.T.T.T.T.T.U.a.M 9.p M a.^.T.T.T.T.M.q.p N 4 M B.P.s ].!.!.!.!.!.F.q.N 5.M 5.W.!.!.W.F.!.!.E.E.!.!.F.!.!.i.b.5.p W.!.!.!.!.!.!.!.Z.V 3X3X3X3X3X3X;Xb.9.p W.8X3X3X3X3X3X3X~.E.M 4 g.:X-X-X=X=X-X-X-X-X-XQ.v.p p :X=X=X-X-X-XQ.-X-X=X=X-X-XQ.-X:XV.V.3.0.8 2.:X-X-X-X-X-X-X-X:X#X%XSXSXSXMX5Xu.C.N <.$XxXpXiXpXiXfX@. .@.fXiXpXiXpXFX!.y y d P L L v.cXkXs u u / R H U uXxXiXiXpXiXiXiXpXpXiXiXiXpXiX",
"T.U.q.e.q.n.E.T.T.T.T.T.T.M.q.a.e.U.T.T.E.B.T.T.T.T.T.T.M.q.a.q.E.M.T.T.T.U.U.T.U.n.Y.9.9.n.M.U.e.M.n.q.a.a.E.T.T.T.T.T.T.T.T.T.T.T.T.T.U.a.e.q.a.q.T.T.T.T.T.T.M.e.q.5./ e.B.U.s T.!.!.!.!.!.Z.i.m.i.b.i.!.!.!.W.F.!.!.E.E.!.!.F.!.!.i.Z.Z.m.F.!.!.!.!.!.!.W.3XB s.yX3X3X3X6X;Xb.m.F.!.8X3X3X3X3X6X3X~.B.Z.g.D.:X-X:X=X=X:X-X-X-X-XQ.V.V.D.=X=X=X-X-X-XQ.:X-X=X=X:X-XQ.-X:Xh.J.J.v.S.D.-X-X-X-X-X-X-X-X:X#X%XSXSXSXMXH.-X#X5X#X@XcXpXiXpXiXfX@. .@.fXiXpXiXpXFX!.y y d P L L v.cXkXs u u / R H U uXxXiXiXiXiXfXfXuXwXpXhXpXiXpX",
"^.n.T.E.E.T.U.U.U.U.U.U.U.M.T.T.E.U.U.U.U.M.U.U.U.U.U.U.M.E.T.E.U.M.U.U.U.B.M.U.Y.a.Y.9.9.a.n.M.e.U.T.E.T.T.U.U.U.U.U.U.U.U.U.U.U.U.U.U.M.T.E.T.T.E.U.U.U.U.U.U.n.M.M.a.f.U.n.F.t.t.!.E.W.W.W.Z.!.!.!.~.E.E.W.W.E.Z.W.W.F.F.W.W.Z.W.W.w.W.!.!.W.W.W.W.W.W.W.W.!.A.V 3X3X3X;X3X~.6X8X6X3X;X3X3X3X3X3X;X!.8X>XoX-X=X=X-XQ.=X-X=X=X=X=XJ.:X:X-X-XQ.=X-X-X=XJ.-X-X=XQ.-X=XJ.=X-Xh.=X-X:X-X-X=X=X=X=X=X=X=X=X-X#X;.MXSXSXsXSXSXNXNXBX$XxXpXiXpXiXfX#. .#.fXiXpXiXpXFX!.y y d P L L v.cXxXs u u / R H U uXxXiXiXiXfX1X#.....$.k.pXpXiX",
"7X7X7X7X7X7X7X7X7X7X7X7X7X7X7X7X7X7X7X7X7X7X7X7X7X7X7X7X7X7X7X7X7X7X7X7X7X7X7X7X7X7X7X7X7X7X7X7X7X7X7X7X7X7X7X7X7X7X7X7X7X7X7X7X7X7X7X7X7X7X7X7X7X7X7X7X7X7X7X7X7X7X7X7X7X7X7X7X7X~.wXqXqXqXqXqX7X7X7X7X7XqXqXqXqXqXqXqXqXqXqXqXqXqXqX7XqXqX7XqXqXqXqXqXqXqXqXqXwX}.qXwXwXwXwXwXwXwXwXwXwXwXwXwXwXwXwXwXwX5X5XwXwXwXwX9XwXwXwXwXwXwXwX9X9X9XwXwXwXwXwXwXwXwXwXwXwXwXwXwXwXwX9X9X9X9X9X9XwXwXwXwXwXwXwXwXwX9XtXpXaXpXpXpXpXpXpXpXpXxXpXiXiXiXpX+X%.+XpXiXiXiXpXFX^.y y d P L 7 f.cXxXd u u / R H U uXxXiXiXfXk. .%.2X1X+X..#.uXpX",
"xXxXxXxXxXxXxXxXxXxXxXxXxXxXxXxXxXxXxXxXxXxXxXxXxXxXxXxXxXxXxXxXxXxXxXxXxXxXxXxXxXxXxXxXxXxXxXxXxXxXxXxXxXxXxXxXxXxXxXxXxXxXxXxXxXxXxXxXxXxXxXxXxXxXxXxXxXxXxXxXxXxXxXxXxXxXxXxXxXCXxXxXxXxXxXxXxXxXxXxXxXxXxXxXxXCXxXxXxXxXxXxXxXxXxXxXxXxXxXxXxXxXxXxXxXxXxXxXxXZXxXxXxXxXxXxXxXxXxXxXxXxXxXxXxXxXxXxXxXxXcXxXxXxXxXcXxXxXxXxXxXxXxXxXxXxXxXxXxXxXxXxXxXxXxXxXxXxXxXxXxXxXxXxXxXxXxXxXxXxXxXxXxXxXxXxXxXxXcXxXxXxXxXxXxXxXxXxXxXxXpXiXpXiXeXhXfXfXeXpXpXiXpXZX[.d d s 8.P P K.cXxXC d d 8.~ U W uXxXiXfX2X .1XHXAXAXKXkX .O.fX",
"iXiXiXiXiXiXiXiXiXiXiXiXiXiXiXiXiXiXiXiXiXiXiXiXiXiXiXeXiXeXiXeXiXiXiXiXiXiXiXiXiXiXiXiXiXiXiXiXiXiXiXiXiXiXiXiXiXiXiXiXiXiXiXiXiXiXiXiXiXiXiXeXeXeXeXeXeXeXeXeXeXeXeXeXeXeXiXiXiXeXuXuXuXuXuXuXuXuXuXuXuXuXuXiXiXxXpXeXiXeXeXeXeXeXeXeXeXeXeXeXeXeXeXeXeXeXeXeXeXeXiXeXgXxXeXiXiXiXiXiXiXiXiXiXiXiXiXiXiXiXiXiXiXeXaXxXiXeXwXwXwXwXwXwXwXwXwXwXwXwXwXwXwXwXwXwXqXwXqXqXqXwXqXqXqXwXwXwXwXwXwXwXwXwXwXwXwXwXqXwXwXwXwXwXwXwXwXiXpXxXpXiXpXp.y.eX4.p.4.A.aXeXpXxXpXaXaXaXaXfXgXpXxXaXpXkXkXkXzXzXfXpXxXpXpX$.%.HXxXxXFX9.C 5X; J.",
"xXxXxXxXxXxXxXxXxXxXxXxXxXxXxXxXxXxXxXxXxXxXpXiXpXiXpXpXpXaXpXpXiXiXeXiXeXiXeXiXiXiXpXxXxXxXxXxXxXxXxXxXxXxXxXxXxXxXxXxXxXgXxXxXxXxXgXiXiXpX7X4X7X4X4X4X4X7X4X4X4X4X4X4X7X4XeXiXfX#.o.| o.o.o.o.o.o.o.o.o.| o.$.fXxXpXiX4X4X4X7X4X4X4X4X4X4X4X4X4X4X4X4X4X4X4X4X7X4XqXpXgXxXiXpXpXpXpXpXpXpXpXpXpXpXpXpXpXpXpXpXpXiXgXxXpXqX4XqXqXqXqXqXqXqXqXqXqXqXqXqXqXqXqXqXqXqXqXwXqXqXqXqXqXqXqXqXqXqXqXqXqXqXqXqXqXqXqXqXqXqXqXqXqXqX4XeXpXxXpXpX7Xp.s.A.A.M p.p.pXiXpXxXpXuXXX XXXeXXXrXxXgXpX0X/./.0X/.|.aXxXpXdX..1XcXxXAXZ.5 4XAX0 &.",
"xXxXxXZXxXZXZXZXxXxXxXxXxXxXxXxXxXxXZXgXxXxXpXiXiXpXwX4XeX].iX{.gXpXgXpXgXaXgXaXgXpXpXCXCXxXxXAXxXxXCXxXxXCXxXxXxXxXxXxXxXxXxXxXxXZXgXiXiXpX7XeXpXpXpXpXpXiXpXpXpXpXpXpXpX7XwXiXhX$.> > > > > > > > > > > > > X.fXxXpXiX4XpXpXeXpXpXpXpXpXpXpXpXpXpXiXpXaXpXpXpXpXwX7XpXgXxXiXpXpXpXpXpXpXpXpXpXpXpXpXpXpXpXpXpXpXiXgXxXpXqXwXpXpXpXpXpXpXpXpXpXpXpXpXpXpXpXpXpXiXpXwXqXiXpXeXpXwXpXpXpXpXpXpXpXpXpXpXpXpXpXpXpXpXpXpXpXpXpX7XwXpXxXpXiXpXp.4.A.9.9.5.s.aXeXpXxXrX XXXXXXXrXXXrXxXxX0X|.(.P./././.kXxXfX1X..dXcXxXxXpXxXFXAX7 O.",
"ZXp.{.pXpXwXwXeXCXxXxXxXxXxXxXxXxXxXxX4 A.AXpXiXpXpXB Z.p.s.iX5.A.4Xm.qXm.[.Z.y.s.4XxX'.4.'.pXwX{.Z.ZX4X9.A.5.G.ZXxXxXxXxXaXDXy.V AXgXiXiXpX4XpXR.s.A.A.s.[.4XA.R.m.A.G.wXqXwXiXhX$.> < < J < < J J < J J < > X.fXxXpXiX4XpXA.R.s.s.A.s.A.s.W.s.4XA.R.s.A.4XA.p.R.pX7XpXgXxXiXpXpXpXpXpXpXpXpXpXpXpXpXpXpXpXpXpXpXiXgXxXpXqXwXpXiXiXiXiXiXiXiXiXiXiXiXiXiXiXeXaXW.'.'.p.9.'.A.p.'.pXiXiXiXiXiXiXiXiXiXiXiXiXiXiXiXiXiXiXiXpX7XwXpXxXpXiXpXwXqXeXqXiXqXeXpXiXpXxXpXrX X XXX XXXeXxXgXeX/././.|.0X0XaXxXpXdX..1XAXxXxXxXxXxXxX0 k.",
"p.0.4.5.B A.9.y.xXxXxXxXxXxXxXxXxXxXeXy.Z.ZXpXiXiXpXZ.5.4.ZXiX9.0.M p.M p.4.0.B G.7XCXm.B m.y.9.p.N eX{.M A.m.wXZXxXxXxXxXgXxXA.p.aXxXiXiXpX4XpXs.p.p.y.p.[.R.9.y.m.A.9.aX7XwXiXhX$.> J < J < < < J < o.< < > X.fXxXpXiX4XpXA.Z.Z.s.A.9.p.s.m.].A.W.s.y.s.[.W.A.{.pX7XpXgXxXiXpXpXpXpXpXpXpXpXpXpXpXpXpXpXpXpXpXpXiXgXxXpXqXwXpXiXpXpXpXpXpXpXpXpXpXpXpXpXpXiXgXR.'.{.m.y.9.m.V qXpXiXiXpXiXpXpXpXpXpXpXpXpXpXpXpXpXpXpXiXpX7XwXpXxXpXiXiXpXaXpXeXwXpXpXiXiXpXxXpXpXpXsXsXpXpXiXxXaXiXsXpXpXpXpXpXpXxXiXfX@.#.HXxXxXxXxXKXk.; 4X",
"p.p.5.y.p.4XA.A.pXCXxXxXxXxXxXxXxXxXxX4 d.AXpXiXpXpXA.p.p.p.pXy.y.m.y.A.9.Z.p.9.s.{.ZXm.4X7X4.].p.N 4X4XM m.m.wXZXxXxXxXxXaXDX9.V ZXgXiXiXpX4XpXR.qXW.A.s.'.[.s.A.A.s.A.wXqXwXiXhX$.> < < J J < < J < J < J > X.fXxXpXiX4XpXR.A.].A.A.A.A.A.W.s.{.].p.[.4Xs.A.R.4XiX7XpXgXxXiXpXpXpXpXpXpXpXpXpXpXpXpXpXpXpXpXpXpXiXgXxXpXqXwXpXiXiXiXiXiXiXiXiXiXiXiXiXiXiXiXaX].p.A.s.{.p.A.G.A.W.Z.{.pXiXiXiXiXiXiXiXiXiXiXiXiXiXiXiXiXpX7XwXpXxXpXiXiXpXeXp.0.5.m.aXiXiXpXxXpXeXXX XXXXXXX XCXaXpXyX$X$XtX1X1XfXxXiXpXdX..%.xXxXxXZXK.; 8.xX",
"xX{.xXqXpXgXpXpXxXxXxXxXxXxXxXxXxXxXZXeXxXxXpXiXpXpXqXpXaXwXpXpXiXaXeXaXeXpXeXaXwXeXaXaXxXgXpXaXpXaXpXxX[.pXaXxXxXxXxXxXxXgXCXaXiXZXgXiXiXpX7XeXpXpXpXaXeXiXaXpXpXpXpXpXpXqXwXiXhX$.> > > > > > > > > > > > > X.fXxXpXiX4XpXeXpXpXpXeXaXpXeXpXiXpXeXpXpXpXeXiXpXpXeX7XpXgXxXiXpXpXpXpXpXpXpXpXpXpXpXpXpXpXpXpXpXpXiXgXxXpXqXwXpXpXpXpXpXpXpXpXpXpXpXpXpXpXpXpXpXpXeXeXpXpXaXpXaXpXiXpXpXpXpXpXpXpXpXpXpXpXpXpXpXpXpXpXpXpXpX7XwXpXxXpXiXiXaXi.4.5.B p.aXiXiXpXxXpX XXXXXXXXXXXrXxXgXtXtX$X&X$X$X$XfXxXpXiXfX1X@.iXaXpXxX8.O.fXiX",
"xXAXxXZXcXxXxXxXxXxXxXxXxXxXxXxXxXxXxXCXxXxXpXiXpXpXpXiXiXpXpXpXpXiXpXiXpXiXpXiXpXiXpXxXxXxXcXxXxXxXxXxXAXxXxXxXxXxXxXxXxXgXxXxXxXxXgXiXpXpX7X4X7X7X7X7X7X7X4X7X7X7X7X4X7X4XwXiXhX$.o.o.o.o.o.o.o.o.o.o.o.o.o.X.fXxXpXiX4X4X7X7X7X7X7X4X7X7X7X7X7X7X7X7X7X7X7X7X7X4X7XpXgXxXiXpXpXpXpXpXpXpXpXpXpXpXpXpXpXpXpXpXpXiXgXxXpXqX4XwXqXqXqXqXqXqXqXqXqXqXqXqXqXqXqXqXqXwXwXqXqXqXqXqXqXwXwXwXqXqXqXqXqXqXqXqXqXqXqXqXqXqXqXqXqXwX4XeXpXxXpXiXiXaXm.4.0.B p.aXiXiXpXxXpXiX XrX X XrXiXxXaXpXtXtXtXuXtXtXfXxXpXpXiXpXfXpXiXiXiXpXfXpXiX",
"iXeXiXiXiXiXiXiXiXiXiXiXiXiXiXiXiXiXiXiXiXiXiXiXiXiXiXiXiXiXiXiXiXiXiXiXiXiXiXiXiXiXiXiXiXiXiXiXiXiXiXiXeXiXiXiXiXiXiXiXiXiXiXiXiXiXiXiXiXiXeXwXwXwXwXwXwXwXwXwXwXwXwXwXwXeXiXiXiXdXdXdXdXdXdXdXdXdXdXdXdXdXdXdXiXxXpXeXeXwXwXwXwXwXwXwXwXwXwXwXwXwXwXwXwXwXwXwXwXwXeXeXgXxXeXiXiXiXiXiXiXiXiXiXiXiXiXiXiXiXiXiXiXeXaXxXeXeXqXqXqXqXqXqXqXqXqXqXqXqXqXqXqXqXqXqXqXqXqXqXqXqXqXqXqXqXqXqXqXqXqXqXqXqXqXqXqXqXqXqXqXqXqXqXqXqXqXeXpXxXpXeXiXiXeX{.wX[.wXiXiXeXpXxXiXiXuXiXuXuXiXeXxXaXeXpXpXpXiXpXiXpXxXiXiXiXeXiXiXiXiXiXeXeXiXiX",
"xXxXxXxXxXxXxXxXxXxXxXxXxXxXxXxXxXxXxXxXxXxXxXxXxXxXxXxXxXxXxXxXxXxXxXxXxXxXxXxXxXxXxXxXxXxXxXxXxXxXxXxXxXxXxXxXxXxXxXxXxXxXxXxXxXxXxXxXxXxXxXxXxXxXxXxXxXxXxXxXxXxXxXxXxXxXxXxXxXxXcXxXxXxXxXxXxXxXxXxXxXxXcXxXxXcXxXxXxXxXxXxXxXxXxXxXxXxXxXxXxXxXxXxXxXxXxXxXxXxXxXxXxXxXxXxXxXxXxXxXxXxXxXxXxXxXxXxXxXxXxXxXxXxXxXxXxXxXxXxXxXxXxXxXxXxXxXxXxXxXxXxXxXxXxXxXxXxXxXxXxXxXxXxXxXxXxXxXxXxXxXxXxXxXxXxXxXxXxXxXxXxXxXxXxXxXxXxXxXCXxXxXxXxXxXCXxXZXxXxXxXxXxXCXxXxXxXxXxXxXxXxXxXxXxXxXxXxXxXxXxXxXcXxXxXxXxXxXxXxXxXxXxXxXxXxX",
"eXeXeXeXeXeXeXeXeXeXeXeXeXeXeXeXeXeXeXeXeXeXeXeXeXeXeXeXeXeXeXeXeXeXeXeXeXeXeXeXeXeXeXeXeXeXeXeXeXeXeXeXeXeXeXeXeXeXeXeXeXeXeXeXeXeXeXeXeXeXeXeXeXeXeXeXeXeXeXeXeXeXeXeXeXeXeXeXeXeXeXeXeXeXeXeXeXeXeXeXeXeXeXeXeXeXeXeXeXeXeXeXeXeXeXeXeXeXeXeXeXeXeXeXeXeXeXeXeXeXeXeXeXeXeXeXeXeXeXeXeXeXeXeXeXeXeXeXeXeXeXeXeXeXeXeXeXeXeXeXeXeXeXeXeXeXeXeXeXeXeXeXeXeXeXeXeXeXeXeXeXeXeXeXeXeXeXeXeXeXeXeXeXeXeXeXeXeXeXeXeXeXeXeXeXeXeXeXeXeXeXeXeXeXeXeXeXeXeXeXeXeXeXeXeXeXeXeXeXeXeXeXeXeXeXeXeXeXeXeXeXeXeXeXeXeXeXeXeXeXeXeXeXeXeXeX",
"].].].].].].].].].].].].].].].].].].].].].].].].].].].].].].].].].].].].].].].].].].].].].].].].].].].].].].].].].].].].].].].].].].].].].].].].].].].].].].].].].].].].].].].].].].].].].].].].].].].].].].].].].].].].].].].].].].].].].].].].].].].].].].].].].].].].].].].].].].].].].].].].].].].].].].].].].].].].].].].].].].].].].].].].].].].].].].].].].].].].].].].].].].].].].].].].].].].].].].].].].].].].].].].].].].].].].].].].].].].].].].].].].].].].].].].].].].].].].].].].].].].].].].].].].].].].].].].].",
"[.[.[.[.[.[.[.[.[.[.[.[.[.[.[.[.[.[.[.[.[.[.[.[.[.[.[.[.[.[.[.[.[.[.[.[.[.[.[.[.[.[.[.[.[.[.[.[.[.[.[.[.[.[.[.[.[.[.[.[.[.[.[.[.[.[.[.[.[.[.[.[.[.[.[.[.[.[.[.[.[.[.[.[.[.[.[.[.[.[.[.[.[.[.[.[.[.[.[.[.[.[.[.[.[.[.[.[.[.[.[.[.[.[.[.[.[.[.[.[.[.[.[.[.[.[.[.[.[.[.[.[.[.[.[.[.[.[.[.[.[.[.[.[.[.[.[.[.[.[.[.[.[.[.[.[.[.[.[.[.[.[.[.[.[.[.[.[.[.[.[.[.[.[.[.[.[.[.[.[.[.[.[.[.[.[.[.[.[.[.[.[.[.[.[.[.[.[.[.[.[.[.[.[.[.[.[.[.[.[.[.[.[.[.[.[.[.[.[.[.[.[.[.[.[.[.[.[.[.[.[.[.[.[.[.[.[.[.[.[.[.[.[.[.[.[.[.[.[.[.[.[.[.[.[.[.",
"[.[.[.[.[.[.[.[.[.[.[.[.[.[.[.[.[.[.[.[.[.[.[.[.[.[.[.[.[.[.[.[.[.[.[.[.[.[.[.[.[.[.[.[.[.[.[.[.[.[.[.[.[.[.[.[.[.[.[.[.[.[.[.[.[.[.[.[.[.[.[.[.[.[.[.[.[.[.[.[.[.[.[.[.[.[.[.[.[.[.[.[.[.[.[.[.[.[.[.[.[.[.[.[.[.[.[.[.[.[.[.[.[.[.[.[.[.[.[.[.[.[.[.[.[.[.[.[.[.[.[.[.[.[.[.[.[.[.[.[.[.[.[.[.[.[.[.[.[.[.[.[.[.[.[.[.[.[.[.[.[.[.[.[.[.[.[.[.[.[.[.[.[.[.[.[.[.[.[.[.[.[.[.[.[.[.[.[.[.[.[.[.[.[.[.[.[.[.[.[.[.[.[.[.[.[.[.[.[.[.[.[.[.[.[.[.[.[.[.[.[.[.[.[.[.[.[.[.[.[.[.[.[.[.[.[.[.[.[.[.[.[.[.[.[.[.[.[.[.[.[.[.[.[.[.[.",
"[.[.[.[.[.[.[.[.[.[.[.[.[.[.[.[.[.[.[.[.[.[.[.[.[.[.[.[.[.[.[.[.[.[.[.[.[.[.[.[.[.[.[.[.[.[.[.[.[.[.[.[.[.[.[.[.[.[.[.[.[.[.[.[.[.[.[.[.[.[.[.[.[.[.[.[.[.[.[.[.[.[.[.[.[.[.[.[.[.[.[.[.[.[.[.[.[.[.[.[.[.[.[.[.[.[.[.[.[.[.[.[.[.[.[.[.[.[.[.[.[.[.[.[.[.[.[.[.[.[.[.[.[.[.[.[.[.[.[.[.[.[.[.[.[.[.[.[.[.[.[.[.[.[.[.[.[.[.[.[.[.[.[.[.[.[.[.[.[.[.[.[.[.[.[.[.[.[.[.[.[.[.[.[.[.[.[.[.[.[.[.[.[.[.[.[.[.[.[.[.[.[.[.[.[.[.[.[.[.[.[.[.[.[.[.[.[.[.[.[.[.[.[.[.[.[.[.[.[.[.[.[.[.[.[.[.[.[.[.[.[.[.[.[.[.[.[.[.[.[.[.[.[.[.[.[.",
"[.[.[.].].].[.].].].].].].].].].].].].].].].].].].].].].].].].].].].].].].].[.[.[.[.[.[.[.[.[.[.[.[.[.[.[.[.[.[.[.[.[.[.[.[.[.[.[.[.[.[.[.[.[.[.[.].].[.].].].].].].].].].].].].].].].].].].].].].].].].].].].].].].].[.[.[.[.[.[.[.[.[.[.[.[.[.[.[.[.[.[.[.[.[.[.[.[.[.[.[.[.[.[.[.[.[.[.[.[.[.[.[.[.[.[.[.[.[.[.[.[.[.[.[.[.[.[.[.[.[.[.[.[.[.[.[.[.[.[.[.[.[.[.[.[.[.[.[.[.[.[.[.[.[.[.[.[.[.[.[.[.[.[.[.[.[.[.[.[.[.[.[.[.[.[.].[.].].].].].].].].].].].].].].].].].].].].].].].].].].].].].].].[.[.[.[.[.[.[.[.[.[.[.[.[.[.",
"{.{.{.{.4X4X{.4X{.{.{.{.{.{.{.{.{.{.{.{.{.{.{.{.{.{.{.{.{.{.{.{.{.{.{.4X{.4X[.'.'.'.'.'.'.'.'.'.'.'.'.'.'.'.'.'.'.'.'.'.'.'.'.'.'.'.'.'.'.'.'.'.'.4X4X{.4X4X4X4X4X4X4X4X4X4X4X4X4X4X4X4X4X4X4X4X4X4X4X4X4X4X4X4X4X{.{.].'.'.'.'.'.'.'.'.'.'.'.'.'.'.'.'.'.'.'.'.'.'.'.'.'.'.'.'.'.'.'.'.'.'.'.'.'.'.'.'.'.'.'.'.'.'.'.'.'.'.'.'.'.'.'.'.'.'.'.'.'.'.'.'.'.'.'.'.'.'.'.'.'.'.'.'.'.'.'.'.'.'.'.'.'.'.'.'.'.'.'.'.'.'.'.'.'.'.'.'.].4X{.{.{.{.{.{.{.{.{.{.{.{.{.{.{.{.{.{.{.{.{.{.{.{.{.{.{.{.{.{.{.4X].'.'.'.'.'.'.'.'.'.'.'.'.'.",
"pXpXpXpXxXpXiXpXfXfXfXfXfXfXfXfXfXfXfXfXfXfXfXfXfXfXfXfXfXfXfXfXfXfXfXfXiXpX4Xc.x.z.z.z.z.z.z.z.z.z.z.z.z.z.z.z.z.u.z.z.z.z.z.z.z.z.z.z.z.z.z.z.N.xXpXiXiXrXrXrXrXrXrXrXrXrXrXrXrXrXrXrXrXrXrXrXrXrXrXrXrXrXrXrXpXiXpXG.x.z.z.z.z.z.z.z.z.z.z.z.z.z.z.z.z.z.z.z.z.z.z.z.z.z.z.z.z.z.z.z.z.N.c.z.z.z.z.z.z.z.z.z.z.z.z.z.z.z.z.u.z.z.z.z.z.z.z.z.z.z.z.z.z.z.x.C.x.z.z.z.z.z.z.z.z.z.z.z.z.z.z.z.z.z.z.z.z.z.z.z.z.z.z.z.z.z.x.u.!.ZXiXiXpXaXaXaXaXaXaXaXaXaXaXaXaXaXaXaXaXaXaXaXaXaXaXaXaXaXaXaXiXpXH.x.z.z.z.z.z.z.z.z.z.z.z.z.",
"iXiXiXpXxXpXpXh f h h h h h h h h h h h h h h h h h h h h h h h h h h f D kX4Xc.x.u.2.3.3.3.3.3.3.3.3.3.3.3.3.7.7.7.3.3.3.3.3.3.3.3.3.3.3.3.3.u.C.xXpXeXz l l l l l l l l l l l l l l l l l l l l l l l l l l l l ).gXG.x.x.6.2.3.3.3.3.3.3.3.3.3.3.3.3.7.7.3.3.3.3.3.3.3.3.3.3.3.3.2.u.x.N.c.x.6.2.3.3.3.3.3.3.3.3.3.3.3.3.7.7.3.3.3.3.3.3.3.3.3.3.3.3.3.u.x.C.x.z.3.3.3.3.3.3.3.3.3.3.3.3.3.7.7.7.3.3.3.3.3.3.3.3.3.3.3.3.6.u.!.CXrXtX[ ] [ ] ] ] ] ] ] ] ] ] ] ] ] ] [ ] ] ] ] ] ] ] ] [ ] [ &XzXH.x.x.6.2.3.3.3.3.3.3.3.3.3.",
"iXpXiXpXxXpXpXh w w w w w w w w w w w w w w w w w w w w w w w w w w w w h kX4Xc.x.u.3.w.6.6.6.6.6.6.6.6.6.6.0.4.2.1.0.6.6.6.6.6.6.6.6.6.6.0.3.u.C.xXpXrXl o o o o o o o o o o o o o $ & o o o o o o o o o o o o & ).VXG.x.x.6.6.0.6.6.6.6.6.6.6.6.6.0.6.3.3.6.0.6.6.6.6.6.6.6.6.6.0.7.0.x.N.c.x.6.6.0.6.6.6.6.6.6.6.6.6.0.6.2.1.6.6.6.6.6.6.6.6.6.6.6.0.3.u.x.C.x.z.3.6.6.6.6.6.6.6.6.6.6.6.0.4.3.2.0.6.6.6.6.6.6.6.6.6.6.6.7.u.!.CXrXnXT K K K K K K K K K K K K K I I K K K K K K K K K K K I &XzXH.x.x.6.6.0.6.6.6.6.6.6.6.6.",
"pXpXiXpXxXpXpXh w w w w w w w w w w w w i f i w w w w w w w w w w w w w h kX4Xc.x.u.3.0.6.6.6.6.6.6.6.6.6.6.w.4 N M 6.6.6.6.6.6.6.6.6.6.6.0.3.u.C.xXpXrXl o $ $ $ $ $ $ $ $ $ $ $ * * * & $ $ $ $ $ $ $ $ $ $ % & ).VXG.x.x.6.6.0.6.6.6.6.6.6.6.6.6.u.N 4 p 2.w.6.6.6.6.6.6.6.6.6.0.7.w.x.N.c.x.6.6.0.6.6.6.6.6.6.6.6.6.u.N 4 N 6.0.6.6.6.6.6.6.6.6.6.0.3.u.x.C.x.z.3.6.6.6.6.6.6.6.6.6.6.6.0.4 4 N w.6.6.6.6.6.6.6.6.6.6.6.6.u.!.CXrXnX~ K K K K K K K K K K K I W T T K K K K K K K K K K K I &XzXH.x.x.6.6.0.6.6.6.6.6.6.6.6.",
"pXpXiXpXxXpXpXh w w w w w w w w w w w w e e e w w w w w w w w w w w w w h kX4Xc.x.u.3.0.6.6.6.6.6.6.6.6.6.6.6.p N N w.6.6.6.6.6.6.6.6.6.6.0.3.u.C.xXpXrXl o $ $ $ $ $ $ $ $ $ $ $ * * * & $ $ $ $ $ $ $ $ $ $ $ & ).VXG.x.x.6.6.6.6.6.6.6.6.6.6.6.6.u.N N p 2.w.6.6.6.6.6.6.6.6.6.0.7.w.x.N.c.x.6.6.6.6.6.6.6.6.6.6.6.6.u.N N N 2.w.6.6.6.6.6.6.6.6.6.0.3.u.x.C.x.z.3.6.6.6.6.6.6.6.6.6.6.6.6.p N N 6.6.6.6.6.6.6.6.6.6.6.6.6.u.!.CXrXnX~ K K K K K K K K K K K I T I I K K K K K K K K K K K I &XzXH.x.x.6.6.0.6.6.6.6.6.6.6.6.",
"pXpXiXpXxXpXpXh w w w w w w w w w w w w w w w w w w w w w w w w w w w w h kX4Xc.x.u.3.w.0.0.0.0.0.0.0.0.0.0.0.u.6.6.0.0.0.0.0.0.0.0.0.0.0.w.3.u.C.xXpXrXl o o o o o o o o o o o o o o o o o o o o o o o o o o o & ).VXG.x.x.6.6.w.0.0.0.0.0.0.0.0.0.0.w.u.u.0.0.0.0.0.0.0.0.0.0.0.w.7.w.x.N.c.x.6.6.w.0.0.0.0.0.0.0.0.0.0.w.w.6.w.0.0.0.0.0.0.0.0.0.0.w.3.u.x.C.x.z.3.0.0.0.0.0.0.0.0.0.0.0.0.u.w.6.0.0.0.0.0.0.0.0.0.0.0.6.6.u.!.CXrXnXT K K K K K K K K K K K K K K K K K K K K K K K K K K I &XzXH.x.x.6.6.w.0.0.0.0.0.0.0.0.",
"pXpXiXpXxXpXpXh f f f f f f f f f f f f f f f f f f f f f f f f f f f f h kX4Xc.x.u.2.3.3.3.3.3.3.3.3.3.3.3.3.3.3.3.3.3.3.3.3.3.3.3.3.3.3.3.2.u.C.xXpXeXl k k k k k k k k k k k k k k k k k k k k k k k k k k k k ).VXG.x.x.6.2.3.3.3.3.3.3.3.3.3.3.3.3.3.3.3.3.3.3.3.3.3.3.3.3.3.3.2.u.x.N.c.x.6.2.3.3.3.3.3.3.3.3.3.3.3.3.3.3.3.3.3.3.3.3.3.3.3.3.3.3.2.u.x.C.x.z.2.3.3.3.3.3.3.3.3.3.3.3.3.3.3.3.3.3.3.3.3.3.3.3.3.3.3.2.7.u.!.CXrXtX! W W W W W W W W W W W W W W W W W W W W W W W W W W W &XzXH.x.x.6.2.3.3.3.3.3.3.3.3.3.",
"pXpXiXpXxXpXiX0XjXjXjXjXjXjXjXjXjXjXjXjXjXjXjXjXjXjXjXjXjXjXjXjXjXjXjXjX0XpX4Xc.x.z.u.u.u.u.u.u.u.u.u.u.u.u.u.u.u.u.u.u.u.u.u.u.u.u.u.u.u.u.u.z.N.xXpXiX X X X X X X X X X X X X X X X X X X X X X X X X X X X X XwXpXG.x.x.z.u.u.u.u.u.u.u.u.u.u.u.u.u.u.u.u.u.u.u.u.u.u.u.u.u.u.u.u.z.x.C.c.z.z.u.u.u.u.u.u.u.u.u.u.u.u.u.u.u.u.u.u.u.u.u.u.u.u.u.u.u.u.x.x.C.x.x.u.u.u.u.u.u.u.u.u.u.u.u.u.u.u.u.u.u.u.u.u.u.u.u.u.u.u.u.z.u.!.CXiXuXsXsXsXsXsXsXsXsXsXsXsXsXsXsXsXsXsXsXsXsXsXsXsXsXsXsXsXsXuXpXH.x.x.z.u.u.u.u.u.u.u.u.u.u.",
"pXpXiXpXxXpXiXpXpXpXpXpXpXpXpXpXpXpXpXpXpXuXuXpXpXpXpXpXpXpXpXpXpXpXpXpXpXpX4Xc.x.x.x.x.x.x.z.z.x.x.x.x.x.x.x.x.x.x.x.x.x.x.x.x.x.x.x.x.x.x.x.z.N.xXpXiXpXaXaXpXpXiXpXpXaXaXaXaXaXaXaXaXaXaXpXpXpXpXaXpXpXpXaXaXaXpXpXG.x.x.x.x.x.x.x.z.z.x.x.x.x.x.x.x.x.x.x.x.x.x.x.x.x.x.x.x.x.x.x.x.z.C.c.z.x.x.x.x.x.x.x.x.x.x.x.x.x.x.x.x.x.x.x.x.x.x.x.x.x.x.x.x.x.x.x.C.x.x.x.x.x.x.x.x.x.x.x.x.x.x.x.x.x.x.x.x.x.x.x.x.x.x.x.x.x.x.x.u.!.cXiXpXpXiXpXiXeXeXeXiXpXpXpXpXpXpXpXpXpXpXrXeXiXeXeXeXpXpXpXpXpXpXH.x.x.x.x.x.x.x.x.x.x.x.x.x.",
"pXpXiXpXxXpXiXiXiXiXiXiXiXiXiXiXiXiXiXiXiXgXaXiXiXiXiXiXiXiXiXiXiXiXiXiXiXpX4Xc.x.x.x.x.z.c.C.C.C.z.z.x.x.x.x.x.x.x.x.x.z.c.c.c.z.c.c.z.x.x.x.z.N.xXpXiXiXiXeXpXCXZXxXpXeXiXiXiXiXiXiXiXiXeXpXaXaXaXiXpXgXpXeXiXiXiXpXG.x.x.x.x.z.x.C.C.C.c.z.x.x.x.x.x.x.x.x.x.z.x.c.c.x.c.c.x.x.x.x.x.z.C.c.z.x.x.z.x.N.C.C.c.z.x.x.x.x.x.x.x.x.x.z.x.x.c.c.c.x.z.x.x.x.x.x.C.x.x.x.x.z.x.N.C.N.x.z.x.x.x.x.x.x.x.x.x.c.x.c.x.c.c.c.x.z.x.x.u.!.cXiXiXiXiXiXpXzXbXzXiXiXiXiXiXiXiXiXiXiXiXpXgXpXaXaXaXiXiXiXiXiXpXH.x.x.x.x.z.x.c.C.C.x.z.x.x.",
"pXpXiXpXxXpXiXpXpXpXpXpXpXpXpXpXpXpXpXiXaXA.A.aXiXpXpXpXpXpXpXpXpXpXpXpXiXpX4Xc.x.x.x.x.C.2.8 4 <.c.x.z.x.x.x.x.x.x.x.z.x.1.5.N c.1.M x.z.x.x.z.N.xXpXiXpXeXxX4XB b 4.qXgXeXpXiXpXpXpXpXiXpXwXm.Z.p.wX{.p.wXpXiXiXiXpXG.x.x.x.z.x.x.M 9 9 7.C.z.x.x.x.x.x.x.x.z.x.3.M M 1.5.M x.x.x.x.x.z.C.c.z.x.z.x.x.8.v v 7.C.z.x.x.x.x.x.x.x.z.c.3.5.1.5.M 3.x.z.x.x.x.x.C.x.x.x.z.m.u.<.P <.u.c.z.x.x.x.x.x.x.x.x.M 4.N 4.M 1.p 4.c.z.x.u.!.cXiXpXiXpXfXtXoXY @XfXpXiXpXpXpXpXpXpXiXpX[.s.wXZ.W.G.aXiXpXpXiXpXH.x.x.x.z.x.x.2.a / 6.c.x.x.",
"pXpXiXpXxXpXiXpXpXpXpXpXpXpXpXpXpXpXiXpX7Xy.p.qXpXiXpXpXpXpXpXpXpXpXpXpXiXpX4Xc.x.x.x.c.5 X 2 2 X 1 u.x.z.x.x.x.x.x.z.x.6.5 8 N 3.N p u.x.x.x.z.N.xXpXiXeXxXy.$ b b 5 $ A.gXeXpXpXpXpXpXiXpX4XN 4.5.4XxXy.W.aXiXiXiXpXG.x.x.z.x.w.3 3 7 3 q 9 N.z.x.x.x.x.x.x.x.x.x.N 4 N u.8 u.x.x.x.x.z.C.c.z.z.x.w.7 7 9 7 q 9 N.z.x.x.x.x.x.x.x.z.5 M M 8 3.p c.z.x.x.x.x.C.x.x.z.m.8.0 9 9 7 0 7.c.z.x.x.x.x.x.z.x.8 M 8 M 5 3.N 3.c.z.x.u.!.cXiXiXiXpXoX[ oXW ^ I 9XpXiXpXpXpXpXpXiXpXqX5.s.B A.y.xXeXpXpXiXpXH.x.x.x.x.u.6 6 a 9 6 a x.x.",
"pXpXiXpXxXpXiXpXpXpXpXpXpXpXpXpXpXpXiXpXwXy.y.qXpXiXpXpXpXpXpXpXpXpXpXpXiXpX4Xc.x.z.C.5 1 u.c.c.c.2 1 c.x.x.x.x.x.x.z.c.N 2 8 N M N 8 u.x.x.x.z.N.xXpXeXgXd.$ {.PXGXLXd.o ].aXeXpXpXpXpXiXaX].M s.A.y.'.4.eXpXiXiXiXpXG.x.z.x.l.3 v 5.4.C.6.: 9 C.z.x.x.x.x.x.z.c.5.8 u.8 8 M c.z.x.x.x.z.C.c.z.x.l.0 O.N.0.N w.: 9 C.z.x.x.x.x.x.x.u.8 8 M 8 8 3.c.z.x.x.x.x.C.x.z.c.8.0 7.x.c.C.8.: 7.c.z.x.x.x.x.z.C.M 3.5.5 4 N N x.z.x.x.u.!.cXiXiXzX*X%XCXd.rXKXT I fXiXiXpXpXpXpXiXpX7X5.N N Z.s.gXeXpXpXiXpXH.x.x.x.x.6 a x.x.x.u.6 / c.",
"pXpXiXpXxXpXiXpXpXpXpXpXpXpXpXpXpXpXpXiXaXG.G.aXiXpXpXpXpXpXpXpXpXpXpXpXiXpX4Xc.x.x.6.X w.C.l.u.l.c.1 M C.z.x.x.x.x.x.z.x.6.3.M 6.5.1.x.z.x.x.z.N.xXpXeXgXz y.W.{.xXaXPXV b CXeXiXpXpXpXiXpXwXA.W.A.[.A.i.qXpXiXiXiXpXG.x.z.N.v 7 F.4 = v.c.<.: x.x.x.x.x.x.x.z.c.1.M 1.5.M M z.x.x.x.x.z.C.c.z.N.O.7 m.c.4 = F.<.: z.x.x.x.x.x.x.z.x.2.1.1.5.N 3.x.x.x.x.x.x.C.x.z.c.7 O.m.u.u.5 V 9 7 C.z.x.x.x.x.x.x.6.6.M 6.1.3.6.x.z.x.x.u.!.cXiXpXtX! sXJX4 9.DXHXI OXzXiXpXpXpXpXiXpX].A.eX].4X{.pXiXpXpXiXpXH.x.z.c.<.9 x.u.u.u.x.6.6 u.",
"pXpXiXpXxXpXiXpXpXpXpXpXpXpXpXpXiXpXiXpXiXgXaXiXpXiXpXpXpXpXpXpXpXpXpXpXiXpX4Xc.z.C.N 1 6.4 1.x.u.c.5 4 C.z.x.x.x.x.x.x.x.x.c.c.c.N.N.z.x.x.x.z.N.xXpXpXqXl rXB p xXxXAX_.= aXiXiXpXpXpXpXiXpXgXaXgXpXgXgXpXiXpXiXiXpXG.x.z.N.9 v c.6.N u.u.l.1 2.N.z.x.x.x.x.x.z.c.N.c.c.C.C.x.x.x.x.x.z.C.c.z.N.7 O.x.l.5.5.z.u.: 2.N.z.x.x.x.x.x.x.c.c.c.c.C.c.x.x.x.x.x.x.C.x.x.u.7 6.u.x.5.5 u.8.1 x.x.x.x.x.x.x.x.x.x.N.x.C.c.c.z.x.x.x.u.!.cXiXzX$X%XvXCX{.{.CXHX] Y bXuXpXpXpXiXpXpXpXgXpXaXpXpXiXpXiXpXiXpXH.x.z.C.9 a x.u.u.u.x.x.6 3.",
"pXpXiXpXxXpXiXpXpXpXpXpXpXpXpXpXpXiXpXiXaXwXeXeXiXpXiXpXpXpXpXpXpXpXpXpXiXpX4Xc.z.N.<.5 1.= M x.u.c.5 5 C.z.x.x.x.x.x.x.x.x.u.c.u.0.u.x.x.x.x.z.N.xXpXpXwXz rXDXpXxXxXAX_.= aXiXiXpXpXpXiXiXpXwXeXpXpXpXiXiXpXiXiXiXpXG.x.z.N.9 v x.u.x.u.u.l.1 2.N.z.x.x.x.x.x.x.x.z.z.x.0.0.z.x.x.x.x.z.C.c.z.N.9 O.x.u.x.x.u.l.: 2.N.z.x.x.x.x.x.x.x.u.x.u.0.u.x.x.x.x.x.x.C.x.x.l.7 6.z.u.l.x.c.<.1 x.x.x.x.x.x.x.x.x.x.u.c.u.0.u.x.x.x.x.u.!.cXiXfX$X%XvXxXFXZXgXKXW Y bXuXpXpXiXpXiXeXpXpXpXiXpXiXpXpXpXiXiXpXH.x.z.C.a a x.u.x.5 5 z.6 3.",
"pXpXiXpXxXpXiXpXpXpXpXpXpXpXpXpXiXaX'.4.9.9.aXG.4.wXpXiXpXpXpXpXpXpXpXpXiXpX4Xc.x.x.u.2 6.C.x.u.z.x.X <.N.z.x.x.x.x.x.z.x.M 8 1.8 5 2.c.z.x.x.z.N.xXpXeXgXz Z JXxXxXxXPXb b CXeXiXpXpXpXpXiXpX'.4.4Xy.s.m.xXeXpXiXiXpXG.x.z.N.O.7 c.u.u.u.N.<.: x.x.x.x.x.x.x.x.x.u.8 N M 5 4 z.x.x.x.x.z.C.c.z.N.O.7 x.u.u.u.N.<.: x.x.x.x.x.x.x.z.c.3.8 M p 5 N c.z.x.x.x.x.C.x.z.N.7 O.m.u.u.u.C.7 7 C.z.x.x.x.x.x.z.x.M 8 1.8 5 2.c.z.x.x.u.!.cXiXpXuX! sXvXxXxXcXvX^ @XzXiXpXpXiXpX4X4.{.p.p.0.p.y.p.p.pXiXiXpXH.x.z.c.1.6 x.u.l.3.8 2.6 z.",
"pXpXiXpXxXpXiXpXpXpXpXpXpXpXpXpXiXgXG.N s.y.{.gXp.wXpXiXpXpXpXpXpXpXpXpXiXpX4Xc.x.z.c.p 2 0.u.u.z.2 2 N.z.x.x.x.x.x.x.x.u.8 x.4 8 8 0.x.x.x.x.z.N.xXpXeXgX.Xk ).AXxXAXy.$ 4XaXiXpXpXpXpXpXiXpXeX5.5.M Z.i.xXeXpXiXiXpXG.x.x.x.x.3 9 x.u.z.3.q v C.z.x.x.x.x.x.z.N.M 5.3.5 8 p c.z.x.x.x.z.C.c.z.x.x.7 9 x.u.z.7.: v C.z.x.x.x.x.x.z.c.8 u.p 8 8 M c.z.x.x.x.x.C.x.z.x.7.0 8.z.u.x.9 : u.x.z.x.x.x.x.x.x.u.8 x.4 8 8 0.x.x.x.x.u.!.cXiXiXzX*X! aXxXxXcXT I zXiXiXpXpXpXeXgXA.y.N 4.i.M p.5.s.4XpXiXpXH.x.x.x.x.9 9 z.u.x.u.1 p C.",
"pXpXiXpXxXpXiXpXpXpXpXpXpXpXpXpXiXaXZ.B m.p.s.9.4.pXiXiXpXpXpXpXpXpXpXpXiXpX4Xc.x.x.x.x.N 6.x.x.u.4 u.x.x.x.x.x.x.x.x.x.x.N p N M N u.x.x.x.x.z.N.xXpXiXeXgXd.y.gXpXxXB A.gXeXpXpXpXpXpXpXiXpX].5.9.M G.m.gXeXpXiXiXpXG.x.x.z.x.w.v z.l.c.<.9 C.z.x.x.x.x.x.x.z.x.6.8 N M M M c.z.x.x.x.z.C.c.z.x.x.w.O.z.l.c.<.9 C.z.x.x.x.x.x.x.z.c.M 8 N M M 3.c.z.x.x.x.x.C.x.x.z.N.8.<.x.u.c.9 8.N.z.x.x.x.x.x.x.x.x.N p N M N u.x.x.x.x.u.!.cXiXiXiXpX*XtXfXaXuXY uXpXiXpXpXpXiXgXZ.M A.M 5.4.4.4.4.9.eXpXiXpXH.x.x.x.x.u.a z.z.x.1.9 C.z.",
"pXpXiXpXxXpXiXpXpXpXpXpXpXpXpXpXiXpXeX4X4X{.wX{.[.eXpXiXpXpXpXpXpXpXpXpXiXpX4Xc.x.x.x.x.c.x.x.x.x.C.x.z.x.x.x.x.x.x.x.x.x.u.4.x.u.u.z.x.x.x.x.z.N.xXpXiXpXeXgXgXeXiXiXxXaXeXpXiXpXpXpXpXpXiXpX4X4XxXiXeXwXpXiXpXiXiXpXG.x.x.x.z.x.N.x.x.x.c.N.z.x.x.x.x.x.x.x.x.z.x.0.u.x.u.u.x.x.x.x.x.z.C.c.z.x.z.x.N.x.x.x.c.N.z.x.x.x.x.x.x.x.x.x.x.4.u.z.u.u.x.x.x.x.x.x.C.x.x.x.z.c.c.x.x.x.N.c.z.x.x.x.x.x.x.x.x.x.u.4.x.u.u.z.x.x.x.x.u.!.cXiXpXiXiXzXpXiXiXpXzXpXiXpXpXpXpXiXpXqX].iXaXwX4XwX7XwX7XpXiXiXpXH.x.x.x.z.x.c.x.x.x.x.C.z.x.",
"pXpXiXpXxXpXiXeXeXeXeXeXeXeXeXeXeXeXeXpXpXpXiXpXpXeXeXeXeXeXeXeXeXeXeXeXeXpX4Xc.x.x.i.i.u.i.i.i.i.u.i.i.i.i.i.i.i.i.i.i.i.z.x.i.z.z.i.i.i.i.z.z.N.xXpXiXeXeXwXeXeXeXeXwXwXeXeXeXeXeXeXeXeXeXeXpXpXwXeXeXiXeXeXeXeXeXpXG.x.x.z.l.l.u.l.l.l.l.u.l.l.l.l.l.l.l.l.l.z.l.x.x.l.z.z.l.l.l.l.x.x.C.c.z.z.l.l.l.l.l.l.l.l.l.l.l.l.l.l.l.l.l.l.l.x.x.z.x.z.l.l.l.z.x.x.C.x.x.z.l.l.l.l.l.l.l.l.z.l.l.l.l.l.l.l.l.l.v.c.l.x.x.z.l.l.l.x.u.!.cXiXiXiXiXuXiXiXiXiXuXiXiXiXiXiXiXiXiXpXaXiXiXpXpXpXpXpXpXiXiXiXpXH.x.x.x.z.z.z.z.z.z.z.z.z.z.",
"pXpXiXpXxXpXiXkXkXkXkXkXkXkXkXkXkXkXkXkXkXkXkXkXkXkXkXkXkXkXkXkXkXkXkXkXaXpX4Xc.x.x.c.c.c.c.c.c.c.c.c.c.c.c.c.c.c.c.c.c.c.c.c.c.c.c.c.c.c.c.c.z.N.xXpXiXgXVXVXVXVXVXVXVXVXVXVXVXVXVXVXVXVXVXVXVXVXVXVXVXVXVXVXVXVXaXpXG.x.z.m.B.N.N.N.N.N.N.N.N.N.N.N.N.N.N.N.N.N.N.N.N.N.N.N.N.N.N.B.x.z.C.c.z.m.m.m.m.m.m.m.m.m.m.m.m.m.m.m.m.m.m.m.m.m.m.m.m.m.m.m.m.m.x.x.C.x.x.s.s.s.s.s.s.s.s.s.s.s.s.s.s.s.s.s.s.s.s.s.s.s.s.s.s.s.s.s.u.!.cXiXpXfXfXfXfXfXfXfXfXfXfXfXfXfXfXfXfXfXrXfXfXfXrXfXrXfXrXfXfXpXpXH.x.x.x.c.c.c.c.c.c.c.c.c.c.",
"pXpXiXpXxXpXiXI.I.I.I.I.I.I.I.I.I.I.I.I.I.I.I.I.I.I.I.I.I.I.I.I.I.I.I.I.(.aX4Xc.x.y.m m m m m m m m m m m m m m m m m m m m m m m m m m m m m p.C.xXpXeXZ Z Z Z Z Z Z Z Z Z Z Z Z Z Z Z Z Z Z Z Z Z Z Z Z Z Z Z Z .XaXG.x.m.O.c c c c c c c c c c c c c c c c c c c c c c c c c c c c L.x.c.c.x.&.+.+.+.+.+.+.+.+.+.+.+.+.+.+.+.+.+.+.+.+.+.+.+.+.+.+.+.+.l.x.C.x.z.@.-.-.-.-.-.-.-.-.-.-.-.-.-.-.-.-.-.-.-.-.-.-.-.-.-.-.-.@.i.H.CXpXyX&X&X&X&X&X&X&X&X&X&X&X&X&X&X&X&X&X&X&X&X&X&X&X&X&X&X&X&XtXpXH.x.x.t.( ( ( ( ( ( ( ( ( ( ",
"pXpXiXpXxXpXpXh e e e e e e e e e e e e e e e e e e e e e e e e e e e e h kX4Xx.c.C . . . . . . . . . . . . . . . . . . . . . . . . . . . . r p.C.xXpXrXl o & & & & & & & & & & & & & & & & & & & & & & & & & & & ).VXG.x.N.c + + + + + + + + + + + + + + + + + + + + + + + + + + + + O.N.c.c.m.+.> > > > > > > > > > > > > > > > > > > > > > > > > > > J k.x.C.x.v.E G G G G G G G G G G G G G G G G G G G G G G G G G G G =.i.H.CXrXnX~ I I I I I I I I I I I I I I I I I I I I I I I I I I I &XzXH.x.c.' t t t t t t t t t t ",
"pXpXiXpXxXpXpXh w w w w w w w w w w w w e e i e w w w w w w w w w w w w h kX4Xx.c.C .                       . . . .                         r p.C.xXpXrXl o $ $ $ $ $ $ $ $ $ $ & * * * & $ $ $ $ $ $ $ $ $ $ % & ).VXG.x.N.c O O O O O O O O O O O O @ @ @ @ O O O O O O O O O O O @ O.m.c.c.m.+.> ; ; ; ; ; ; ; ; ; ; > > > < > ; ; ; ; ; ; ; ; ; ; ; J k.x.C.x.v.E , , , , , , , , , , , G G G G , , , , , , , , , , , G =.i.H.CXrXnXT K K K K K K K K K K K T T T I K K K K K K K K K K K I &XzXH.x.c.( - - - - - - - - - - ",
"pXpXiXpXxXpXpXh w w w w w w w w w w w w e e f f w w w w w w w w w w w w h kX4Xx.c.C .                       . . . .                         r p.C.xXpXrXl o $ $ $ $ $ $ $ $ $ $ & * * k * $ $ $ $ $ $ $ $ $ $ $ & ).VXG.x.N.c + O O O O O O O O O O + @ @ @ @ O O O O O O O O O O O @ O.m.c.c.m.+.> ; > > > > > > > > ; > > > J > ; > > > > > > > > > ; J k.x.C.x.v.E G G G G G G G G G G G G G G J G G G G G G G G G G G G =.i.H.CXrXnX~ K K K K K K K K K K K T T ~ ~ K K K K K K K K K K K I &XzXH.x.c.( t - - - - - - - - - ",
"iXpXiXpXxXpXpXh w w w w w w w w w w w w w w w w w w w w w w w w w w w w h kX4Xx.c.C .                         .   .                         r p.C.xXpXrXl o $ $ $ $ $ $ $ $ $ $ $ * $ & $ $ $ $ $ $ $ $ $ $ $ % & ).VXG.x.N.c O O O O O O O O O O O O @ @ O O O O O O O O O O O O O @ O.m.c.c.m.+.> ; ; ; ; ; ; ; ; ; ; ; > > > > ; ; ; ; ; ; ; ; ; ; ; J k.x.C.x.v.E , , , , , , , , , , , G G G G G , , , , , , , , , , G =.i.H.CXrXnXT K K K K K K K K K K K K I K K K K K K K K K K K K K I &XzXH.x.c.( - - - - - - - - - - ",
"pXiXiXpXxXpXpXh e e e e e e e e e e e e e e e e e e e e e e e e e e e e h kX4Xx.c.C . . . . . . . . . . . . . . . . . . . . . . . . . . . . r p.C.xXpXrXl o & & & & & & & & & & & & & & & & & & & & & & & & & & & ).VXG.x.N.c + + + + + + + + + + + + + + + + + + + + + + + + + + + + O.N.c.c.m.+.> > > > > > > > > > > > > > > > > > > > > > > > > > > J k.x.C.x.v.E G G G G G G G G G G G G G G G G G G G G G G G G G G G =.i.H.CXrXnX~ I I I I I I I I I I I I I I I I I I I I I I I I I I I &XzXH.x.c.' t t t t t t t t t t ",
"aXiXiXpXxXpXiXI.I.I.I.I.I.I.I.I.I.I.I.I.I.I.I.I.I.I.I.I.I.I.I.I.I.I.I.I.(.aX4Xc.x.y.m m m m m m m m m m m m m m m m m m m m m m m m m m m m m p.C.xXpXeXZ Z Z Z Z Z Z Z Z Z Z Z Z Z Z Z Z Z Z Z Z Z Z Z Z Z Z Z Z .XaXG.x.m.O.c c c c c c c c c c c c c c c c c c c c c c c c c c c c L.x.c.c.x.&.+.+.+.+.+.+.+.+.+.+.+.+.+.+.+.+.+.+.+.+.+.+.+.+.+.+.+.+.l.x.C.x.z.-.-.-.-.-.-.-.-.-.-.-.-.-.-.-.-.-.-.-.-.-.-.-.-.-.-.-.-.%.i.H.CXpXyX&X&X&X&X&X&X&X&X&X&X&X&X&X&X&X&X&X&X&X&X&X&X&X&X&X&X&X&XtXpXH.x.x.t.( ( ( ( ( ( ( ( ( ( ",
"gXiXiXpXxXpXiXuXuXuXuXuXuXuXuXuXuXuXuXuXsXkXsXuXuXuXuXuXuXuXuXuXuXuXuXuXuXpX4Xc.x.x.v.v.v.v.v.v.v.v.v.v.v.v.v.v.c.v.v.v.v.v.v.v.v.v.v.v.v.v.v.z.N.xXpXiXaXaXaXaXsXsXsXsXsXsXaXaXaXaXVXaXsXaXaXsXsXsXsXaXsXaXaXaXaXpXpXG.x.x.x.b.b.b.b.b.z.z.b.z.b.b.b.b.N.b.z.b.b.z.z.z.b.b.b.b.b.b.b.x.z.C.c.z.i.a.a.a.a.a.i.i.a.i.a.a.a.s.m.s.i.a.a.i.i.a.a.a.a.a.a.a.a.x.x.C.x.x.p.p.p.p.p.p.p.p.p.p.p.p.p.s.s.p.p.p.p.p.p.p.p.p.p.p.p.p.s.u.!.cXiXiXrXrXrXrXrXrXrXrXrXrXrXrXrXrXrXrXrXrXrXrXrXrXrXrXrXrXrXrXeXpXH.x.x.u.u.u.u.u.u.u.u.u.u.u.",
"pXiXiXpXxXpXiX{.7X7X7XqX7XqXqXqXqX7X7X7X{.eX4X7X7X7XwXwXqXqX7XqX7X7X7X7X4XpX4Xc.x.u.5.3.3.3.3.3.3.3.3.3.3.3.2.4.u.5.3.3.3.4.4.3.3.3.3.3.3.3.5.u.C.xXpXeX{.7X7XqXqXqXqXqXqXqXqX7XqX{.eX{.7X7XqXqXqXqXqXqXqXqX7XqX{.qXpXG.x.x.7.2.3.3.3.3.3.3.3.3.3.2.2.2.u.2.2.3.3.7.7.3.3.3.3.3.2.3.2.0.x.N.c.x.7.2.3.3.3.3.7.3.3.3.3.3.3.2.l.2.2.3.3.7.7.3.3.3.3.3.3.3.2.u.x.C.x.z.2.3.3.7.7.7.7.7.7.7.3.3.2.7.l.2.3.3.7.7.7.7.7.7.3.3.3.2.3.u.!.cXpXwX4XqX7XwXqXwXwXqXwXqX7XqX4XwX7X4XqX7XwXwXwXqXqXwX7X7XqX4X7XaXH.x.x.6.2.3.3.3.3.3.3.3.3.3.",
"iXpXiXpXxXpXeX7XpXpXwXZ.W.A.4X[.A.iXpXpX7XeX7XpXpXeXR.Z.'.{.A.s.[.aXpXpX4XpX4Xc.x.u.7.w.u.5.M M M 3.M 1.u.w.6.6.u.3.w.u.2.M N 5.1.N N 6.w.w.3.u.C.xXpXeX7XpXpXwXZ.W.A.4X[.A.pXpXpX7XeX7XpXpXeXR.Z.'.{.A.s.{.aXpXwXqXpXG.x.x.6.6.u.6.M M N 2.1.N 0.w.w.3.z.7.6.w.6.M M 1.5.N N 5.u.w.7.w.x.N.c.x.6.6.u.6.M M N 2.1.N 6.w.w.3.z.7.6.u.2.M N 5.1.N N 6.w.w.3.u.x.C.x.z.3.0.u.5.M M M 3.M 1.u.w.6.6.u.3.w.u.M M N 2.M N M w.w.6.6.u.!.cXpXwXqXpXpXW.'.A.].7XA.7XaXpXwXwXqXwXpXeXR.G.'.{.A.s.[.aXpXwX7XpXH.x.x.6.6.u.6.M M N 2.5.N 6.",
"pXpXiXpXxXpXeX4XiXpXeXs.s.A.s.G.A.4XpXpX7XeX7XeXpXeXy.5.m.A.W.p.'.aXiXeX4XpX4Xc.x.u.3.0.w.2.8 M p N N N 6.6.6.6.u.3.6.w.1.4 8 N M M 8 7.0.6.3.u.C.xXpXeX4XiXpXeXs.s.A.m.Z.A.4XpXiX4XeX4XiXpXeXy.4.A.A.W.p.'.pXpXqXqXpXG.x.x.6.6.0.6.p N N N M N 2.w.6.3.z.3.6.6.6.8 4 N N M 8 1.w.6.7.w.x.N.c.x.6.6.0.6.p N N N M N 2.w.6.3.z.3.6.u.1.4 8 N M M 8 4.0.6.3.u.x.C.x.z.3.6.w.2.8 N p N N N 6.6.6.6.u.3.6.u.N 4 p N M N N w.6.6.6.u.!.cXpXwXqXpXpXW.y.Z.p.G.A.W.pXpXqXwXqXwXpXiXy.5.m.A.W.p.W.aXpXwX7XaXH.x.x.6.6.0.6.N p N N M N 2.",
"pXpXiXpXxXpXeX7XpXpXiX'.R.W.W.'.Z.iXpXpX7XeX7XiXpXpX'.'.'.'.qXW.[.pXpXiX4XpX4Xc.x.u.3.w.w.3.M M 1.M M 1.w.0.6.6.u.3.0.0.6.M 5.M 2.2.M 7.w.0.3.u.C.xXpXeX7XpXpXeXW.G.'.W.'.R.pXpXpX7XeX7XiXpXiX'.'.'.'.qXW.[.pXpXwXqXpXG.x.x.6.6.w.6.M M M M M M 0.6.6.3.z.7.6.0.6.1.1.1.1.4.M 5.w.0.7.w.x.N.c.x.6.6.w.6.M M M M M M 0.6.6.3.z.7.6.w.6.M 5.M 2.2.M 7.w.0.3.u.x.C.x.z.3.6.w.3.M M 1.M M 1.w.0.6.6.u.3.0.w.2.M 5.M 4.1.M 6.0.6.6.u.!.cXpXwXqXpXpX[.R.R.'.'.Z.7XpXpXqXwXqXwXpXpX'.'.'.'.qXW.[.pXpXwX7XpXH.x.x.6.6.w.6.M M M M M M 6.",
"pXpXiXpXxXpXeX4XiXiXeXpXpXpXpXpXpXiXeXiX4XeX4XeXiXeXpXpXpXpXpXpXpXeXiXeX4XpX4Xc.x.u.3.6.6.6.w.w.0.6.w.6.6.6.7.6.u.2.6.6.6.w.6.w.6.6.0.6.6.6.3.u.C.xXpXeX4XiXeXeXpXpXpXpXpXpXiXeXiX4XeX4XeXiXiXpXpXpXpXpXpXpXeXpXqXqXpXG.x.x.6.7.6.6.6.w.0.0.0.w.6.6.6.3.z.3.6.6.6.w.w.0.6.6.0.6.6.6.3.0.x.N.c.x.6.7.6.6.6.w.0.0.0.w.6.6.6.3.z.3.6.6.6.w.6.w.6.6.0.6.6.6.2.u.x.C.x.z.3.6.6.6.w.w.0.6.w.6.6.6.7.6.u.2.6.6.6.w.6.w.6.6.6.6.6.6.4.u.!.cXpXwX7XpXeXpXpXpXpXpXpXpXeXpXqXwXqXqXiXeXpXpXpXpXpXpXpXeXpXqX7XaXH.x.x.6.7.6.6.6.w.0.0.6.w.6.",
"pXpXiXpXxXpXiX7X4X7X4X4X4X4X4X4X4X4X4X4X4XiX7X4X7X4X4X4X4X4X4X4X4X4X7X4X7XpX4Xc.x.u.3.7.7.7.3.3.3.3.3.4.7.7.3.0.z.3.7.7.7.3.4.3.4.4.3.7.7.7.7.u.C.xXpXiX4X4X4X4X4X4X4X4X4X4X4X4X4X4XiX7X4X7X4X4X4X4X4X4X4X4X4X7X4XwXpXG.x.x.0.3.7.7.3.3.3.3.3.3.7.7.4.7.x.6.3.7.7.3.3.3.4.4.3.4.7.7.3.u.x.N.c.x.0.3.7.7.3.3.3.3.3.3.7.7.4.7.x.6.3.7.7.3.4.3.4.4.3.7.7.7.4.z.x.C.x.z.6.4.7.7.3.3.3.3.3.4.7.7.3.0.z.3.7.7.4.3.4.3.4.4.3.7.7.3.6.u.!.cXiXeX4X7X4X4X4X4X4X4X4X4X4X7X4XeXwX4X7X4X4X4X4X4X4X4X4X4X7X4XwXpXH.x.x.w.3.7.7.4.3.3.3.4.3.7.",
"pXpXiXpXxXpXiXpXiXiXiXiXiXiXiXiXiXiXiXiXpXiXpXiXiXiXiXiXiXiXiXiXiXiXiXiXiXpX4Xc.x.x.x.x.x.x.x.x.x.x.x.x.x.x.x.x.x.x.x.x.x.x.x.x.x.x.x.x.x.x.x.z.N.xXpXiXpXiXiXiXiXiXiXiXiXiXiXiXiXpXiXpXiXiXiXiXiXiXiXiXiXiXiXiXiXiXpXG.x.x.x.x.x.x.x.x.x.x.x.x.x.x.x.x.x.x.x.x.x.x.x.x.x.x.x.x.x.x.x.x.z.C.c.z.x.x.x.x.x.x.x.x.x.x.x.x.x.x.x.x.x.x.x.x.x.x.x.x.x.x.x.x.x.x.x.C.x.x.x.x.x.x.x.x.x.x.x.x.x.x.x.x.x.x.x.x.x.x.x.x.x.x.x.x.x.x.x.u.!.cXiXpXpXiXiXiXiXiXiXiXiXiXiXiXpXiXiXpXiXiXiXiXiXiXiXiXiXiXiXiXiXpXH.x.x.x.x.x.x.x.x.x.x.x.x.x.",
"pXpXiXpXxXpXiXgXgXgXxXgXgXxXgXgXgXgXxXgXgXxXxXxXxXxXxXxXxXxXxXaXxXgXgXxXaXpX4Xc.x.z.u.u.l.l.u.u.l.l.l.l.l.l.u.u.l.l.l.l.l.l.l.l.l.u.u.u.u.u.l.z.N.xXpXiXgXgXgXxXgXgXxXgXgXgXgXxXgXgXxXxXxXxXxXxXxXxXxXgXaXxXgXgXxXpXpXG.x.x.z.u.u.l.u.u.l.l.l.l.l.l.l.u.l.l.l.l.l.l.l.l.l.u.u.l.u.u.l.z.x.C.c.z.z.u.u.l.u.u.l.l.l.l.l.l.l.u.l.l.l.l.l.l.l.l.l.u.u.l.u.u.l.z.x.C.x.x.l.u.u.l.u.u.l.l.l.l.l.l.l.u.l.l.l.l.l.l.l.l.l.u.l.u.u.u.z.u.!.CXiXpXxXaXgXgXgXgXgXgXgXgXgXxXgXgXxXxXxXxXxXxXxXxXgXaXxXgXgXxXpXpXH.x.x.z.u.u.l.u.u.l.l.l.l.l.",
"iXpXiXpXxXpXiXxXAXCXxXCXZXxXxXxXxXxXxXxXxXxXxXxXxXxXxXxXxXxXxXxXxXZXAXCXxXpX4Xc.x.z.l.x.u.u.z.l.u.u.l.l.u.l.l.l.u.u.u.u.u.u.u.u.u.u.u.z.x.l.u.z.N.xXpXiXxXAXcXxXCXZXxXxXxXxXxXxXxXxXxXxXxXxXxXxXxXxXxXxXxXxXAXZXxXaXpXG.x.x.l.z.z.u.l.z.u.u.u.l.l.u.l.u.l.u.u.u.u.u.u.u.u.u.u.l.x.z.u.z.x.C.c.x.l.z.z.u.l.z.u.u.u.l.l.u.l.u.l.u.u.u.u.u.u.u.u.u.u.l.x.l.u.z.x.C.x.x.u.x.l.u.l.z.u.u.l.l.l.u.l.l.u.u.u.u.u.u.u.u.u.u.u.z.x.l.l.u.!.CXeXpXCXAXxXxXZXxXxXxXxXxXxXxXxXxXxXxXxXxXxXxXxXxXxXxXxXAXZXxXaXpXH.x.x.l.z.z.u.l.z.u.u.u.l.l.",
"pXiXiXpXxXpXiXxXA.eXxXiXwXxXcXxXxXgXxXxXW.qXZXxXxXxXxXxXxXxXxXgXAXA.V ZXgXpX4Xc.x.x.6.N u.u.3.u.u.z.u.u.u.u.u.N l.u.u.u.u.u.u.u.u.u.l.6.5 4.x.u.N.xXpXiXxXA.pXxXeXwXxXCXxXxXgXxXxXG.wXZXxXxXxXxXxXxXxXxXgXFXB d.DXpXpXG.x.z.x.1.5.l.u.3.l.l.u.u.u.u.u.2.1.x.u.u.u.u.u.u.u.u.u.x.5 N x.z.x.C.c.z.x.1.5.l.u.3.l.l.u.u.u.u.u.2.1.x.u.u.u.u.u.u.u.u.l.6.5 4.z.z.x.C.x.z.l.N 6.u.6.6.l.z.u.u.u.u.l.M 6.z.u.u.u.u.u.u.u.u.x.N 5 z.z.u.!.CXeXaXeXA.xXxXqXaXxXCXgXxXxXxXgXA.xXxXxXxXxXxXxXxXxXgXAXB p.DXpXpXH.x.z.x.1.1.l.u.3.u.u.l.u.u.",
"7XpXiXpXxXpXeXCXm.s.y.y.y.y.4.p.m.5.4Xp.4.wXZXxXxXxXxXxXxXxXxXgXZXA.9.pXxXpX4Xc.x.x.6.8 8 8 4 p 8 8 N 8 p 5.4 8 z.u.u.u.u.u.u.u.u.u.z.2.4 1.x.u.N.xXpXiXxXs.p.y.0.p.y.4.p.s.4.4Xp.4.eXZXxXxXxXxXxXxXxXxXxXaXy.d.CXpXpXG.x.z.c.M p 8 8 4 8 4 8 N 4 1.N 4 1.x.u.u.u.u.u.u.u.u.u.u.4 N l.z.x.C.c.z.c.M p 8 8 4 8 4 8 N 4 1.N 4 <.x.u.u.u.u.u.u.u.u.z.2.4 1.x.z.x.C.x.z.z.p 8 8 8 8 8 4 8 p 4 2.8 8 6.z.u.u.u.u.u.u.u.u.z.N 4 6.x.u.!.CXeXaXeXp.p.p.5.s.4.4.A.y.p.{.4.p.CXxXxXxXxXxXxXxXxXxXgXy.s.xXaXpXH.x.z.c.1.8 8 8 4 8 4 8 N 4 ",
"{.aXiXpXxXpXeXxXs.p.G.9.s.M 5.G.Z.A.4.M N eXZXxXxXxXxXxXxXxXxXaXAXp.p xXxXpX4Xc.x.x.6.8 N N 8 8 5 8 2.N p 4 2 8 z.u.u.u.u.u.u.u.u.u.z.2.= 1.x.u.N.xXpXiXxXp.p.G.9.s.M 5.W.Z.A.4.M M pXCXxXxXxXxXxXxXxXxXxXxXV y.AXpXpXG.x.z.c.M 8 M 8 p 5 4 8 1.N 8 5 2 1.x.u.u.u.u.u.u.u.u.u.u.5 8 x.z.x.C.c.z.c.M 8 M 8 p 5 4 8 1.N 8 5 2 1.x.u.u.u.u.u.u.u.u.z.2.= 1.x.z.x.C.x.z.z.8 8 M 8 p 5 4 <.M N 8 5 5 6.z.u.u.u.u.u.u.u.u.x.p = u.z.u.!.CXeXgXeX9.m.C.y.y.5.4.4Xm.m.5.N 0.ZXxXxXxXxXxXxXxXxXxXCXV 9.AXpXpXH.x.z.c.1.8 M 8 8 5 4 8 2.N ",
"iXpXiXpXxXpXiXxX'.4XeX7X[.{.{.iXeXwX[.W.{.aXxXxXxXxXxXxXxXxXxXgXCXwX'.FXgXpX4Xc.x.x.6.M 6.6.5.2.1.3.w.6.6.1.1.3.l.u.u.u.u.u.u.u.u.u.u.u.M u.l.z.N.xXpXiXxX'.4XeX4X[.{.{.pXwXeX[.'.4XgXxXxXxXxXxXxXxXxXxXgXFX'.qXZXpXpXG.x.x.x.2.1.6.7.1.2.1.6.6.6.3.M 1.6.l.u.u.u.u.u.u.u.u.u.x.1.4.z.z.x.C.c.z.x.2.1.6.7.1.2.1.6.6.6.3.M 1.6.l.u.u.u.u.u.u.u.u.u.u.M u.l.z.x.C.x.z.l.1.2.6.3.5.5.2.6.6.6.1.1.2.u.l.u.u.u.u.u.u.u.u.z.6.M x.l.u.!.CXeXaXpXW.wXeX{.{.[.7XpXwXwX'.'.7XxXxXxXxXxXxXxXxXxXgXAX].7XFXpXpXH.x.x.x.2.1.6.6.1.2.1.6.6.6.",
"pXiXiXpXxXpXiXxXAXZXCXZXAXZXZXCXCXCXAXAXAXxXxXxXxXxXxXxXxXxXxXxXxXCXAXxXxXpX4Xc.x.z.l.x.z.z.x.x.x.z.l.z.z.x.x.z.u.u.u.u.u.u.u.u.u.u.u.u.x.u.u.z.N.xXpXiXxXAXZXCXZXAXZXZXCXCXCXAXAXAXxXxXxXxXxXxXxXxXxXxXxXxXAXCXxXaXpXG.x.x.l.z.x.l.z.x.x.x.z.l.z.z.x.x.l.u.u.u.u.u.u.u.u.u.u.u.x.z.u.z.x.C.c.x.l.z.x.l.z.x.x.x.z.l.z.z.x.x.l.u.u.u.u.u.u.u.u.u.u.u.x.u.u.z.x.C.x.x.u.x.x.l.z.x.x.x.l.z.z.x.x.x.l.u.u.u.u.u.u.u.u.u.u.l.x.u.z.u.!.CXiXpXCXAXZXCXAXZXZXZXcXZXZXAXAXZXxXxXxXxXxXxXxXxXxXxXxXFXZXxXaXpXH.x.x.l.z.x.l.z.x.x.x.z.l.z.",
"iXpXiXpXxXpXiXpXpXpXpXpXpXpXpXpXpXpXpXpXpXpXpXpXpXpXpXpXpXpXpXpXpXpXpXpXpXpX4Xc.x.x.z.z.z.u.z.z.u.u.z.z.z.z.z.z.z.z.z.z.z.z.z.z.z.u.z.z.z.z.x.z.N.xXpXiXpXpXpXiXpXpXpXiXpXpXpXpXpXpXpXpXpXpXpXpXpXpXpXpXpXpXpXpXpXpXpXG.x.x.x.z.z.l.l.z.z.u.z.z.z.z.z.z.z.z.z.z.z.z.l.z.x.l.l.z.z.z.z.x.x.C.c.z.x.z.z.l.l.z.z.u.z.z.z.z.z.z.z.z.z.z.z.z.z.z.z.u.z.z.z.z.z.x.x.C.x.x.z.z.z.l.z.z.l.u.z.z.z.z.z.z.z.z.z.z.z.z.z.x.z.u.z.z.z.z.x.u.!.cXiXpXpXpXpXpXpXpXpXpXpXpXpXpXpXpXpXpXpXpXpXpXpXpXpXpXpXpXpXpXpXpXH.x.x.x.z.z.z.z.z.z.u.z.z.z.",
"iXiXiXpXxXpXiXiXiXiXeXkXkXiXpXkXpXeXiXiXiXiXiXiXiXiXiXiXkXaXeXkXkXeXiXiXiXpX4Xc.x.x.x.z.x.C.x.x.N.c.z.x.x.x.x.x.x.x.x.x.z.c.c.z.x.C.x.z.x.x.x.z.N.xXpXiXiXeXiXVXaXeXgXgXeXiXiXiXiXiXiXiXiXiXeXpXVXpXeXCXgXeXiXiXiXiXpXG.x.x.x.x.z.N.N.x.x.C.x.z.x.x.x.x.x.x.x.x.z.x.C.x.x.C.N.z.x.x.x.x.z.C.c.z.x.x.z.m.N.x.x.C.x.z.x.x.x.x.x.x.x.x.z.m.N.z.x.C.x.z.x.x.x.x.x.C.x.x.x.x.x.N.x.x.c.N.z.x.x.x.x.x.x.x.x.x.x.N.c.z.N.C.x.x.x.x.x.u.!.cXiXiXiXiXpXzXpXiXfXpXiXiXiXiXiXiXiXiXiXiXpXzXpXiXzXzXiXiXiXiXiXpXH.x.x.x.x.z.c.c.x.x.C.x.z.x.",
"aXpXiXpXxXpXiXpXpXiXkX(.h f f g eXaXiXpXpXpXpXpXpXiXpXpXP.h i u t.kXiXiXiXpX4Xc.x.x.z.c.u.8 5 5 4 4.N.z.x.x.x.x.x.x.x.z.c.2.4 2 1 5 u.c.z.x.x.z.N.xXpXiXiXpXaXZ z z z Z gXiXiXpXpXpXpXpXpXeXgX{.A z = 5 A.xXeXpXpXiXpXG.x.x.x.z.N.2.7 3 3 9 z.x.z.x.x.x.x.x.x.z.c.u.9 3 1 1 2.C.z.x.x.x.z.C.c.z.x.z.N.8.7 7 7 9 l.x.z.x.x.x.x.x.x.z.N.8.7 0 : 7 u.c.z.x.x.x.x.C.x.x.x.x.x.O.7 7 7 <.N.x.x.x.x.x.x.x.x.x.x.O.7 0 1 9 N.x.x.x.x.u.!.cXiXpXiXpXyX%X[ [ %XtXzXiXpXpXpXpXpXpXiXpXuXoX[ I I @XzXiXpXpXiXpXH.x.x.x.z.c.3.9 6 6 a u.x.z.",
"p.iXiXpXxXpXiXpXeXkXI.f (.0X|.g f 7XpXiXpXpXpXpXiXpXpXh h /.~.(.w d kXiXiXpX4Xc.x.z.x.0.2 8 3.3.N 2 <.c.z.x.x.x.x.x.z.c.M 2 M 2.<.2 X 0.x.z.x.z.N.xXpXiXpXpXz z _..X).z A gXiXiXpXpXpXpXeXaX.Xl A .X'.B o y.xXeXpXiXpXG.x.x.z.N.v 3 <.7.2.9 3 u.x.z.x.x.x.x.z.x.6.3 9 2.1.9 q v C.z.x.x.z.C.c.z.z.m.O.0 O.7.8.9 0 u.x.z.x.x.x.x.z.m.O.0 O.2.<.3 : 6.x.z.x.x.x.C.x.z.x.x.9 7 8.7.8.7 9 x.x.x.x.x.x.x.x.x.9 7 8.2.O.1 3 c.x.x.x.u.!.cXiXiXpXtX! *XtXtX&X! $XzXiXpXpXpXpXiXpXtX! *XtX>XoX^ oXzXiXpXiXpXH.x.x.z.c.<.6 <.7.3.a 6 w.x.",
"4.4XpXpXxXpXiXiXaX/.f jXIXFXCXdXs d kXeXiXpXpXpXeXkXP.h IXuXp FXFXw P.kXeXpX4Xc.x.x.x.5 N C.z.c.4.M X u.x.z.x.x.x.z.x.0.2 6.C.5 M G.5 1 C.z.x.z.N.xXpXeXVXA z GXAXDXaXqX= y.xXeXpXpXpXiXiXaXz Z PXs.B PX_.% 4XpXiXiXpXG.x.z.c.7.3 6.m.x.u.4.7 3 C.z.x.x.x.x.x.x.7 v F.N 5 G.<.q u.x.z.x.z.C.c.z.c.7.0 6.m.x.u.9.7 3 C.z.x.x.x.z.x.6.0 7.Z.5 M G.7 1 C.z.x.x.x.C.x.z.N.O.7 x.x.c.0.4.1 v C.z.x.x.x.z.N.O.7 x.u.= u.c.: 9 C.z.x.u.!.cXiXiXpX[ &XHXvXDX X#X^ 5XpXiXpXpXiXiXfX%X*XKXA.V KXtX^ 5XpXiXiXpXH.x.z.x.w.6 6.c.x.z.4.9 2 C.",
"s.m.wXpXxXpXiXeXkXg I.IXgXxXp V fXw 6XpXiXpXpXiXpXpXf |.IX7XV pXJX(.i kXeXpX4Xc.x.c.3.5 z.u.x.p = u.2 8 C.z.x.x.x.z.C.p 8 c.z.5 N c.u.X 6.c.x.z.N.xXpXiXpXz .XAXxXqX= R.d.5 xXeXiXpXpXeXgX_.z CXAXs.B ZXLXb B CXeXiXpXG.x.z.C.9 9 N.u.l.= 5 u.: 6.x.z.x.x.z.c.3.3 u.c.N 5 v.N.3 9 C.z.x.z.C.c.z.C.9 9 m.u.l.= 5 u.: 6.x.z.x.x.z.C.9 9 m.v.5 N c.u.: 7.c.z.x.x.C.x.x.x.7 8.x.l.4.= N <.1 C.z.x.x.x.x.x.7 8.c.6.= 6.N.<.1 N.z.x.u.!.cXiXpX>X[ cXxXAXs.5 zX~ g.bXiXpXpXiXpXtX[ xXDXA.V CXKXW Y bXiXiXpXH.x.z.C.a 9 c.u.z.5 5 u.1 7.",
"gX4XiXpXxXpXiXeXkXh (.FXxXxXG.xXZXu T.kXeXpXpXiXpX0Xf jXxXxXxXxXFX/.w pXiXpX4Xc.z.c.1.4 x.u.x.1.3.C.4 5 C.z.x.x.x.z.C.8 N x.u.u.u.u.x.1 <.C.z.z.N.xXpXpXqXl rXCXCXwX'.GX'.= pXiXiXpXpXeXVXd.z DXxXxXxXxXGXV b ZXeXiXpXG.x.z.N.7 <.x.u.u.M u.x.1 1.N.z.x.x.z.N.<.7 x.u.u.u.u.N.9 3 C.z.x.z.C.c.z.N.7 O.x.u.u.M u.x.1 8.N.z.x.x.z.C.9 O.x.u.u.u.u.x.1 <.C.z.x.x.C.x.x.u.7 6.u.z.6.M c.8.1 x.x.x.x.x.x.z.7 7.z.u.u.u.z.7.1 z.x.x.u.!.cXiXzX$X%XvXxXZX].4XKXoXT bXuXpXpXiXfX$X%XvXxXxXxXxXHXoXT bXuXiXpXH.x.z.C.9 / x.u.u.M u.x.1 <.",
"eXpXiXpXxXpXiXeXkXg I.IXgXxXAXCXfXw |.aXiXpXpXiXpXiXf |.FXxXxXxXIX(.u kXeXpX4Xc.x.c.3.5 z.u.u.x.l.C.2 8 C.z.x.x.x.z.C.p 8 c.u.u.u.l.u.X 3.c.z.z.N.xXpXiXpXz .XAXxXCXZXGXd.= gXeXiXpXpXeXgX_.z ZXxXxXxXxXLXb V CXeXiXpXG.x.z.C.9 9 N.u.u.x.z.u.: 6.c.z.x.x.z.c.2.3 z.u.u.u.u.C.3 9 C.z.x.z.C.c.z.C.9 9 m.u.u.x.z.u.: 7.x.z.x.x.z.C.9 9 m.u.u.u.l.u.: 2.c.z.x.x.C.x.x.x.7 7.x.u.z.v.c.O.1 N.z.x.x.x.x.x.7 8.x.u.u.u.c.<.1 x.x.x.u.!.cXiXpX>X[ cXxXxXAXCXKXT ) bXuXpXpXiXpXtX[ xXxXxXxXgXKXW Y bXuXiXpXH.x.z.C.a a c.u.u.x.l.u.1 3.",
"iXiXiXpXxXpXiXiXkX/.j jXCXxXgXIXs i kXeXiXpXpXpXeXkXg h FXxXxXxXCXw t.kXeXpX4Xc.x.x.x.5 N x.u.u.x.2.X 6.x.z.x.x.x.z.x.6.2 6.z.u.u.c.4 1 N.z.x.z.N.xXpXeXVXA z AXxXxXxXZX= 4.xXeXpXpXpXiXiXpXz y.DXxXxXAX}.% {.aXiXiXpXG.x.z.c.3.3 6.z.u.u.N.7 1 C.z.x.x.x.x.x.x.3 v x.u.u.x.2.q 6.x.z.x.z.C.c.z.c.7.0 6.z.u.u.N.7 3 C.z.x.x.x.z.x.7.0 7.z.u.u.N.9 1 N.z.x.x.x.C.x.z.N.P 7 x.u.u.u.z.1 9 C.z.x.x.x.z.N.O.7 z.u.u.u.x.1 9 C.z.x.u.!.cXiXiXpX[ &XvXxXxXvXtX^ 5XpXiXpXpXiXiXpX[ &XvXxXxXvXtX^ #XfXiXiXpXH.x.z.x.6.6 6.z.u.u.c.9 1 N.",
"pXiXiXpXxXpXiXpXeXkXP.h xXgXFXY.w 7XpXiXpXpXpXpXiXpXpXf I.FXgXFXs d kXiXiXpX4Xc.x.z.c.6.2 3.x.l.u.X p C.z.x.x.x.x.x.z.c.N 5 l.u.x.<.X 6.c.z.x.z.N.xXpXiXpXpXz Z AXaXAXb 5 gXiXiXpXpXpXpXeXgX.Xk .XCXxXpX= y.xXeXpXiXpXG.x.x.z.N.9 3 z.u.x.N : u.x.z.x.x.x.x.z.c.7.3 7.x.l.u.: 9 C.z.x.x.z.C.c.z.z.N.9 7 z.u.x.<.: u.x.z.x.x.x.x.z.N.O.7 l.u.x.<.: 6.c.z.x.x.x.C.x.z.x.x.7 P x.u.c.7 3 N.z.x.x.x.x.x.x.x.7 P x.u.c.7 3 c.x.x.x.u.!.cXiXiXpXtX! tXcXxXaX^ oXzXiXpXpXpXpXiXpXtX! tXvXxXgXI oXzXiXpXiXpXH.x.x.z.c./ 6 l.u.x.<.X 6.c.",
"iXpXiXpXxXpXiXpXiXpXpX/.iXiXpX[.6XkXeXpXpXpXpXpXpXiXpXwX|.pXeXpX^.iXpXiXiXpX4Xc.x.x.z.c.0.u.x.z.u.3.c.z.x.x.x.x.x.x.x.x.x.6.z.z.x.6.6.c.z.x.x.z.N.xXpXiXiXaXqX.XpXeXpX_.eXpXiXpXpXpXpXpXpXeXgX{.qXpXiXwX_.gXiXpXiXiXpXG.x.x.x.x.x.7.x.z.x.6.6.c.z.x.x.x.x.x.x.z.c.6.u.x.z.u.3.c.z.x.x.x.z.C.c.z.x.x.x.7.x.z.x.6.6.c.z.x.x.x.x.x.x.x.x.7.z.z.x.6.6.N.z.x.x.x.x.C.x.x.x.x.u.6.x.z.x.7.z.x.x.x.x.x.x.x.x.x.u.6.x.z.x.7.u.x.z.x.x.u.!.cXiXpXiXpXtXyXpXiXwX#XfXiXpXiXpXpXpXpXiXpXtXyXpXiXwX#XfXiXpXpXiXpXH.x.x.x.x.x.6.z.z.x.0.6.c.z.",
"pXpXiXpXxXpXiXpXpXiXpXxXiXaXaXxXxXeXpXiXpXpXpXpXiXpXeXaXkXiXgXaXxXpXiXpXiXpX4Xc.x.x.x.x.C.x.x.c.c.C.x.x.x.x.x.x.x.x.x.z.x.C.x.c.c.N.C.z.x.x.x.z.N.xXpXiXpXeXgXgXiXgXaXCXpXeXpXiXpXpXpXpXpXpXiXxXaXpXgXaXCXiXiXpXiXiXpXG.x.x.x.z.x.C.x.c.c.C.N.z.x.x.x.x.x.x.x.x.x.C.x.x.c.c.C.x.x.x.x.x.z.C.c.z.x.z.x.C.x.c.c.N.N.z.x.x.x.x.x.x.x.z.x.C.x.c.c.N.C.z.x.x.x.x.x.C.x.x.x.z.c.N.z.c.x.C.x.z.x.x.x.x.x.x.x.z.c.C.z.c.c.C.c.z.x.x.x.u.!.cXiXpXiXiXxXpXpXgXaXcXiXiXpXpXpXpXpXpXpXiXxXpXpXgXaXcXpXiXpXpXiXpXH.x.x.x.z.x.C.x.c.c.N.C.z.x.",
"iXpXiXpXxXpXiXpXiXaX].p.aXZ.A.A.A.aXiXiXpXpXpXpXpXiXaXm.A.aXp.W.p.].aXiXiXpX4Xc.x.x.x.z.N 6.u.N 3.N u.x.x.x.x.x.x.x.z.x.6.N x.2.M 1.M x.z.x.x.z.N.xXpXiXiXaXm.A.aXp.W.p.].aXiXpXpXpXpXpXiXpXeXp.{.qXp.'.p.wXpXiXiXiXpXG.x.x.z.x.4.N x.5.M 1.M c.z.x.x.x.x.x.x.x.z.N 6.u.N 3.N u.x.x.x.x.z.C.c.z.z.x.4.N x.5.M 1.M c.z.x.x.x.x.x.z.x.6.N x.2.M 1.M x.z.x.x.x.x.C.x.x.z.c.M M c.N 2.N 4.x.z.x.x.x.x.x.z.c.1.M c.N 5.N 3.c.z.x.x.u.!.cXiXiXpXeXp.{.wXp.'.p.wXpXiXpXpXpXpXiXpXiXp.[.wXp.'.p.qXpXiXpXiXpXH.x.x.x.x.6.N x.2.M 1.M x.z.",
"iXpXiXpXxXpXiXpXiXpXp.y.W.s.4.5.p.7XpXiXpXpXpXpXiXpX7Xy.p.'.p.M y.p.aXiXiXpX4Xc.x.z.c.5.p M 1.N 5 N 1.c.z.x.x.x.x.x.z.c.N p 2.M 8 4 N 0.x.x.x.z.N.xXpXiXpX7Xy.p.'.p.M y.p.aXiXpXpXpXpXpXiXgXG.y.A.Z.p.N p.A.gXeXiXiXpXG.x.x.z.x.N p 2.M 8 8 N u.x.x.x.x.x.x.z.c.5.p M 1.N 5 N 1.c.z.x.x.z.C.c.z.z.x.N p 2.M 8 8 N u.x.x.x.x.x.x.z.c.N p 2.M 8 4 N 0.x.x.x.x.x.C.x.z.x.u.p N 2.N 4 p N x.z.x.x.x.x.x.x.u.N N 3.N 4 8 N x.z.x.x.u.!.cXiXiXgXG.y.A.Z.p.N p.A.gXeXpXpXpXpXiXgXW.y.m.Z.p.N p.A.gXeXpXiXpXH.x.x.z.c.N p 2.M 8 4 N 6.x.",
"iXpXiXpXxXpXiXpXiXaXs.9.m.p.5.5.y.qXpXiXpXpXpXpXiXpXqXy.y.m.p.M 9.p.aXiXiXpX4Xc.x.z.c.3.8 N M p 4 p 1.c.z.x.x.x.x.x.z.c.M 8 M N 8 8 p u.x.x.x.z.N.xXpXiXpXqXy.y.m.p.M 9.p.aXiXpXpXpXpXpXiXaX'.9.p.m.y.M y.Z.gXeXiXiXpXG.x.x.z.c.N 8 M N 8 8 p u.x.x.x.x.x.x.z.c.3.8 N M p 4 p 1.c.z.x.x.z.C.c.z.z.c.N 8 M N 8 8 p u.x.x.x.x.x.x.z.c.M 8 M N 8 8 p u.x.x.x.x.x.C.x.z.x.u.p p M N 4 8 N c.z.x.x.x.x.x.x.u.N 8 M N 4 8 N x.z.x.x.u.!.cXiXiXaX'.9.p.m.y.M y.Z.gXeXpXpXpXpXiXaX].9.p.m.y.M y.A.gXeXpXiXpXH.x.x.z.c.M 8 M N 8 4 p u.x.",
"iXpXiXpXxXpXiXpXiXpX4XA.{.W.G.'.G.aXiXpXpXpXpXpXpXiXaXW.Z.4XA.[.A.4XpXiXiXpX4Xc.x.x.x.x.M 3.6.1.6.M z.x.x.x.x.x.x.x.x.x.u.M 6.3.5.4.1.x.z.x.x.z.N.xXpXiXiXaXW.Z.4XA.[.A.4XpXiXpXpXpXpXpXiXpXiXA.'.{.A.4XA.eXpXiXiXiXpXG.x.x.x.x.0.M 6.2.5.3.5.x.z.x.x.x.x.x.x.x.x.M 3.6.1.6.M z.x.x.x.x.z.C.c.z.x.x.0.M 6.2.5.3.5.x.z.x.x.x.x.x.x.x.u.M 6.3.5.4.1.x.z.x.x.x.x.C.x.x.z.c.2.1.6.1.6.1.6.x.x.x.x.x.x.x.z.c.2.1.6.1.4.1.6.x.z.x.x.u.!.cXiXiXpXiXA.'.{.A.4XA.eXpXiXpXpXpXpXiXiXpXA.W.{.A.4XA.wXpXiXpXiXpXH.x.x.x.x.u.M 6.3.5.4.1.x.z.",
"iXpXiXpXxXpXiXpXpXiXpXgXpXaXaXaXaXiXpXpXpXpXpXpXpXpXiXaXgXpXgXaXgXpXiXpXiXpX4Xc.x.x.x.x.c.c.x.c.x.c.x.x.x.x.x.x.x.x.x.x.x.c.x.c.c.c.c.z.x.x.x.z.N.xXpXiXpXiXaXgXpXgXaXgXpXiXpXpXpXpXpXpXpXiXpXgXaXpXgXpXgXpXiXpXiXiXpXG.x.x.x.x.x.c.x.c.c.c.c.z.x.x.x.x.x.x.x.x.x.c.c.x.c.x.c.x.x.x.x.x.z.C.c.z.x.x.x.c.x.c.c.c.c.z.x.x.x.x.x.x.x.x.x.c.x.c.c.c.c.z.x.x.x.x.x.C.x.x.x.z.c.c.x.c.x.c.x.x.x.x.x.x.x.x.x.z.c.c.x.c.x.c.x.z.x.x.x.u.!.cXiXpXiXpXgXaXpXgXpXgXpXiXpXpXpXpXpXpXpXiXgXaXpXgXpXgXpXiXpXpXiXpXH.x.x.x.x.x.c.x.c.c.c.c.z.x.",
"pXpXiXpXxXpXiXpXiXpXiXeXiXeXeXiXiXpXiXpXpXpXpXpXpXiXpXiXeXeXeXeXeXiXpXiXiXpX4Xc.x.x.x.x.z.z.z.z.z.z.x.x.x.x.x.x.x.x.x.x.x.z.z.z.z.z.z.x.x.x.x.z.N.xXpXiXpXpXiXeXiXeXeXeXiXpXiXpXpXpXpXpXpXpXiXeXiXeXeXiXeXiXpXpXiXiXpXG.x.x.x.x.x.z.z.z.z.z.z.x.x.x.x.x.x.x.x.x.x.z.z.z.u.z.z.x.x.x.x.x.z.C.c.z.x.x.x.z.z.z.z.z.z.x.x.x.x.x.x.x.x.x.x.z.z.z.z.z.z.x.x.x.x.x.x.C.x.x.x.x.z.z.z.z.z.z.z.x.x.x.x.x.x.x.x.x.z.z.z.z.z.z.z.x.x.x.x.u.!.cXiXiXpXiXeXiXeXeXiXeXiXpXpXpXpXpXpXpXpXiXeXiXeXeXiXeXiXpXiXpXiXpXH.x.x.x.x.x.z.z.z.z.z.z.x.x.",
"iXpXiXpXxXpXiXpXiXpXiXiXpXkXkXpXiXpXpXpXpXpXpXpXpXiXpXiXiXfXhXfXiXiXpXiXiXpX4Xc.x.x.x.x.z.x.c.C.x.z.x.x.x.x.x.x.x.x.x.x.x.z.x.N.N.x.z.x.x.x.x.z.N.xXpXiXpXpXiXiXaXkXpXiXiXpXiXpXpXpXpXpXpXpXpXeXpXhXhXpXiXiXpXiXiXiXpXG.x.x.x.x.x.z.x.C.c.x.z.x.x.x.x.x.x.x.x.x.x.z.x.N.N.x.z.x.x.x.x.x.z.C.c.z.x.x.x.z.x.C.c.x.z.x.x.x.x.x.x.x.x.x.x.z.x.N.N.x.z.x.x.x.x.x.x.C.x.x.x.x.z.z.c.C.c.z.z.x.x.x.x.x.x.x.x.x.z.z.c.N.c.z.z.x.x.x.x.u.!.cXiXiXpXpXiXpXkXkXpXiXiXpXpXpXpXpXpXpXpXpXiXpXhXhXfXiXiXpXiXpXiXpXH.x.x.x.x.x.z.x.C.c.x.z.x.x.",
"pXpXiXpXxXpXiXpXpXiXpXkX0X/./.iXkXiXpXpXpXpXpXpXiXpXiXfXfX_.`._.hXfXiXpXiXpX4Xc.x.x.x.z.C.z.1.<.w.C.x.x.x.x.x.x.x.x.x.z.x.C.6.<.1.z.N.z.x.x.x.z.N.xXpXiXpXiXpXpX;X/.;XaXpXiXpXiXpXpXpXpXpXpXiXhXeX`.`.4XhXpXiXpXiXiXpXG.x.x.x.z.x.C.0.<.2.x.c.z.x.x.x.x.x.x.x.x.z.N.l.1.<.w.N.x.x.x.x.x.z.C.c.z.x.z.x.C.0.<.2.x.c.z.x.x.x.x.x.x.x.z.x.C.6.<.1.z.N.z.x.x.x.x.x.C.x.x.x.z.c.c.3.<.3.c.x.z.x.x.x.x.x.x.x.z.x.c.3.<.3.c.x.z.x.x.x.u.!.cXiXiXpXiXkXeX/./.0XkXpXiXpXpXpXpXpXpXpXiXhXiX_.`.4XhXpXiXpXpXiXpXH.x.x.x.z.x.C.w.<.1.z.c.z.x.",
"pXpXiXpXxXpXiXpXiXpXiX` ' ` ' ' /.kXiXpXpXpXpXpXpXiXhX_.x x x x x dXfXiXiXpX4Xc.x.x.z.c.a 1 2 2 1 9 x.x.x.x.x.x.x.x.x.x.x.9 1 3 1 1 <.N.z.x.x.z.N.xXpXiXiXaX6X' ' ` ' ` 9XpXiXpXpXpXpXpXpXiXhXk.x x x x &.fXpXiXpXiXpXG.x.x.x.x.z.6 1 2 2 1 1.c.z.x.x.x.x.x.x.z.N.v 1 3 3 1 9 x.x.x.x.x.z.C.c.z.x.x.z.6 1 2 2 1 1.c.z.x.x.x.x.x.x.x.x.9 1 3 1 1 <.N.z.x.x.x.x.C.x.x.z.c.7.2 2 2 1 2 w.x.z.x.x.x.x.x.z.c.6.3 1 3 1 3 6.c.z.x.x.u.!.cXiXpXiXkX(.' ` ` ' P.pXiXiXpXpXpXpXpXiXhX`.x x x x &.pXpXiXpXiXpXH.x.x.x.x.x.9 1 2 2 1 <.c.z.",
"pXpXiXpXxXpXiXiXiXpX` ` gXFXAX|.u B.xXeXpXpXpXpXiXfX1Xx `.ZXAXxX&.x wXpXiXpX4Xc.x.z.C.a 1 2.x.x.w.2 6 C.z.x.x.x.x.x.x.c.3 3 u.x.z.<.: <.N.z.x.z.N.xXpXiXpX8X' /.CXFXxX(.' iXpXiXpXpXpXpXeXhX`.x 1XAXZXdXx &.hXiXiXiXpXG.x.x.x.x.2 6 u.x.z.1.1 1.c.z.x.x.x.x.z.N.v 1 2.x.x.6.1 7 N.z.x.x.z.C.c.z.x.x.2 6 u.x.z.1.1 1.c.z.x.x.x.x.z.c.3 3 u.x.z.<.: <.N.z.x.x.x.C.x.z.x.6.1 a z.x.u.9 1 u.x.x.x.x.x.z.x.w.1 9 z.x.u.9 1 u.x.z.x.u.!.cXiXiXkX(.' 0XFXCXhX` ` kXiXpXpXpXpXeXhX`.x _.AXZXuXx c hXiXiXiXpXH.x.x.x.c.6 2 w.x.z.2.1 <.C.",
"pXpXiXpXxXpXiXiXkX(.` FXxXZX9.p.T.y aXiXiXpXpXiXiXhXc &.LXxXxXGXPX&.&.hXeXpX4Xc.x.x.u.1 2.c.u.z.u.6.1 1.c.z.x.x.x.z.N.<.1 x.z.u.x.G.<.1 x.x.x.z.N.xXpXeXkX` (.GXxXxXxXkX` t.kXeXpXpXpXiXpXwXx 1XHXxXxXPXAXx _.fXiXiXpXG.x.z.C.M 2 c.z.u.z.u.a 1 x.x.x.x.x.x.x.u.1 2.N.u.l.C.x.1 2.c.z.x.z.C.c.z.C.M 2 c.z.u.z.u.a 1 x.x.x.x.x.z.N.<.1 x.z.u.x.G.<.1 x.x.x.x.x.C.x.z.C.6 9 C.u.l.u.u.6 9 C.z.x.x.x.z.C.7 9 C.u.u.c.G.7 9 C.z.x.u.!.cXiXpXeX' 0XAXxXZXkXiXs ^.kXiXpXpXiXpXiXx _.HXxXxXLXGXx `.hXiXiXpXH.x.z.c.<.1 x.z.u.z.u.<.1 z.",
"pXpXiXpXxXpXiXiXkX` (.FXxXpXp ].ZXy ~.aXiXpXpXiXpXwXx dXZXxXxXy.9._.x fXiXpX4Xc.z.C.<.2 x.u.x.1.= M 6 6 C.z.x.x.x.z.C.7 9 c.u.x.M 5 2.1 2.N.z.z.N.xXpXpXeX' jXxXxXgX4 V ^.y aXiXiXpXpXiXhX`.x AXxXCXwXV R.&.&.hXeXiXpXG.x.z.C.6 8 c.u.x.4 = 4.X 2.c.z.x.x.z.N.<.3 x.u.z.6.5 M 9 9 C.z.x.z.C.c.z.C.6 8 c.u.x.4 = 4.X 2.c.z.x.x.z.C.7 9 c.u.x.M 5 2.1 2.N.z.x.x.C.x.x.u.1 7.z.u.u.= 5 <.1 c.z.x.x.x.x.x.1 2.x.u.u.8 4 <.1 x.x.x.u.!.cXeXkX/.` FXgXAX].= A.t./ xXeXpXpXiXhX_.x ZXxXCXeXV U.&.&.hXeXiXpXH.x.z.C.6 9 c.u.x.4 = 4.1 1.",
"iXpXiXpXxXpXiXiXkX` /.FXxXxXCXZXxXy E.kXiXpXpXiXpXqXx dXcXxXxX5.p._.< pXiXpX4Xc.z.C.<.2 x.u.z.6.1.C.6 2 C.z.x.x.x.z.C.7 9 c.u.x.N 5 4.1 <.C.z.z.N.xXpXpXwX' fXxXxXgX'.cX;Xy pXiXiXpXpXeXhX`.x HXxXZX7XV }.&.c ZXeXiXpXG.x.z.C.6 a x.u.z.1.6.x.X 1.N.z.x.x.z.C.<.3 x.u.x.3.5 B 6 3 Z.z.x.z.C.c.z.C.6 a x.u.z.1.6.x.X 1.N.z.x.x.z.C.7 9 c.u.x.N 5 4.1 <.C.z.x.x.C.x.x.u.1 6.l.u.u.M z.1.X x.x.x.x.x.x.z.1 7.z.u.u.4 8 1.q z.x.x.u.!.cXeXkX/.` FXxXCXwX].JXt./ xXeXpXpXiXhX`.x ZXxXZXwXV R.L.c cXeXiXpXH.x.z.C.6 8 c.u.z.5.3.c.1 <.",
"pXpXiXpXxXpXiXiXkXP.` DXxXxXxXAX8Xy wXpXiXpXpXiXiXfXx `.HXxXxXAXPX&.c cXeXpX4Xc.x.x.6.1 u.x.u.z.x.C.1 8 C.z.x.x.x.z.C.9 3 N.u.u.x.F.6.q u.x.x.z.N.xXpXiXpX' /.DXxXxXZXLXt.d xXeXiXpXpXiXfX1Xx aXZXxXCXJXPX3 L.cXeXiXpXG.x.z.C.8 6 C.u.u.v.C.2.X u.x.x.x.x.z.x.6.1 u.x.u.l.c.F.: 8 C.z.x.z.C.c.z.C.8 6 C.u.u.v.C.2.X u.x.x.x.x.z.C.9 3 N.u.u.x.F.6.q 6.x.z.x.x.C.x.z.c.2 a c.u.l.v.C.9 1 C.z.x.x.x.z.N.3 9 N.u.u.x.H.9 1 C.z.x.u.!.cXiXpX8X' gXFXxXCXAXGXd r.xXeXpXpXiXpX4Xx dXAXxXxXDXPXc O.cXeXiXpXH.x.z.C.a 2 c.u.u.z.c.7.X 0.",
"iXpXiXpXxXpXiXiXpXwX' /.FXxXxXgXy t.xXeXpXpXpXpXeXhX`.x dXZXxXZX_.@ _.gXeXpX4Xc.x.z.C.6 2 u.u.u.x.6 X x.x.x.x.x.x.x.x.u.1 9 x.u.u.u.: 6 C.z.x.z.N.xXpXeXkX/.' eXCXxXZX~.t ^.aXiXpXpXpXiXiXhX&.x xXxXxXZXO.< pXpXiXiXpXG.x.z.x.u.1 a x.u.u.u.X 9 C.z.x.x.x.x.z.N.7 3 u.u.u.z.6 : x.x.x.x.z.C.c.z.x.u.1 a x.u.u.u.X 9 C.z.x.x.x.x.x.u.1 9 x.u.u.u.: 3 C.z.x.x.x.C.x.z.c.<.1 3.z.u.z.<.q 2.c.z.x.x.x.z.N.1.: 2.z.u.z.1.q <.N.z.x.u.!.cXiXiXkX` ` xXxXxXFXt.y pXpXiXpXpXiXeXhX&.x kXxXxXZXL.# eXpXiXiXpXH.x.x.x.z.1 9 x.u.u.u.1 6 C.",
"iXpXiXpXxXpXiXpXiXkX/.` aXaXvXn.a kXiXiXpXpXpXpXpXiXhX&.&.cXpXcXc L.cXeXiXpX4Xc.x.x.x.z.6 2.x.z.u.1 6.c.z.x.x.x.x.x.z.N.2.3 u.u.c.N 3 c.x.x.x.z.N.xXpXiXiXkXP.(.xXaXxX/ r.xXeXpXpXpXpXpXiXpXiXc _.xXxXwXc _.fXiXpXiXpXG.x.x.z.c.1.6 z.u.c.p 2 c.z.x.x.x.x.x.x.x.z.3 2.x.z.u.1 7.c.z.x.x.z.C.c.z.z.c.1.6 z.u.c.p 2 c.z.x.x.x.x.x.z.N.2.3 u.u.c.M 3 c.x.x.x.x.x.C.x.x.z.C.9 8 c.u.c.6 8 C.z.x.x.x.x.x.z.C.9 9 c.u.N.6 9 C.z.x.x.u.!.cXiXiXpXiX` ,XxXxXwXd 3XaXiXpXpXpXpXiXpXpXc _.cXaXiXc _.gXiXpXiXpXH.x.x.z.c.3.6 u.u.c.<.2 c.x.",
"iXpXiXpXxXpXiXpXpXiXpXpXiXiXiXiXkXpXiXpXpXpXpXpXpXpXiXhXpXiXiXiXpXfXiXpXiXpX4Xc.x.x.x.x.C.x.x.x.x.c.x.z.x.x.x.x.x.x.x.z.x.c.x.x.x.x.N.x.x.x.x.z.N.xXpXiXpXiXkXpXiXpXeXpXaXiXpXiXpXpXpXpXpXiXpXhXiXiXiXpXfXpXiXpXiXiXpXG.x.x.x.z.c.c.z.x.x.x.C.x.x.x.x.x.x.x.x.x.x.c.x.x.x.x.c.x.z.x.x.x.z.C.c.z.x.z.c.c.x.x.x.x.N.x.x.x.x.x.x.x.x.z.x.c.x.x.x.x.N.x.x.x.x.x.x.C.x.x.x.z.c.x.x.x.x.x.c.z.x.x.x.x.x.x.x.z.c.x.x.x.x.x.c.z.x.x.x.u.!.cXiXpXiXpXkXiXpXiXiXaXpXiXpXiXpXpXpXpXiXpXhXpXiXiXiXgXfXiXpXiXiXpXH.x.x.x.z.c.c.x.x.x.x.N.x.x.",
"iXpXiXpXxXpXiXpXpXiXiXpXpXiXeXpXpXiXpXiXpXpXpXpXpXpXiXiXpXpXeXpXeXpXiXpXiXpX4Xc.x.x.x.x.u.x.z.z.x.u.x.x.x.x.x.x.x.x.x.x.x.x.x.u.x.u.x.z.x.x.x.z.N.xXpXiXpXpXwXwXpXeXpXeXeXpXiXpXpXpXpXpXiXpXiXiXpXeXpXeXiXiXpXiXiXiXpXG.x.x.x.x.z.u.c.u.x.x.u.x.x.x.x.x.x.x.x.x.z.x.x.x.z.x.u.x.x.x.x.x.z.C.c.z.x.x.u.u.x.u.x.z.z.x.x.x.x.x.x.x.x.x.z.x.x.u.x.z.z.x.x.x.x.x.x.C.x.x.x.x.u.x.z.z.x.u.x.x.x.x.x.x.x.x.x.x.x.x.x.u.x.u.x.x.x.x.x.u.!.cXiXiXpXiXqXaXwXpXpXwXpXiXpXpXpXpXpXiXpXiXiXpXpXeXpXwXpXiXpXpXiXpXH.x.x.x.x.u.u.x.u.x.z.u.x.x.",
"pXiXiXpXxXpXiXpXiXpXpX5.wXp.p.].4.gXiXiXpXpXpXpXpXiXaXW.y.A.4.y.y.iXpXiXiXpX4Xc.x.x.x.x.M 8 8 M u.4 1.c.z.x.x.x.x.x.x.x.z.8 5.8 N 8 6.x.z.x.x.z.N.xXpXiXiXpX'.9.y.4.eXp.y.pXiXiXpXpXpXpXpXiXgXp.m.p.p.4.A.aXiXpXiXiXpXG.x.x.x.x.u.p p 8 6.5.4 u.x.x.x.x.x.x.x.z.c.2.p M 8 p p x.x.x.x.x.z.C.c.z.z.x.4.8 p 8 z.N p x.x.x.x.x.x.x.x.z.c.N M N N 8 M c.z.x.x.x.x.C.x.x.x.x.M 8 8 N u.4 1.c.z.x.x.x.x.x.x.x.z.8 5.8 N 8 6.x.z.x.x.u.!.cXiXiXpXwXp.y.5.].'.B 4XpXiXpXpXpXpXpXiXaX].9.A.4.p.9.eXpXiXpXiXpXH.x.x.z.x.6.8 p 8 u.N 8 x.x.",
"gXiXiXpXxXpXiXpXiXaXm.p 7Xs.M N B pXiXiXpXpXpXpXpXiXpX7X9.m.y.B m.[.aXiXiXpX4Xc.x.x.x.x.u.8 N M 1.M N x.z.x.x.x.x.x.x.z.c.N p 1.5 1.M N.z.x.x.z.N.xXpXiXpXiXaXp.0.m.A.m.p.4XpXiXpXpXpXpXpXiXgXG.4.Z.M p.p.pXiXpXiXiXpXG.x.x.x.z.c.2.4 M M M N 1.N.z.x.x.x.x.x.x.x.u.8 M p 4 M 6.c.x.x.x.z.C.c.z.x.x.c.N 8 M 1.M N 0.x.x.x.x.x.x.x.z.c.2.8 1.5 N N x.x.x.x.x.x.C.x.x.x.x.u.8 N M 1.M N x.z.x.x.x.x.x.x.z.c.N p 1.5 M M N.z.x.x.u.!.cXiXpXeXaX'.B A.m.A.s.A.xXeXpXpXpXpXpXiXpXwX9.s.p.M m.'.aXiXpXiXpXH.x.x.x.z.c.N 8 M 1.M N 6.c.",
"gXeXiXpXxXpXiXpXiXpXZ.M s.Z.5.p.B pXiXiXpXpXpXpXpXiXpXwXs.m.5.9.9.eXpXiXiXpX4Xc.x.x.x.x.4 N 8 8 1.8 M c.z.x.x.x.x.x.x.z.c.M 1.8 p 8 3.c.z.x.x.z.N.xXpXiXeXgXp.5.s.5.A.y.9.iXpXiXpXpXpXpXpXiXaX'.m.y.9.5.s.aXiXpXiXiXpXG.x.x.z.c.4.5 M 8 N M 8 6.x.z.x.x.x.x.x.x.x.u.N M 8 8 8 u.x.x.x.x.z.C.c.z.z.N.N 8 N 8 M p 8 z.x.x.x.x.x.x.x.z.c.4.M p 8 8 N c.z.x.x.x.x.C.x.z.x.x.4 N p 8 1.8 M c.z.x.x.x.x.x.x.z.c.M 1.8 p 8 3.c.z.x.x.u.!.cXiXiXpX{.N A.5.p.m.B [.aXiXpXpXpXpXpXpXpXeXs.m.5.0.4.wXpXiXpXiXpXH.x.x.z.c.N 4 M 8 M N 8 u.x.",
"aXiXiXpXxXpXiXpXpXiXgXpXwX7XeXxXpXpXiXpXpXpXpXpXpXpXpXiXeXwXqXeXqXpXiXpXiXpX4Xc.x.x.x.z.0.u.u.u.z.u.z.x.x.x.x.x.x.x.x.x.x.z.x.u.x.u.x.x.x.x.x.z.N.xXpXiXiXpX7X4XqXqXeXqXwXpXiXpXpXpXpXpXpXiXpXeXpXqXeXqXeXpXiXpXiXiXpXG.x.x.x.x.u.6.u.u.u.u.u.x.x.x.x.x.x.x.x.x.x.x.z.u.u.z.u.x.x.x.x.x.z.C.c.z.x.x.u.6.u.u.z.u.u.x.x.x.x.x.x.x.x.x.x.z.x.u.z.u.z.x.x.x.x.x.x.C.x.x.x.x.0.u.u.u.z.u.z.x.x.x.x.x.x.x.x.x.x.z.x.u.x.u.x.x.x.x.x.u.!.cXiXiXpXwX{.qX7XwXwX7XpXiXpXpXpXpXpXpXpXpXiXeXeXqXeX7XpXiXpXpXiXpXH.x.x.x.x.u.6.u.u.u.u.u.x.x.",
"iXpXiXpXxXpXiXpXiXpXeXiXpXpXpXeXiXiXpXpXpXpXpXpXpXpXiXpXpXpXpXpXpXiXpXpXiXpX4Xc.x.x.x.x.x.x.x.x.x.x.x.x.x.x.x.x.x.x.x.x.x.x.x.x.x.x.x.x.x.x.x.z.N.xXpXiXpXiXpXaXpXpXpXpXpXiXpXpXpXpXpXpXpXpXiXpXiXpXpXpXpXiXpXpXiXiXpXG.x.x.x.x.x.c.x.x.x.x.x.x.x.x.x.x.x.x.x.x.x.x.x.x.x.x.x.x.x.x.x.x.z.C.c.z.x.x.x.x.x.x.x.x.x.x.x.x.x.x.x.x.x.x.x.x.x.x.x.x.x.x.x.x.x.x.x.C.x.x.x.x.x.x.x.x.x.x.x.x.x.x.x.x.x.x.x.x.x.x.x.x.x.x.x.x.x.x.x.u.!.cXiXpXiXpXaXpXpXpXpXpXiXpXiXpXpXpXpXpXpXpXpXpXpXpXpXpXiXpXpXpXiXpXH.x.x.x.x.x.x.x.x.x.x.x.x.x.",
"pXpXiXpXxXpXiXpXpXiXpXiXiXiXiXiXiXpXpXpXpXpXpXpXpXpXpXiXiXeXeXeXeXpXiXpXiXpX4Xc.x.x.x.x.z.z.z.z.z.z.x.x.x.x.x.x.x.x.x.x.x.z.z.z.z.z.x.x.x.x.x.z.N.xXpXiXpXpXiXiXiXiXiXiXiXpXpXpXpXpXpXpXpXiXpXiXeXeXeXeXiXpXiXpXiXiXpXG.x.x.x.x.x.z.z.z.z.z.x.x.x.x.x.x.x.x.x.x.x.x.z.z.z.z.z.x.x.x.x.x.z.C.c.z.x.x.x.z.z.z.z.z.x.x.x.x.x.x.x.x.x.x.x.x.z.z.z.z.x.x.x.x.x.x.x.C.x.x.x.x.x.z.z.z.z.z.x.x.x.x.x.x.x.x.x.x.x.z.z.z.z.z.x.x.x.x.x.u.!.cXiXiXpXiXiXiXiXiXiXiXpXpXpXpXpXpXpXpXpXpXiXiXiXiXiXiXpXiXpXpXiXpXH.x.x.x.x.x.z.z.z.z.z.x.x.x.",
"pXpXiXpXxXpXiXpXpXpXiXpXkXkXkXlXiXiXpXpXpXpXpXpXpXpXiXeXaXkXkXkXaXeXpXpXiXpX4Xc.x.x.x.z.x.C.C.C.C.x.z.x.x.x.x.x.x.x.x.x.z.x.C.C.C.c.z.x.x.x.x.z.N.xXpXiXpXiXiXpXkXkXkXpXiXpXpXpXpXpXpXpXiXpXiXiXgXVXVXVXpXeXpXiXiXiXpXG.x.x.x.x.z.x.C.C.C.c.z.x.x.x.x.x.x.x.x.x.x.x.N.C.C.N.x.z.x.x.x.x.z.C.c.z.x.x.z.x.C.C.C.c.z.x.x.x.x.x.x.x.x.x.z.x.N.C.C.N.z.x.x.x.x.x.x.C.x.x.x.x.z.c.C.C.C.x.z.x.x.x.x.x.x.x.x.x.z.x.N.N.N.x.z.x.x.x.x.u.!.cXiXiXpXiXiXlXkXkXkXpXiXpXiXpXpXpXpXpXpXiXiXfXzXzXzXpXiXpXiXpXiXpXH.x.x.x.x.z.x.C.C.C.C.z.x.x.",
"pXpXiXpXxXpXiXpXpXiXpXyX<X{ { ,XlXpXiXpXpXpXpXpXpXiXiXkX/.g h P.|.kXeXpXiXpX4Xc.x.x.z.x.x.<.9 6 a l.c.z.x.x.x.x.x.x.x.z.c.u.N 8 8 1.c.x.x.x.x.z.N.xXpXiXpXiXlX,X<X{ <X8XlXiXpXpXpXpXpXpXpXiXpXaXd.A z Z wXgXeXpXiXiXpXG.x.x.x.z.c.u.9 6 9 1.c.x.x.x.x.x.x.x.x.z.x.x.<.9 9 v l.c.z.x.x.x.z.C.c.z.x.z.c.u.9 6 9 1.c.x.x.x.x.x.x.x.x.z.c.u.O.9 9 8.c.x.x.x.x.x.x.C.x.x.x.z.c.7.9 6 9 6.C.z.x.x.x.x.x.x.x.z.m.7.P 9 P 7.N.z.x.x.x.u.!.cXiXpXiXpXpX<X{ { <XiXpXiXpXpXpXpXpXpXiXpXpX$X%X%X$XuXpXiXpXpXiXpXH.x.x.x.z.c.u.a 6 9 <.c.x.x.",
"iXpXiXpXxXpXiXpXiXpX,X{ { <X<X{ { pXiXiXpXpXpXpXpXiXkXP.f I.I.g f (.kXeXiXpX4Xc.x.x.x.z.6 2 9 9 6 1 6.x.z.x.x.x.x.x.z.c.6.2 4 N p 2 8 x.x.x.x.z.N.xXpXiXiXlX<X{ <X<X<X{ <XlXiXpXpXpXpXpXiXpXeXz z Z Z z l .XaXeXpXiXpXG.x.x.z.c.2.1 6 p 9 1 9 x.x.x.x.x.x.x.x.x.z.7 3 v v 7 3 6.x.z.x.x.z.C.c.z.z.c.2.1 6 p 9 1 9 x.x.x.x.x.x.x.z.x.7.0 7 O.v 0 9 x.x.x.x.x.x.C.x.x.z.c.9 1 9 p 9 1 <.c.z.x.x.x.x.x.z.m.O.0 P O.9 0 O.m.z.x.x.u.!.cXiXiXpXiX{ { <X<X{ { yXpXiXpXpXpXpXiXpXpX%X[ &X&X%X! tXpXiXpXiXpXH.x.x.z.c.7.1 6 p 9 1 6 x.x.",
"pXpXiXpXxXpXiXiXpXyX{ ,XvXvXvXvX{ <XkXiXpXpXpXpXeXkX(.f fXIXFXIX0Xf /.aXeXpX4Xc.x.z.C.6 6 x.c.x.C.9 2 x.x.x.x.x.x.x.x.u.2 M c.x.x.x.5 p c.z.x.z.N.xXpXiXlX<X{ gXvXvXGXVX{ ,XpXiXpXpXpXiXeXgXA A DXGXDXLXZ l pXpXiXiXpXG.x.z.x.u.1 <.C.x.c.c.2 9 C.z.x.x.x.x.z.N.9 9 x.x.x.N.v 3 x.x.x.x.z.C.c.z.x.u.1 <.C.x.c.c.2 9 C.z.x.x.x.x.x.u.0 O.N.x.x.x.7 9 N.z.x.x.x.C.x.z.C.<.1 w.c.x.C.6.1 3.c.z.x.x.x.z.m.8.0 6.m.x.m.6.0 8.c.z.x.u.!.cXiXiXlX{ { vXvXvXvX<X{ pXpXiXpXpXpXiXzX%X%XvXvXvXvX&X! uXpXiXiXpXH.x.x.x.u.1 / C.x.c.C.6 9 C.",
"iXpXiXpXxXpXiXiXkX<X{ vXgXxXgXvXsX{ iXpXiXpXpXiXiXaXh /.IXgXxXcXIXI.h kXeXpX4Xc.x.x.6.1 u.z.u.u.5.4.6 a C.z.x.x.x.z.C.N 4 c.u.u.l.x.6.5 u.x.x.z.N.xXpXiXpX{ ,XvXgXxX9X.X<X{ kXiXiXpXpXiXaX.Xl zXCXzXxXxXGXz d.gXeXiXpXG.x.z.C.9 6 C.u.u.0.5.2.1 u.x.x.x.x.z.x.6.3 u.z.u.l.l.x.7 <.N.z.x.z.C.c.z.C.9 6 C.u.u.0.5.2.1 u.x.x.x.x.z.N.O.7 m.u.u.l.x.6.0 u.x.x.x.x.C.x.z.c.6 <.c.u.u.3.4.9 6 C.z.x.x.x.z.m.7 <.m.u.u.l.m.O.9 N.z.x.u.!.cXiXpX8X{ gXxXgXxXgXvX{ <XlXiXpXpXiXpXtX! aXvXxXCXCXvX%X$XzXiXiXpXH.x.z.C.p 6 c.u.u.w.1.2.1 w.",
"iXpXiXpXxXpXiXiXkX{ <XvXxXxXAXxXxX{ ,XpXiXpXpXiXpX0Xf jXxXxXaX7XIX|.h pXiXpX4Xc.z.C.<.6 x.u.x.M = N 9 6 C.z.x.x.x.z.C.8 N x.u.l.3.u.x.5 2.c.z.z.N.xXpXpXyX{ hXxXxXaX4 V :X} pXiXiXpXpXeXVXd.z AXxXCXeXeXLXZ A CXeXiXpXG.x.z.C.6 a x.u.x.4 = 3.1 1.N.z.x.x.z.N.<.7 x.u.z.6.6.C.9 9 C.z.x.z.C.c.z.C.6 a x.u.x.4 = 3.1 1.N.z.x.x.z.C.9 O.x.u.l.3.u.x.7 8.m.z.x.x.C.x.x.u.1 6.l.l.u.= 5 <.1 x.x.x.x.x.x.z.7 7.z.u.u.3.c.7.7 z.x.x.u.!.cXiXlX<X{ vXxXxXxXZXvX<X<XkXiXpXpXiXfX$X%XvXxXCXeXwXKX&X%XzXiXiXpXH.x.z.C.6 9 x.u.x.4 = 2.1 <.",
"pXpXiXpXxXpXiXiXkX{ <XvXCXqXV aXxX{ ,XpXiXpXpXiXpXeXf jXCXcXiX5 y.|.f aXiXpX4Xc.x.c.1.6 x.u.l.u.0.C.6 6 C.z.x.x.x.z.C.8 p c.u.x.5 = u.5 3.c.x.z.N.xXpXiXiX{ sXvXxXxXiXGX,X} pXiXiXpXpXeXgX).z AXxXAXA.= 7XZ A CXeXiXpXG.x.z.C.6 9 c.u.l.0.l.l.X 2.c.z.x.x.z.N.2.7 x.u.x.N = 5.v 9 C.z.x.z.C.c.z.C.6 9 c.u.l.0.l.l.X 2.c.z.x.x.z.C.9 9 m.u.x.5 = u.7 7.m.z.x.x.C.x.x.z.2 7.z.u.u.6.c.<.1 c.z.x.x.x.x.x.7 7.z.l.u.= 4 7.7 x.x.x.u.!.cXiXlX,X{ vXxXAXB p.JX<X<XkXiXpXpXiXpX>X[ cXxXAX'.5 }.&XoXzXiXiXpXH.x.z.C.9 9 c.u.l.0.u.x.X <.",
"pXpXiXpXxXpXiXiXlX<X{ vXxXCXp _.nX{ pXiXiXpXpXiXeXkXh I.IXxXZXwX4Xg P.kXeXpX4Xc.x.x.u.1 1.x.u.u.x.u.X 1.c.z.x.x.x.z.c.1.2 l.l.u.u.5.N 2 x.x.x.z.N.xXpXiXkX{ <XvXxXxXxXKX_ ( zXiXiXpXpXiXpXwXl .XDXxXZX{.{.l _.gXeXiXpXG.x.z.C.<.1 x.l.u.u.C.9 1 c.x.x.x.x.x.x.u.3 2.x.u.x.5.5.3 7.c.z.x.z.C.c.z.C.<.1 x.l.u.u.C.9 1 c.x.x.x.x.z.m.8.0 l.l.u.u.5.v 0 x.x.x.x.x.C.x.z.C.6 9 C.u.u.l.C.1 6 C.z.x.x.x.z.N.9 9 m.u.z.6.5.9 9 C.z.x.u.!.cXiXpXiX{ ,XvXFXW.V CX{ ,XpXiXpXpXiXpXiX! nXvXxXZX{.{.W $XfXiXiXpXH.x.z.c.1.1 l.l.u.u.C.N X x.",
"pXpXiXpXxXpXiXpXiXpX{ { xXCXvX,X{ ,XpXiXpXpXpXpXiXpX0Xj (.FXgXDXP.w eXpXiXpX4Xc.x.z.C.<.1 6.z.u.u.1 6 C.z.x.x.x.x.x.z.c.4 4 z.u.x.7.X <.N.z.x.z.N.xXpXiXpXyX{ <XvXxXAXj.} iXpXiXpXpXpXpXeXgXd.k qXCXxXAX5 b xXeXiXiXpXG.x.x.x.c.6 6 x.u.x.<.q <.N.z.x.x.x.x.z.N.<.3 6.z.u.x.1 3 C.z.x.x.z.C.c.z.x.c.6 6 x.u.x.<.q <.C.z.x.x.x.x.z.m.7 7 z.u.x.7.: <.N.z.x.x.x.C.x.z.x.w.1 a x.u.x.9 X l.x.z.x.x.x.x.x.u.0 O.x.u.c.9 : u.x.z.x.u.!.cXiXiXlX<X{ sXxXZXxX{ <XlXiXiXpXpXpXiXfX$X! yXcXxXAX~ T zXiXiXiXpXH.x.x.z.c.6 6 z.u.x.2.q <.C.",
"pXpXiXpXxXpXiXpXiXpXuX<XpXpXkX-X=XkXiXpXpXpXpXpXpXeXkX/.(.kXpXaXt.|.kXiXiXpX4Xc.x.x.z.c.<.6.x.x.u.9 x.x.x.x.x.x.x.x.x.x.z.M u.z.x.2.M C.z.x.x.z.N.xXpXiXiXlX,X,XpXpXaXj.6XpXiXpXiXpXpXpXpXeXgXd..XgXpXqX5.pXpXiXpXiXpXG.x.x.x.x.u.<.z.l.c.1.<.C.z.x.x.x.x.x.x.z.c.<.6.x.x.u.9 x.x.x.x.x.z.C.c.z.x.x.u.<.z.z.c.1.<.C.z.x.x.x.x.x.x.x.z.<.u.z.x.2.<.C.z.x.x.x.x.C.x.x.z.c.3.<.x.u.x.8 6.c.z.x.x.x.x.x.z.c.7.8.x.l.x.<.7.N.z.x.x.u.!.cXiXpXiXlX<X8XpXpX9Xj.pXpXiXpXpXpXpXpXiXfX$XtXpXpXwXoXiXpXiXpXiXpXH.x.x.x.x.u.<.z.z.c.2.N C.z.",
"pXpXiXpXxXpXiXpXpXiXpXkXpXiXaXkXkXpXiXpXpXpXpXpXiXpXeXaXkXpXpXaXxXxXeXpXiXpX4Xc.x.x.x.x.C.x.x.x.x.Z.x.c.x.x.x.x.x.x.x.x.x.C.c.z.c.c.C.x.x.x.x.z.N.xXpXiXpXiXzXkXiXpXeXvXaXaXpXiXpXpXpXpXpXpXeXgXgXeXpXaXZXaXiXpXiXiXpXG.x.x.x.z.c.C.x.c.z.C.C.x.x.z.x.x.x.x.x.x.z.N.N.x.x.N.C.c.x.x.x.x.z.C.c.z.x.z.c.C.x.x.z.C.C.c.x.x.x.x.x.x.x.x.x.N.c.x.x.C.C.x.x.x.x.x.x.C.x.x.x.z.C.c.x.x.x.C.c.c.x.x.x.x.x.x.x.z.x.N.x.x.c.C.C.x.x.x.x.u.!.cXiXiXpXiXkXzXiXpXaXzXpXiXpXpXpXpXpXpXpXiXpXfXpXiXgXzXgXiXpXpXiXpXH.x.x.x.z.c.C.x.c.z.C.C.c.x.",
"iXpXiXpXxXpXiXpXpXiXpX[.7XpXG.7X7X4XpXiXpXpXpXpXpXpXiXpX].qXeXG.7XG.pXiXiXpX4Xc.x.x.x.u.1.u.u.u.u.5.u.5.x.x.x.x.x.x.x.x.x.u.4.c.2.u.2.u.x.x.x.z.N.xXpXiXiXpXW.{.eX[.aXG.7XG.wXpXiXpXpXpXpXiXpXwX'.pX{.].[.].aXiXpXiXpXG.x.x.x.x.6.5.x.4.x.4.6.4.6.x.z.x.x.x.x.x.x.x.4.u.u.5.u.5.x.x.x.x.z.C.c.z.x.x.2.6.z.6.x.5.u.5.u.x.x.x.x.x.x.x.x.u.3.x.6.4.6.4.x.z.x.x.x.C.x.z.x.u.1.u.u.u.u.5.u.5.x.x.x.x.x.x.x.x.x.u.4.c.2.0.2.u.x.x.x.u.!.cXiXiXiXpX4XG.pX4X].4X4XpXiXpXpXpXpXpXpXiXpX[.7XiXG.7XG.pXpXiXiXpXH.x.x.x.x.2.4.z.6.c.5.u.2.u.",
"iXpXiXpXxXpXiXpXiXiXgX9.A.eXN 4X4.m.xXeXpXpXpXpXpXiXaX].N wXA.4.B 9.'.aXeXpX4Xc.x.x.x.x.N M 8 3.1.8 4 8 6.c.z.x.x.x.x.x.x.4 M u.8 8 8 N c.z.x.z.N.xXpXiXpXpXW.y.s.y.7X4.B 4.A.aXeXpXpXpXpXeXgXp.5.pXp.5.5.y.wXpXiXiXpXG.x.x.x.x.u.8 1.4 z.p 8 8 N z.x.x.x.x.x.z.c.4.5 u.1.8 4 8 3.c.z.x.z.C.c.z.x.x.2.p N p u.8 4 8 M c.z.x.x.x.x.z.N.N 8 x.N 8 8 p u.x.x.x.x.C.x.z.x.x.N M 8 2.1.8 4 8 4.c.z.x.x.x.x.x.x.4 M u.8 8 8 N c.z.x.u.!.cXiXiXiXpXqX5.4Xy.B p.i.xXeXpXpXpXpXpXiXaX4XN 7XG.4.B 4.W.aXiXiXpXH.x.x.x.x.4.8 M 8 u.8 4 8 M ",
"iXpXiXpXxXpXiXiXpX{.W.W.A.pXW.N p p.xXeXpXpXpXpXiXpX].y.5.s.m.i.N s.A.gXeXpX4Xc.x.x.2.3.M N 2 M M N 5 M 5.c.z.x.x.x.x.u.M 8 p 1.M 5 N N x.z.x.z.N.xXpXpX4XZ.G.p.N 5.Z.m.N s.i.gXeXpXpXiXpXeXZ.4.5.A.m.4.5.p.4XpXiXiXpXG.x.x.z.1.4.N 8 5 2.N 8 8 N u.x.x.x.x.z.x.4.p 8 M M N 5 M 1.c.z.x.z.C.c.x.0.5.5.N 5 8 5.M 5 N N c.z.x.x.x.x.z.1.8 8 1.M 8 8 N 0.x.x.x.x.C.x.x.2.3.M N 2 M M N 5 M 5.c.z.x.x.x.x.u.M 8 p 1.M 5 N N x.z.x.u.!.cXiXpXiXA.].p.wX9.5.G.m.xXeXpXpXpXpXiXpX[.y.5.s.m.s.N s.A.gXeXiXpXH.x.x.u.1.2.N 5 4 5.M 5 N N ",
"iXpXiXpXxXpXiXpXpXiXaX[.G.G.s.G.Z.Z.aXiXpXpXpXpXpXiXpXqXp.A.G.p.Z.y.wXpXiXpX4Xc.x.z.x.6.4 2.1.N 5.N 1.p u.x.x.x.x.x.x.x.x.M N 2.N 1.N 2.c.z.x.z.N.xXpXiXpXpX5.m.].p.W.p.Z.y.[.aXiXpXpXpXpXiXaX'.p.Z.m.i.m.s.pXiXiXiXpXG.x.x.z.c.N 8 6.N 1.M M N M c.z.x.x.x.x.x.x.u.N M 5.p 1.p u.x.x.x.z.C.c.z.x.x.8 M 4.N 2.N 1.p 6.x.z.x.x.x.x.z.x.3.N 1.M N M N x.x.x.x.x.C.x.z.x.6.4 2.1.N 5.N 1.p u.x.x.x.x.x.x.z.x.M N 2.N 1.N 2.c.z.x.u.!.cXiXiXiXgXs.9.Z.s.s.[.'.aXiXpXpXpXpXpXiXpXwXp.m.G.y.Z.0.qXpXiXiXpXH.x.x.x.x.8 N 6.N 2.N 1.p 3.",
"iXpXiXpXxXpXiXpXpXpXiXpXpXpXpXaXgXaXiXpXpXpXpXpXpXpXiXpXaXaXaXaXaXaXpXiXiXpX4Xc.x.x.x.x.c.x.N.c.c.c.c.c.x.x.x.x.x.x.x.x.x.c.c.c.c.c.c.c.x.x.x.z.C.xXpXiXpXpXgXpXaXgXpXaXaXaXpXiXpXpXpXpXpXpXiXpXaXaXaXaXaXaXpXpXpXiXpXG.x.x.x.x.c.c.c.C.c.c.c.c.c.x.x.x.x.x.x.x.x.x.c.c.c.c.c.c.x.x.x.x.x.C.c.x.x.x.c.x.c.N.c.c.c.c.x.x.x.x.x.x.x.x.x.c.c.c.c.c.c.c.x.x.x.x.x.C.x.x.x.x.c.x.N.c.c.c.c.c.x.x.x.x.x.x.x.x.x.c.c.c.c.c.c.c.x.x.x.u.'.cXiXpXpXiXaXaXpXaXaXpXpXiXpXpXpXpXpXpXpXiXpXaXaXaXaXaXaXpXiXpXiXpX!.c.x.x.x.c.x.c.N.c.c.c.c.c.",
"iXiXiXiXxXpXeXiXiXiXiXeXeXeXeXeXeXeXiXiXiXiXiXiXiXiXiXiXeXeXeXeXeXeXiXiXeXpX4Xx.u.u.u.u.u.u.u.u.u.u.u.u.u.u.u.u.u.u.u.u.u.u.u.u.u.u.u.u.u.u.u.u.x.xXpXeXiXiXeXeXeXeXeXeXeXeXeXiXiXiXiXiXiXiXiXeXeXeXeXeXeXeXiXiXiXiXpXG.l.u.u.u.u.u.u.u.u.u.u.u.u.u.u.u.u.u.u.u.u.u.u.u.u.u.u.u.u.u.u.u.u.x.x.u.u.u.u.u.u.u.u.u.u.u.u.u.u.u.u.u.u.u.u.u.u.u.u.u.u.u.u.u.u.u.u.c.u.u.u.u.u.u.u.u.u.u.u.u.u.u.u.u.u.u.u.u.u.u.u.u.u.u.u.u.u.u.u.u.G.cXeXiXiXiXeXeXeXeXeXeXeXiXiXiXiXiXiXiXiXiXiXeXeXeXeXeXeXiXiXiXeXpXG.z.u.u.u.u.u.u.u.u.u.u.u.u.",
"gXgXaXaXxXgXgXgXgXgXgXgXgXgXgXgXgXgXgXgXgXaXaXaXaXgXgXgXgXgXgXgXgXgXgXgXgXxXpX4X4X4X4X4X4X4X4X4X4X4X4X4X4X4X4X4X4X4X4X4X4X4X4X4X4X4X4X4X4X4X4X4X4XxXxXgXgXgXgXgXgXgXgXgXgXgXgXgXgXgXgXgXgXgXgXgXgXgXgXgXgXgXgXgXgXgXxXwX4X4X4X4X4X4X4X4X4X4X4X4X4X4X4X4X4X4X4X4X4X4X4X4X4X4X4X4X4X4X4X4X4X4X4X4X4X4X4X4X4X4X4X4X4X4X4X4X4X4X4X4X4X4X4X4X4X4X4X4X4X4X4X4X4X4X4X7X4X4X4X4X4X4X4X4X4X4X4X4X4X4X4X4X4X4X4X4X4X4X4X4X4X4X4X4X4X4X4X4XwXxXgXgXgXgXgXgXgXgXgXgXgXgXgXgXgXgXgXgXgXgXgXgXgXgXgXgXgXgXgXgXgXxXwX4X4X4X4X4X4X4X4X4X4X4X4X4X",
"xXxXxXAXZXZXxXxXxXxXxXxXxXxXxXxXxXxXxXxXxXxXxXxXxXxXxXxXxXxXxXxXxXxXxXxXxXxXxXxXxXxXxXxXxXxXxXxXxXxXxXxXxXxXxXxXxXxXxXxXxXxXxXxXxXxXxXxXxXxXxXxXxXxXxXxXxXxXxXxXxXxXxXxXxXxXxXxXxXxXxXxXxXxXxXxXxXxXxXxXxXxXxXxXxXxXxXxXxXxXxXxXxXxXxXxXxXxXxXxXxXxXxXxXxXxXxXxXxXxXxXxXxXxXxXxXxXxXxXxXxXxXxXxXxXxXxXxXxXxXxXxXxXxXxXxXxXxXxXxXxXxXxXxXxXxXxXxXxXxXxXxXxXxXxXxXxXxXxXxXxXxXxXxXxXxXxXxXxXxXxXxXxXxXxXxXxXxXxXxXxXxXxXxXxXxXxXxXxXxXxXxXxXxXxXxXxXxXxXxXxXxXxXxXxXxXxXxXxXxXxXxXxXxXxXxXxXxXxXxXxXxXxXxXxXxXxXxXxXxXxXxXxXxXxXxX",
"iXpX].c.C.C.qXpXiXeXpXeXiXiXeXeXiXiXiXiXwX4X4X4X4XiXiXeXiXpXeXiXeXeXeXiXiXiXiXeXeXeXeXeXeXeXeXeXeXeXeXeXeXeXeXeXeXeXeXeXeXeXeXeXeXeXeXeXeXeXeXeXeXiXiXiXiXiXiXiXiXiXiXiXiXiXiXiXiXiXiXiXiXiXiXiXiXiXiXiXiXiXiXiXiXiXiXiXeXeXeXeXeXeXeXeXeXeXeXeXeXeXeXeXeXeXeXeXeXeXeXeXeXeXeXeXeXeXeXeXeXeXeXeXeXeXeXeXeXeXeXeXeXeXeXeXeXeXeXeXeXeXeXeXeXeXeXeXeXeXeXeXeXeXeXeXeXeXeXeXeXeXeXeXeXeXeXeXeXeXeXeXeXeXeXeXeXeXeXeXeXeXeXeXeXeXeXeXiXiXiXiXiXiXiXiXiXiXiXiXiXiXiXiXiXiXiXiXiXiXiXiXiXiXiXiXiXiXiXiXiXiXiXeXiXpXpXpXpXeXpXpXpXiXeXpX",
"eXxX8.<.8.P ].fXiXgX4XpXpXpXxXxXpXiXiXpXwX7.P P 8.pXiXpXwX4XgXeXfXxXgXiXpXpXpXpXpXpXpXpXpXpXpXpXpXpXpXpXpXpXpXpXpXpXpXpXpXpXpXpXpXpXpXpXpXpXpXpXpXpXpXpXpXpXpXpXpXpXpXpXpXpXpXpXpXpXpXpXpXpXpXpXpXpXpXpXpXpXpXpXpXpXpXpXpXpXpXpXpXpXpXpXpXpXpXpXpXpXpXpXpXpXpXpXpXpXpXpXpXpXpXpXpXpXpXpXpXpXpXpXpXpXpXpXpXpXpXpXpXpXpXpXpXpXpXpXpXpXpXpXpXpXpXpXpXpXpXpXpXpXpXpXpXpXpXpXpXpXpXpXpXpXpXpXpXpXpXpXpXpXpXpXpXpXpXpXpXpXpXpXpXpXpXpXpXpXpXpXpXpXpXpXpXpXpXpXpXpXpXpXpXpXpXpXpXpXpXpXpXpXpXpXpXpXpXpXpXpXpXpXwX!.H.4XH.c.G.G.].eXfX_.",
"iXgX7.7.<.8.].pXpXJ.7 l.fX4Xw.w.4XpXiXpXqXC.v.9 C.eXpXiX8.9 4XfXC.7.K.pXiXiXpXpXpXpXpXpXpXpXpXpXpXpXpXpXpXpXpXpXpXpXpXpXpXpXpXpXpXpXpXpXpXpXpXpXpXpXpXpXpXpXpXpXpXpXpXpXpXpXpXpXpXpXpXpXpXpXpXpXpXpXpXpXpXpXpXpXpXpXpXpXpXpXpXpXpXpXpXpXpXpXpXpXpXpXpXpXpXpXpXpXpXpXpXpXpXpXpXpXpXpXpXpXpXpXpXpXpXpXpXpXpXpXpXpXpXpXpXpXpXpXpXpXpXpXpXpXpXpXpXpXpXpXpXpXpXpXpXpXpXpXpXpXpXpXpXpXpXpXpXpXpXpXpXpXpXpXpXpXpXpXpXpXpXpXpXpXpXpXpXpXpXpXpXpXpXpXpXpXpXpXpXpXpXpXpXpXpXpXpXpXpXpXpXpXpXpXpXpXpXpXpXpXpXpXiXpX7Xc.7.f.v.cXf.7.qX7XgXL.",
"eXgX8.P c.wX].pXpX4XO.J.pXqXJ.J.wXpXiXpX4X4X4X9 ].wXpXpXl.O.wXpX4XJ._.pXiXiXpXpXpXpXpXpXpXpXpXpXpXpXpXpXpXpXpXpXpXpXpXpXpXpXpXpXpXpXpXpXpXpXpXpXpXpXpXpXpXpXpXpXpXpXpXpXpXpXpXpXpXpXpXpXpXpXpXpXpXpXpXpXpXpXpXpXpXpXpXpXpXpXpXpXpXpXpXpXpXpXpXpXpXpXpXpXpXpXpXpXpXpXpXpXpXpXpXpXpXpXpXpXpXpXpXpXpXpXpXpXpXpXpXpXpXpXpXpXpXpXpXpXpXpXpXpXpXpXpXpXpXpXpXpXpXpXpXpXpXpXpXpXpXpXpXpXpXpXpXpXpXpXpXpXpXpXpXpXpXpXpXpXpXpXpXpXpXpXpXpXpXpXpXpXpXpXpXpXpXpXpXpXpXpXpXpXpXpXpXpXpXpXpXpXpXpXpXpXpXpXpXpXpXpXiXpXeX6.c.v.f.].c.v.G.wXgX`.",
"iXpXC.f.c.G.4XpXiXfXwXpXiXpXgXgXpXiXiXpXwXJ.J.7.H.pXiXpXpXeXaXiXaXgXfXiXpXpXpXpXpXpXpXpXpXpXpXpXpXpXpXpXpXpXpXpXpXpXpXpXpXpXpXpXpXpXpXpXpXpXpXpXpXpXpXpXpXpXpXpXpXpXpXpXpXpXpXpXpXpXpXpXpXpXpXpXpXpXpXpXpXpXpXpXpXpXpXpXpXpXpXpXpXpXpXpXpXpXpXpXpXpXpXpXpXpXpXpXpXpXpXpXpXpXpXpXpXpXpXpXpXpXpXpXpXpXpXpXpXpXpXpXpXpXpXpXpXpXpXpXpXpXpXpXpXpXpXpXpXpXpXpXpXpXpXpXpXpXpXpXpXpXpXpXpXpXpXpXpXpXpXpXpXpXpXpXpXpXpXpXpXpXpXpXpXpXpXpXpXpXpXpXpXpXpXpXpXpXpXpXpXpXpXpXpXpXpXpXpXpXpXpXpXpXpXpXpXpXpXpXpXpXiXpX4Xc.gXiX9X4XwXiX4XeXpXpX",
"pXiXaXfXpXpXpXiXpXiXpXiXpXiXiXiXiXpXpXiXpXpXpXgXpXpXpXiXpXpXiXpXiXiXiXpXpXpXpXpXpXpXpXpXpXpXpXpXpXpXpXpXpXpXpXpXpXpXpXpXpXpXpXpXpXpXpXpXpXpXpXpXpXpXpXpXpXpXpXpXpXpXpXpXpXpXpXpXpXpXpXpXpXpXpXpXpXpXpXpXpXpXpXpXpXpXpXpXpXpXpXpXpXpXpXpXpXpXpXpXpXpXpXpXpXpXpXpXpXpXpXpXpXpXpXpXpXpXpXpXpXpXpXpXpXpXpXpXpXpXpXpXpXpXpXpXpXpXpXpXpXpXpXpXpXpXpXpXpXpXpXpXpXpXpXpXpXpXpXpXpXpXpXpXpXpXpXpXpXpXpXpXpXpXpXpXpXpXpXpXpXpXpXpXpXpXpXpXpXpXpXpXpXpXpXpXpXpXpXpXpXpXpXpXpXpXpXpXpXpXpXpXpXpXpXpXpXpXpXpXpXpXiXpX9XeXpXiXpXaXpXpXpXpXiXpX"
};
