/* XPM */
static char *mb_gate_ms[] = {
/* columns rows colors chars-per-pixel */
"256 256 256 2 ",
"   c #015C01",
".  c #016501",
"X  c #027801",
"o  c #167415",
"O  c #3B7816",
"+  c #5E641E",
"@  c #015C65",
"#  c #016A74",
"$  c #296C71",
"%  c #747258",
"&  c #75756B",
"*  c #596162",
"=  c #45393B",
"-  c #92493E",
";  c #AB5544",
":  c #8F726A",
">  c #A87272",
",  c #986256",
"<  c #CC5F49",
"1  c #CD6D58",
"2  c #0A940C",
"3  c #12982C",
"4  c #2D9C30",
"5  c #2EA431",
"6  c #239A1E",
"7  c #599A32",
"8  c #3AA646",
"9  c #269B61",
"0  c #789458",
"q  c #45AA47",
"w  c #48B146",
"e  c #52AC56",
"r  c #729273",
"t  c #55AA6B",
"y  c #6DAD71",
"u  c #599F60",
"i  c #6CC46C",
"p  c #858867",
"a  c #8A8877",
"s  c #928D79",
"d  c #8C9878",
"f  c #94977B",
"g  c #8A9568",
"h  c #AF8B78",
"j  c #96A47C",
"k  c #8EAB71",
"l  c #95A566",
"z  c #C88879",
"x  c #BFD55B",
"c  c #027984",
"v  c #357787",
"b  c #3852BA",
"n  c #6F718D",
"m  c #667B9D",
"M  c #3B5AC5",
"N  c #3F64ED",
"B  c #3C5EE7",
"V  c #6375D3",
"C  c #8C77A9",
"Z  c #C96F92",
"A  c #0D8B95",
"S  c #329893",
"D  c #1295A9",
"F  c #3697AB",
"G  c #2A9BAC",
"H  c #37A3B4",
"J  c #37A18E",
"K  c #53968F",
"L  c #7B9A84",
"P  c #789C96",
"I  c #6B928C",
"U  c #54A493",
"Y  c #79A58A",
"T  c #79A897",
"R  c #6FAD90",
"E  c #519BAC",
"W  c #689AA8",
"Q  c #7A9BA6",
"!  c #7489A9",
"~  c #48A8B8",
"^  c #56A9B7",
"/  c #53AAAE",
"(  c #7AA5A7",
")  c #78AAB2",
"_  c #6DAEB0",
"`  c #389EC5",
"'  c #54ACC4",
"]  c #67B7C6",
"[  c #76BBC7",
"{  c #6FAACE",
"}  c #6691DD",
"|  c #79C1CC",
" . c #7BC38A",
".. c #859B87",
"X. c #999683",
"o. c #9C9B84",
"O. c #999986",
"+. c #9C9B94",
"@. c #8A8F8D",
"#. c #A19E8C",
"$. c #A69B87",
"%. c #B0958D",
"&. c #85A58C",
"*. c #9EA689",
"=. c #9AA587",
"-. c #88A993",
";. c #98AA93",
":. c #85B29A",
">. c #8AB59D",
",. c #86B597",
"<. c #95B795",
"1. c #A3A38C",
"2. c #A2AB8E",
"3. c #A7A58A",
"4. c #A5A292",
"5. c #A9A695",
"6. c #A4AD91",
"7. c #A6A59E",
"8. c #ADAB9B",
"9. c #ABAA97",
"0. c #B1AD9D",
"q. c #B4A898",
"w. c #AAB49B",
"e. c #B5B39E",
"r. c #B1AC8B",
"t. c #8F94AD",
"y. c #84A7A7",
"u. c #8BB8A4",
"i. c #95BAA9",
"p. c #8CADB3",
"a. c #84AAB4",
"s. c #8CB3B5",
"d. c #91B1B6",
"f. c #92B3B9",
"g. c #9AB7B7",
"h. c #95A8AD",
"j. c #A8A7A0",
"k. c #ABAAA3",
"l. c #AAABA7",
"z. c #B1AEA3",
"x. c #B8AAA8",
"c. c #B4B2A4",
"v. c #B6B4A8",
"b. c #B9B6AA",
"n. c #BCBAAC",
"m. c #B7B8A5",
"M. c #A9BBBD",
"N. c #A5B9B9",
"B. c #BBBAB5",
"V. c #A7B4AD",
"C. c #AA91B1",
"Z. c #CD958D",
"A. c #C6B6B5",
"S. c #C2BEB3",
"D. c #CDBDBD",
"F. c #C5BBB8",
"G. c #D7B8B8",
"H. c #CAB0AC",
"J. c #E5B2B0",
"K. c #CB9CA2",
"L. c #90C98F",
"P. c #AEC997",
"I. c #96C3B1",
"U. c #B5C7AB",
"Y. c #A7C5B5",
"T. c #B7CAB5",
"R. c #B8D7B7",
"E. c #AED0AC",
"W. c #B7E1B5",
"Q. c #C4C1B5",
"!. c #C6C4B9",
"~. c #C8C6BB",
"^. c #CAC8BE",
"/. c #C3CCB8",
"(. c #DCC3BC",
"). c #DBDABC",
"_. c #C5CFB3",
"`. c #E2DCA8",
"'. c #9D96D1",
"]. c #8C94CF",
"[. c #91B7CE",
"{. c #B7B9C5",
"}. c #A5B8D9",
"|. c #ADB3CE",
" X c #A6ADE3",
".X c #D7BBC3",
"XX c #C6BECD",
"oX c #E1B8C6",
"OX c #F1BDD2",
"+X c #C4BFE2",
"@X c #94C6CC",
"#X c #A7CACA",
"$X c #BBCBC9",
"%X c #AAC8D6",
"&X c #ACD4D6",
"*X c #B9D7D8",
"=X c #B8CBD6",
"-X c #B5CAE3",
";X c #BEE1E1",
":X c #CDCBC2",
">X c #C8C9C6",
",X c #D1CFC6",
"<X c #D7C7C5",
"1X c #CAD2CD",
"2X c #C6D3C8",
"3X c #D2D1C7",
"4X c #D5D3CB",
"5X c #D8D6CF",
"6X c #D8DAC8",
"7X c #CBCAD6",
"8X c #CDD1D5",
"9X c #C9DAD8",
"0X c #D4D5D2",
"qX c #D9D7D0",
"wX c #DBD9D2",
"eX c #DEDED8",
"rX c #D3DBD8",
"tX c #D3CDD5",
"yX c #EDCCCA",
"uX c #E7C5C4",
"iX c #E2DCD4",
"pX c #E0DFD9",
"aX c #E9DCD6",
"sX c #F2CFCF",
"dX c #DCE3D7",
"fX c #D1E2D0",
"gX c #E3E2DC",
"hX c #EAE4DC",
"jX c #E6E7D9",
"kX c #F1E7DC",
"lX c #C8C7E4",
"zX c #D1CDE3",
"xX c #D2CDE9",
"cX c #C2DFE1",
"vX c #CAD2E8",
"bX c #D6D5E9",
"nX c #D8D6EA",
"mX c #D8D5E7",
"MX c #DDD8F1",
"NX c #EADBEC",
"BX c #C8E2E3",
"VX c #D5E6E4",
"CX c #DAE8E6",
"ZX c #D8EAEF",
"AX c #E6E6E1",
"SX c #E9E6E2",
"DX c #EBEAE4",
"FX c #EFEEE9",
"GX c #E4EBE7",
"HX c #F0EFEA",
"JX c #F6EAE4",
"KX c #F2F1EC",
"LX c #F9F4EC",
"PX c #F6F4F0",
"IX c #F9F8F5",
"UX c #EDF0EE",
/* pixels */
"qXqXqXwXqXwXqXqXqXqXqXqXqXqXqXqXqXqXqXqXwXwXqXwXiXwXwXiXwXqXwXwXwXwXwXwXwXwXwXwXwXwXwXwXwXwXwXwXwXwXwXwXwXwXwXwXwXwXwXwXwXwXwXwXwXwXwXwXwXwXwXwXwXwXwXwXwXwXwXwXwXwXwXwXwXwXwXwXwXwXwXwXwXwXwXwXwXwXwXwXwXwXwXwXwXwXwXwXwXwXwXwXwXwXwXwXwXwXwXwXwXwXwXwXwXwXwXwXwXwXwXwXwXwXwXwXwXwXwXwXwXwXwXwXwXwXwXwXwXwXwXwXwXwXwXwXwXwXwXwXwXwXwXwXwXqXwXwXwXwXwXwXwXwXwXeXwXwXwXwXwXwXwXwXwXwXwXwXiXwXqXwXeXwXqXwXwXiXwXwXwXqXwXwXwXwXwXwXiXwXwXeXwXwXwXiXwXwXwXwXwXwXwXwXeXwXqXqXqXwXiXwXiXwXiXwXwXiXwXiXiXwXiXwXiXiXiXwXqXwXwXqX5XwX4XqX",
"wXiXwXqXwXqXwXiXiXiXiXiXwXwXiXiXiXiXiXiXqXqXwX8X%XY.Y.=X0XwXqXwXwXwXwXwXwXwXwXwXwXwXwXwXwXwXwXwXwXwXwXwXwXwXwXwXwXwXwXwXwXwXwXwXwXwXwXwXwXwXwXwXwXwXwXwXwXwXwXwXwXwXwXwXwXwXwXwXwXwXwXwXwXwXwXwXwXwXwXwXwXwXwXwXwXwXwXwXwXwXwXwXwXwXwXwXwXwXwXwXwXwXwXwXwXwXwXwXwXwXwXwXwXwXwXwXwXwXwXwXwXwXwXwXwXwXwXwXwXwXwXwXwXwXwXwXwXwXwXwXwXwXwXwXqXwX>X4X>X>X1X3X>X>XqX{.{.{.>X{.{.wX>X4X>X4X>X>XM.4XwX4X{.>XwX>X4XM.{.{.{.wX>X1X1X>X{.1XM.>X4X{.>X{.>XM.1X3XB.4X3X>X>X>X{.qXwXB.5X0XM.qX#X$Xf.>X1Xf.2X$XM.1X#XqX{.$Xg.5XwXqXwX/.L.y L.3X",
"#XH #XiXqXwXqX[ ~ ~ ~ ~ 1X1X~ ~ ~ ~ ~ @XiXwX7XI.L.x x L.I.8XwXqXwXwXwXwXwXwXwXwXwXwXwXwXwXwXwXwXwXwXwXwXwXwXwXwXwXwXwXwXwXwXwXwXwXwXwXwXwXwXwXwXwXwXwXwXwXwXwXwXwXwXwXwXwXwXwXwXwXwXwXwXwXwXwXwXwXwXwXwXwXwXwXwXwXwXwXwXwXwXwXwXwXwXwXwXwXwXwXwXwXwXwXwXwXwXwXwXwXwXwXwXwXwXwXwXwXwXwXwXwXwXwXwXwXwXwXwXwXwXwXwXwXwXwXwXwXwXwXwXwXwXwXwXqXiXN.B.N.N.{.>XM.{.gX{.{.{.>XN.h.4Xh.{.N.N.{.M.>XM.iXM.{.>X1Xt.4XM.>XV.{.gXN.M.N.M.{.{.{.{.{.N.>XM.{.{.{.{.V.4XwXh.{.{.t.4XwXv.5X4XE #XW f.W f.f.f.#Xs.W #XW M.W f.s.wXwX5XpXU.y k y /.",
"@XD #XiX0XiX[.D H H H H 1X2XD G H H G G 1X0XL.x _.wXwX`.L.[.5XwXqXwXwXwXwXwXwXwXwXwXwXwXwXwXwXwXwXwXwXwXwXwXwXwXwXwXwXwXwXwXwXwXwXwXwXwXwXwXwXwXwXwXwXwXwXwXwXwXwXwXwXwXwXwXwXwXwXwXwXwXwXwXwXwXwXwXwXwXwXwXwXwXwXwXwXwXwXwXwXwXwXwXwXwXwXwXwXwXwXwXwXwXwXwXwXwXwXwXwXwXwXwXwXwXwXwXwXwXwXwXwXwXwXwXwXwXwXwXwXwXwXwXwXwXwXwXwXwXwXwXwXwXqXwX{.h.N.{.B.{.{.N.5X>X>X{.{.N.N.{.h.N.B.M.V.M.{.M.iXM.{.N.M.h.{.{.>XN.>XeX{.h.V.{.M.{.{.M.>XM.M.{.{.{.B.{.N.qXqXh.{.B.h.>XeXv.5X1X) _ a.f.) s.f.g.) s._ M.) _ a.>X_ $XiX5XpXT.y L.y 2X",
"#XD #XiX0XaX] D $XaXiXaXiX2XD [ aXaX[.D $X#XL.).mXwX2X=X%X^ $XwXqXwXwXwXwXwXwXwXwXwXwXwXwXwXwXwXwXwXwXwXwXwXwXwXwXwXwXwXwXwXwXwXwXwXwXwXwXwXwXwXwXwXwXwXwXwXwXwXwXwXwXwXwXwXwXwXwXwXwXwXwXwXwXwXwXwXwXwXwXwXwXwXwXwXwXwXwXwXwXwXwXwXwXwXwXwXwXqXqXqXqXqXqXqXqXqXqXqXqXqXqXqXqXqXqXqXqXqXqXqXqXqXqXqXqXqXqXqXqXqXqXqXqXqXqXqXqXqXqXqXqXqXqXwX,X>X>X4X>X{.qX{.>X3X3X>X>X>X>X>X4X>X>X4X>X>XB.4XwX4X{.>X>XqX>X>X4X>X>XwX,X>X>X>X>X,X{.>X4X{.>X>X,XB.,X4X{.4X3X,X>X>X{.5XwXF.5X4X$X$X$X$Xg.>X1Xg.$X$XM.1X$X$X$X#XM.5XqX5XwX2XP.<.P.3X",
"#XD #XiX0XiX@XD H ~ ~ [.iX2XD [ iXwX[ D $X2X] ' 1XwX2X1XwX^ @XwXqXwXwXwXwXwXwXwXwXwXwXwXwXwXwXwXwXwXwXwXwXwXwXwXwXwXwXwXwXwXwXwXwXwXwXwXwXwXwXwXwXwXwXwXwXwXwXwXwXwXwXwXwXwXwXwXwXwXwXwXwXwXwXwXwXwXwXwXwXwXwXwXwXwXwXwXwXwXwXwXwXwXwXwXwXwXqXeXeXeXeXeXeXeXeXeXeXeXeXeXeXeXeXeXeXeXeXeXeXeXeXeXeXeXeXeXeXeXeXeXeXeXeXeXeXeXeXeXeXeXeXeXeXeXpXgXgXpXgXgXeXgXgXpXpXgXgXgXgXgXpXgXgXpXgXgXgXpXeXpXgXgXgXeXpXpXwXpXpXwXeXpXpXeXpXeXgXpXeXpXpXpXeXgXeXeXgXeXeXpXpXgXgXeXeXgXeXeXpXgXpXpXhXpXpXhXgXgXgXpXgXgXpXgXgXpXeXeXeXpXpXhXpXpX",
"#XD #XiX0XqXwX[ H H H D #X1XG G G G D G 1X$X~ D $XaXwXwXqX^ @XwXqXwXwXwXwXwXwXwXwXwXwXwXwXwXwXwXwXwXwXwXwXwXwXwXwXwXwXwXwXwXwXwXwXwXwXwXwXwXwXwXwXwXwXwXwXwXwXwXwXwXwXwXwXwXwXwXwXwXwXwXwXwXwXwXwXwXwXwXwXwXwXwXwXwXwXwXwXwXwXwXwXwXwXwXwXqXeXgXgXgXhXgXgXgXgXgXgXgXgXgXgXgXgXgXgXgXgXgXgXgXgXgXSXDXgXgXSXgXgXgXAXAXgXgXgXgXgXgXgXgXgXgXAXgXgXgXgXgXgXgXgXgXgXgXgXgXgXgXgXgXgXgXgXhXgXgXgXgXgXgXgXgXgXgXpXeXAXgXeXgXpXeXeXeXeXpXeXgXgXgXpXeXpXeXpXpXeXpXgXgXhXhXhXAXSXgXSXDXSXSXgXAXgXAXgXgXgXhXhXhXgXgXAXgXDXAXAXDXAXAXgXAXDXAX",
"#XD #XaXiXwXwXaXiXaX1XG [.1XG H ^ ^ ^ #XaX[.^ H ~ 1X0XaX#X^ $XwXqXwXwXwXwXwXwXwXwXwXwXwXwXwXwXwXwXwXwXwXwXwXwXwXwXwXwXwXwXwXwXwXwXwXwXwXwXwXwXwXwXwXwXwXwXwXwXwXwXwXwXwXwXwXwXwXwXwXwXwXwXwXwXwXwXwXwXwXwXwXwXwXwXwXwXwXwXwXwXwXwXwXwXwXqXeXgXgXgXhXdXgXgXgXgXgXgXgXgXgXgXgXgXgXgXgXgXgXgXgXgXgX3X^.SXgX^.AXSXAXqXwXAXgXAXAXgXSXAXgXSXgX5XgXgXgXgXgXgXgXgXgXgXgXgXgXgXgXgXgXgXgXgXdXgXgXgXgXgXgXgXgXgXpXeXSXL.R.hXeXpXhXhXhXgXeXgXrX_ @XeXpXpXpXpXpXpXgXgXeX9X9XrXeX3XgX:X:X:X,XpX3XwX5XeXgXgX9X9X9XgXgX3XwXQ.wX5XQ.wXwXwX:Xn.qX",
"@XD ~ ^ ~ @XqX^ ~ ^ ~ D @X1XD [ kXiXiXiXqXaX#XG H D [ 2X^ [.0XwXqXwXwXwXwXwXwXwXwXwXwXwXwXwXwXwXwXwXwXwXwXwXwXwXwXwXwXwXwXwXwXwXwXwXwXwXwXwXwXwXwXwXwXwXwXwXwXwXwXwXwXwXwXwXwXwXwXwXwXwXwXwXwXwXwXwXwXwXwXwXwXwXwXwXwXwXwXwXwXwXwXwXwXqXeXgXgXgXhX9X&XgXgXgXgXgXgXgXgXgXgXgXgXgXgXgXgXgXgXgXgXSX5.!.n.9.0.0.c.S.1.S.qX9.S.c.b.8.0.~.c.1.9.AXgXgXgXgXgXgXgXgXgXgXgXgXgXgXgXgXgXgXhXrX#XgXgXgXgXgXgXgXpXpXgXeX5  .SXeXpX#X#X) $XgXgX1X^ _ rXgXpXpXpXpXgXgXhX9X[ ] &X3Xo.Q.o.5.Q.X.n.9.:XS.3XSXdX*X@X*XAX3Xo.Q.X.m.m.^.1.~.Q.Q.5.eX",
"#XH H H G [.qXH H H H _ wX1XH [.iX0XqXqXqXiX@X@X] H ] ^ [ 1XwXqXwXwXwXwXwXwXwXwXwXwXwXwXwXwXwXwXwXwXwXwXwXwXwXwXwXwXwXwXwXwXwXwXwXwXwXwXwXwXwXwXwXwXwXwXwXwXwXwXwXwXwXwXwXwXwXwXwXwXwXwXwXwXwXwXwXwXwXwXwXwXwXwXwXwXwXwXwXwXwXwXwXwXqXeXgXgXgXgXhX9X&XhXgXgXgXgXgXgXgXgXgXgXgXgXgXgXgXgXgXgXgXgX4X5.f 0.#.o.4.n.S.:X:X0.1.m.5.5.m.1.o.0.n.SXgXgXgXgXgXgXgXgXgXgXgXgXgXgXgXgXgXgXhXrX#XgXgXgXgXgXgXpXpXeXSXP.y y qXgXpX#X#Xs.$XgXgX1X_ _ rXgXeXpXpXgXgXgXhX9X] ] &X5X#.#.c.5.~.b.#.5.Q.c.5XSXdX9X#X9XAXe.o.1.8.8.c.4X#.n.m.3Xm.AX",
"qXqXqXqXqXqXqXqXqXqXqXiXwXqXqXqXwXqXqXqXwXqXiXaX[.#X#X#X0XwXqXwXqXqXqXqXqXqXqXqXqXqXqXqXqXqXqXqXqXqXqXqXqXqXqXqXqXqXqXqXqXqXqXqXqXqXqXqXqXqXqXqXqXqXqXqXqXqXqXqXqXqXqXqXqXqXqXqXqXqXqXqXqXqXqXqXqXqXqXqXqXqXqXqXqXqXqXqXqXqXqXqXwXqXeXgXgXgXgXgXgXhXrXgXgXgXgXgXgXgXgXgXgXgXgXgXgXgXgXgXgXgXgXgX^.!.:X~.3X!.3XQ.!.,X:X1.,X5X3X!.^.!.!.,X!.gXgXgXgXgXgXgXgXgXgXgXgXgXgXgXgXgXgXgXhXrXdXhXgXgXgXgXpXpXpXeXgX2XgX6XwXgXpXhXhXhXgXeXpXeX$X1XgXeXpXpXgXgXgXgXhXrX&X&X9XiX:X~.3XS.!.5X:X:XQ.Q.AXgXgX9X*X9XgX:XgXS.b.4X,Xm.eXQ.Q.gX:XgX",
"wXwXwXwXwXwXqXwXwXwXwXqXqXqXwXwXqXqXqXqXqXqXqXqXiXwXwXwXwXqXqXqXqXqXqXqXqXqXqXqXqXqXqXqXqXqXqXqXqXqXqXqXqXqXqXqXqXqXqXqXqXqXqXqXqXqXqXqXqXqXqXqXqXqXqXqXqXqXqXqXqXqXqXqXqXqXqXqXqXqXqXqXqXqXqXqXqXqXqXqXqXqXqXqXqXqXqXqXqXqXqXqXqXeXgXgXgXgXgXgXgXgXhXgXgXgXgXgXgXgXgXgXgXgXgXgXgXgXgXgXgXgXgXgXAXSXSXAXAXSXAXSXAXDX4X4XDXgXAXAXAXSXSXAXSXgXgXgXgXgXgXgXgXgXgXgXgXgXgXgXgXgXgXgXgXhXgXgXgXgXgXpXpXpXpXpXeXgXeXgXgXpXpXeXeXeXeXpXpXpXhXgXeXpXpXgXgXgXgXgXgXgXhXhXhXgXSXSXAXSXAXgXAXAXSXSXgXgXgXhXhXhXgXAXgXDXDXAXAXDXgXSXSXgXAXgX",
"gXgXgXgXgXgXgXgXgXgXgXgXgXgXgXgXgXgXgXgXgXgXgXgXgXgXgXgXgXgXgXgXgXgXgXgXgXgXgXgXgXgXgXgXgXgXgXgXgXgXgXgXgXgXgXgXgXgXgXgXgXgXgXgXgXgXgXgXgXgXgXgXgXgXgXgXgXgXgXgXgXgXgXgXgXgXgXgXgXgXgXgXgXgXgXgXgXgXgXgXgXgXgXgXgXgXgXgXgXgXgXgXgXgXgXgXgXgXgXgXgXgXgXgXgXgXgXgXgXgXgXgXgXgXgXgXgXgXgXgXgXgXgXgXgXgXgXgXgXgXgXgXgXgXAXAXgXgXgXgXgXgXgXgXgXgXgXgXgXgXgXgXgXgXgXgXgXgXgXgXgXgXgXgXgXgXgXgXgXgXgXgXgXgXgXgXgXgXgXgXgXgXgXgXgXgXgXgXgXgXgXgXgXgXgXgXgXgXgXgXgXgXgXgXgXgXgXgXgXgXgXgXgXgXgXgXgXgXgXgXgXgXgXgXgXgXgXgXgXgXgXgXgXgXgXgX",
":X,X,X,X,X,X,X3X3X3X3X,X:X,X,X,X:X:X3X,X3X:X,X,X3X:X:X:X:X:X:X:X:X:X:X:X:X:X:X:X:X:X:X:X:X:X:X:X:X:X:X:X:X:X:X:X:X:X:X:X:X:X:X:X:X:X:X:X:X:X:X:X:X:X:X:X:X:X:X:X:X:X:X:X:X:X:X:X:X:X:X:X:X:X:X:X:X:X:X:X:X:X:X:X:X:X:X:X:X:X:X:X:X:X:X:X:X:X:X:X:X:X:X:X:X:X:X:X:X:X:X:X:X:X:X:X:X:X:X:X:X:X:X:X:X:X:X:X:X:X:X:X:X:X:X:X:X:X:X:X:X:X:X:X:X:X:X:X:X:X:X:X:X:X:X:X:X:X:X:X:X:X:X:X:X:X:X:X:X:X:X:X:X:X:X:X:X:XeXgXwXwXwXwXeXeXwXwXwXwXgXgXwXeXeXwXwXwXeXgXwXpXeXwXwXwXwXgX,X:X,X:X:X:X:X:X:X:X,X:X:X:X:X:X:X:X:X:X:X:X:X:X:X:X:X:X",
"!.n.n.n.n.n.S.c.m.b.n.S.Q.n.Q.Q.Q.!.m.S.b.Q.Q.S.n.Q.!.Q.!.!.!.!.!.!.!.!.!.!.!.!.!.!.!.!.!.!.!.!.!.!.!.!.!.!.!.!.!.!.!.!.!.!.!.!.!.!.!.!.!.!.!.!.!.!.!.!.!.!.!.!.!.!.!.!.!.!.!.!.!.!.!.!.!.!.!.!.!.!.!.!.!.!.!.!.!.!.!.!.!.!.!.!.!.!.!.!.!.!.!.!.!.!.!.!.!.!.!.!.!.!.!.!.!.!.!.!.!.!.!.!.!.!.!.!.!.!.!.!.!.!.!.!.!.!.!.!.!.!.!.!.!.!.!.!.!.!.!.!.!.!.!.!.!.!.!.!.!.!.!.!.!.!.!.!.!.!.!.!.!.!.!.!.!.!.!.!.!.Q.wXpX5XqXqX^.b.S.:XwXqX5XpXpXwX:X,XpXwX5XwXgXwX!.:XeXwXqXwXgX^.!.n.n.~.^.^.~.~.Q.n.~.!.!.!.!.!.!.!.!.!.!.!.!.!.!.!.!.",
"b.1.5.f $.9.5.n.#.1.f 1.n.f 1.$.c.8.0.5.f 0.$.5.f 3.5.c.:X~.~.~.~.~.~.~.~.~.~.~.~.~.~.~.~.~.~.~.~.~.~.~.~.~.~.~.~.~.~.~.~.~.~.~.~.~.~.~.~.~.~.~.~.~.~.~.~.~.~.~.~.~.~.~.~.~.~.~.~.~.~.~.~.~.~.~.~.~.~.~.~.~.~.~.~.~.~.~.~.~.~.~.~.~.~.~.~.~.~.~.~.~.~.~.~.~.~.~.~.~.~.~.~.~.~.~.~.~.~.~.~.~.~.~.~.~.~.~.~.~.~.~.~.~.~.~.~.~.~.~.~.~.~.~.~.~.~.~.~.~.~.~.~.~.~.~.~.~.~.~.~.~.~.~.~.~.~.~.~.~.~.~.~.~.~.~.~.!.wXpXqXqXwXm.S.S.Q.wXqXqXpXeXeXn.5.5.^.wXwXAXQ.9.5.n.Q.X.4XgX:Xn.$.m.0.9.9.0.n.1.e.:X~.~.~.~.~.~.~.~.~.~.~.~.~.~.~.~.",
"!.4.f b.3.5.4.^.0.8.f 4.8.1.f f b.9.5.f $.$.o.f b.5.$.c.:X~.~.~.~.~.~.~.~.~.~.~.~.~.~.~.~.!.!.~.!.~.~.~.~.~.~.~.~.~.~.~.~.~.~.~.~.~.~.~.~.~.~.~.~.~.~.~.~.~.~.~.~.~.~.~.~.~.~.~.~.~.~.~.~.~.~.~.~.~.~.~.~.~.~.~.~.~.~.~.~.~.~.~.~.~.~.~.~.~.~.~.~.~.~.~.~.~.~.~.~.~.~.~.~.~.~.~.~.~.~.~.~.~.~.~.~.~.~.~.~.~.~.~.~.~.~.~.~.~.~.~.~.~.~.~.~.~.~.~.~.~.~.~.~.~.~.~.~.~.~.~.~.~.~.~.~.~.~.~.~.~.~.~.~.~.~.~.~.!.wXpXqXqXwXb.Q.0.c.eXqXqXpXeXeXS.o.4.v.pXwXSXn.z.8.O.o.O.5XgX:X!.5.f #.$.$.4.o.a e.:X!.~.~.~.~.~.~.~.~.~.~.~.~.~.~.~.",
"Q.0.m.~.m.c.c.c.n.n.n.b.0.n.b.m.Q.n.9.b.n.c.Q.c.~.n.Q.S.!.!.!.!.!.!.!.!.!.!.!.Q.!.Q.Q.Q.~.(.^.^.^.~.!.!.!.!.!.!.!.!.!.!.!.!.!.!.!.!.!.!.!.!.!.!.!.!.!.!.!.!.!.!.!.!.!.!.!.!.!.!.!.!.!.!.!.!.!.!.!.!.!.!.!.!.!.!.!.!.!.!.!.!.!.!.!.!.!.!.!.!.!.!.!.!.!.!.!.!.!.!.!.!.!.!.!.!.!.!.!.!.!.!.!.!.!.!.!.!.!.!.!.!.!.!.!.!.!.!.!.!.!.!.!.!.!.!.!.!.!.!.!.!.!.!.!.!.!.!.!.!.!.!.!.!.!.!.!.!.!.!.!.!.!.!.!.!.!.!.!.Q.wXpXqXwXwX~.S.9.c.eXqXqXpXpXwX^.n.:X:XwXwXgXwXv.!.~.n.Q.3XgX^.Q.c.n.0.f n.n.0.c.S.~.!.!.!.!.!.!.!.!.!.!.!.!.!.!.!.!.",
",X4X4X3X4X4X4X4X4X4X4X4X5X4X4X4X3X4X5X4X4X5X4X5X3X4X4X4X3X3X3X3X3X3X3X3X3X3X4X5X5X5XiXaX$Xs.s.N.g.T.4X3X3X3X3X3X3X,X:X3X3X3X3X3X3X3X3X3X3X3X3X3X3X3X3X3X3X3X3X3X3X3X3X3X3X3X3X3X3X3X3X3X3X3X3X3X3X3X3X3X3X3X3X3X:X:X3X3X3X3X3X3X3X3X3X4X,X3X3X3X3X3X3X3X3X3X3X3X3X3X3X3X3X3X3X3X3X3X3X3X3X3X3X3X3X3X3X3X3X3X3X:X:X3X3X3X3X3X3X3X3X3X3X3X3X3X3X3X3X3X3X3X3X3X3X,X4X3X3X3X3X3X3X3X3X3X3X3X3X3X3X3X3X3X3X3X3X:XwXpXqXwXwXqXwXeXwXqXwXqXpXpX5XwXeXwXwXqXeXgXqXpXeXeXpXeXwXgX,X:X,X,X!.Q.,X:X,X,X:X:X:X:X:X:X:X:X:X:X:X:X:X:X:X:X:X:X",
"yXaXkXHXKXKXKXKXKXKXKXKXKXKXKXKXDXDXKXKXKXKXKXKXKXKXKXAXKXKXKXKXKXKXSXKXKXLXBX[ [ | @X@X^ [.#X9X@X[ IXFXSXKXSXiXaXG.2.6X6XjXKXKXKXKXKXKXKXKXKXKXKXKXKXSXHXKXKXKXKXKXKXKXKXFXDXKXKXKXKXKXHXSXKXKXKXKXFXDXKXDXdX6Xi.| 9X9XCXKXDXDXPXDXDXIX:XSXKXKXKXKXKXKXKXKXKXKXKXKXKXKXKXHXSXKXKXKXKXKXKXKXKXKXSXKXKXKXGXBX;X}.|.mXnXDXKXSXHXKXKXKXSXKXKXHXSXKXKXSXKXKXSXKXFX:XPXKXKXKXKXKXKXKXKXKXKXKXKXKXKXKXDXDXGXmXmX|.tXgXqXwXqXwXgXgXwXqXwXqXpXpXqXqXqXqXqXqXeXgXqXqXqXqXqXqXwXgXwXwXwXqXwXwXqXqXqXwXwXwXwXwXwXwXwXwXwXwXwXwXwXwXwXwXwXwX",
"H.e.0.SXKXFXHXHXHXHXHXHXHXHXFXKXSXSXKXFXHXHXHXHXHXHXHXgXHXHXHXHXFXKXgXDXDXLX@X[.$X&X#X#X$XwXeXeX$X[ IXDXgXKXhX5XyXH.j 6X6XjXFXHXFXHXHXHXHXHXHXHXHXFXKXgXFXHXFXHXHXHXHXFXKXDXAXKXFXHXFXHXFXgXKXFXFXKXDXAXKXjXwX).u.] *X*XVXFXSXSXKXAXAXPX!.gXHXFXFXFXFXFXFXFXFXFXFXFXFXFXFXDXgXFXFXFXFXFXFXFXFXFXgXFXHXFXCX9X*X[.|.mXmXAXHXgXDXHXHXFXgXHXHXDXgXKXHXgXFXKXgXHXDX!.KXFXHXHXHXHXHXHXHXHXHXHXHXHXFXKXSXAXAXmXmX'.7XgXqXwXqXwXhXgXwXqXwXqXpXgX<X(.<X<X(.(.wXgX4X(.(.<X(.(.5XgXwXqXqXqXiXiXiXaXiXqXqXqXqXqXqXqXqXqXqXqXqXqXqX5XqXqXqXqX",
"h $.X.pXKXFXHXHXHXHXHXHXHXHXHXKXDXSXKXHXHXHXHXHXHXHXHXgXHXHXHXHXHXKXgXLXLXIX@X&XqXrXeXeXrX1XrXrX2X/ *XDXhXKXhX5XsXH.j 6X6XjXFXHXHXHXHXHXHXHXHXHXHXHXKXgXFXKXHXHXHXHXHXHXKXDXAXKXHXHXHXKXFXgXKXHXHXKXDXSXKXjXwX).u.] *X*XVXFXAXDXLXJXJXIX<XJXLXLXLXLXLXLXLXLXLXLXLXLXLXLXLXKXSXLXLXLXLXLXLXLXLXLXSXKXFXFXCX9X*X[.|.mXmXSXHXhXFXKXHXFXgXKXHXFXhXKXHXgXFXKXgXHXDX~.KXFXHXHXHXHXHXHXHXHXHXHXHXHXHXKXSXSXAXmXmX'.7XgXqXwXqXwXeXeXwXqXwXqXpXgX<X(.(.<X(.(.wXgX<X(.(.<X(.(.5XgXwXqXwXwX[.^ / ^ #XiXqXqXwXwXwXqXwXwXeXwXeXwXwXpXwXqXwXwX",
"q.H.b.hXKXHXHXHXHXHXHXHXHXHXHXKXDXSXKXHXHXHXHXHXHXHXHXgXHXHXHXHXHXKXSX@X[ | ^ 9X1XrXrXrX8X8XrXrX8X[.~ #XJXFXhX5XsXH.j 6X6XjXFXHXHXHXHXHXHXHXHXHXHXHXKXgXFXKXHXHXHXHXHXHXKXDXAXKXHXHXHXKXFXgXKXHXHXKXDXSXKXjXwX).u.] *X*XVXLXJXAXVX&X@X@X_ [ @X| | | | [ [ [ [ [ [ [ [ [ [ [ [ | | | | | @X@X@X&X*XGXLXLXCX9X*X[.|.mXmXSXHXhXFXKXHXFXgXKXKXFXhXKXHXgXFXKXgXHXDX~.KXFXHXHXHXHXHXHXHXHXHXHXHXHXHXKXSXSXAXmXmX'.7XgXqXqXiX2XF E 1XwXqXqXpXgX<X(.(.<X(.(.wXgX<X(.(.<X(.(.5XgXwXwXqX^ ~ [.#X[.F ) iXqXqXwXqXeXc.n.^.,X!.4X4Xv.:XwXqXwX",
"uXaXhXFXHXHXHXHXHXHXHXHXHXHXHXKXDXSXKXHXHXHXHXHXHXHXHXgXHXHXHXHXFXKXgX^ #X=X9XrX1XrXrXrX8X8XrXrX8XpX#X| hXHXSX5XsXH.j 6X6XjXFXHXHXHXHXHXHXHXHXHXHXHXKXgXFXKXHXHXHXHXHXHXKXDXAXKXHXHXHXKXFXgXKXHXHXKXDXSXKXjXwX).u.] *X9XGXcX[ ] | | @X&Xf.&X*X*X*X*X*XcXcXcXcXcXcXcXcXcXcX9X*X;X*X*X*X*X&X&X@X@X[ ] | &XCXVX*X[.|.mXmXSXHXhXFXKXHXFXgXKXKXFXhXKXHXgXFXKXgXHXDX~.KXFXHXHXHXHXHXHXHXHXHXHXHXHXHXKXSXSXAXmXmX'.7XgXqXqXiX$XG F 1XwXqXqXpXgX<X(.(.<X(.(.wXgX<X(.(.<X(.(.5XgXwXiX_ ~ gXJXSXJXrXF f.iXqXwX5XeXb.o.o.o.#.o.z.a :XwXqXwX",
"G.yXaXDXHXHXHXHXHXHXHXHXHXHXHXKXDXSXKXHXHXHXHXHXHXHXHXgXHXHXHXHXFXKXdX_ rXrXrXrX1XrXrXrX8X8XrXrX8X0X#X) iXdXwX4XyXH.j 6X6XjXFXHXHXHXHXHXHXHXHXHXHXHXKXgXFXKXHXHXHXHXHXHXKXDXAXKXHXHXHXKXFXgXKXHXHXKXDXSXKXjXwX).u.] BX#X] [ %X9XGXAXCXUXT.dXGXCXCXCXCXCXCXCXCXCXCXCXCXCXCXCXrXCXCXCXCXGXGXGXGXGXdXCX*X@X] @XcX[.|.mXmXSXHXhXFXKXHXFXgXKXKXFXhXKXHXgXFXKXgXHXDX~.KXFXHXHXHXHXHXHXHXHXHXHXHXHXHXKXSXSXAXmXmX'.7XgXqXqXiX$XF F 1XwXqXqXpXgX<X(.(.<X(.(.wXgX<X(.(.<X(.(.5XgXwX1XF 9XSXdXgXGXLX#X~ wXwXqXqXeXc.9.Q.f #.0.#.8.^.wXqXqX",
"%.(.hXDXHXHXHXHXHXHXHXHXHXHXHXKXDXSXKXFXHXHXHXHXHXHXHXgXHXHXHXHXFXKXrX_ rXrXrXrX1XrXrXrX8X8XrXrX8X0X*X~ s.9X1X!.>X0.j 6X6XjXFXHXHXHXHXHXHXHXHXHXHXHXKXgXFXKXHXHXHXHXHXHXKXDXAXKXHXHXHXKXFXgXKXHXHXKXDXSXKXjXwX).u.| @X~ &XGXCXdXCXrXrXZXT.rXCXVXVXVXVXVXVXVXVXVXVXVXVXVXVXVXrXCXVXVXVXVXVXVXVXVX9XVXCXGX*X' ] }.|.mXmXSXHXhXFXKXHXFXgXKXHXFXhXKXHXgXFXKXgXHXDX~.KXFXHXHXHXHXHXHXHXHXHXHXHXHXFXKXSXSXAXmXmX'.7XgXqXqXiX$XF F 1XwXqXqXpXgX<X(.(.<X(.(.wXgX<X(.(.<X(.(.5XgXiX#X~ gXgXgXgX$.s >XE 2XiXqXqXeXeXqXgX!.4XeXqXpXeXeXqXwX",
"$.D.hXDXFXFXFXFXFXFXFXFXFXFXFXKXSXSXKXFXFXFXFXFXFXFXFXgXFXFXFXFXFXKXrX_ rX9XrX9X2X9X9XrX8X1XrXrX1X1XrX$X^ @XaX!.>X0.j 3X6XgXDXFXFXFXFXFXFXFXFXFXFXFXHXgXDXFXFXFXFXFXFXFXHXDXhXHXFXFXFXFXDXgXHXFXFXHXSXAXHXjXwX).i.H ' #XBXVXrXdXCXrXrXCXT.9XVXVXVXVXVXVXVXVXVXVXVXVXVXVXVXVXrXCXVXVXVXVXVXVXVXVXrXVXVXVXBX9X] ~ |.mXmXAXFXgXDXFXFXFXgXFXFXDXgXKXFXgXFXKXgXHXDX!.KXFXFXFXFXFXFXFXFXFXFXFXFXFXFXKXSXAXAXmXmX'.7XgXqXqXiX$XF F 1XwXqXqXpXgX<X(.(.<X(.(.wXgX<X(.(.<X(.(.5XgXiX#X~ gXgXgXgXm.e.>X$ >XeXqXeX~.S.wXn.:XS.eX5Xn.n.^.wXqX",
"H.yXkXHXPXPXPXPXPXPXPXPXPXPXPXPXHXFXPXPXPXPXPXPXPXPXPXSXPXPXPXPXPXIX9X[ AXrXmXmXrXCXnXAXmXmXCXVX9X9XVXgX#X~ ) T.<Xc.=./.4XhXKXPXPXPXPXPXPXPXPXPXPXPXPXDXKXPXPXPXPXPXPXPXPXKXFXPXPXPXPXPXKXDXPXPXPXPXHXFXPXDXdX)._ ` *X&XBXZXVXVXGXVXVXUX$XGXUXUXUXUXUXUXGXGXGXCXCXCXCXCXCXCXmXCXCXCXCXCXCXCXCXCXrXCXCXCXBX*X*X' { NXnXFXPXSXKXPXKXLXDXIXIXLXDXPXPXSXKXPXSXPXHX>XIXKXPXPXPXPXPXPXPXPXPXPXPXPXKXPXHXDXDXnXmX|.7XgXqXqXiX$XF F 1XwXqXqXpXgX<X(.(.<X(.(.wXgX<X(.(.<X(.(.5XgXwX5XF #XJXgXgXDXIXy.$ iXqXqXwX9.5.S.4.s 5.~.5.X.s 5.eXqX",
"q q q w w w w w w w w w w w w w w w w w w w w w w w w q w w w w q w 5 4 q 8 q q q w e e y y 1.q.K.K.k.V.M.g.E y.H.#.d ;.V.Q.>X:X>X>X>X>X>X>X>X>X>X>X:XQ.>X:X>X>X>X>X>X>X:X~.!.:X>X>X>X:X>XQ.:X>X>X:X~.!.:XQ.Q.i.D ^ f.s.M.$XM.M.$X$X>X$XY Y  .y e e w w w w w q q q q q q q 8 q q q q q q q q q 8 q q q 8 8 8 5 3 8 q q w w 8 q w q 5 5 5 5 5 8 8 8 q w q w w 5 w w w w w w w w w w w w w w w w w q q q 8 u tXgXqXqXiX$XF F 1XwXqXqXpXgX<X(.(.<X(.(.wXgX<X(.(.<X(.(.5XgXwXiX[.F 9XhXgXSXN.@ V.pXqXqXwX8.#.c.4.X.5.S.#.o.s 5.eXqX",
"r.q.e.S.Q.Q.Q.Q.Q.Q.Q.Q.Q.Q.Q.Q.m.e.Q.Q.Q.Q.Q.Q.Q.Q.Q.e.Q.Q._.R -.w.;.w.w.w.6.6.=.=.k y u q 4 6 O % Z Z %.H.s./ F.8.d U.T.5XgXgXgXgXgXgXgXgXgXgXgXgXgX5XeXgXgXgXgXgXgXgXgXeXwXgXgXgXgXgXeXqXgXgXgXgXeXwXgXwX2X/ _ ^ #X#X*X9X2XrXCXL.q 5 4 e y  .L.I.E.E.E.R.E.R.R.R.R.R.R.R.E.R.R.R.R.R.R.R.R.R.E.R.R.R.Y.I.I._ y.F Y./.g.Q ].) S A S / _ s.s.Y.Y.Y.Y.#XY.$XY.h.$X#X$X$X$X$X$X$X$X$X$X$X$X$X$X$XY.Y.Y.N.N.t.tXgXqXqXiX$XF F 1XwXqXqXpXgX<X(.(.<X(.(.wXgX<X(.(.<X(.(.5XgXwXqXiX) [.hXwXhXP y.gXqXwXqXwX,X!.,X!.:X!.eX!.^.Q.:XwXqX",
"J.J.OXsXsXsXsXsXsXsXsXsXsXsXsXsXyXyXsXsXsXsXsXsXsXsXsXyXsXsXsXa.{.uXD..X<X<X<X<X.X<X<X<X.X.X<XQ.<.q 5 k G.Z.> I ^ H.j T.2XjXKXKXKXKXPXIXIXIXIXIXIXIXIXKXIXIXIXIXIXIXIXIXIXIXPXIXIXIXIXIXIXHXIXIXPXPXDXSXKXJX] g.u.] &X&XBXCXUX$Xw 5 L.fX$XGXUXUXUXUXUXGXGXGXGXGXGXGXGXGXGXCXVXGXGXGXGXGXGXGXGXGXVXGXGXGXVX;X&X[. X%X{  X XxX[ H [ -XxXNXNXNXnXMXMXbXMXMXbXMXnX{.MXMXMXMXMXMXMXMXMXMXMXMXMXMXMXMXnXnXxXxXlX'.7XgXqXqXiX$XF F 1XwXqXqXpXgX<X(.(.<X(.(.wXgX<X(.(.<X(.(.5XgXwXqXqXiXwXqXqXqXiXiXqXwXwXwXqXwXeXwXeXwXeXqXeXeXeXwXqXwX",
"J.J.J.uXyXyXyXyXyXyXyXyXyXyXyXyXuXuXyXyXyXyXyXyXyXyXyX(.yXyXsX) M.(.A.D.D.D.D.D.A.D.D.D.F.A.D..X.X.Xw.4 q <XH.1 n E &.T.T.2XDXIXIXFXjX6X_._.U.P.P.P.P.r.P.P.P.P.P.P.P.P.P.P.P.P.P.P.P.P.P.P._.).dXFXHXUXIX#X^ ).) ] &X#X9XUX .6 L.CXGXUXT.9XVXVXVXVXVXVXVXVXVXVXVXVXVXVXVXVX9XVXVXVXVXVXVXVXVXVX9XVXVXVXBX*X&X[.[. XV }.NXH ~ vXNXnX7XbXbXbX7XbXbX7XbXbX7XbXzX{.nXbXbXbXbXbXbXbXbXbXbXbXbXbXbXnXzXzXzXlX+X'.7XgXqXqXiX$XF F 1XwXqXqXpXgX<X(.(.<X(.(.wXgX<X(.(.<X(.(.5XgXwXqXqXqXwXaXaXaXwX5XwXwXwXqXwXqX5XqXqXqX5XqXqXqX5XqXwXqX",
"J.J.J.uXyXyXyXyXyXyXyXyXyXyXyXyXuXuXyXyXyXyXyXyXyXyXyXuXyXyXsX) B.<XA.D.D.D.D.D.A.D.D.D.D.A.D.D.F.F.<X.Xq 4 A.A.Z.& R /.T.8XrX_.j k k k j P.<.w.P.P.P.P.P.P.U.U.U.U.U.U.U.P.P.P.P.P.P.P.P.j P.k k k k P.dX] *X/.) ] &X#XZXy 5 9XUXrXrXCXT.rXCXVXCXCXCXCXCXCXCXCXCXCXCXCXCXVXrXCXVXCXCXCXCXCXCXCXrXVXCXVXBX*X&X[.].'.}.{ H ] NXMXbXbXzXnXnXbXzXnXnXzXbXnXzXnXzX{.MXbXnXnXnXnXnXnXnXnXnXnXnXnXnXnXzXzXxXlX+X'.7XgXqXqXiX$XF F 1XwXqXqXpXgX<XG.(.<X(.(.wXgX<XG.(.<X(.(.5XgXwXqXqXiX1Xs.) [.4XiXqXwXwXwXqXwXpXwXqXwXwXwXwXqXwXwXqXwX",
"J.J.uXyXyXyXyXyXyXyXyXyXyXyXyXyXuXuXyXyXyXyXyXyXyXyXyXuXyXyXsX_ B.<XA.D.D.D.D.D.A.D.D.D.D.A.D.D.F.F.D.D..Xt 6 H.G.@.I /.$X=.k k U.6XjXjXDXgX1XrXDXSXDXdXjXDXjXjXjXjXjXjXDXjXgXDXhXDXDXDXjXgXDXDXjXdX_.P.U U /.2X) ] &X-Xt w VXVXVXdXdXZXT.rXCXVXCXCXCXCXCXCXCXCXCXCXCXCXCXVXrXCXVXCXCXCXCXCXCXCXrXVXCXVXBX*X&X].].-X-XD ' NXzXnXnXbXzXnXnXbXzXnXnXzXbXnXzXnXzX{.MXbXnXnXnXnXnXnXnXnXnXnXnXnXnXnXzXzXxXlX+X'.7XgXqXqXiX$XF F 1XwXqXqXpXpX6X).).6X).).wXgX6X).).6X).).5XgXwXqXiXs.F ^ _ ^ F #XiXqXwXqXwX:X8.3XeX3X:X5XwXwX3X:XwXqX",
"J.K.H.G.yXyXyXyXyXyXyXyXyXyXyXyXuXuXyXyXyXyXyXyXyXyXyXuXyXyXyX_ F.(.A.D.D.D.D.D.A.D.D.D.D.A.D.D.F.F..XD.A.uXu 4 J.y.& z y j 2X9X1X4XjXdXdX2X2X2XdXdXdX6XdXdXdXdXdXdXdXdXjX6X6XjXdXdXdXdXdX6XdXdXdXjXjX9X] P.0 2.s.^ ;Xt 5 ZXVXfXCXdXdXZXT.rXCXVXCXCXCXCXCXCXCXCXCXCXCXCXCXVXrXCXVXCXCXCXCXCXCXCXrXVXCXVXcX*X}.V '.+XH ' { 7XmXnXnXbXzXnXnXbXzXnXnXzXbXnXzXnXzX{.MXbXnXnXnXnXnXnXnXnXnXnXnXnXnXnXzXzXxXlX+X'.7XgXqXqXiX$XF F 1XwXqXqXpXpX6X).).6X).).wXgX6X).).6X).).6XgXwXiX[.F =XDXJXhX#XF #XiXqXqXeX5.S.X.S.o.o.4.4.S.X.8.pX5X",
"K.%.K.H.sXyXyXyXyXyXyXyXyXyXyXyXuXuXyXyXyXyXyXyXyXyXyXyXsXsXsX_ F.D.A.D.D.D.D.D.A.D.D.D.D.A.D.D.F.F.D.D.A.D..X4 7 x.S * 3.2X2X2X2X2XjXjX1X2X2X2X6XjXjX6XdXjXjXjXjXjXjXjXjXwX6XjXjXjXjXjXdX6XjXjXjXdXjX_ @XrXT.l u |  .6 9XCXrXdXCXdXdXZXT.rXCXVXVXVXVXVXVXVXVXVXVXVXVXVXVXVXrXCXVXVXVXVXVXVXVXCXrXVXCXVXBX&X].{ '.' H nX[.[.NXbXnXbXzXnXnXbXzXnXnXzXbXnXzXnXzX{.MXbXnXnXnXnXnXnXnXnXnXnXnXnXnXnXzXzXxXlX+X'.7XgXqXqXiX$XF F 1XwXqXqXpXpX6X).).).).).wXgX6X).).6X).).6XgXwX0XF #XJXgXgXDXLX[.E iXqXqXeXz.8.5.o.o.4.X.#.o.X.b.eXqX",
"Z.K.%.G.sXyXyXyXyXyXyXyXyXyXyXyXuXuXyXyXyXyXyXyXyXyXuXp.s.s.s./ D.D.A.D.D.D.D.D.A.D.D.D.D.A.D.D.F.F.<XD.A.D.A.H.4 0 0 K > T.2X2X2X2XjX6X2X2X2X2X4XjXjX6XdXjXjXjXjXjXjXjXjXdX6XjXjXjXjXjXdX6XjXjXdXjX*X] fX$XR.T.0 t 5 I.BXVXdXdXCXrXdXZXT.rXCXCXCXCXCXCXCXCXCXCXCXCXCXCXCXCXrXCXCXCXCXCXCXCXVXVX9XVXCXVXBX].[.[.} G -XlXvX{ vXnXnXbXzXnXnXbXzXnXnXzXbXnXzXnXzX{.MXbXnXnXnXnXnXnXnXnXnXnXnXnXnXnXzXzXxXlX+X'.7XgXqXqXiX$XF F 1XwXqXqXpXpX6X).).6X6X6XwXgX6X).).6X).).6XgXiX$X~ gXgXgXgXn.m.2X~ 1XwXqXwXqX~.wX:X5XQ.8.wX:X4X,XwXqX",
"J.J.J.uXyXyXyXyXyXyXyXyXyXyXyXyXuXuXyXyXyXyXyXyXyXsX{.E N.g.g.B.D.D.A.D.D.D.D.D.A.D.D.D.D.A.D.D.F.F.D.D.A.D.A.H.8.2 g / @.%.2X2X2X2X2X2X2X2X2X2X2X6X2X3XjXdXdXdXdXdXdXdXjXwX6XjXdXdXdXjXdX6XjXdXdXkX] #XfX2XT.U.u.2 y -X*XVXdXCXGXdXdXGXY.9XBXBXcXcXcX*X*X*X*X*X*X*X*X*X;X*X*XcXcXcXBXBXVXCXCXGXdXGXCXCX-X].%X[.D [.lX-XbX[.[.NXbXbXzXnXnXbXzXnXbXtXbXnXtXbXzX{.nXbXbXbXbXbXbXbXbXbXbXbXbXbXbXnXzXzXzXlX+X'.7XgXqXqXiX$XF F 1XwXqXqXpXpX6X6X6X`.`.`.wXgX6X).).6X).).6XgXiX#X~ gXgXgXgX$.s >Xv >XiXqXwX4X4XwX3XqX3XpXeX,X,X5XwXqX",
"K.J.J.(.uXuXuXuXuXuXuXuXuXuXuXuXG.G.uXuXuXuXuXuXuXuXM.( G.D.G.A.A.A.A.A.A.A.A.A.A.A.A.A.A.A.A.A.A.A.A.A.A.A.H.x.g u 6 ..F > x.$XT.T.T.T.T.T.T.T.T.T.T.T./.3X6X6X6X6X6X6X6X3X3X6X6X6X6X6X6X^.6X6X6X#X^ 2X2XT.U.U.5 8 y g.9XdX9X#X[.] ] ] ^ ] ] ] ] ] ] ] ] ] ] ] ] ] ] ] ] ] ] ] ] ] ] ] ] ] ] ] [ @X*XrX'.}.}.G ^ |.}.=X-X=X{ zXzXzX7XzXzX7X7XzXzX7XzXzX7XzX7XM.zX7XzXzXzXzXzXzXzXzXzXzXzXzXzXzX7X7X7X+X|.'.7XgXqXqXiX$XF F 1XwXqXqXpXpX`.`.`.x x x 6XAX6X).).6X6X).qXgXiX1XF 9XDXgXgXDXIXN.$ wXwXqXeX8.5.^.#.o.4.3Xc.X.X.8.eXqX",
"J.J.J.yXyXyXyXyXyXyXyXyXyXyXyXyXuXuXyXyXyXyXyXyXyXsX{.( <XD.D.D.D.D.A.D.D.D.D.D.A.D.D.D.D.F..XD.F.D.<XD.A.D..Xf g K.4 7 W ;.z 2X2X2X1X8X1X1X8X8X8X8X9X2X2XrXjXjXjXjXjXjXDXjXgXDXDXDXDXDXjXgXDXDXkX] #X2X9X2X1Xy 2 [ I.y *X| ] [ @X@X&X;XN.*XBXBXBXBXBXBXBXBXBXBXBXBXBXBXBXBX9XBXBXBXBXBXcX;X*X&X@X| | } ].-X' D '.}.-X-XvXzX[.[.NXbXzXnXnXbXzXnXnXzXnXnXzXnXbX{.MXnXnXnXnXnXnXnXnXnXnXnXnXnXnXnXzXzXxXlXlX'.7XgXqXqXiX$XF F 1XwXqXqXpXpXx x x ).6X6XwXgX6X).6X).`.`.6XgXwXiX_ ^ gXgXgXgX1X$ y.hX5XqXwX8.5.z.5.s 8.n.#.o.s 4.eXqX",
"J.J.J.uXyXyXyXyXyXyXyXyXyXyXyXyXuXuXyXyXyXyXyXyXyXsXM.( <XD.D.D.D.D.A.D.D.D.D.D.A.D.D.D.D.A.D.D.F.F.D.D.A.<Xb.0 H.$.s 4 9 M.Z.K.9XT.U.w.<.=.j k k k k k k k k k k k k k k l l k k k k k k k P.P.I.^ 6X9XfXrXL.6 R _ &XU F @X*X9XVX9X9XBXM.*XBXcXcXcXcXcXcXcXcXcXcXcXcXcXcX9X*XcXcXcXcXcXcXBXBXBX9XVXcX} { ' G ].'.}.-X-XvX7X-X{ nXbXzXnXnXbXzXnXnXzXbXnXzXnXzX{.MXbXnXnXnXnXnXnXnXnXnXnXnXnXnXnXzXzXxXlX+X'.7XgXqXqXiX$XF F 1XwXqXqXpXpX6X).6X6X).).wXgX6X).6X`.x x `.AXwXwXqX/ [.hXeXhXI m iXqXqXqXeXQ.c.!.c.n.c.wXc.b.z.S.wXqX",
"J.J.J.uXyXyXyXyXyXyXyXyXyXyXyXyXuXuXyXyXyXyXyXyXyXsXM.( <XD.D.D.D.D.A.D.D.D.D.D.A.D.D.D.D.A.D.D.F.F..XD.A.<Xg 3.H.$.s 7.2 y H.p k k k k =.<.w.w.w.P.P.w.P.P.U._.P.P._._._.U.U.P.P._.P.P.P.P.P.j U y l k U.R.6 <.u./ ~ ' y 9X9X*XBX*X*XBXN.*XBXcXcXcXcXcXcXcXcXcXcXcXcXcXcX9X*XBXcXcXcXcXcXcXcXcX*XBX X X%XD ' { '.}.-X-XvX-XzX{ %XNXzXnXnXbXzXnXnXzXbXnXzXnXzX{.MXbXnXnXnXnXnXnXnXnXnXnXnXnXnXnXzXzXxXlX+X'.7XgXqXqXiX$XF F 1XwXqXqXpXpX3X<X<X4X1X3XwXGXZ.< 1 H.8X,X5XgXwXqXwXqX4X5X5X5X3XwXwXqXwXwXqXeXpXeXpXeXeXwXpXeXeXeXqXwX",
"J.J.J.uXyXyXyXyXyXyXyXyXyXyXyXyXuXuXyXyXyXyXyXyXyXsXN.y.<XD.D.D.D.D.A.D.D.D.D.D.A.D.D.D.D.A.D.D.F.F..XD..X9.g H.q.%.g H.R 2 7 h h $XT.R.R.T.T.T.T.T.T.T.T.T./.6X/.T.6X6X6X6X/.T./.6X6X6X6X).iX$X] 2XE.P.k 2 e :XT D _ #X>.&.cX*XBX*X*XBXN.*XBXcXcXcXcXcXcXcXcXcXcXcXcXcXcX9X*XBXcXcXcXcXcXcXcXcX*X*X'.-XD ] [.` '.+X-X-XvX-XvX-X{ MXzXnXnXbXzXnXnXzXbXnXzXnXzX{.MXbXnXnXnXnXnXnXnXnXnXnXnXnXnXnXzXzXxXlX+X'.7XgXqXqXiX$XF F 1XwXqXqXpXpX4X4X4X4X4X4XwXgX<XG.G.<X8X7X0XgXwXqXqX5XpXAXAXAXeX5XqXwXqXqXwXqX5XqX5X5XqXqX5XqX5XqXwXqX",
"J.J.uXyXyXyXyXyXyXyXyXyXyXyXyXyXuXuXyXyXyXyXyXyXyXsXN.y.<XD.D.D.D.D.A.D.D.D.D.D.A.D.D.D.D.A.D.D.F.F.D.D.A.g e.q.q.$.f j 0 K 2 k Z.U.T.T.T.T.T.T.T.T.T.U.T.T.T.T.T.T./.).)._.U.T.T.).).).)._.)._ I./.2XE.5 y k k ~ ~ @XI.&Xy Y.cXBX*X*XBXN.*XBXcXcXcXcXcXcXcXcXcXcXcXcXcXcX9X*XBXcXcXcXcXcXcXcXcX*X X XG ' %X[.{ ` }.-X-XvX-XlXbX{ -XmXnXnXbXzXnXnXzXbXnXzXnXzX{.MXbXnXnXnXnXnXnXnXnXnXnXnXnXnXnXzXzXxXlX+X'.7XgXqXqXiX$XF F 1XwXqXqXpXgXK.Z.Z.V.h.h.0XgX4X<X<X4X8X8X0XgXwXqXqXgX~.f p j 3XpX5XwXwXwXwXwXqXwXpXwX5XqXqXqXwXwXwXwX",
"J.%.K.G.sXyXyXyXyXyXyXyXyXyXyXyXuXuXyXyXyXyXyXyXyXsXg.y.<XD.D.D.D.D.A.D.D.D.D.D.A.D.D.D.D.A.D.D.F.F.D.<Xj j A.q.q.%.0 0 3.k.S 3 7 %.2XT.T.T.T.T.T.T.T.U.T.T.T.T.T.T.T.).6X_.U.T.T./.).)._.U.Y.^ 2X1XL.6 y 2XU.U 9 _ @XI.&XY.y cXBX*X*XBXM.*XBXcXcXcXcXcXcXcXcXcXcXcXcXcXcX9X*XBXcXcXcXcXcXcXcXBX7X} G ] -X[.[.].} { lX-XvX-XlXvX%X{ mXbXnXbXzXnXnXzXbXnXzXnXzX{.MXbXnXnXnXnXnXnXnXnXnXnXnXnXnXnXzXzXxXlX+X'.7XgXqXqXiX$XF F 1XwXqXqXpXgXZ.1 z t.t.t.0XgX3X(.(.4X7X7X0XgXwX5XpXf + + p + + r.gX5XwXwXwXqXwXqXS.3XgXwXeXwXqXwXwXwX",
"Z.%.: K.sXyXyXyXyXyXyXyXyXyXyXyXuXuXyXyXyXyXyXyXyXsXg.y.(.D.D.D.D.D.A.D.D.D.D.D.A.D.D.D.D.A.D.D.F.F..XF.g S.b.q.H.f 7 3.r.;.W ;.3 6 L./.>X/.T.T.T.T.T.U.U.T.T.T.T.T.T.T./.T.U.T.T.T._.6XT./._ @XE.w 6 L.1XT.u.~ y t @XI.#X*Xy I.BX&X&XBXg.*XBXcXcXcXcXcXcXcXcXcXcXcXcXcXcX*X*XcXcXcXcXBXBXVXVX*X^ D [.lX%X}.[.{ ].' [.lXvX=XlXvXvX{ =XnXbXbXzXnXbX7XbXnX7XnXzX{.nXbXbXbXbXbXbXbXbXbXbXbXbXbXbXnXzXzXzXlX+X'.7XgXqXqXiX$XF F 1XwXqXqXpXgXZ.1 z h.t.t.0XgX5X4X4X5X0X0XqXgXqXgXj + S.FXFXFXr.+ e.pX5XwXwXqXeX~.1.9.9.b.n.4XwXqXwXwX",
"Z.%.H.G.sXsXsXsXsXsXsXsXsXsXsXsXyXyXsXsXsXsXsXsXsXsXg.p.<X<X<X<X<X<XD.<X<X<X<X<XD.<X<X<XD.D.<X<XD.D.<Xj =.~.H.x.r.0 g 6.r.w.E m.b.t 3 5 e L.P.U.T./.2X/.>X2X>X>X2X2X2X>X>X/./.2X:X/./._.U.<.9 q 5 y T././.T./ <.T u ,.#X$X9XR.y VX9X9XVXN.9XVXVXVXVXVXVXVXVXVXVXVXVXVXVXVXVX9XVXVXBXBX;X&X| ^ G ` -XvX-X-X%X[.{ ].}.' -XvXlXvXvXnX[.[.NXMXnXmXMXMXzXMXMXzXMXnX{.MXMXMXMXMXMXMXMXMXMXMXMXMXMXMXMXbXbXbXlXlX'.7XgXqXqXiX$XF F 1XwXqXqXpXgXZ.1 z h.t.t.0XAXG.Z.Z.{. X X7XjXwX4X+ e.PXpXgXgXIXl + eXqXqXwXqXeX!.8.o.4.c.X.eXqXqXwXwX",
"K.H.J.G.G.G.G.G.G.G.G.G.G.G.G.G.G.G.G.G.G.G.G.G.G.J.a.y.H.x.x.x.x.x.x.x.x.x.x.x.x.x.x.x.x.x.b.b.x.x.x.0 q.0.q.%.0 g p f o.3.K K r.q.> t 9 3 3 3 3 5 5 5 q q q q e e e q q q q 8 5 5 4 3 3 3 9 t _ @X_ _ I./ H R J G 9 / ^ ^ ^ J ^ ^ ^ ^ E ^ ^ ^ ^ ^ ^ ^ ^ ^ ^ ^ ^ ^ ^ ^ ^ ~ ~ ~ H H G D G F _ ].'.}.}.}.[.[.[.{ { }.{ { =X|.|.|.|.|.' 7X7X7X{.7X7X{.7X7X{.7XXXl.7X7X7X7X7X7X7X7X7X7X7X7X7X7X7X7XXX{.{.|.|.'.tXgXqXqXiX$XF F 1XwXqXqXpXgXZ.1 z h.t.t.4XGXZ.< < C.} } }.jXpXe.+ gXgXAXAXgXSX^.+ ^.eXqXwXqXwX4X0.!.5Xc.v.gX5XqXwXwX",
"Z.K.H.H.G.G.G.G.G.G.G.G.G.G.G.G.H.H.G.G.G.H.H.H.H.G.( y.H.x.x.x.x.x.x.x.x.x.x.x.x.x.x.x.x.x.x.x.x.H.g f q.8.x.0 g h p f o.1.r.K P 9.h %.Y.V.i.( R U t t t t 9 9 9 9 9 9 9 9 9 9 9 J J J F G ~ ~ H H F / H G / F S G ~ 9 / ^ ^ ^ J ^ ^ ] / ] [ [ [ [ [ [ [ | | | | | | | | | @X@X@X@X@X#X$X$X$X].[.}.}.}.[.[.[.{ ].[.}.' [.|.|.|.|.{.{ [.7X{.{.XXXX{.XXXX{.XX{.l.7XXXXXXXXXXXXXXXXXXXXXXXXXXXXX7X{.{.{.|.|.].tXgXqXqXiX$XF F 1XwXqXqXpXgXZ.1 z h.t.t.0XGXZ.< 1 C.} } }.jXAXq.+ gXDX,X3XAXAX4X+ !.eXqXwXqX5XwXAXeX4X:XwXqXwXwXqXwX",
"J.J.uXyXsXsXsXsXsXsXsXsXsXsXsXsXyXyXsXsX5X^ ) ) ) ) _ B.<X<X<X<X<X<XD.<X<X<X<X<XD.<X<X<XD.D.<X<X.XA.l S.b.!.r.g q.h g 3.9.0.m.w.E m.e.h T.R._._./.^.:X/./.2X>X>X>X>X>X>X2X/./.2X/././.).s.) T.Y.T.T.Y.T.^ I.E.<.R / I.y &.9X$X9X&.i.9X9Xg.9XVXVXVXVX9XVXVXVXVXVXBXBXVXVXVXBX9XVXBXBXBXBXBXBX X X-X-X-X-X-X%X@X{ ].}.-X[.{ zXvXvXvXvX%X{ NXnXmXMXMXmXMXMXmXMXnX{.MXMXMXMXMXMXMXMXMXMXMXMXMXMXMXMXbXbXbXlXlX'.7XgXqXqXiX$XF F 1XwXqXqXpXgXZ.1 z h.t.t.0XGXZ.< 1 C.} } }.jXeX^.+ ^.SX% Q.SXUXe.+ wXwXqXqXeX4X!.^.8.0.pX5.4.4.4XwXqX",
"J.J.J.uXyXyXyXyXyXyXyXyXyXyXyXyXuXuXyXsX>X_ (.D.D.D.D.A.D.D.D.D.D.D.A.D.D.D.D.D.A.D.D.D.D.A.D.D..Xj 2.F.c.S.0 $.q.h g 3.3.9.e.m.W U m.h %.T.u.I.T.T.T.U.T.T.T.T.T.T.T.T.T.U.U.T.T.T.T.T./ i.Y.Y.Y.Y.Y.) ^ T.I.:.U / s.I.u Y.&X#XY.y #X&Xd.*XBXcX*X*X&XcXcXcXcXBX*X*XcXcXcX*X*XcXcXcXcXcXcXcX].-X%X-X-X-X%X}.[.{ ].}.}.-X{ }.vXvXvXlX7X{ -XnXzXnXbX7XnX-X[ NXzX{.nXbXbXbXbXbXbXbXbXbXbXbXbXbXbXnXzXzXzXlX+X'.7XgXqXqXiX$XF F 1XwXqXqXpXgXZ.1 z h.t.t.0XGXZ.< 1 C.} } }.hXqXgX, + ^.5.DXgX4X+ g AX5XqXwX:Xc.X.#.s ~.z.X.X.s :XeXqX",
"J.J.J.uXyXyXyXyXyXyXyXyXyXyXyXyXuXuXyXsX$X) <XD.D.D.D.A.D.D.D.D.D.D.A.D.D.D.D.D.A.D.D.D.D.A.D..XA.g S.n.A.j g q.q.h g 3.3.8.e.e.e.E w.e.h _ / / T.T.T.U.T.T.T.T.T.T.T.T.T.T.U.T.T.T._.) _ Y.Y.Y.Y.Y.Y.E I.Y.i.>.U U u.I.:.y #XY.#XY u.*Xd.=XBX9X&X*X&XcXcXcXcXBX&X*XBXcXcX9X*XBXcXcXcXcXBX}. X-X}.-X-X-X%X}.[.{ ].}.}.-X[.{ vXvXvXvX7X%X[ NXzXnXnXzXMX-X^ vXlX{.MXbXnXnXnXnXnXnXnXnXnXnXnXnXnXnXzXzXxXlX+X'.7XgXqXqXiX$XF F 1XwXqXqXpXgXZ.1 z h.t.t.0XGXZ.< 1 C.} } }.hXwXwXqX+ j UXwXDXp % eXqXqXqXwX5XQ.8.Q.8.4Xn.4.9.#.,XwXqX",
"J.J.J.yXyXyXyXyXyXyXyXyXyXyXyXyXuXuXyXsX{.) <XD.D.D.D.A.D.D.D.D.D.D.A.D.D.D.D.D.A.D.D.D.D.A.D.<Xj j F.S.e.g 0.3.q.h g 3.3.8.e.e.e.W ;.m.h K Y._ Y.T.T.U.T.T.T.T.T.T.T.T.T.T.U.T.T.T.T./ I.Y.Y.Y.Y.T.) / Y.I.i.>.U U u.u.I.y ,.#X#Xi.y *Xd.#XcX*X&X*X&XcXcXcXBX9X#X*XBXcXcX9X*XBXcXcXcXcXBX].-X-X%X-X-X-X%X}.[.{ ].}.}.%X-X{ %XvXvXvX=XvX{ vXzXnXnXzXMX%X^ ] [.XXnXbXnXnXnXnXnXnXnXnXnXnXnXnXnXnXzXzXxXlX+X'.7XgXqXqXiX$XF F 1XwXqXqXpXgXZ.1 z h.t.t.0XGXZ.< 1 C.} } }.hXwX5XwXwX3X0XqXqX3XwXwXqXwXwXqXwXwXwXwXwXwXwXwXwXqXwXqXwX",
"J.J.J.uXyXyXyXyXyXyXyXyXyXyXyXyXuXuXyXsXM.a.<XD.D.D.D.A.D.D.D.D.D.D.A.D.D.D.D.D.A.D.D.D.D.A.<XF.0 b.S.F.g j c.3.q.h g 3.3.8.e.e.m.W ;.H.U K _./ ) /.T.U.T.T.T.T.T.T.T.T.T.T.U.T.T._.s._ T.i.Y.Y.Y.Y.E u.Y.I.u.>.U U ) u.s.i.y #X#X#Xy I.g.#X*X*X&X&X%XcXcXcXBX*X#X*XBXcXcX9X*XBXcX*XcXBX}.'.-X-X%X-X-X-X%X}.[.{ ].}.}.%X-X[.{ bXvXvX=XbX[.[.mXbXnX7XMX%XH ~ G g.NXbXnXnXnXbXnXnXnXnXnXnXnXnXnXnXzXzXxXlX+X'.7XgXqXqXiX$XF F 1XwXqXqXpXgXZ.1 z h.t.t.0XGXZ.< 1 C.} } }.hXwXqXqXqXwXaXaXiXwXqXqXwXqXwXwXqXqXqXqXqXqXqXqXqXwXqXwXqX",
"J.h h G.sXyXyXyXyXyXyXyXyXyXyXyXuXuXyXsXg.a.<XD.D.D.D.A.D.D.D.D.D.D.A.D.D.D.D.D.A.D.D.D.D.A.<X=.j A.S.e.0 m.0.3.q.h g 3.3.8.e.e.m.( E U / h q.Y./ T.T.U.T.T.T.T.T.T.T.T.T.T.U.T.T.T./ I.Y.i.Y.Y.T.) / i.I.i.u.>.U U ) ( u.Y.y ,.=XR y -.g.#X*X&X%X%X%X9XcX*X*X*X#X&XBXcX9XcX*XBXcX*X9XcX].}.-X-X%X-X-X-X%X}.[.{ ].}.}.%X-X-X{ -XvXvX=XvX-X{ zXnXnX7XNX@XD G A F bXnXnXnXbXMXnXbXnXnXnXnXnXnXnXnXzXzXxXlX+X'.7XgXqXqXiX$XF F 1XwXqXqXpXgXZ.1 z h.t.t.0XGXZ.< 1 C.} } }.hXwXqXqXiX8X[.{ [.0XiXqXwXwXwXwXwXqXwXwXwXwX5XqXqXqXwXwXwX",
"Z.h s H.sXyXyXyXyXyXyXyXsX>X^ _ _ _ _ _ / N.(.D.D.D.D.A.D.D.D.D.D.D.A.D.D.D.D.D.A.D.D.D.D.F.D.g b.b.D.g j b.0.3.q.h g 3.3.8.e.e.e.e.;.>.m.q.h R./ T./.U.T.T.T.T.T.T.T.T.T.T.U.T._.i.^ T.Y.V.Y.Y.Y./ s.i.I.i.u.>.U U ) ( s.I.i.u %X8 y Y y %X&X%X%X%X#X*XcX*X*X*X%X&XBX9X*X9X*XBX*X%XcX%X].-X-X%X}.-X%X-X%X}.[.{ ].}.}.%X-X-X[.{ bX-X=XvXbX{ %XNXbX7XMX] G G J F -XNXbXbXnX-XnXMXnXbXnXnXnXnXnXnXzXzXxXlX+X'.7XgXqXqXiX$XF F 1XwXqXqXpXgXZ.1 z h.t.t.0XGXZ.< 1 C.} } }.hXwXqXiX[.` ' { ' ` #XiXqXwXwXwXqXwX4X4X4X5XpXwXqXwXwXwXwX",
"K.H.G.uXyXyXyXyXyXyXyXyXsXM.) <XB.F.D.F.D.D.D.D.D.D.D.A.D.D.D.D.D.<XA.D.D.D.D.D.A.D.D.<XF..X2.j A.S.e.0 e.m.0.3.q.h g 3.3.0.e.c.c.c.m.m.e.m.h e./ / / i._.T.T.T.T.T.T.T.T.T.U.T./._ i.Y.Y.V.Y.T.) _ Y.i.I.i.u.>.U U ) ( s.I.I.Y Y 5 e 8 4 =X*X&X&X&X#X*X*X&X&X*X#X#XcX*X*X*X*XBX*X#X*X'.[.%X%X}.}.-X}.%X%X}.[.{ ].}.}.-X-X%X-X{ %X^ -XvX-X}.{ [.MXzXnX] H G 8 K [.vX@X[ NX' %XlXvXnXnXnXnXnXnXnXzXzXxXlXlX'.7XgXqXqXiX$XF F 1XwXqXqXpXgXZ.1 z h.t.t.0XGXZ.< 1 C.} } }.hXqXiX[.` =XkXkXhX%X` %XiXqXwXwXqXeXv.X.#.c.8.X.,XwXqXwXwX",
"J.J.J.uXuXuXuXuXuXuXuXuXyXd.p.G.A.A.A.A.A.A.A.A.A.A.A.A.A.A.A.A.A.A.A.A.A.A.A.A.A.A.A.A.A.A.g c.c.A.g j 0.0.9.3.3.f g 3.3.5.0.0.0.0.0.0.0.e.%.h I.( u.E _ i.U.U.U.U.U.U.U.U.m.U.i./ Y.i.i.i.V.V.E u.i.i.i.u.u.:.U U ( ( u.i.i.i.u 8 6 5 4 g.R Y.#X#X#X&X#X#X#X=Xq t *X&X#X=X=X#X#X#X}.].[.}.[.[.[.}.[.}.}.[.[.{ ].}.}.}.%X}.=X[.' G =X%XD [.~ H mX7X[.^ ^ F 3 K D G ~ ~ ] ] ^ G [.mXzXzXzXzXzXzX7X7X7X+X|.'.7XgXqXqXiX$XF F 1XwXqXqXpXgXZ.1 z h.t.t.0XGXZ.< 1 C.} } }.hXwX0X` %XJXgXgXDXLX[.' iXqXqXwXqXpXn.a X.#.a X.4XwXqXwXwX",
"K.H.G.d._ ) _ _ _ _ _ _ ) / M.D.F.A.D.D.D.D.D.D.D.D.D.A.D.D.D.D.D.D.A.D.D.D.D.D.A.D.D.D..X3.k F.b.9.g c.8.e.0.3.q.h g 3.3.9.e.e.e.e.e.e.e.e.m.h m./._.i./ / T.T.T.T.T.T.T.U.U._._ s.Y.Y.Y.i.T.) / Y.i.i.I.i.u.>.U U ) ( s.I.i.g.y u q 5 4 y 6 R =X#X#X*X%X#X#X=X8 e ;X*X#X*X*X#X#X&X].[.}.}.}.}.}.}.}.%X}.[.[.{ ].}.}.}.%X%X%X-XH G =X[.A D D H MXtX^ %X_ ^ 2 t H ^ [.~ ~ ' ] A [ NXbXbXbXbXbXnXzXzXzXlX+X'.7XgXqXqXiX$XF F 1XwXqXqXpXgXZ.1 z h.t.t.0XGXZ.< 1 C.} } }.jXiX=X` gXgXgXgXS.m.1X` 8XwXqXwXqXwX3X!.~.:XS.Q.,XwXqXwXwX",
"Q ( ) ) <X<X<X<X<X<X<X<X<X<XD.D.D.F.D.D.D.D.D.D.D.D.D.A.D.D.D.D.D.D.A.D.D.D.D.D.A.D.D.D..Xg c.S.A.g =.m.0.m.0.5.q.h g 3.3.0.e.e.e.e.e.e.e.e.m.%.h R.T.U._._ _ /././.T.T.T.T.U.s.~ T.Y.Y.Y.V.Y./ s.I.i.i.I.i.u.>.U U ) ( s.I.i.g.y q q 8 e 4 e t vXe t -X#X%X%X&Xq e *X&X&X*X=X%X&X#X].}.}.}.}.}.[.}.s.[.}.[.[.{ ].}.}.}.%X%X-X[.G G ~ ^ D G G ^ nX=X^ 7X[.R 2 Y lXzXY.9 ' H G H ] vXbXnXnXnXnXnXzXzXxXlXlX'.7XgXqXqXiX$XF F 1XwXqXqXpXgXZ.1 z h.t.t.0XGXZ.< 1 C.} } }.jXiX#X` gXgXgXgXo.a >Xv >XiXqXwXwXwXeXpXpXeXeXgXwXwXwXqXwX",
"K.J.G.(.(.D.D.D.D.D.D.D.D.D.D.D.F.F.D.D.D.D.D.D.D.D.D.A.D.D.D.D.D.D.A.D.D.D.D.D.A.D.D.<X0.l F.S.e.0 m.e.0.e.0.3.q.h g 3.3.8.e.e.e.e.e.e.e.e.e.m.h m.T.U.T.T./ /.) ) /.T.T.T.U.D F T.Y.Y.Y.Y.s./ Y.I.i.i.I.i.u.:.U U ) ( u.i.i.Y e u 4 e Y 6 t t =X8 q =X#X#X#X#Xq e &X&XI.#X#X%X*X].].%X}.u.t }.e -Xt R }.[.[.{ ].}.}.}.%X}.%X' D ' G ^ H [.[.~ vX=X] Y.y t 2 Y lX=X,.3 ' G D [.G ~ NXnXnXnXnXnXzXzXxXlX+X'.7XgXqXqXiX$XF F 1XwXqXqXpXgXZ.1 z t.t.t.4XGXZ.< < C.} } }.hXwX1X` 9XkXgXgXDXIX|.v qXwXqXeXv.8.3X4.8.5.wXQ.4.#.b.eXqX",
"K.H.A.F.D.D.D.D.D.D.D.D.D.D.D.D.F.F.D.D.D.D.D.D.D.D.D.A.D.D.D.D.D.D.A.D.D.D.D.D.A.D.D.<Xg 0.F.F.l j b.e.0.6.1.o.3.h g 3.3.8.e.e.e.e.e.e.e.e.e.m.%.h R.U.T.T./ Y./ / i./.T.Y./ F / Y.Y.Y.Y.Y./ s.I.I.i.i.I.i.:.-.U U ) ( u.i.Y 2 5 ,.4 y Y 6 q t #Xe t #X#X#X=X#Xe e #X#X8 Y.%X&XI.! }.[.}.T 4 T 5 }.t e }.[.[.{ { }.}.}.-X^ ] ^ ^ { D ^ H [.=X~ { ] [.Y.4 8 6 R xXi.2 t { D D }.G ^ %XnXnXnXnXnXzXzXxXlX+X'.7XgXqXqXiX$XF F 1XwXqXqXpXgXh , > t.m ! 3XDXZ.; < C N B }.kXqXiX{ ' gXgXgXgX0Xv Q jXqXqXqX8.8.v.9.a 8.n.#.X.s 4.eXqX",
"K.H.G.D.D.D.D.D.D.D.D.D.D.D.D.D.F.F.D.D.D.D.D.D.D.D.D.A.D.D.D.D.D.D.A.D.D.D.D.D.A.D.<Xm.g w.m.m.0 e.c.0.6.9.1.o.1.s g 3.3.0.e.e.e.e.e.e.c.c.e.e.m.h U.U.T./._ F ) T./ T./._ D s._ _ T.Y.Y.) _ Y.I.I.i.i.I.i.:.&.U U ) ( :.g.t 2 5 / 9 ,.Y 6 t 8 I.e t #X&X#XI.#Xe e =X#X6 L.u.vXt U -XR 8 T 2 4 2 y R 2 U }._ W ].[.}.{ [ ^ D ~ }.[.D ^ ~ [.|.[.D D -Xi.6 6 5 y >.R 2 y { G G }.H ^ H vXnXnXnXnXzXzXxXlX+X'.7XgXqXqXiX$XF F 1XwXqXqXpXgXh , > t.m ! 3XDXZ.; < C N B }.kXwXwXqX' [.hXeXhX! m iXqXqXqXeXb.4.n.5.9.5.,X5.9.#.c.wXqX",
"K.q.%.H.<XD.D.D.D.D.D.D.D.D.D.D.F.F.D.D.D.D.D.D.D.D.D.A.D.D.D.D.D.D.A.D.D.D..X<X.X<X<Xj 7 q q g 3.b.e.9.=.j =.$.1.f p =.1.2.0.m.c.c.e.e.0.e.m.e.m.%.%.T.T.T.T.Y.T._./ I.)./ E T.i./ T.Y.s.D / I.I.I.i.i.I.i.:.&.U U ( ( :.y q q 6 / J y Y 2 T e  .t t I.#X#X6 T t e t L.6 t t vXu 6 8 8 8 t 2 6 2 8 t 6 8 }.3 9 ].[.{ H H ~ A H }.}.S ] ~ }.|.#XA D 7X,.4 2 q t 6 e 2 e { S H }.^ ^ D bXnXnXnXnXzXzXxXlX+X'.7XgXqXqXiX$XF F 1XwXqXqXpXgXh , > t.m ! 3XDXZ.; < C N B }.kXwXqXwXqX4X5X5XqX1XwXwXqXwXqXwXwXwXwXwXwXwXwXqXwXqXwXwXqX",
"%.: : 5.<XD.D.D.D.D.D.D.D.D.D.D.F.F.D.D.D.D.D.D.D.D.D.A.D.D.D.D.D.D.A.D.D.D.F.<.;.k e 4 q x.y 6 u =.m.q q e 4 0 1.f p j =.*.2.9.w.9.6.2.2.6.w.9.w.e.> U.T.T.T.T.T./.) / ) D _ T.Y.F s.T.F F / / Y.I.I.i.I.u.:.&.U U T T u.2 5 y 5 E F R t 2 >.u 8 R y 8 R L.5 t t 8 2 5 5 q e  X9 2 2 2 y 4 8 5 6 6 6 5 4 ) 2 9 ! y.` S 9 ' [ U s.[.3 { [.}.+Xg.8 { t 8 y 2 t e 6 5 8 5 9 3 S u.9 E D lXnXbXnXnXzXzXxXlX+X'.7XgXqXqXiX$XF F 1XwXqXqXpXgXh , > t.m ! 3XDXZ.; < C N B }.kXwXqXqX5XeXgXgXpXeX5XqXwXqXwXqXqXqXqXqXqXqXqXqXqXwXqXqXwX",
"%.X.s x.<XD..X.X.X.X.X.X.X.XD.<XD.D.<XD..X.X.X.X.XD..X.X<X<X<X<X<X<XD..XD.<Xk e y y 0 j 0.8.k 0 u q j q 2.8.j 4 e f 0 =.=.*.2.2.2.2.6.6.6.6.2.2.2.w.h $.T.T.T.T.T.T.T.i.) ~ i.Y.Y.I.F ~ D s.I.F ~ s./ / Y.>.:.&.U U T T t 2 t y q E J ~ A 6 i.t 6 I.e 5 2 5 T 2 e e 5 2 8 5 8 R 4 5 8 p.R 4 e t T T 4 t 2 3 t 8 4 9 G 3 3 { -Xt R [.4 ^ -X-XR 8 5 9 2 q :.5 {.4 8 Y Y 2 3 3 J t 2 9 D ] NXnXnXMXmXzXxXlXlX'.7XgXqXqXiX$XF F 1XwXqXqXpXgXh , > t.m ! 3XDXZ.; < C N B }.kXwXqXqXpX^.j l r.4XpX5XwXwXqXeXeX5XqXqXqXwXwXwXwX5XqXqXwX",
"K.H.H.A.A.A.A.A.A.A.A.A.A.A.A.F.A.A.F.A.A.A.A.A.A.A.n.y y y y y w.w.6.m.S.D.u ;.H.z.0 8.9.6.0 2.4.q 4 y 1.*.1.f 7 f p f j =.*.2.*.*.*.*.*.*.2.2.*.*.1.> P.U.U.U.w.U.U._.g._ V.i.i.Y.u._ / u.>.J D E G F i.:.T &.U U T R 2 q u.,.T U U F S t g.t 2 i.e q 2 5 u.2 q e q 6 y 5 4 3 8 p.f.[.T q T y.d.d.e d.8 2 9 3 2 9 9 2 3 { }.t t R 2 3 8 g.2 2 2 2 4 e h.y {.4 t {.M.y 3 3 4 4 2 9 D ^ mXzXzXzX7X7XlX+X|.'.7XgXqXqXiX$XF F 1XwXqXqXpXgXh , > t.m ! 3XDXZ.; < C N B }.kXwX5XpXj 7 0 l 0 7 P.pX5XqXwX^.!.pXeXeXwX:X4X4X5XpXwXwXwX",
"%.%.q.q.x.x.x.x.x.x.x.x.x.x.x.x.q.q.x.x.x.H.H.H.H.H.d 8 r r r 0 u u u e e e e O.+.0 g +.O.0 0 O.d f f f d f d s 4 7 0 d d d f f f f f f f f f f f f =.: f w.6.;.&.;.;.6.E T ;.-.-.>.w.E W &.Y Y R D T U R Y Y S A K R t 2 u &.I S U K S K K -.T t r 9 t 5 u T 2 q u e 8 Y 6 u 2 4 y.( ( ( P y.y.Q ( y.y.P t S 3 2 9 9 2 8 a.[.e 8 2 2 2 2 4 u 6 2 u 9 q h.h.h.u y h.y.l.9 3 2 2 2 4 H E XX{.{.{.{.{.|.|.|.].tXgXqXqXiX$XF F 1XwXqXqXpXgXh , > t.m ! 3XDXZ.; < C N B }.kXqXpXr.7 _.DXFXDXP.7 U.pX5XwX5.5.5.z.Q.n.X.o.o.c.0.X.:XwX",
"K.H.A.D.<X<X<X<X<X<X<X<X<X<X<X<XD.D.<X<X~.y y y y y q =.D.S.A.A.A.A.b.b.b.b.n.b.z.0 w.e.w.0 2.6.2.2.6.2.2.6.2.=.f 7 u =.=.2.6.6.6.6.6.6.6.6.6.6.6.6.6.o.h T.T.U.P.P./.I.^ T.Y.I.I.Y.I./ I.u.u.u.u.D i./ _ <.U U S U u.t 9 / w.U D T U G R 9 <.i.Y.U D i.I.Y.,.5 U _ ,.8 I.2 W 8 4 [.f.f.f.f.f.f.p.f.f.f.s.f.E 9 2 9 3 2 2 a.-Xe 8 2 6 2 2 2 u.t 2 Y U t {.M.M.h.M.M.M.{.5 4 5 Y 6 q U ~ NXnXMXMXbXbXbXlXlX'.7XgXqXqXiX$XF F 1XwXqXqXpXgXh , > t.m ! 3XDXZ.; < C N B }.kXwX5X7 P.UXgXgXgXPXk 7 eX5XwX9.c.a Q.s 5.z.s f #.a X.4XwX",
"K.H.G..XD.D.D.D.D.D.D.D.D.D.D.D.F.F.D..Xw.q ;.&.=.&.;.z.c.c.c.c.c.c.k.c.v.v.c.n.d g c.c.j g 9.2.2.2.2.2.*.2.1.o.%.0 u 1.j *.2.2.2.2.2.2.2.2.2.2.2.2.2.;.s 0.T.w.w.w.U._ s.Y.i.i.i.T._ _ i.:.>.>.>.T i._ / <.U R J S / q 9 / :.U D T U / R J y i.( / A s.Y.Y.,.q H ~ Y.T I.3 p.t 4 [.s.d.d.d.d.d.p.d.g.f.p.) G W 9 9 3 9 2 t +Xe 4 2 t R t 4 h.|.8 t f.W N.N.N.h.M.N.N.{.5 4 8 u.y y 2 ~ nXbXbXnXzXzXzXlX+X'.7XgXqXqXiX$XF F 1XwXqXqXpXgXh , > t.m ! 3XDXZ.; < C N B }.jXeXU.7 gXgXgXSXgXAX3X7 ^.wXwXn.v.:X:X#.:X,X!.!.:XS.Q.:XwX",
"0 0 y k .X.X.X.X.X.X.X.X.X.XD.D.F.F.D.<X=.y D.b.n.n.n.z.v.v.v.v.v.v.z.v.v.v.v.v.0 6.w.0.0 =.6.2.2.2.6.2.*.6.1.o.$.0 4 0 =.=.2.2.2.2.2.2.2.2.2.2.2.2.2.*.$.h T.w.w.w.u./ T.Y.<.i.i.Y./ >.>.:.>.>.>.>.>.T E :.S R U D 9 4 E F A U U T >.i.R S y R G F S ) Y.Y.>.8 ~ / g.Y.i.4 p.R t [.d.d.f.f.f.f.d.a./ _ a._ A W E 2 3 H 6 2 e 8 6 2 R |.f.E d.|.q y |.E g.M.N.h.M.M.N.{.Y 8 q i.{.t 2 D [ NXbXnXzXzXxXlX+X'.7XgXqXqXiX$XF F 1XwXqXqXpXgXh , > t.m ! 3XDXZ.; < C N B }.jXpXP.7 gXgXAX^.5XDX6X7 _.eX5XeXeXpX4X,XgXeXpXpXpXeXeXwXqX",
"d d =.q w.F.n.n.n.n.n.n.F.<.q u e e e u q =.b.c.v.v.v.z.v.v.v.v.v.v.z.v.v.v.n.=.g c.0.j 0 6.2.6.2.2.6.2.*.6.1.o.$.f 0 4 j 2.2.2.2.2.2.2.2.2.2.2.2.2.6.*.6.h w.P.w.P.W u.T.i.<.i.w._ / <.>.:.>.>.>.>.>.T E D D y I 9 3 U W U D F i.:.:.u.Y D U S / G / U Y.g.i.3 _ / s.Y.a.I p.f.f.a.a.g.f.d.f.f._ _ A D F F G W W 2 4 ~ q 4 t 6 4 6 T f.g.W ( |.e y |._ ( M.N.h.M.M.M.{.i.t ,.N.{.Y 6 9 ~ NXbXnXzXzXxXlX+X'.7XgXqXqXiX$XF F 1XwXqXqXpXgXh , > t.m ! 3XDXZ.; < C N B }.hXeX^.7 ).DXDX0.: PXU.7 qXwXqX5XeXQ.c.c.8.4.:Xz.z.,XwXqXwX",
"q.q.H.=.e u e e e e e e e e 2.v.0.8.c.c.v.b.v.v.v.v.v.z.v.v.v.v.v.v.z.v.v.v.b.0 =.0.c.0 j 2.2.6.2.2.6.2.*.6.1.o.1.s g u 4 k 2.2.2.2.2.2.2.2.2.2.2.2.6.*.6.f h Y.w.i.U i.i.<.<.i.<./ u.>.>.:.>.>.>.>.>.>.G F t 6 U 3 9 D R U S U u.:.:.u.Y R G D / G _ 9 i.Y.I.U s./ s.g.! f.p.f.f.F _ ) s.f.d.a.D F F D A E a.W W U ( ^ d.T y.8 5 y f.d.f.a.W |.y Y |.p.W M.N.h.M.M.M.M.M.N.{.M.N.{.e 2 t MXmXnXzXzXxXlX+X'.7XgXqXqXiX$XF F 1XwXqXqXpXgXh , > t.m ! 3XDXZ.; < C N B }.kXqXpXl 0 gXgXgX1.^.7 k pX5XwXqXwX:Xo.c.a 4.n.4.% 0.eXqXwX",
"$.s s 5.S.b.b.b.b.b.b.b.b.n.b.v.c.c.b.v.v.v.v.v.v.v.v.z.v.v.v.v.v.v.z.v.v.n.2.g 8.0.=.0 6.*.6.6.2.2.6.2.*.6.1.o.1.f 0 1.r 4 u 0.2.2.2.2.2.2.2.2.2.2.6.*.2.6.h w.U.T T i.i.<.<.i.T _ i.>.>.:.>.>.>.>.:.<.G E e q 4 8 ( S T T T >.>.:.:.u.Y T D A R _ _ K Y ^ ~ / s./ s.) E g.p.g.^ A ) F G f.a.D A D ) D D p.) W Q p.p.p.f.d.p.f.8 R f.d.f.f.E s.N.g.g.N.W g.N.h.M.M.M.M.M.M.N.M.N.{.e 2 8 MXmXnXzXzXxXlX+X'.7XgXqXqXiX$XF F 1XwXqXqXpXgXh , > t.m ! 3XDXZ.; < C N B }.kXqXwX5X7 j SXeXFXl l eXwXqXwXqXwX4Xn.8.5.#.:X:X5.c.eXqXwX",
"a % p O.b.c.v.v.v.v.v.v.v.c.v.v.c.c.v.v.v.v.v.v.v.v.v.z.v.v.v.v.v.v.z.v.v.n.g *.9.c.0 j 6.*.2.2.2.2.6.2.*.6.1.o.$.f p j 1.=.4 j 6.2.2.2.2.2.2.2.2.2.2.*.2.6.f f I.U i.i.i.<.<.i.U u.u.>.>.:.>.>.>.>.:.<./ U q -.2 8 ( T :.>.>.>.>.:.:.u.Y :.D S u i._ / t A D F Y./ s.E D / p.N.E D F F D G F F D A ) G G a.) W ! a.a.p.d.p.p.[.q R f.d.d.f.( _ N.d.g.N.W ) M.h.M.M.M.M.M.M.M.M.N.{.t 2 8 MXmXnXzXzXxXlX+X'.7XgXqXqXiX$XF F 1XwXqXqXpXgXh , > t.m ! 3XDXZ.; < C N B }.kXwX5XwX5X3XwX5XqX3XqXwXqXwXwXwXqXwXwXwXwXwXwXwXeXwXwXqXwX",
"$.X.X.8.b.v.v.v.v.v.v.v.v.v.v.b.c.c.b.v.v.v.v.v.v.v.v.z.v.v.v.v.v.b.z.v.n.6.0 c.9.2.0 6.2.2.6.6.2.2.6.2.*.6.2.o.1.f p =.=.2.y 5 6.9.2.2.2.6.6.6.6.6.6.*.2.6.6.h T R i.i.i.<.<.T U u.>.>.>.:.>.>.>.>.>.:.i.e t -.6 t ( T :.u.:.>.u.>.>.u.Y >.U u.y Y s./ S A G G Y._ E E A F g._ F a.G F f.D F s.F D s._ ) a.) W Q a.a.p.f.p.d.f.R y.d.f.f.d.p.E g.g.g.N.p.W M.h.M.M.M.M.M.M.M.M.N.{.t 8 e nXnXnXmXzXxXlXlX'.7XgXqXqXiX$XF F 1XwXqXqXpXgXh , > t.m ! 3XDXZ.; < C N B }.kXwXqXqXwXwXqXwXqXwXwXqXwXwXwXwXwXwXqXwXqXwXqXwXqXqXwXwXwX",
"%.q.0.z.c.c.c.c.c.c.c.c.c.c.c.c.z.k.c.c.c.c.c.c.c.c.c.8.c.c.c.c.c.c.8.z.b.g j 8.9.g d 6.*.*.2.2.*.*.2.*.*.2.*.o.o.s 0 j j =.0.u 8 =.2.9.2.*.2.2.2.2.2.*.*.2.6.f K >.<.<.<.<.<.U T >.:.:.:.:.>.:.:.>.:.:.u.q y -.6 t T R T :.:.:.>.:.:.>.Y :.>.>.:.u u.G A S / G N.s.A F D F ) D ) g.F F g.F a.g.F / d.d.p.) ) W ! a.a.p.p.p.p.p.f.d.p.p.p.p.d.W ) g.g.g.g.W d.h.N.N.N.N.N.N.N.N.N.{.t Y t 7XzXzX7X7XlX+X|.'.7XgXqXqXiX$XF F 1XwXqXqXpXgXh , > t.m ! 3XDXZ.; < C N B }.kXqX5XqX5X5XqXqXqX5X5XqXqXqXqXqXqXqXqXqXqXqXqXqXqXqXqXqXqX",
"%.5.8.z.c.c.c.c.c.c.c.c.c.c.c.c.z.z.c.c.c.c.c.c.c.c.c.8.c.c.c.c.c.c.8.c.9.0 8.9.*.0 2.2.*.*.2.2.*.*.2.2.*.2.*.o.o.s p j j =.*.9.u q q e *.6.*.*.*.2.2.*.2.*.3.Y I <.<.<.<.<.T U >.:.>.>.:.:.>.:.>.>.:.>.Y 5 -.&.u K T T T >.:.:.>.:.:.>.Y :.>.:.u.y &.D _ R R / Y.s.D D ) E E _ g.p.) a.d.a.p.d./ a.d.p.a.) ) W ! a.a.p.p.p.p.d.p.p.p.d.d.p.p.a.W g.g.g.g.) ( h.N.N.N.N.N.N.N.N.N.N.N.g.t 8XmXmXzX7XlX+X+X'.7XgXqXqXiX$XF F 1XwXqXqXpXgXh , > t.m ! 3XDXZ.; < C N B }.kXeXeXeXeXeXeXeXeXeXeXeXeXeXeXeXeXeXeXeXeXeXeXeXeXeXeXeXeX",
"%.q.0.c.v.v.v.v.v.v.v.v.v.v.v.b.c.c.b.v.v.v.v.v.v.v.v.z.v.v.v.v.v.v.z.n.k j c.c.g g 9.2.2.2.6.6.2.2.6.2.*.6.2.o.1.f p =.=.*.2.2.9.9.*.u 5 k 0.8.9.2.2.*.2.6.6.U a =.I.i.i.<.U T >.>.>.>.>.:.>.u.>.>.:.u.y e u.Y I U T T :.u.>.>.u.>.>.u.Y :.u.>.u.,.y / u.<.y I.Y.) D D d.F G s.f.f.f.f.f.f.f.f.p.f.f.f.p.a.) W Q a.a.p.f.p.d.f.f.f.p.f.f.d.p.f.W p.g.g.g.f.E h.M.M.M.M.M.M.M.M.M.M.M.M.t vXMXnXzXzXxXlXlX'.7XgXqXqXiX$XF F 1XwXqXqXpXgXh , > t.m ! 3XDXZ.; < C N B }.kXeXwXwXwXwXwXwXwXwXwXwXeXwXwXwXwXwXwXwXwXwXwXwXwXwXwXwXwX",
"%.q.0.c.v.v.v.v.v.v.v.v.v.v.v.v.c.c.v.v.v.v.v.v.v.v.v.z.v.v.v.v.v.v.z.c.0 w.w.9.0 2.2.2.2.2.2.2.2.2.6.2.*.6.1.o.$.f p j =.*.2.2.2.2.6.0.k 4 y u y 8.8.5.9.6.-.U *.a i.i.i.>.U i.u.>.>.>.u.:.u.,.>.>.:.u.q Y :.&.K U T T :.>.:.>.>.:.:.u.Y :.>.>.>.u.y ,.i.i.y >.g.! G G g._ E f.d.f.d.f.f.f.f.f.p.f.f.d.p.a.) W ! a.a.p.f.p.d.f.f.d.p.f.f.d.p.g._ W N.g.d.N.W P M.N.M.M.M.M.M.M.M.M.M.M.t 8XnXnXzXzXxXlX+X'.7XgXqXqXiX$XF F 1XwXqXqXpXgXh , > t.m ! 3XDXZ.; < C N B }.kX~.!.^.~.~.!.~.!.!.~.~.!.~.!.!.!.!.!.!.!.!.!.!.!.!.!.!.!.",
"%.q.0.c.v.v.v.v.v.v.v.v.v.v.v.v.c.c.v.v.v.v.v.v.v.v.v.z.v.v.v.v.v.v.v.j k c.c.k g 9.2.6.2.2.6.6.2.2.6.2.*.6.1.o.1.f p j =.*.2.2.2.2.2.*.8.j q y 8 e u u u 9.U &.;.a =.i.w.U ( y y u.>.,.y >.5 6 Y i.>.,.q :.:.&.I U T T :.>.:.>.>.:.:.u.Y :.>.>.>.u.Y y i.i.:.y a.a.) ) f.f.d.f.f.f.f.f.f.f.f.f.p.f.f.f.p.a.) W Q a.a.p.f.p.d.f.f.d.p.f.f.d.p.f.s.E g.g.d.N.) W M.N.M.M.M.M.M.M.M.M.M.M.t 8XnXnXzXzXxXlX+X'.7XgXqXqXiX$XF F 1XwXqXqXpXgXh , > t.m ! 3XDXZ.; < C N B }.kX^.^.0.S.S.Q.Q.8.Q.Q.n.n.S.!.~.~.~.~.~.~.~.~.~.~.~.~.~.~.",
"%.0.z.c.v.v.v.v.v.v.v.v.v.v.v.v.c.c.v.v.v.v.v.v.v.v.v.z.v.v.v.v.v.v.z.0 9.w.w.0 =.6.2.6.2.2.6.6.2.2.6.2.*.6.1.o.1.f p j =.*.2.2.2.2.2.2.2.6.8.8.2.k u 4 q &.U ;.;.O.s i.>.U >.5 5 u.u.t 4 6 y e y t T Y q u.:.&.I U T T :.>.:.>.>.:.:.u.Y :.>.>.>.>.u.y >.i.i.y ! f.f.f.f.d.p.f.f.f.f.f.f.f.f.f.p.f.f.f.p.a.) W Q a.a.p.f.p.d.f.f.d.p.f.f.d.p.f.g.W a.N.d.g.f.W M.M.M.M.M.M.M.M.M.M.M.{.t 8XnXnXzXzXxXlX+X'.7XgXqXqXiX$XF F 1XwXqXqXpXgXh , > t.m ! 3XDXZ.; < C N B }.kX:X!.s $.$.9.$.f 1.1.$.1.$.n.^.~.~.~.~.~.~.~.~.~.~.~.~.~.",
"%.$.#.z.v.v.v.v.v.v.v.v.v.v.v.v.c.c.v.v.v.v.v.v.v.v.v.z.v.v.v.v.v.n.j g c.c.j g 6.2.2.6.2.2.6.6.2.2.6.2.*.6.1.o.1.f p j =.*.2.2.2.2.2.2.2.2.2.2.6.9.9.9.e t -.;.;.;.a ;._ R u e e y i.q Y t g.y t 4 4 6 y u.:.&.I U T T :.>.:.>.>.:.:.u.Y :.>.>.>.>.u.Y y g.I.Q P g.d.d.f.d.p.f.f.f.f.f.f.f.f.f.p.f.f.f.p.a.) W Q a.a.p.f.p.d.f.f.d.p.f.f.d.p.f.f.) W N.d.g.N.K f.M.M.M.M.M.M.M.M.M.N.{.t 1XMXnXzXzXxXlX+X'.7XgXqXqXiX$XF F 1XwXqXqXpXgXh , > t.m ! 3XDXZ.; < C N B }.hX:Xb.0.1.c.3.f 5.1.0.4.3.5.m.:X~.~.~.~.~.~.~.~.~.~.~.~.~.",
"%.a s #.b.v.v.v.v.v.v.v.v.v.v.v.c.c.v.v.v.v.v.v.v.v.v.z.v.v.v.v.v.b.0 6.w.0.0 =.2.2.2.6.2.2.6.6.2.2.6.2.*.6.1.o.1.f p j =.*.2.2.2.2.2.2.2.2.2.2.2.2.2.5.y 8 7.;.4 &.O.a / y 5 ,.y t u.8 >.u.u.R 5 6 2 q >.:.:.&.I U T T :.>.:.>.>.:.:.u.Y :.>.>.>.>.>.>.u u.i.! r p.f.f.f.d.p.f.f.f.f.f.f.f.f.f.p.f.f.f.p.a.) W Q a.a.p.f.p.d.f.f.d.p.f.f.d.p.f.f.p.E f.g.g.N.W ) M.N.M.M.M.M.M.M.M.N.{.t $XMXnXzXzXxXlX+X'.7XgXqXqXiX$XF F 1XwXqXqXpXgXh , > t.m ! 3XDXZ.; < C N B }.kX^.!.^.~.!.~.!.~.8.Q.!.~.Q.~.!.!.!.!.!.!.!.!.!.!.!.!.!.!.",
"s X.a 4.b.v.v.v.v.v.v.v.v.v.v.v.c.c.v.v.v.v.v.v.v.v.v.z.v.v.v.v.n.*.0 c.0.=.0 9.*.2.2.2.2.*.2.2.2.2.6.2.*.6.1.o.$.f p j =.*.2.2.2.2.2.2.2.2.2.2.2.2.2.3.I 8 ;.5 5 q 9.r _ e y g.y t y e i.:.u.,.2 t y i.>.:.:.&.I U T T :.>.:.>.>.:.:.u.Y :.>.>.>.>.>.u.Y y a.Q T P f.d.f.d.p.f.d.f.f.f.f.f.f.f.p.d.f.d.p.a.) W ! a.a.p.d.p.d.f.f.d.p.f.f.d.p.f.d.d.W ) g.g.g.y.W M.M.M.M.M.M.M.M.M.N.{.t $XMXnXzXzXxXlX+X'.7XgXqXqXiX$XF F 1XwXqXqXpXgXh , > t.m ! 3XDXZ.; < C N B }.kX5X4X4X4X4X4X4X4X5X5X4X4X4X4X4X5XiXiXiXiX5X5XiXiXiXiXiX5X",
"%.5.4.z.b.v.v.v.v.v.v.v.v.v.v.b.c.c.b.v.v.v.v.v.v.v.v.z.v.v.v.v.n.0 =.0.c.0 j 6.*.6.6.6.2.2.6.6.2.2.6.2.2.6.2.o.1.f p =.=.*.2.6.6.6.6.6.6.6.6.6.6.6.6.=.U q 6 y l.5 y K ..e Y i.,.5 5 ,.u.:.u.>.T i.u.:.u.>.:.&.I U T T :.u.>.>.u.>.>.u.Y :.u.>.>.>.>.>.>.u ! p.p.r d.f.f.f.p.f.f.f.f.f.f.f.f.f.p.f.f.f.s.a.) W Q a.p.p.f.p.d.f.f.f.p.f.f.f.p.f.f.d.a.W g.g.g.h.W f.M.M.M.M.M.M.M.M.M.{.t $XMXnXmXzXxXlXlX'.7XgXqXqXiX$XF F 1XwXqXqXpXgXh , > t.m ! 3XDXZ.; < C N B }.kXwXwXeXeXeXeXwXwXwXqXwXwXwXqXiX@X~ / ~ ~ [ /.w w w w w 2X",
"s O.#.#.+.+.+.+.+.+.+.+.+.+.+.#.+.+.#.+.+.+.+.+.+.+.+.O.+.+.+.4.f 0 O.O.d 0 X.f d f f f d d f f d d f f d f f s s p 0 g d d f f f f f f f f f f f d f I I 0 8 ....r 4 I 0 4 Y Y Y u u -.Y Y Y Y Y Y Y Y Y Y Y r t K I I Y Y Y Y Y Y Y Y r Y Y Y Y Y Y Y Y I ! T Q I I y.Q Q Q ( Q Q Q Q Q Q Q Q Q Q Q Q Q Q W W ! Q Q Q ( Q Q ( Q Q Q ( ( Q Q ( ( Q y.E Q y.y.@.W W h.h.h.h.h.h.h.h.y.h.u >.{.{.{.|.|.|.|.].tXgXqXqXiX$XF F 1XwXqXqXpXgXh , > t.m ! 3XDXZ.; < C N B }.kXwX4X:X,X^.~.3X,XqXpXwXqXqXqXaX_ @ # # @ H R.X . .   2 /.",
"%.5.0.c.c.c.c.c.c.c.c.c.c.c.c.v.z.z.v.c.c.c.c.c.c.c.c.k.c.c.c.b.g =.9.z.0 k 6.2.*.2.2.2.2.*.2.2.*.*.2.2.*.2.1.o.$.s p j =.=.2.2.2.2.2.2.2.2.2.2.2.2.2.K -.;.;.;.;.;.8 u u u u.>.>.i.u.>.>.:.>.>.>.>.:.:.>.:.-.&.K U T T :.>.:.:.>.:.:.u.Y :.>.>.>.>.>.>.>.! I p.p.y.r d.d.d.p.d.d.d.d.d.d.d.d.d.p.d.d.d.p.) ) W ! a.a.p.d.p.p.d.d.d.p.d.d.d.p.d.d.p.f.) W N.d.y.f.W M.N.N.N.N.N.N.N.N.{.t Y.MXbXzXzXzXlX+X'.7XgXqXqXiX$XF F 1XwXqXqXpXgXh , > t.m ! 1XGXZ.; < C N N }.hXpXv.4.#.c.X.^.z.0.c.5XwXqXqXaX[ # c A @ ~ R.X . X . 2 /.",
"%.q.0.c.v.v.v.v.v.v.v.v.v.v.v.v.c.c.v.v.v.v.v.v.v.v.v.z.v.v.b.9.0 0.9.2.0 6.2.2.*.6.2.6.2.2.6.6.2.2.6.2.*.6.1.o.1.f p j =.*.2.2.2.2.2.2.2.2.2.2.2.r.T I ;.;.;.;.;.-.U 5 4 a :.>.>.>.>.>.>.:.>.>.>.>.>.:.>.:.:.&.I U T T :.>.>.>.u.>.>.u.Y :.>.>.>.>.>.>.y.! r T p.s.L T f.d.p.f.f.f.f.f.f.f.f.f.p.f.f.f.p.a.) W Q a.a.p.f.p.d.f.f.f.p.f.f.d.p.f.f.p.f.p.E g.g.y.N.W g.M.M.M.M.M.M.M.N.{.t Y.MXnXzXzXxXlXlX'.7XgXqXqXiX$XF F 1XwXqXqXpXgX> , > @.n n ,XDX%.- ; m M M |.hXgXz.8.o.~.8.qXc.o.o.!.eXqXqXaX[ # # # @ ~ R.X . X . 2 /.",
"%.q.0.c.v.v.v.v.v.v.v.v.v.v.v.v.c.c.v.v.v.v.v.v.v.v.v.z.v.c.n.d j c.8.g k 9.2.2.*.2.2.6.2.2.6.6.2.2.6.2.*.6.1.o.1.f p j =.*.2.2.2.2.2.2.2.2.2.2.2.2.U &.;.;.;.;.;.U T &.y s ..u.>.>.>.>.>.:.>.>.>.>.>.:.>.:.:.&.I U T T :.>.:.>.>.:.:.u.Y :.>.>.>.>.>.>.! ( T r p.p.y.I f.d.p.f.f.f.f.f.f.f.f.f.p.f.f.f.p.a.) W Q a.a.p.f.p.d.f.f.d.p.f.f.d.p.f.f.p.d.g.W p.g.y.M.) ) M.N.M.M.M.M.M.N.{.t I.MXbXzXzXxXlX+X'.7XgXqXqXiX$XF F 1XwXqXqXpXgX> , , n n n >XFX%.- ; n M b |.kXeX^.3X~.wXQ.qXn.n.^.,XwXqXqXaX_ # @ @ @ H R.X . . . 2 /.",
"%.q.0.c.v.v.v.v.v.v.v.v.v.v.v.v.c.c.v.v.v.v.v.v.v.v.v.z.v.b.c.0 w.w.2.0 2.2.2.2.*.2.2.6.2.2.6.6.2.2.6.2.*.6.1.o.1.f p j =.*.2.2.2.2.2.2.2.2.2.2.6.&.U *.;.;.;.;.-.K -.-.;.&.a u.>.>.>.>.>.:.>.>.>.>.>.:.>.:.:.&.I U T T :.>.:.>.>.:.:.u.Y :.>.>.>.>.>.y.! y.y.r T p.p.I y.f.p.f.f.f.f.f.f.f.f.f.p.f.f.f.p.a.) W Q a.a.p.f.p.d.f.f.d.p.f.f.d.p.f.f.p.d.g.( _ N.y.N.d.W M.M.M.M.M.M.M.N.{.t I.MXbXzXzXxXlX+X'.7XgXqXqXiX$XF F 1XwXqXqXpXgX> , , n n n ,XFX%.- ; n M b |.kXqXwXwXwX5XwXqXeXeXwXwXqXqXqXiX@X^ ^ ^ ^ @X/.e e e e i 2X",
"%.q.z.v.v.v.v.v.v.v.v.v.v.v.v.v.c.c.v.v.v.v.v.v.v.v.v.z.c.n.k k c.c.g g 9.2.2.2.*.2.2.6.2.2.6.6.2.2.6.2.*.6.1.o.1.f p j =.*.2.2.2.2.2.2.2.2.2.2.6.U -.=.;.;.;.;.U T ;.-.-.-.a &.u.>.>.>.>.:.>.>.>.>.>.:.>.:.:.&.I U T T :.>.:.>.>.:.:.u.Y :.>.>.>.>.>.Q Q y.y.T r p.p.T I f.p.f.f.f.f.f.f.f.f.f.p.f.f.f.p.a.) W Q a.a.p.f.p.d.f.f.d.p.f.f.d.p.f.f.p.d.f.p.E g.y.g.g.W g.M.M.M.M.M.M.N.{.t I.MXbXzXzXxXlX+X'.7XgXqXqXiX$XF F 1XwXqXqXpXgX> , , n n n ,XFX%.- ; n M b |.kXeXwXeXeXeXwXeXwXwXeXeXeXeXeXeXiXhXhXhXhXaXpXSXSXSXSXSXeX",
"$.s #.5.b.v.v.v.v.v.v.v.v.v.v.v.c.c.v.v.v.v.v.v.v.v.v.z.v.c.0 9.w.w.0 2.6.2.2.2.*.2.2.6.2.2.6.6.2.2.6.2.*.6.1.o.1.f p j =.*.2.2.2.2.2.2.2.2.2.6.-.U ;.;.;.;.;.-.K -.-.-.-.-...a u.>.>.>.>.:.>.>.>.>.>.:.>.:.:.&.I U T T :.>.:.>.>.:.:.u.Y :.>.>.>.>.u.! y.y.y.y.r y.p.p.r y.p.f.f.f.f.f.f.f.f.f.p.f.f.f.p.a.) W Q a.a.p.f.p.d.f.f.d.p.f.f.d.p.f.f.p.d.f.d.W a.y.g.N.) a.M.M.M.M.M.M.N.{.y I.MXbXzXzXxXlX+X'.7XgXqXqXiX$XF F 1XwXqXqXpXgX> , , n n n ,XFX%.- ; n M b |.kXgXgXgXgXgXgXgXgXgXgXgXgXgXgXgXgXgXgXgXgXgXgXgXgXgXgXgXgX",
"s % % O.n.v.v.v.v.v.v.v.v.v.v.v.c.c.v.v.v.v.v.v.v.v.v.k.n.j g c.c.j 0 9.2.2.2.2.*.2.2.2.2.2.6.2.2.2.6.2.*.6.1.o.$.f p j =.*.2.2.2.2.2.2.2.2.2.r.U T ;.;.;.;.;.I R ;.-.-.-.&.-.a -.u.>.>.>.:.>.>.>.>.>.:.>.:.:.&.I U T T :.>.:.>.>.:.:.u.Y :.>.>.>.>.Q Q y.y.y.y.T I p.p.T L f.d.f.f.f.f.f.f.f.f.p.f.f.d.p.a.) W ! a.a.p.f.p.d.f.f.d.p.f.f.d.p.f.f.p.d.f.d.) W h.g.N.p.W M.N.M.M.M.M.N.{.y >.MXbXzXzXxXlX+X'.7XgXqXqXiX$XF F 1XwXqXqXpXgX> , , n n n ,XFX%.- ; n M b |.kXqX5X5X5X5X5XqXqX5XqXqXqXqXqXwX1X*X*X*X*X2X4XR.R.R.R.R.5X",
"s a s 4.b.v.v.v.v.v.v.v.v.v.v.v.c.c.v.v.v.v.v.v.v.v.v.z.b.0 6.w.0.0 =.6.2.2.2.2.*.6.2.6.2.2.6.6.2.2.6.2.*.6.1.o.1.f p j =.*.2.6.2.2.2.2.2.2.2.;.U ;.;.;.;.;.;.K -.-.-.-.-.-.-...a u.>.>.>.:.>.>.>.>.>.:.>.:.:.&.I U T T :.>.>.>.u.>.>.u.Y :.>.>.>.>.! y.y.y.y.y.y.r y.p.p.r y.f.f.f.f.f.f.f.f.f.p.f.f.f.p.a.) W Q a.a.p.f.p.d.f.f.f.p.f.f.d.p.f.f.p.f.f.p.f.E y.g.g.g.W N.M.M.M.M.M.N.{.y ,.MXnXzXzXxXlXlX'.7XgXqXqXiX$XF F 1XwXqXqXpXgX> , , n n n ,XFX%.- ; n M b |.kXqXwXeXeXwXpXwXwXpXwXqXwXeXqXaX] c c c c ~ R.2 X 2 X 2 /.",
"%.q.z.c.c.c.c.c.c.c.c.c.c.c.c.v.z.z.v.c.c.c.c.c.c.c.c.z.=.g c.0.=.0 6.2.2.2.2.2.*.2.2.2.2.*.2.2.*.*.2.2.*.2.1.o.$.s p j =.=.2.2.2.2.2.2.2.2.r.I T ;.;.=.;.;.P U ;.-.-.-.-.&.&.-.a -.>.>.>.:.>.>.>.>.:.:.>.:.-.&.K U T T :.>.:.:.>.:.:.>.Y :.>.>.>.Q ! y.y.y.y.y.y.L L p.p.P P f.d.d.d.d.d.d.d.d.p.d.d.d.p.) ) W ! a.a.p.d.p.p.d.d.d.p.d.d.p.p.d.d.p.d.d.p.g.W W N.g.N.W p.M.N.N.N.N.N.{.y ,.MXmXzXzXzX+X+X'.7XgXqXqXiX$XF F 1XwXqXqXpXgX> , , n n n ,XFX%.- ; n M b |.kXeX!.c.v.b.4.~.:X5.:XwX,X~.wXaX_ @ # # @ ~ R.X . X   2 /.",
"%.5.9.0.z.z.z.z.z.z.z.z.z.z.z.c.k.8.c.z.z.z.z.z.z.z.z.z.0 *.9.8.0 j *.*.*.*.*.*.=.*.*.2.*.*.2.2.*.*.2.*.=.2.*.f o.s 0 f j =.*.*.*.*.*.*.*.2.=.K ;.;.;.&.;.;.K &.&.&.&.&.&.&.&.-.d a >.:.:.:.:.:.:.:.:.:.:.:.T Y K U T R T :.:.:.:.:.:.>.Y :.:.:.:.! ( y.y.y.y.y.y.( r y.y.y.r p.p.p.p.p.p.p.p.p.p.p.p.p.a.) ) W ! a.a.p.p.p.p.p.p.p.p.p.p.p.p.p.p.p.p.p.p.d.) W g.d.g.) W M.N.N.N.N.N.{.y T MXzX7X7XlX+X|.'.7XgXqXqXiX$XF F 1XwXqXqXpXgX> , , n n n ,XFX%.- ; n M b |.hXgX0.1.X.n.4.3X5.Q.X.n.X.5.eXaX[ # c A @ ~ R.X . X . 2 /.",
"%.q.0.c.v.v.v.v.v.v.v.v.v.v.v.b.c.c.b.v.v.v.v.v.v.v.n.*.0 c.0.*.0 9.*.2.6.6.6.2.*.6.6.6.2.2.6.6.2.2.6.2.*.6.2.o.1.f p =.=.*.2.2.2.2.6.6.6.r.T P ;.;.;.;.;.T U ;.-.-.-.-.-.-.&.-.-.a >.u.>.:.>.>.>.>.>.:.>.:.:.&.I U T T :.u.>.>.u.>.>.u.Y :.u.>.y.! y.y.y.y.y.y.y.y.I Y s.p.I T f.d.f.f.f.f.f.f.p.f.f.f.p.a.) W Q a.a.p.f.p.d.f.f.f.p.f.f.d.p.f.f.p.f.f.p.f.f.E g.g.g.f.W M.M.M.M.M.M.{.Y ,.NXnXmXzXxXlXlX'.7XgXqXqXiX$XF F 1XwXqXqXpXgX> , , n n n ,XFX%.- ; n M b |.hXeXb.n.8.3Xz.5Xv.5.8.o.o.v.wXaX_ @ @ @ @ ~ R.X   .   2 /.",
"%.q.0.c.v.v.v.v.v.v.v.b.b.v.v.v.c.c.v.v.v.v.v.v.v.c.n.g *.c.c.g j 6.*.2.2.2.2.2.*.2.2.2.2.2.6.6.2.2.6.2.*.6.1.o.$.f p j =.*.2.6.6.6.2.2.2.2.K ;.;.;.;.;.;.U T -.-.-.-.-.-.-.&.-.-.d ..u.>.:.>.>.>.>.>.>.u.:.:.&.I U T T :.>.:.>.>.:.:.u.Y >.u.>.! ( y.y.y.y.y.y.y.y.T r p.p.y.I f.f.d.f.f.f.f.f.p.f.f.d.p.a.) W Q a.p.p.f.p.d.f.f.d.p.f.f.d.p.f.f.p.f.f.p.d.f.K a.N.g.N.W g.M.M.M.M.N.{.Y R MXbXzXzXxXlX+X'.7XgXqXqXiX$XF F 1XwXqXqXpXgX> , , n n n ,XFX%.- ; n M b |.kXwX5XwX5XwX5XwXwX^.wX:X4X3XqXaX[ A A A c ~ R.2 2 2 2 2 /.",
"%.q.0.c.v.v.v.v.v.b.k.4.5.c.v.v.c.c.v.v.v.v.v.v.v.b.9.0 4.1.=.0 6.2.*.2.2.2.2.2.*.2.2.2.2.*.o.=.=.2.6.2.*.6.1.o.1.f p j =.*.2.=.o.=.2.6.r.T I ;.;.;.;.=.T U ;.-.-...&.&.-.-.&.-.-.-.a >.>.:.>.>.>.>.:.Y Y :.:.&.I U T T :.>.:.>.>.:.:.u.Y Y ,.y.! y.y.y.y.y.y.y.y.y.y.I T p.y.r P f.f.f.f.f.f.f.p.f.f.f.p.a.) W ! Q y.p.d.p.d.f.f.d.p.f.f.d.p.f.f.y.y.y.p.f.d.W W N.g.N.) ) M.N.M.M.N.{.Y T MXbXzXzXxXlX+X'.7XgXqXqXiX$XF F 1XwXqXqXpXgX> , , n n n ,XFX%.- ; n M b |.kXqXqXqXwXqXwXqXqXeXqXwXwXwXqXwX1X*X*X*X*X1X4XR.R.R.R.R.5X",
"%.q.0.c.v.v.v.v.v.b.O.5.X.4.b.v.c.c.v.v.v.v.v.v.c.n.g d O.8.0 k 6.2.*.2.2.2.2.2.*.2.2.2.6.d =.=.d 2.2.2.*.6.1.o.1.f p j =.*.2.d 2.d =.6.2.K -.;.;.;.;.*.K T -.-...L L r -.-.&.-.-.-.a ..u.:.>.>.>.u.Y T L Y :.&.I U T T :.>.:.>.>.:.:.u.L T r ! ( y.y.y.y.y.y.y.y.y.y.T r y.P y.r f.d.f.f.f.f.f.p.f.f.f.p.a.) W ! P P d.d.p.d.f.f.d.p.f.f.d.p.f.d.P a.I y.f.p.( W g.g.N.p.W M.N.M.M.N.{.Y R MXbXzXzXxXlX+X'.7XgXqXqXiX$XF F 1XwXqXqXpXgX> , , n n n ,XFX%.- ; n M b |.kXgXgXgXgXgXgXgXgXgXgXgXgXgXgXgXgXhXhXhXhXhXgXSXSXSXSXSXgX",
"%.q.0.z.v.v.v.v.v.b.4.4.O.9.b.v.c.c.v.v.v.v.v.v.b.0.0 5.X.2.0 6.2.2.*.2.2.2.2.2.*.2.2.2.2.f f d f 2.2.2.*.6.1.o.$.f p j =.*.2.f =.d =.6.&.U ;.;.;.;.;.&.K ;.-.-.&.r L r -.-.&.-.-.-.&.a >.:.>.>.>.u.Y Y Y Y :.&.I U T T :.>.:.>.>.:.:.u.L Y P ! y.y.y.y.y.y.y.y.y.y.y.y.r T P y.r y.f.d.f.f.f.f.p.f.f.d.p.a.) W ! P Q p.d.p.d.f.f.d.p.f.f.d.p.f.f.P y.P y.f.p.y.W a.N.g.g.W N.M.M.M.N.{.Y R MXbXzXzXxXlX+X'.7XgXqXqXiX$XF F 1XwXqXqXpXgX> , , n n n ,XFX%.- ; n M b |.kXeXeXeXwXeXgXhXaXeXwXeXeXeXwXwXeXwXwXwXwXwXeXwXwXwXwXwXeX",
"$.p a 8.b.v.v.v.v.v.v.c.v.v.v.b.c.c.b.v.v.v.v.v.B.k j 8.c.g g 9.2.6.*.2.6.6.2.6.*.2.6.6.2.2.2.2.*.2.6.2.*.6.2.o.1.f p j =.*.2.6.2.2.6.6.U -.;.;.;.;.;.U T ;.-.-.-.-.-.-.-.-.&.-.-.-.-.a ..>.>.>.>.>.>.:.>.>.:.&.I U T T :.>.>.>.u.>.:.u.Y ,.Q Q y.y.y.y.y.y.y.y.y.y.y.y.T I p.p.T L f.d.f.f.f.f.p.f.f.f.s.a.) W ! a.a.p.f.p.d.f.f.f.p.f.f.d.p.f.f.p.p.f.p.f.d.y.) W N.g.N.W d.M.M.M.N.{.Y R MXbXzXzXxXlX+X'.7XgXqXqXiX$XF F 1XwXqXqXpXgX> , , n n n ,XFX%.- ; n M b |.kXqXqXqXiXqX#X[.$XiXiXqXqXqXwXeX5X5XqX5XqXwXqX5XqXwXqX5XqX",
"s % % o.b.c.v.v.v.v.v.5.9.c.4.8.z.4.5.4.c.9.4.c.5.0 9.*.1.0 =.*.f *.=.o.f =.2.f =.2.f =.*.o.=.o.2.=.f 2.=.=.f f f p p f d =.=.=.=.=.3.L K =.......=.&.K &...L &.....L &.&.L &.&...L &...p :.:.Y -.:.T -.Y :.Y Y K K R R T :.Y :.:.Y :.:.Y T ! y.P T y.P P P y.T P y.T P y.r T ( y.r T p.p.y.y.y.p.y.y.p.( ( ) W ! Q a.y.y.p.y.y.y.p.p.y.p.p.y.p.p.y.y.y.p.y.y.p.y.E y.g.h.W ) M.N.M.N.{.T R MXbXzXzXzXlX+X'.7XgXqXqXiX$XF F 1XwXqXqXpXgX> , , n n n ,XFX%.- ; n M b |.kXwXqXiX#XE ~ ^ ~ / $XiXqXwX:XS.wXeXwXpXqX4X4XeX5X3XwXeXwX",
"%.#.4.8.n.b.b.b.b.b.b.#.4.z.o.4.k.#.#.o.k.4.o.v.g 0 8.*.g 0 1.=.d =.=.f d f 1.d f 1.d o.*.f f d 1.f d 1.f f d f f p p d g =.=.f f f 3.K L =.d d d =.I I &.L L &.L ..r &.&.r &...L r L -.p ..:.Y T :.Y Y Y :.Y r K K R I T :.Y :.-.Y :.-.&.P ! :.P P -.P P P :.P P y.P P y.I r P y.Y r p.y.y.Q y.p.Q y.p.Q ( ( W ! Q a.y.Q p.y.y.Q y.p.P p.a.Q p.y.y.y.y.p.Q y.p.y.E Q g.h.P W {.M.M.M.$X,.R NXMXbXbXbXlXlX'.7XgXqXqXiX$XF F 1XwXqXqXpXgX> , , n n n ,XFX%.- ; n M b |.kXqXiX#XF @XgXhXdX[.F 2XwXpX5.s 8.8.v.8.8.O.8.n.z.O.5.b.,X",
"$.#.4.4.4.4.4.4.4.4.4.o.4.z.#.5.k.4.4.#.k.4.#.z.0 f 9.*.0 d *.=.d =.=.f f f 1.f o.1.d =.*.f o.f 1.f f 1.f f d f f p p d g =.=.o.f f ;.K O.=.d d d &.K L &.L L &.L ..r &.&.r &.&.L L L -.r a >.Y -.:.Y Y Y :.Y r K K R I T :.Y :.:.Y :.-.Y ! P :.P P -.P P P y.P P y.P P y.P r P y.y.r y.a.y.y.y.p.y.y.p.Q ( ( W ! Q a.y.y.p.y.y.Q a.p.Q p.p.Q p.y.y.y.y.p.y.y.p.y.W W g.y.y.W h.h.h.h.h.Y y +X{.{.{.|.|.|.].tXgXqXqXiX$XF F 1XwXqXqXpXgX> , , n n n ,XFX%.- ; n M b |.kXwXwXE @XJXgXgXhXJX) ^ iXeX8.X.s f s : c.4.4.s 1.o.8.s wX",
"$.4.5.8.8.8.8.8.8.8.8.#.4.c.#.5.z.1.1.#.z.4.4.=.0 o.8.d 0 f =.=.d *.=.f f o.2.f o.2.d =.*.f o.d 2.o.f 2.o.f d f f p p d g =.=.f f f I I O.;.d d d I K d &.L L &.L ..r &.&.r &.&.L L ..&.L : -.Y -.:.Y Y Y :.Y r K K R I T :.Y :.:.Y :.,.P ! T y.P P y.P P P y.P P y.P P y.T I I y.y.r T p.y.y.y.p.y.y.p.Q ( ) W ! Q a.y.y.p.y.y.Q p.p.Q p.p.Q p.y.y.y.y.p.y.y.p.y.( E g.h.y.W a.V.g.g.N.Y y xX7X7X7X7X|.|.'.tXgXqXqXiX$XF F 1XwXqXqXpXgX> , , n n n ,XFX%.- ; n M b |.hXiX$X~ dXgXgXgXeXSX9X~ 1XwX,X,X~.~.Q.^.Q.Q.:X^.:X:X8.c.pX",
"%.q.z.v.b.b.b.b.b.b.b.1.4.8.+.4.9.#.4.#.8.4.4.0 d o.5.0 d f =.=.d =.o.f f f =.d f =.d f =.f o.d =.f f =.f f d f f p 0 d g f f o.f d K d ..&.d d d K L L &.L L &.L ..r ....r ....L L L ..L r a Y Y -.Y Y Y T Y r K K R I T T Y -.-.Y -.Y ! P P T P P T P P P T P P T P P T P P r y.y.P r y.y.y.y.a.Q y.y.Q Q ( W ! Q y.Q ( a.y.y.Q y.y.Q y.y.Q y.y.y.y.y.y.Q y.y.y.y.E a.h.y.( ) {.M.M.{.>.y NXnXmXbXxXlXlX'.7XgXqXqXiX$XF F 1XwXqXqXpXgX> , , n n n ,XFX%.- ; n M b |.hXiX#X~ gXgXgXgXa : >XE 2XiXwXwXeXwXwXpXeXeXwXpXgXgX4XwXwX",
"%.q.0.c.v.v.v.v.v.v.v.#.+.#.o.#.#.o.1.o.1.#.d 0 O.O.d 0 =.d f d d f d f d f f d f f d f d f o.d f d d f d f d f s p 0 g g d d O.f I I d d d d d I K d r L r r L r ..r L r r L r L L L L r L : L Y Y Y Y Y Y L r t K R I Y Y Y Y Y Y Y P ! P P P P P P P P P P P P P P P P P T r I P P r I y.Q Q y.Q y.Q P Q W W ! Q Q Q Q y.Q y.Q y.Q Q y.Q Q y.Q y.y.Q y.Q y.y.Q y.W W y.y.y.W M.M.N.{.:.y MXbXzXzXxXlX+X'.7XgXqXqXiX$XF F 1XwXqXqXpXgX> , , n n n ,XFX%.- ; n M b |.kXwX2XF rXhXgXgXwX6XM.$ 4XwXwX8.8.5X5.4.5.#.n.,Xv.S.:X!.wX",
"%.q.0.c.v.v.v.v.v.v.v.4.4.4.4.4.4.4.4.4.4.5.0 f o.1.0 g =.f o.f f =.f o.f f o.f f f f f f f =.f o.f f o.f =.f f f p 0 d d f f =.O.K ..d ........K L ..L ..L L ..L ..L ..L L ..L L L L ..L L a r T Y Y -.Y Y Y r t K R R Y Y Y Y Y Y Y ! P P P P P P P P P P P P P T P P P P T P r ( T T r y.y.y.y.y.y.y.( Q W W ! Q Q Q y.y.y.y.y.y.y.y.y.y.y.y.y.y.y.y.y.y.y.y.y.y.Q E y.y.d.W g.M.M.{.>.y MXbXzXzXzXlX+X'.7XgXqXqXiX$XF F 1XwXqXqXpXgX> , , n n n ,XFX%.- ; n M b |.kXqXiX^ _ SXgXgXAXDX$ I hXqX4X9.4.3X8.4.O.X.v.c.s o.1.4.wX",
"%.q.0.c.v.v.v.v.v.v.v.v.v.v.v.v.c.c.n.b.n.6.0 c.0.2.0 2.6.6.6.2.2.6.*.2.6.2.2.2.*.6.6.6.2.2.6.6.2.2.6.2.*.6.1.o.1.f p =.=.2.6.r.T R ;.;.;.;.;.T U ;.-.&.-.-.-.-.-.-.-.-.-.-.-.-.-.-.-.-.-.&.-.a >.u.>.>.u.>.:.&.I U T T :.>.>.>.u.>.y.! P y.y.y.y.y.y.y.y.y.y.y.y.y.y.y.y.y.y.p.I T p.s.I y.f.f.p.f.f.f.p.a.) W Q a.a.p.f.p.f.f.f.f.p.f.f.d.p.f.f.p.f.f.p.f.d.( f.f.g.E f.g.N._ p.M.N.{.>.y MXbXzXxXbXlXlX'.7XgXqXqXiX$XF F 1XwXqXqXpXgX> , , n n n ,XFX%.- ; n M b |.kXqXwX1XF [.hXeXDXI $ qXwXqXeXc.8.c.#.v.8.9.S.~.n.S.n.8.wX",
"$.5.0.c.v.v.v.v.v.v.v.v.v.v.v.v.c.k.5.4.v.g j c.c.g k 2.o.o.=.6.2.2.*.2.2.2.2.2.*.o.=.=.2.*.6.2.2.2.6.2.*.6.1.o.$.f 0 d d f =.6.K -.;.;.;.;.;.U T -.-.&.........&.-.-.-.-.-...........-.-.&.-.a ..u.>.-.-.&.Y Y U U T T :.>.:.>.u.>.! ( T P T y.y.y.y.y.y.y.y.y.y.y.y.y.y.y.T P P r p.p.T I f.d.p.y.y.f.p.a.) W ! a.a.p.d.p.y.y.f.d.p.f.f.d.p.f.f.p.d.f.p.f.d.Q y.y.h._ ) N.N.) ) M.N.{.u.y MXbXbX7X{.|.|.'.7XgXqXqXiX$XF F 1XwXqXqXpXgX> , , n n n ,XFX%.- ; n M b |.kXwXqXiX1X2XwXqXwX$X1XiXqXwXqXwXeXwXwXwXeXeXwXwXwXwXwXeXwX",
": p s 9.b.v.v.v.v.v.v.v.v.v.v.v.c.c.f a f g 0.w.6.0 6.2.p % a 2.2.2.*.2.2.2.2.6.=.0 p a 2.*.6.6.2.2.6.2.*.6.1.o.$.f 0 % 0 % s -.U ;.;.;.;.;.-.K ;.-.-.&.&.& r % r -.-.-.-.-.&.% r % r -.-.&.-.&.a >.u.L r r % r I U T T :.>.:.>.>.y.! y.P I r I y.y.y.y.y.y.y.y.y.y.y.y.y.y.y.r & r y.p.p.I y.f.d.y.& L s.a.) W Q a.a.p.d.p.L r L f.p.f.f.d.p.f.f.p.d.f.p.f.d.Q L L & I W N.g.f.W M.N.{.u.y MXbXmX7X+.+.@.t.tXgXqXqXiX$XF F 1XwXqXqXpXgX> , , n n n ,XFX%.- ; n M b |.kXwXqXqXwXwXqXqXqXeXwXqXwXqXwXqXqXqXqXqXqXqXqXqXqXqXqXqXqX",
"s s p 0.b.v.v.v.v.v.v.v.v.v.v.v.v.9.a X.0 j c.c.k g w.*.d 0 d 6.2.6.2.2.6.6.6.6.*.a 0 d 6.2.6.6.2.2.6.2.2.6.2.o.1.f 0 p 0 % f U -.;.;.;.;.6.U T ;.-.-.-.r r r r r -.-.-.-.-...r r r r -.-.&.-.-.a &.u.-.r r r r I U T T :.u.>.>.>.Q Q y.P P r r y.y.y.y.y.y.y.y.y.y.y.y.y.y.P r r r L d.p.T L [.p.y.r r s.a.) W Q a.p.p.f.d.-.& L f.p.f.f.d.p.f.f.p.f.f.p.f.d.y.-.L r I W g.g.g.W N.M.{.u.y MXmXnXB.7.7.@.t.tXgXqXqXiX$XF F 1XwXqXqXpXgX> , , n n n ,XFX%.- ; n M b |.kXwXqXwXqXwXaXaXaXwXqXwXqXwXwXwXqXwXqXqXqXwXqXqXqXwXqXwXwX",
"%.5.4.z.c.c.c.c.c.c.c.c.c.c.c.c.z.8.k.9.0 9.8.6.0 *.2.=.=.*.*.2.*.2.=.*.2.*.*.*.=.=.*.*.*.=.2.2.=.*.2.*.=.2.=.f f g 0 f f =.L K *.;.;.;.;.&.K &.&.&.&.&.....&.&.&.&.&.&.&.&...&.&.&.&.&.&.&.&.&...p :.-.:.-.Y Y t K R R T :.:.,.:.! T ( I T ( ( ( ( ( ( ( ( ( ( ( ( ( ( ( ( T T ( ( r ( a.a.r y.p.y.p.p.a.) ) W ! a.a.a.p.p.y.p.p.p.a.s.s.p.a.s.s.a.p.s.a.s.p.Q d.p.p.f.E ) g.g.W p.M.|.u.t MXnXxX7X7X+X+X'.7XgXqXqXiX$XG F 1XwXqXqXpXgX> , , n n n ,XFX%.- ; n M b |.kXwXqXqXiX1X[.) [.0XiXqXwXqXwXwXwXqXeXeXeXqXwXeXwXqXwXwXwX",
"n.n.S.S.S.S.S.S.S.S.S.S.S.S.S.Q.S.S.!.e.6.n.n.w.2.n.m.m.m.m.m.m.m.m.m.m.m.m.m.m.m.m.m.m.m.m.m.m.m.m.m.m.m.m.m.c.m.0.w.c.m.m.u.i.m.V.m.V.m.i.u.V.V.V.V.V.V.V.V.V.V.V.V.V.V.V.V.V.V.V.V.V.V.V.V.V.V.4.V.Y.Y.Y.V.V.i.i.i.i.V.Y.V.Y.g.d.V.N.i.N.N.N.N.N.N.N.N.N.N.N.N.N.N.N.N.N.N.N.N.N.i.i.M.M.i.i.{.{.M.M.M.N.N.g.N.M.M.M.M.M.{.M.M.M.M.M.M.M.M.M.M.M.M.M.M.M.M.N.M.M.M.Y.g.g.$X$Xg.N.$X$XM.<.mXrXtXrXtXzXtXXXwXgXqXqXwX2XE / 1XwXqXqXpXgX> , , n n n >XFX%.- ; n M b |.kXwXqXiX[.F ^ _ / F #XiXqXwXwXqXqXwXQ.b.n.eXQ.8.,XwXqXwXwX",
"gXgXgXgXgXgXgXgXgXgXgXgXgXgXgXgXgXgXgXgXSXgXgXAXSXgXgXgXgXgXgXgXgXgXgXgXgXgXgXgXgXgXgXgXgXgXgXgXgXgXgXgXgXgXgXAXAXAXSXAXAXgXhXhXgXhXhXhXgXhXhXhXhXhXhXhXhXhXhXhXhXhXhXhXhXAXhXhXhXhXhXhXhXhXhXhXhXAXhXhXhXhXhXhXSXhXhXhXhXhXhXhXhXhXhXhXSXhXhXhXhXhXhXhXhXhXhXhXhXhXhXhXhXhXhXhXhXhXSXhXhXhXSXhXhXhXhXhXhXhXhXhXhXhXhXhXhXhXhXhXhXhXhXhXhXhXhXhXhXhXhXhXhXhXhXhXhXhXhXhXhXhXhXhXhXhXgXgXhXSXgXgXgXgXgXgXgXjXgXeXqXwXwXwXwXwXwXwXwXqXpXgXh , : @.n n ,XDX%.- ; n M b |.kXqXiX[.F =XSXJXHX%Xv M.pXqXwXqXqXeX5.8.s 8.#.a 9.pX5XqXwX",
"qXqXqXwXwXwXqXwXwXwXwXwXwXwXwXwXwXqXwXwXqXwXwXwXqXwXwXwXwXwXwXwXqXqXwXwXwXwXqXqXqXqXqXqXwXwXwXwXwXwXqXwXwXwXqXqXwXwXqXwXwXqXqXqXwXwXwXwXwXqXqXqXqXwXwXqXwXqX5X5X5X5X5X5X5X5X5X5X5X5XqXwXwXqXqXqXqXqXwXwXwXwXwXwXqXqXrXrXrXrXwXqXqXqXqXqXqXqXqXwXwXwXwXwXwXwXwXwXwXwXwXwXwXwXwXqX5XqX5X5XqXqX5X5XqXqXqXqXqXqXeXgXqX5X4X4X4X4X4X4X4X4X4X4X4X4X4X4X4X4X4X4X4X4X4X4X4X4X4X4X4X4X4X4X4X4X4X4X4X4X4X4X4X4X4X4X5XqXgXeXqXwX4.S.!.4.5.c.eX5XpXpX4X5X0X0X0X0XwXgX5X5X5X0X0X0XqXgXwXqXF #XJXgXAX8.q.y.$ iXqXqXwXqXwXQ.s c.#.4.0.c.eX5XwXwX",
"wXwXeXwXqXqXeXqXqXqXeXgXgXgXgXgXgXgXgXgXgXgXgXgXgXgXgXgXgXgXpXgXAXgXgXwXqXqXwXeXwXeXwXwX5XqXqXqXqXqXwXqXwXgXgXgXgXgXgXgXgXgXgXAXgXgXgXgXgXpXgXAXgXgXqXqXqX:X,X3X,X3X3X,X,X,X,X3X,X,X:X5XqXwXeXwXeXwXqXqXqXqXqXwX8XG A D D A G 9Xw 6 6 6 6 6 E.pX5XqXqXqXqXqXqXqXqXqXqXqXqXwX5X:X,X,X,X,X3X3X,X,X3X,X,X,X,X,XeXgXwX,X,X3X3X3X3X3X3X3X3X3X3X3X3X3X3X3X4X4X5X4X4X4X4X4X3X3X3X3X3X3X3X3X3X3X3X3X3X3X3X3X3X3X:XqXgXeXwX:X4.z.v.o.f 8.5XqXpXpXwX`.`.`.`.`.eXgXeX<XG.G.<XJ.5XgXiX$X~ gXgXAX3X: 3X8X$ >XwXqXqXwXwX^.3X4X4X3X4X,XwXwXqXwX",
"^.3X^.5XeXeXS.wXeXqXeXgXgXpXDXSXAXwXDXDXSXDXAXgXgXgXgXgXgXgXgXSX:X5XAXwXqXwX:X!.:Xn.3XQ.gXwXeXwXeXqX3XqXwXgXwXgXAXDX5XAXgXqXwX4XpXgXgXgXgXgXAX^.eXgXqXwXqX,XwX4X5X4X4X5XqXwX5X3XqXqX,X5XwX:XS.:XS.5XeXeXwXwXqXwX9XA @ @ @ @ c 9X6   . .   X P.aX5XwXwXwXwXwXwXwXwXwXwXwXqXwX5X,XwXqX5XwX4X4XwX5X4XwXqX5X5X,XeXgXwX3X5XwXwXwXwXwXwXwXwXwXwXwXwXwXwXwX3X4X!.,X4X3X,X4XwXwXwXwXwXwXwXwXwXwXwXwXwXwXwXwXwXwX,XqXgXeXqXwX5.0.v.4.5.c.eX5XpXpX6X`.).`.x `.eXgX4X(.H.K.G.Z.4XgXiX#X~ gXgXgXgXgXDX0X$ >XiXqXwX4X3XpX4XqX3XeXeX3X,X5XwXqX",
"4.1.s 5.z.z.X.5.5.:XAX#.S.#.Q.:Xb.9.!.S.!.b.3XAXgXgXgXgXgXgXgXAXf 0.DXqX5XpX0.5.5.:X^.f v.8.v.8.z.5.O.Q.pX~.s b.Q.S.8.:X4XX.0.o.wXgXgXgXgXgXpXp Q.SXqXwXqX3X4X3.0.8.5.:Xn.e.9.c.0.4X3X4XgXz.#.v.f #.5.#.0.5.3XwX9XA # c c @ A 9X5   X X . X E.pX5XwXwXwXwXwXwXwXwXwXwXwXqXwX5X4X~.0.0.Q.9.~.Q.~.1.e.9.m.wX,XeXgXwX,X5XwXqXqXqXqXqXqXqXqXqXqXqXqXwX4Xm.,X9.$.m.3.5.eXwXwXqXqXqXqXqXqXqXqXqXqXqXqXqXqXqXqX,XqXgXeXqXwXwXwXeXgXpXwXwXqXpXpX5X6XqX6X6X).eXgX5X5X4X<X4X<XwXgXiX1XF 9XSXgXgXgXJXN.$ qXwXqXeX8.5.^.#.#.4.4Xc.X.X.8.eXqX",
"b.a X.o.#.o.o.a 4.,XgX4.f s 5.o.4.X.s f n.1.v.DXgXgXgXgXgXgXgXgXo.0.DXwXqXwX:XX.O.,X:XO.X.1.X.#.4.X.#.~.gXn.8.b.X.0.p 0.5Xa c.b.gXgXgXgXgXgXeXs S.SXqXwXqX3X,X0.n.3.9.!.c.$.0.e.4.4X3X4XgXc.c.4.#.1.s s Q.#.S.iX9XA # A c @ A 9X4   X X . X E.pX5XwXwXwXwXwXwXwXwXwXwXwXqXwX5X4X:X$.5.n.S.m.n.b.0.$.f c.wX,XeXgXwX,X5XwXqXqXqXqXqXqXqXqXqXqXqXqXwX5X0.Q.0.c.$.9.5.^.~.,XwXqXqXqXqXqXqXqXqXqXqXqXqXqXwXqX,XqXgXeXqXqXwXwXn.b.Q.wXqXqXpXpX0X).6X6X).6XeXgXwX6X).).6X).wXgXwXiX_ ^ gXgXgXhX0X$ P hX5XqXwX8.5.c.5.s 8.n.#.O.s 4.eXqX",
"3X:X,X~.^.:X!.:X~.,XpX:XS.:Xn.^.n.Q.Q.~.5X,X3XgXgXgXgXgXgXgXpXDXm.~.SXwXqXwX^.~.:XS.wXn.3XQ.3XQ.:X!.!.~.eX3XeX5X!.3XQ.^.wXc.^.:XgXgXgXgXgXgXAX0.4XAXqXwXqX,X5X5XqX4X^.3X5X,X3X^.4X5X3X5XwX3XqX,X:X~.^.:X4XQ.3XwX9XA @ # @ @ A 9X4   . .   X E.pX5XwXwXwXwXwXwXwXwXwXwXwXqXwX5X3XwX,X,X4X,X3X:X!.,X4X,X4X5X,XeXgXwX3X5XwXwXwXwXwXwXwXwXwXwXwXwXwXwXwX~.Q.^.5X,X4X3X^.:X3XwXwXwXwXwXwXwXwXwXwXwXwXwXwXwXwX,XqXgXeXqXwXwX8.X.f o.wXwXqXpXpX6X`.`.`.`.`.eXgX5X`.`.`.`.`.6XAXwXwXqX/ [.hXeXhXI v iXwXqXqXeXQ.z.!.c.n.c.qXc.b.0.n.wXqX",
"wXeXwXeXeXeXeXwXeXwXeXSXDXSXDXSXDXDXSXAXAXAXAXgXgXgXgXgXgXgXgXgXDXSXgXwXqXqXwXeXwXeXwXpXwXeXwXeXwXeXeXeXwXAXgXgXSXAXDXSXgXDXSXAXgXgXgXgXgXgXgXDXAXgXwXwXwX:X3X3X3X4X4X4X4X4X4X4X4X4X:X5XwXwXwXwXwXeXeXeXwXeXwXwX8XD c c c c A 9X5 X 2 2 X 2 P.pX5XwXwXwXwXwXwXwXwXwXwXwXwXwX5X:X4X4X4X4X4X4X4X5X4X4X4X4X3X:XeXgXwX,X3X5X4X4X4X4X4X4X4X4X4X4X4X4X4X4XwXwXqX5XqX5X5XqXqX5X4X4X4X4X4X4X4X4X4X4X4X4X4X4X4X4X:XqXgXeXqXwX5X#.#.X.o.5XwXqXpXpX6X`.`.`.).).eXgX5X6X).`.).`.wXgXwXqXwXqX4XwXqXwX1XqXwXqXwXwXqXeXpXeXeXeXeXwXeXeXeXeXqXwX",
"qX5X5X5X5X5X5X5X5X5XqXwXqXqXqXqXqXqXqXqXwXwXwXwXwXwXwXwXwXwXwXwXqXwXwXqXqXqX5X5X5X5XqX5X5X5X5X5X5X5X5X5XqXwXwXwXqXwXqXqXwXqXqXwXwXwXwXwXwXwXwXqXwXwXqXqXqX4X4X4X4X4X4X4X4X4X4X4X4X4X4XqXqX5XqX5X5X5X5X5XqX5XqXqX5X$X*X*X*X*X$X0XR.E.E.E.E.E.3XwXqXqXqXqXqXqXqXqXqXqXqXqXqXqXqX4X4X4X4X4X4X4X4X4X4X4X4X4X4X4XwXgXqX4X,X3X,X,X,X,X,X,X,X,X,X,X,X,X,X,X,X,X,X,X,X,X,X,X,X,X,X,X,X,X,X,X,X,X,X,X,X,X,X,X3X,X4X5XpXeX5XqXwX^.~.~.^.wXqX5XeXpXqXwXqXqXqXqXwXgXqXqXqXwXqXqXwXgXwXqXqXqXwXqXqXqXwXqX5XqXqXqXqX5X5X5X5X5X5XqX5X5X5X5XqXqX",
"gXgXgXgXgXgXgXgXgXgXgXgXgXgXgXgXgXgXgXgXgXgXgXgXgXgXgXgXgXgXgXgXgXgXgXgXgXgXgXgXgXgXgXgXgXgXgXgXgXgXgXgXgXgXgXgXgXgXgXgXgXgXgXgXgXgXgXgXgXgXgXgXgXgXgXgXgXgXgXgXgXgXgXgXgXgXgXgXgXgXgXgXgXgXgXgXgXgXgXgXgXgXgXgXgXhXhXhXhXhXhXgXSXSXSXSXSXSXgXgXgXgXgXgXgXgXgXgXgXgXgXgXgXgXgXgXgXgXgXgXgXgXgXgXgXgXgXgXgXgXgXgXgXgXgXgXgXgXgXgXgXgXgXgXgXgXgXgXgXgXgXgXgXgXgXgXgXgXgXgXgXgXgXgXgXgXgXgXgXgXgXgXgXgXgXgXgXgXgXgXgXgXgXAXAXAXAXgXgXgXgXgXgXgXgXgXgXgXgXgXgXgXgXgXgXgXgXgXgXgXgXgXgXgXgXgXgXgXgXgXgXgXgXgXgXgXgXgXgXgXgXgXgXgXgXgX",
"3X5X3X3X4X4X3X3X3X3X3X4X3X4X3X3X3X3X3X3X3X3X3X3X3X3X3X3X3X3X3X3X3X3X3X3X3X3X3X3X3X3X3X3X3X3X3X3X3X3X3X3X3X3X3X3X3X3X3X3X3X3X3X3X3X3X3X3X3X3X3X3X3X3X3X3X3X3X3X3X3X3X3X3X3X3X3X3X3X3X3X3X3X3X3X3X3X3X3X3X3X3X3X3X3X3X3X3X3X3X3X3X3X3X3X3X3X3X3X3X3X3X3X3X3X3X3X3X3X3X3X3X3X3X3X3X3X3X3X3X3X3X3X3X3X3X3X3X3X3X3X3X3X3X3X3X3X3X3X3X3X3X3X3X3X3X3X3X3X3X3X3X3X3X3X3X3X3X3X3X3X3X3X3X3X3X3X3X3X3X3X3X3X3X3X3X3X3X3X3X3X3X3X3X3X3X3X3X3X3X3X3X3X3X3X3X3X3X3X3X3X3X3X3X3X3X3X3X3X3X3X3X3X3X3X3X3X3X3X3X3X3X3X3X3X3X3X3X3X3X3X3X3X3X3X3X",
"!.8.Q.!.S.n.~.^.^.^.!.S.!.n.!.!.!.!.!.!.!.!.!.!.!.!.!.!.!.!.!.!.!.!.!.!.!.!.!.!.!.!.!.!.!.!.!.!.!.!.!.!.!.!.!.!.!.!.!.!.!.!.!.!.!.!.!.!.!.!.!.!.!.!.!.!.!.!.!.!.!.!.!.!.!.!.!.!.!.!.!.!.!.!.!.!.!.!.!.!.!.!.!.!.!.!.!.!.!.!.!.!.!.!.!.!.!.!.!.!.!.!.!.!.!.!.!.!.!.!.!.!.!.!.!.!.!.!.!.!.!.!.!.!.!.!.!.!.!.!.!.!.!.!.!.!.!.!.!.!.!.!.!.!.!.!.!.!.!.!.!.!.!.!.!.!.!.!.!.!.!.!.!.!.!.!.!.!.!.!.!.!.!.!.!.!.!.!.!.!.!.!.!.!.!.!.!.!.!.!.!.!.!.!.!.!.!.!.!.!.!.!.!.!.!.!.!.!.!.!.!.!.!.!.!.!.!.!.!.!.!.!.!.!.!.!.!.!.!.!.!.!.!.!.!.!.",
"n.: m.:X5.o.m.c.8.n.5.8.m.$.^.~.~.~.~.~.~.~.~.~.~.~.~.~.~.~.~.~.~.~.~.~.~.~.~.~.~.~.~.~.~.~.~.~.~.~.~.~.~.~.~.~.~.~.~.~.~.~.~.~.~.~.~.~.~.~.~.~.~.~.~.~.~.~.~.~.~.~.~.~.~.~.~.~.~.~.~.~.~.~.~.~.~.~.~.~.~.~.~.~.~.~.~.~.~.~.~.~.~.~.~.~.~.~.~.~.~.~.~.~.~.~.~.~.~.~.~.~.~.~.~.~.~.~.~.~.~.~.~.~.~.~.~.~.~.~.~.~.~.~.~.~.~.~.~.~.~.~.~.~.~.~.~.~.~.~.~.~.~.~.~.~.~.~.~.~.~.~.~.~.~.~.~.~.~.~.~.~.~.~.~.~.~.~.~.~.~.~.~.~.~.~.~.~.~.~.~.~.~.~.~.~.~.~.~.~.~.~.~.~.~.~.~.~.~.~.~.~.~.~.~.~.~.~.~.~.~.~.~.~.~.~.~.~.~.~.~.~.~.~.~.~.",
"n.p m.:X1.f $.a 1.o.o.9.~.1.n.^.~.~.~.~.~.~.~.~.~.~.~.~.~.~.~.~.~.~.~.~.~.~.~.~.~.~.~.~.~.~.~.~.~.~.~.~.~.~.~.~.~.~.~.~.~.~.~.~.~.~.~.~.~.~.~.~.~.~.~.~.~.~.~.~.~.~.~.~.~.~.~.~.~.~.~.~.~.~.~.~.~.~.~.~.~.~.~.~.~.~.~.~.~.~.~.~.~.~.~.~.~.~.~.~.~.~.~.~.~.~.~.~.~.~.~.~.~.~.~.~.~.~.~.~.~.~.~.~.~.~.~.~.~.~.~.~.~.~.~.~.~.~.~.~.~.~.~.~.~.~.~.~.~.~.~.~.~.~.~.~.~.~.~.~.~.~.~.~.~.~.~.~.~.~.~.~.~.~.~.~.~.~.~.~.~.~.~.~.~.~.~.~.~.~.~.~.~.~.~.~.~.~.~.~.~.~.~.~.~.~.~.~.~.~.~.~.~.~.~.~.~.~.~.~.~.~.~.~.~.~.~.~.~.~.~.~.~.~.~.~.",
"Q.$.Q.^.c.9.9.9.n.b.9.b.S.8.Q.~.!.!.!.!.!.!.!.!.!.!.!.!.!.!.!.!.!.!.!.!.!.!.!.!.!.!.!.!.!.!.!.!.!.!.!.!.!.!.!.!.!.!.!.!.!.!.!.!.!.!.!.!.!.!.!.!.!.!.!.!.!.!.!.!.!.!.!.!.!.!.!.!.!.!.!.!.!.!.!.!.!.!.!.!.!.!.!.!.!.!.!.!.!.!.!.!.!.!.!.!.!.!.!.!.!.!.!.!.!.!.!.!.!.!.!.!.!.!.!.!.!.!.!.!.!.!.!.!.!.!.!.!.!.!.!.!.!.!.!.!.!.!.!.!.!.!.!.!.!.!.!.!.!.!.!.!.!.!.!.!.!.!.!.!.!.!.!.!.!.!.!.!.!.!.!.!.!.!.!.!.!.!.!.!.!.!.!.!.!.!.!.!.!.!.!.!.!.!.!.!.!.!.!.!.!.!.!.!.!.!.!.!.!.!.!.!.!.!.!.!.!.!.!.!.!.!.!.!.!.!.!.!.!.!.!.!.!.!.!.!.",
":X4X:X:X,X,X3X3X:X,X3X:X:X,X:X:X:X:X:X:X:X:X:X:X:X:X:X:X:X:X:X:X:X:X:X:X:X:X:X:X:X:X:X:X:X:X:X:X:X:X:X:X:X:X:X:X:X:X:X:X:X:X:X:X:X:X:X:X:X:X:X:X:X:X:X:X:X:X:X:X:X:X:X:X:X:X:X:X:X:X:X:X:X:X:X:X:X:X:X:X:X:X:X:X:X:X:X:X:X:X:X:X:X:X:X:X:X:X:X:X:X:X:X:X:X:X:X:X:X:X:X:X:X:X:X:X:X:X:X:X:X:X:X:X:X:X:X:X:X:X:X:X:X:X:X:X:X:X:X:X:X:X:X:X:X:X:X:X:X:X:X:X:X:X:X:X:X:X:X:X:X:X:X:X:X:X:X:X:X:X:X:X:X:X:X:X:X:X:X:X:X:X:X:X:X:X:X:X:X:X:X:X:X:X:X:X:X:X:X:X:X:X:X:X:X:X:X:X:X:X:X:X:X:X:X:X:X:X:X:X:X:X:X:X:X:X:X:X:X:X:X:X:X:X:X:X",
"gXeXgXgXpXgXgXgXpXgXgXgXgXgXgXgXgXgXgXgXgXgXgXgXgXgXgXgXgXgXgXgXgXgXgXgXgXgXgXgXgXgXgXgXgXgXgXgXgXgXgXgXgXgXgXgXgXgXgXgXgXgXgXgXgXgXgXgXgXgXgXgXgXgXgXgXgXgXgXgXgXgXgXgXgXgXgXgXgXgXgXgXgXgXgXgXgXgXgXgXgXgXgXgXgXgXgXgXgXgXgXgXgXgXgXgXgXgXgXgXgXgXgXgXgXgXgXgXgXgXgXgXgXgXgXgXgXgXgXgXgXgXgXgXgXgXgXgXgXgXgXgXgXgXgXgXgXgXgXgXgXgXgXgXgXgXgXgXgXgXgXgXgXgXgXgXgXgXgXgXgXgXgXgXgXgXgXgXgXgXgXgXgXgXgXgXgXgXgXgXgXgXgXgXgXgXgXgXgXgXgXgXgXgXgXgXgXgXgXgXgXgXgXgXgXgXgXgXgXgXgXgXgXgXgXgXgXgXgXgXgXgXgXgXgXgXgXgXgXgXgXgXgXgXgXgX",
"^.:X~.~.:X~.~.^.:X~.^.~.~.^.~.~.~.~.~.~.~.~.~.~.~.~.~.~.~.~.~.~.~.~.~.~.~.~.~.~.~.~.~.~.~.~.~.~.~.~.~.~.~.~.~.~.~.~.~.~.~.~.~.~.~.~.~.~.~.~.~.~.~.~.~.~.~.~.~.~.~.~.~.~.~.~.~.~.~.~.~.~.~.~.~.~.~.~.~.~.~.~.~.~.~.~.~.~.~.~.~.~.~.~.~.~.~.~.~.~.~.~.~.~.~.~.~.~.~.~.~.~.~.~.~.~.~.~.~.~.~.~.~.~.~.~.~.~.~.~.~.~.~.~.~.~.~.~.~.~.~.~.~.~.~.~.~.~.~.~.~.~.~.~.~.^.gXwXqXeXpXwXqXqXqXqXqXqXqXwXeXqXgXeXqXwXwXwXwXwXwXwXwXqXwXwXwXwXqXeXwXwXwXwXwXwXwXwXwXwXqXgXeXqXwXwXwXwXwXwXwXwXwXeXwXqXeXqXqXwXwXwXwXwXwXwXwXqXeXgXwXeXwXqXwXqX",
"S.5.n.~.9.!.^.Q.5.!.!.Q.Q.!.~.~.~.~.~.~.~.~.~.~.~.~.~.~.~.~.~.~.~.~.~.~.~.~.~.~.~.~.~.~.~.~.~.~.~.~.~.~.~.~.~.~.~.~.~.~.~.~.~.~.~.~.~.~.~.~.~.~.~.~.~.~.~.~.~.~.~.~.~.~.~.~.~.~.~.~.~.~.~.~.~.~.~.~.~.~.~.~.~.~.~.~.~.~.~.~.~.~.~.~.~.~.~.~.~.~.~.~.~.~.~.~.~.~.~.~.~.~.~.~.~.~.~.~.~.~.~.~.~.~.~.~.~.~.~.~.~.~.~.~.~.~.~.~.~.~.~.~.~.~.~.~.~.~.~.~.~.~.~.~.~.~.gXwXwX:XS.,XeXwXpXeXeXeXpXqX^.wXgXeXqXwXqXqXqXqXqXqXqXwX,X4X,X,XeX~.qXqXqXqXqXqXqXqXqXqXqXgXeXqXqXqXqXqXqXqXqXwX5X~.3XeX~.pXeXqXqXqXqXqXqXqXqXqXwXgX4XQ.qXeX4XpX",
"v.f 4.o.a s s 4.a o.5.s o.s b.^.~.~.~.~.~.~.~.~.~.~.~.~.~.~.~.~.~.~.~.~.~.~.~.~.~.~.~.~.~.~.~.~.~.~.~.~.~.~.~.~.~.~.~.~.~.~.~.~.~.~.~.~.~.~.~.~.~.~.~.~.~.~.~.~.~.~.~.~.~.~.~.~.~.~.~.~.~.~.~.~.~.~.~.~.~.~.~.~.~.~.~.~.~.~.~.~.~.~.~.~.~.~.~.~.~.~.~.~.~.~.~.~.~.~.~.~.~.~.~.~.~.~.~.~.~.~.~.~.~.~.~.~.~.~.~.~.~.~.~.~.~.~.~.~.~.~.~.~.~.~.~.~.~.~.~.~.~.~.~.~.gXeX:X5.b.s ~.b.0.0.c.0.n.#.c.pXpXeXqXwXwXwXwXwXwXwX5XgX5.5.X.8.c.X.wXqXwXwXwXwXwXwXwXwXqXgXeXqXwXwXwXwXwXwX5XpXv.4.S.z.O.0.n.eXqXwXwXwXwXwXwXqXwXgX9.c.^.0.b.5.",
"!.X.a X.s a a o.4.o.p : f #.0.:X!.~.~.~.~.~.~.~.~.~.~.~.~.~.~.~.~.~.~.~.~.~.~.~.~.~.~.~.~.~.~.~.~.~.~.~.~.~.~.~.~.~.~.~.~.~.~.~.~.~.~.~.~.~.~.~.~.~.~.~.~.~.~.~.~.~.~.~.~.~.~.~.~.~.~.~.~.~.~.~.~.~.~.~.~.~.~.~.~.~.~.~.~.~.~.~.~.~.~.~.~.~.~.~.~.~.~.~.~.~.~.~.~.~.~.~.~.~.~.~.~.~.~.~.~.~.~.~.~.~.~.~.~.~.~.~.~.~.~.~.~.~.~.~.~.~.~.~.~.~.~.~.~.~.~.~.~.~.~.~.gXpX~.9.~.1.#.a a 5.X.5.p s z.pXpXeXqXwXwXwXwXwXwXwX5XpXb.a X.s o.#.wXqXwXwXwXwXwXwXwXwXqXgXeXqXwXwXwXwXwXwXqXwX,X#.s #.X.p z.eX5XwXwXwXwXwXwXqXwXgX5.9.f p s 4.",
"Q.b.!.n.n.Q.S.b.n.Q.n.S.Q.Q.Q.~.~.~.~.~.~.~.~.~.~.~.~.~.~.~.~.~.~.~.~.~.~.~.~.~.~.~.~.~.~.~.~.~.~.~.~.~.~.~.~.~.~.~.~.~.~.~.~.~.~.~.~.~.~.~.~.~.~.~.~.~.~.~.~.~.~.~.~.~.~.~.~.~.~.~.~.~.~.~.~.~.~.~.~.~.~.~.~.~.~.~.~.~.~.~.~.~.~.~.~.~.~.~.~.~.~.~.~.~.~.~.~.~.~.~.~.~.~.~.~.~.~.~.~.~.~.~.~.~.~.~.~.~.~.~.~.~.~.~.~.~.~.~.~.~.~.~.~.~.~.~.~.~.~.~.~.~.~.~.!.~.gXwXwXn.n.,XQ.v.!.:X!.:XQ.S.:XwXgXeXqXwXwXwXwXwXwXwXqXwX,XQ.!.~.S.n.wXqXwXwXwXwXwXwXwXwXqXgXeXqXwXwXwXwXwXwXqXwX:Xb.^.n.S.Q.:XwXqXwXwXwXwXwXwXqXwXgX^.c.n.n.Q.:X",
"^.:X^.:X:X^.:X:X:X^.:X:X^.^.^.^.^.^.^.^.^.^.^.^.^.^.^.^.^.^.^.^.^.^.^.^.^.^.^.^.^.^.^.^.^.^.^.^.^.^.^.^.^.^.^.^.^.^.^.^.^.^.^.^.^.^.^.^.^.^.^.^.^.^.^.^.^.^.^.^.^.^.^.^.^.^.^.^.^.^.^.^.^.^.^.^.^.^.^.^.^.^.^.^.^.^.^.^.^.^.^.^.^.^.^.^.^.^.^.^.^.^.^.^.^.^.^.^.^.^.^.^.^.^.^.^.^.^.^.^.^.^.^.^.^.^.^.^.^.^.^.^.^.^.^.^.^.^.^.^.^.^.^.^.^.^.^.^.^.^.^.^.^.^.^.^.gXwX5XeXeXwXeXeXwXwXwXwXeXwXwX5XgXeX5XqXqXqXqXqXqXqXqXqXwXeXwXwXeXeX5XqXqXqXqXqXqXqXqXqX5XgXwX5XqXqXqXqXqXqXqXqXwXeXwXeXeXeXwXqXqXqXqXqXqXqXqX5XwXgXwXpXpXpXeXwX",
"wXwXwXwXwXwXwXwXwXwXwXwXwXwXwXwXwXwXwXwXwXwXwXwXwXwXwXwXwXwXwXwXwXwXwXwXwXwXwXwXwXwXwXwXwXqXwXqXwXwXqXwXwXwXwXwXwXwXwXwXwXwXwXwXwXwXwXwXwXwXwXwXwXwXwXwXwXwXqXwXwXqXwXwXwXwXwXwXwXwXwXwXwXwXwXqXwXwXwXqXwXwXwXwXwXqXwXwXwXwXwXwXwXwXwXwXwXwXwXwXwXwXwXwXwXwXwXwXwXwXwXwXwXwXwXwXwXwXwXwXwXwXwXwXwXwXwXwXwXwXwXwXwXwXwXwXwXwXwXwXwXwXwXwXwXwXwXwXwXwXwXwXwXwXwXwXgXpXeXeXeXeXeXeXeXeXeXeXeXeXeXeXgXgXeXeXeXeXeXeXeXeXeXeXeXeXeXeXwXwXeXeXeXeXeXeXeXeXeXeXeXgXpXeXeXeXeXeXeXeXeXeXwXwXwXwXwXwXwXeXeXeXeXeXeXeXeXeXpXgXwXwXwXwXwXwX",
"qXqXqXqXqXqXqXqXqXqXqXqXqXwXwXwXeXeXeX5XeXwXqXwXqXqXqXqXqXqXqXqXqXqXqXqXqXqXqXqXqXqXwXwXwXeXwXpX4XwXeXqXwXwXeXwXeXeX5XwXqXqXqXqXqXqXqXqXqXqXwX5XeXeXeXwXeXeXpXeXeXeXqXqXqXqXqXqXqXqXqXqXwXqXqXeXwXeXwXpXeXqXwXqXeXeXwXwXqXqXqXqXqXqXqXqXqXqXqXqXqXqXqXqXqXwXwXqX5X5X5XwXqXqXqXqXqXqXqXqXqXqXqXqXqXqXqXqXqXqXqXqXqXqXqXqXwXwXeXqX5X5X5XwXqXqXqXqXqXqXqXqXqXqXqXwXgXgXgXgXgXgXgXgXgXgXgXgXgXgXgXgXgXgXgXhXhXhXhXhXhXhXhXhXhXhXhXhXhXhXhXhXhXhXhXhXhXhXhXhXgXgXgXgXSXSXSXSXSXSXSXSXSXSXSXSXSXSXSXSXSXSXSXSXSXSXSXgXgXAXr.l l l l l ",
"wXwXwXwXwXwXwXwXwXwXwX5XgX8.n.5.S.:X~.4.^.:XwXqXwXwXwXwXwXwXwXwXwXwXwXwXwXwXwXwXqXwX:Xn.5XS.,X!.c.!.,Xc.9.4X!.:X:Xn.5.pX5XwXwXwXwXwXwXwXqXeX~.f b.^.~.:X^.~.n.~.^.Q.wXqXwXwXwXwXwXwXwXqXeX8.4.^.:X^.,Xb.z.Q.4XQ.8.Q.3X5XwXqXwXwXwXwXwXwXwXwXwXwXwXwXwXqXwXv.3X9.c.#.3XwXqXwXwXwXwXwXwXwXwXwXwXwXwXwXwXwXwXwXwXwXwXwXqXeXQ.S.c.8.z.1.4XwXqXwXwXwXwXwXwXwXwXwXqXwXgXwX5XqXqX5X5X5XqX5XqXqXqXqXqX5XgXeX5X#X#X#X#X#X#X#X#X#X#X#X#X#X#X#X#X#X#X#X#X#X#X#X#X$XwXgXeX4XP.P.P.P.P.P.P.P.P.P.P.P.P.P.P.P.P.P.P.P.P.P.P.4XeXgX^.Q.Q.!.Q.Q.",
"wXwXwXwXwXwXwXwXwXwXwX5XgX5.s a o.o.o.X.p 9.pX5XwXwXwXwXwXwXwXwXwXwXwXwXwXwXwXwXqXeX~.c.n.o.X.5.p #.5.p #.s a 1.p O.5.pX5XwXwXwXwXwXwXwXqXpXn.X.5.9.a o.s a X.#.#.O.:XeXqXwXwXwXwXwXwX5XpXO.s s X.X.a z.o.o.X.o.X.1.#.wXwXqXwXwXwXwXwXwXwXwXwXwXwXwXwXqXwX8.n.z.,Xs 5XwXqXwXwXwXwXwXwXwXwXwXwXwXwXwXwXwXwXwXwXwXwXwX5XgXv.X.p n.~.X.wXwXqXwXwXwXwXwXwXwXwXwXqXwXgXwXqXqXwXeXeXwXwXwXwXwXqXwXwXqXgXiX0XD # c c c # c # # # # # # c # # # # # # c c c c ^ aXdXpX/.2 X X X X X X X X X X X X X X X X X X X X X 2 R.pXgXrX8XrXrX8X8X",
"wXwXwXwXwXwXwXwXwXwXwXqXwXQ.5.c.8.c.0.8.9.Q.eXqXwXwXwXwXwXwXwXwXwXwXwXwXwXwXwXwXqXwX3X1.c.8.v.8.c.8.#.4.!.0.8.4.4.5.c.eXqXwXwXwXwXwXwXwXqXeX!.:X:X~.0.8.o.z.S.S.X.5.5XwXqXwXwXwXwXwXwXqXwXn.b.9.0.#.5.v.8.n.8.n.v.5.8.gX5XwXwXwXwXwXwXwXwXwXwXwXwXwXwXqXeX9.c.0.c.Q.eXqXwXwXwXwXwXwXwXwXwXwXwXwXwXwXwXwXwXwXwXwXwXwXqXeX!.!.n.8.c.!.eXqXwXwXwXwXwXwXwXwXwXwXqXwXgXwXqXwX3X4.S.4X3X:XwX8.,XwXqXqXgXiXrXA @ @ @ @ # @ # # # # @ # @ @ # # @ @ # @ @ @ @ _ aXdXpX/.2   . . . . . . . X . . . . . . . . . . .   2 R.pXgX0X8X8X0X8X8X",
"qXqXqXqXqXqXqXqXqXqXqXqXqXwXeXeXwXwXwXwXeXqXqXqXqXqXqXqXqXqXqXqXqXqXqXqXqXqXqXqXqXqXwXwXwXwXeXwXeXeXwXeXwXeXwXwXeXwXwXqXqXqXqXqXqXqXqXqXqXqXwXwXwXwXwXwXeXeXwXeXQ.5XwXqXqXqXqXqXqXqXqXqXqXwXwXwXwXeXeXqXwXwXeXwXeXn.,XwXqXqXqXqXqXqXqXqXqXqXqXqXqXqXqXqXqXwXqXwXqXwXqXqXqXqXqXqXqXqXqXqXqXqXqXqXqXqXqXqXqXqXqXqXqXqXqXqXwXwXeXwXqXwXqXqXqXqXqXqXqXqXqXqXqXqXqXqXgXwXqXeX^.a 4.o.s o.4.X.,XwXqXqXgXiXrXA @ # @ # A c # # c c c c # A c # # A c @ # @ # _ aXdXpX/.2 . . . X 2 X . X X X 2 X X 2 X X X . . . . 2 R.pXgX0X8X8X0X8X8X",
"wXwXwXwXwXwXwXwXwXwXwXwXwXwXwXwXwXwXwXwXwXwXwXwXwXwXwXwXwXwXwXwXwXwXwXwXwXwXwXwXwXwXwXwXwXwXwXwXwXwXwXwXwXwXwXwXwXwXwXwXwXwXwXwXwXwXwXwXwXwXwXwXwXwXwXwXwXwXwXwXeXwXwXwXwXwXwXwXwXwXwXwXwXwXwXwXwXwXwXwXwXwXwXwXwXeXwXwXwXwXwXwXwXwXwXwXwXwXwXwXwXwXwXwXwXwXwXwXwXwXwXwXwXwXwXwXwXwXwXwXwXwXwXwXwXwXwXwXwXwXwXwXwXwXwXwXwXwXwXwXwXwXwXwXwXwXwXwXwXwXwXwXwXwXwXwXgXwXqXwX:XX.o.s #.n.1.#.3XwXqXqXgXiXrXA @ # @ # c c # # # c # # # c # # # c # @ # @ # _ aXdXpX/.2 . . . X X X . X X X X X X X X X X X . . . 2 R.pXgX0X8X8X0X8X8X",
"gXgXgXgXgXgXgXgXgXgXgXgXgXgXgXgXgXgXgXgXgXgXgXgXgXgXgXgXgXgXgXgXgXgXgXgXgXgXgXgXgXgXgXgXgXgXgXgXgXgXgXgXgXgXgXgXgXgXgXgXgXgXgXgXgXgXgXgXgXgXgXgXgXgXgXgXgXgXgXgXgXgXgXgXgXgXgXgXgXgXgXgXgXgXgXgXgXgXgXgXgXgXgXgXgXgXgXgXgXgXgXgXgXpXpXpXpXpXpXpXpXpXpXpXpXpXpXpXpXpXpXpXpXpXpXpXpXpXpXpXpXpXpXpXpXpXpXpXpXpXpXpXpXpXpXpXpXpXpXpXpXpXpXpXpXpXpXpXpXpXpXpXpXpXpXpXgXwXqXwXwX3XqX5XwXqXqX4XwXqXwXqXgXiXrXA @ @ @ @ @ @ @ @ @ @ @ @ @ @ @ @ @ @ @ @ @ @ @ ^ aXdXpX/.2   . .     . .   .   . .     . . .   . .   2 R.pXgX0X8X8X0X8X8X",
"wXwXwXwXwXwXwXwXwXwXwXwXwXwXwXwXwXwXwXwXwXwXwXwXwXwXwXwXwXwXwXwXwXwXwXwXwXwXwXwXwXwXwXwXwXwXwXwXwXqXqXqXqXwXwXwXwXwXwXwXwXwXwXwXwXwXwXwXwXwXwXwXwXwXwXqXqXqXqXwXwXwXwXwXwXwXwXwXwXwXwXwXwXwXwXwXwXwXqXqXqXqXwXwXwXwXwXwXwXwXwXwX5Xz.l.l.l.l.l.l.l.l.l.l.l.l.l.l.l.l.l.l.l.l.l.l.l.l.l.l.l.l.l.l.l.l.l.l.l.l.l.l.l.l.l.l.l.l.l.l.l.l.l.l.l.l.l.l.l.l.l.l.l.l.l.z.eXwXqXwXqXwXwXwXwXwXwXwXqXwXwXqXgXpX0XH G G G G G G G G G G G G G G G G G G G G G G G | aXdXpX2X5 4 5 4 4 5 4 4 4 4 4 4 4 4 4 4 4 4 4 4 5 4 5 /.pXgX0X8X8X0X8X8X",
"wXwXwXwXwXwXwXwXwXwXwXwXwXwXwXwXwXwXwXwXwXwXwXwXwXwXwXwXwXwXwXwXwXwXwXwXwXqXqXqXqXqXqXqXqXqXqXqXqXiXhXhXgXqXqXqXqXqXqXqXqXqXqXqXqXqXqXqXqXqXqXqXqXqXwXaXaXaXiX5XwXqXqXqXqXqXqXqXqXqXqXqXqXqXqXqXqXqXiXaXaXaXqXqXqXqXqXqXqXqXqXwX5Xk.j.j.j.j.j.j.j.j.j.j.j.j.j.j.j.j.j.j.j.j.j.j.j.j.j.j.j.j.j.j.j.j.j.j.j.j.j.j.j.j.j.j.j.j.j.j.j.j.j.j.j.j.j.j.j.j.j.j.j.j.j.k.eXwXqXqXqXqXqXqXqXqXqXqXqXwXwXqXgXeXqXwXeXeXpXiXeXwXeXeXeXeXeXeXeXeXeXeXeXeXeXeXeXeXeXwXqXgXeXqXeXeXeXpXpXeXeXeXeXeXeXeXeXeXeXeXpXeXeXeXeXeXeXqXwXgX0X8X8X0X8X8X",
"wXSXSXAXgXAXSXAXgXgXgXgXgXgXgXgXgXgXgXgXgXgXgXgXgXgXgXgXgXgXgXgXgXDXSXgXwXqXwXwXwXwXwXwXwXwXqXqXaXN.I I g.iXwXqXwXwXwXwXwXwXwXwXwXwXwXwXwXwXwXwXqXiXqX[.' _ >XgXqXwXwXwXwXwXwXwXwXwXwXwXwXwXwXqXqXiX#X] ] @XiXwXqXwXwXwXwXwXqXwX5Xk.k.c.c.c.c.c.c.c.c.c.c.z.z.z.z.z.c.c.c.c.c.c.c.c.c.c.c.k.k.k.k.c.c.c.c.c.c.c.c.c.c.c.c.z.z.z.z.z.c.c.c.c.c.c.c.c.c.c.c.c.k.k.eXwXqXwXwXwXwXwXeXwXeXwXeXqXwXqXgXeXqXqXqXaXqX2XwXhX5XqXqXqXqXqXqXqXqXwX5XwXwXwXwXqXqXqXqXgXeXqXqXwXaX1X1XiXiX5XqXqXqXqXqXqXqXwX5XwXqXwXqXqXqXqXwXgX0X8X8X0X8X8X",
"eX4X3X5XgX5X3XqXgXgXgXgXgXgXgXgXgXgXgXgXgXgXgXgXgXgXgXgXgXgXgXpXSXQ.!.DXwXqXwXwXwXwXwXwXwXqXqXiXI v a.a.v K iXqXqXwXwXwXwXwXwXwXwXwXwXwXwXwXwXqXiX1XH ' @X[ $ g.aXqXwXwXwXwXwXwXwXwXwXwXwXwXqXqXiX] H @X@XH ^ wXqXqXwXwXwXwXqXwX5Xk.v.4X4X4X4X4X4X4X4X4X4X5X5X5XqXqX4X4X4X4X4X4X4X4X4X4X4Xv.j.j.v.4X4X4X4X4X4X4X4X4X4X4X4X5X5XqXqXqX4X4X4X4X4X4X4X4X4X4X4X4Xv.k.eXwXqXqX#.c.,X:X!.4XQ.3X^.wXqXqXgXeXqXwXiX[ H ` S y.pXqXqXqXqXqXqXqXeXz.n.8.v.9.5XwXqXwXqXgXeXqXiX1X^ H H v T.iXqXqXqXqXqXqXqX8.n.9.c.0.wXqXqXqXwXgX0X8X8X0X8X8X",
"gX5.o.X.n.s #.5XAXgXgXgXgXgXgXgXgXgXgXgXgXgXgXgXgXgXgXgXgXgXgXpXSX1.3.SXwXqXwXwXwXwXwXwXwXqXhXy.v DXJXJXJXK Q hXqXwXwXwXwXwXwXwXwXwXwXwXwXwXqXqXiXH @XLX(.r.9X$ >XwXqXwXwXwXwXwXwXwXwXwXwXwXqXaX[.` hXJXJXLX' [ aXqXwXwXwXwXqXwX5Xk.v.5XwXwXwXwXwXwXwXwXwX4X4X:XQ.~.qXwXwXwXwXwXwXwXwXwX5Xv.j.j.v.5XwXwXwXwXwXwXwXwXwXwXqX3X4X^.!.~.wXwXwXwXwXwXwXwXwXwXwXqXv.k.eXwXwX5Xp 4.1.a #.o.1.s s 4XwXqXgXeXqXaX' ' rX:XT.v W hXqXwXwXwXqXwX4Xs c.4.c.0.5XwXqXwXqXgXeXwX1XH @XdX!.g.$ $XiXqXwXwXqXeX^.a b.#.b.z.wXqXwXqXwXgX0X8X8X0X8X8X",
"gX9.#.5.s 5.c.b.DXgXgXgXgXgXgXgXgXgXgXgXgXgXgXgXgXgXgXgXgXgXgXpXDX$.3.DXwXqXwXwXwXwXwXwXqXqXiXv $XJXAXgXDX2Xv wXqXqXwXwXwXwXwXwXwXwXwXwXwXwXqXiX#XH hXDX5.#.IXW Q hXqXwXwXwXwXwXwXwXwXwXwXqXqXiXH &XkXgX4XH.$XH wXqXqXwXwXwXqXwX5Xk.v.5XwXqXqXqXqXqXqXqXeX~.S.n.Q.8.wXqXqXqXqXqXqXqXqXwX5Xv.j.j.v.5XwXqXqXqXqXqXqXqXqXqXqX9.1.m.Q.0.wXqXqXqXqXqXqXqXqXqXwX5Xv.k.eXwXwX4Xc.8.X.#.S.8.X.#.8.qXwXqXgXeXiX#XH hXHX: S.DXv >XiXqXwXwXqXwXqX8.5.8.X.5.wXqXqXwXqXgXwXaX] ] LX3X% LXf.K hXqXqXwXqXwX4X4.9.8.f c.eXqXwXqXwXgX0X8X8X0X8X8X",
"eXqX4X:X,X3XQ.5XAXgXgXgXgXgXgXgXgXgXgXgXgXgXgXgXgXgXgXgXgXgXgXpXSX^.:XSXwXqXwXwXwXwXwXwXqXqXwXv 1XDX~.eXhXrXv 4XwXqXwXwXwXwXwXwXwXwXwXwXwXwXqXaX@X' JXgXgXgXJXa.K hX5XwXwXwXwXwXwXwXwXwXwXqXqXwXH 9XhXDXS.p ~.S 4XwXqXwXwXwXqXwX5Xk.v.5XwXqXqXqXqXqXqXqXwX^.e.n.S.S.wXqXqXqXqXqXqXqXqXwX5Xv.j.j.v.5XwXqXqXqXqXqXqXqXqXqX5XS.n.m.S.Q.wXqXqXqXqXqXqXqXqXqXqX5Xv.k.eXwXqXwXwXwXeXeXpX,X9.5XwXqXwXqXgXeXaX[ ] JXgXS.qXLXK p.hXqXwXwXwXqXeXeXeXwXpX5XeXqXwXwXqXgXwXiXH *XDX5XQ.AXeXv 4XwXqXwXwXqXpXeXeXwXeX5XeXqXwXqXwXgX0X8X8X0X8X8X",
"wXgXgXAXAXAXSXgXgXgXgXgXgXgXgXgXgXgXgXgXgXgXgXgXgXgXgXgXgXgXgXgXgXAXAXgXwXqXwXwXwXwXwXwXqXqXhXK g.6X% eXLXM.v iXqXqXwXwXwXwXwXwXwXwXwXwXwXwXqXiX2XH gXhXgXgXLXK y.hXqXwXwXwXwXwXwXwXwXwXwXqXqXaX~ @XJXdXgXIX#Xv iXqXqXwXwXwXqXwX5Xk.v.wXwXwXwXwXwXwXwXwXwXwX5XqX5XeXwXwXwXwXwXwXwXwXwXwXqXv.j.j.v.qXwXwXwXwXwXwXwXwXwXwXwXwXeXqX5XeXwXwXwXwXwXwXwXwXwXwXwXwXv.k.eXwXqXwXqXwX!.4X:X5X,XwXwXwXwXqXgXeXaX[ ] JXdXDXgXJXK h.hXqXwXwXqXwX!.Q.Q.^.S.4X!.wXqXwXqXgXwXiX~ &XkXgXDXhXrXv 4XwXqXqXqXwXS.!.Q.~.Q.4X^.wXqXqXwXgX0X8X8X0X8X8X",
"wXqXqXqXqXqXqXwXqXwXwXwXwXwXwXwXwXwXwXwXwXwXwXwXwXwXwXwXwXwXwXwXwXqXqXwXwXqXwXwXwXwXwXwXwXqXiXM.v #X3XDX8Xv N.iXqXwXwXwXwXwXwXwXwXwXwXwXwXwXwXqXaX] ' hXgXDXa.v wXwXqXwXwXwXwXwXwXwXwXwXwXwXqXiX$XG *XhXhX1Xv N.aXqXwXwXwXwXqXwX5Xk.c.~.!.!.!.!.!.!.!.!.!.!.~.~.~.!.!.!.!.!.!.!.!.!.!.!.~.v.j.j.c.~.!.!.!.!.!.!.!.!.!.!.!.!.!.~.~.!.!.!.!.!.!.!.!.!.!.!.!.~.v.k.eXwXqXqXwX,XO.1.1.5.o.:XwXqXwXqXgXeXwX2XG 9XhXgXDX$Xv 4XwXqXwXwXqXwX!.s o.s s 5.O.pX5XwXqXgXwXaX[ ' JXgXgXJXQ K hXqXqXqXqXeXb.a o.a O.#.5.gX5XqXwXgX0X8X8X0X8X8X",
"wXgXgXgXgXgXgXgXAXgXgXgXgXgXgXgXgXgXgXgXgXgXgXgXgXgXgXgXgXgXgXpXgXAXAXgXwXqXwXwXwXwXwXwXwXwXqXaXg.#XhXpXM.d.gXqXwXwXwXwXwXwXwXwXwXwXwXwXwXwXwXqXwXwX[ 8XeXpXy.>XiXqXwXwXwXwXwXwXwXwXwXwXwXwXwXqXaX@X#XiXgXM.h.gXqXwXwXwXwXwXqXwX5Xk.j.j.j.j.j.j.j.j.j.j.j.j.j.j.j.j.j.j.j.j.j.j.j.j.j.j.j.k.k.k.k.j.j.j.j.j.j.j.j.j.j.j.j.j.j.j.j.j.j.j.j.j.j.j.j.j.j.j.j.j.j.k.eXwXqXqXeX^.#.8.#.#.8.!.eXqXwXqXgXeXqXaX[ ' hXgXgXv d.gXqXwXwXwXqXwXQ.o.4.s X.s X.eXqXwXqXgXeXqXiXH @XhXhX$Xv 4XwXqXwXwXqXwXv.#.#.s X.a 4.pX5XqXwXgX0X8X8X0X8X8X",
"eXpXgXeXgXAXwXSX,XeXFXgXgXgXgXgXgXgXgXgXgXgXgXgXgXgXgXgXgXgXgXgXAX,X3XSXwXqXwXwXwXwXwXwXwXqXwXqXiXiX5XqXiXiXqXwXqXwXwXwXwXwXwXwXwXwXwXwXwXwXwXwXqXwXaXwXqXqXaXwXqXwXqXwXwXwXwXwXwXwXwXwXwXwXqXwXqXiXiXqXqXiXiXqXwXqXwXwXwXwXqXwX5Xk.j.k.k.k.k.k.k.k.k.k.k.k.k.k.k.k.k.k.k.k.k.k.k.k.k.k.k.k.k.k.k.k.k.k.k.k.k.k.k.k.k.k.k.k.k.k.k.k.k.k.k.k.k.k.k.k.k.k.k.k.k.k.eXwX5XqXwX4Xc.wX:XS.c.4XwXqXqX5XgXeX5XqXiX1XqXqX5X>XiXqXqXqXqXqXqXwX~.^.:X,X!.qX,XqXqXqXqXgXeX5XwXqX1XwXwX1X4XiXqXqXqXqXqXqXQ.:X:X:X~.qX,XwXqX5XwXgX0X8X8X0X8X8X",
"gX4.S.X.^.v.8.n.X.n.n.eXgXgXgXgXgXgXgXgXgXgXgXgXgXgXgXgXgXgXgXpXDX$.3.DXwXqXwXwXwXwXwXwXwXwXqXwXqXqXwXwXqXqXwXqXwXwXwXwXwXwXwXwXwXwXwXwXwXwXwXwXwXqXqXqXwXwXqXqXwXqXwXwXwXwXwXwXwXwXwXwXwXwXwXqXwXqXqXwXwXqXqXwXqXwXwXwXwXwXqXwX5Xk.j.k.k.k.k.k.k.k.k.k.k.k.k.k.k.k.k.k.k.k.k.k.k.k.k.k.k.k.k.k.k.k.k.k.k.k.k.k.k.k.k.k.k.k.k.k.k.k.k.k.k.k.k.k.k.k.k.k.k.k.k.k.eXeXwXwXwXeXpXwXeXgXpXeXwXwXwXwXgXpXwXwXwXiXwXwXwXpXwXwXwXwXwXwXwXwXpXpXeXeXpXwXeXwXwXwXwXgXeXwXwXwXiXwXwXiXeXwXwXwXwXwXwXwXgXpXeXeXpXwXeXwXwXwXeXgX0X8X8X0X8X8X",
"gX8.s X.X.5.X.4.#.X.a 5XAXgXgXgXgXgXgXgXgXgXgXgXgXgXgXgXgXgXgXpXSX1.5.SXwXqXwXwXwXwXwXwXwXwXwXqXqXqXqXqXqXqXqXwXwXwXwXwXwXwXwXwXwXwXwXwXwXwXwXqXwXqXqXwXqXqXqXqXqXqXwXwXwXwXwXwXwXwXwXwXwXwXwXqXwXqXqXqXqXqXqXqXwXwXwXwXwXwXqXwX5Xk.j.k.k.k.j.k.k.j.j.k.k.k.k.k.k.k.k.k.k.k.k.k.k.k.k.k.k.k.k.k.k.k.k.k.j.k.k.k.k.k.k.k.k.k.k.k.k.k.k.j.k.k.k.k.k.k.k.k.k.k.k.k.eXgXpXgXgXpXpXpXgXpXpXpXgXgXgXgXpXpXgXgXgXeXgXgXpXpXgXgXgXgXgXgXgXgXpXpXgXgXeXgXpXgXgXgXgXpXgXgXgXpXgXgXpXpXpXgXgXgXgXgXgXgXeXeXAXgXeXgXpXgXeXSXSXgX0X8X8X0X8X8X",
"eX,XS.~.^.n.Q.n.Q.^.S.gXgXgXgXgXgXgXgXgXgXgXgXgXgXgXgXgXgXgXgXpXDXS.Q.DXwXqXwXwXwXwXwXwXwXwXwXwXwXwXwXeXwXeXwXqXwXwXwXwXwXwXwXwXwXwXwXwXwXwXqXwXqXwXeXqXwXwXwXeXwXwXqXwXwXwXwXwXwXwXwXwXwXwXwXwXqXwXeXwXwXwXwXwXqXwXwXwXwXwXqXwX5Xk.j.k.k.k.z.7.7.z.l.j.k.k.k.k.k.k.k.k.k.l.j.k.k.k.k.k.k.k.k.k.k.k.k.k.z.7.7.k.k.j.k.k.k.k.k.k.k.k.k.l.l.k.l.k.k.k.k.k.k.k.k.k.eXeXeXeXeXeXwXpX:XqXeXeXeXeXeXwXeXeXeXeXwXpX:X5XeXeXeXeXeXwXwXeXeXeXwXpX:X5XeXeXeXeXeXwXwXpX5X/.pXdX<X<XdXwXeXeXeXwXwXeX$XwXdXiXx.Q.gXwXeXwXSXL.P.SX0X8X8X0X8X8X",
"eXSXDXSXSXDXDXDXDXSXSXgXgXgXgXgXgXgXgXgXgXgXgXgXgXgXgXgXgXgXgXgXgXDXDXgXwXqXwXwXwXwXwXwXqXqXeXc.z.3X4.0.8.5.n.eXqXwXwXwXwXwXwXwXwXwXwXwXwXwXwXqXgX!.c.b.b.^.4.8.c.eXqXqXwXwXwXwXwXwXwXwXwXwXwXqXeXS.c.8.n.~.4.5XwXqXwXwXwXwXqXwX5Xk.j.k.k.j.I I I * @.z.j.k.k.k.k.k.k.k.k.a O.a s a k.k.k.k.k.k.k.k.k.j.I I I I +.z.j.k.k.k.k.k.k.k.4.a a s a a : +.l.k.k.k.k.l.wXgXKXHXHXHXFXPX~.gXKXHXHXHXKXgXFXKXHXHXFXPX>XgXKXHXHXHXKXgXFXKXHXHXFXPX>XpXKXHXHXHXKXSXDXPXdXE.PXPXoXoXIXHXHXHXKXDXDXKX&XKXDXyX, c.IXFXFXIXR.6 /.hX0X8X8X0X8X8X",
"wXwXqXwXwXqXwXqXqXwXwXwXwXwXwXwXwXwXwXwXwXwXwXwXwXwXwXwXwXwXwXwXwXqXqXwXwXqXwXwXwXwXwXwXqXwX5X9.8.v.5.s #.X.0.wXqXwXwXwXwXwXwXwXwXwXwXwXwXwXqXwX~.Q.8.!.v.n.o.s 8.4XwXqXwXwXwXwXwXwXwXwXwXwXwXqXeX:Xo.8.0.c.4.!.eXqXwXwXwXwXqXwX5Xk.j.k.j.I V.dX!.V.* @.z.j.k.k.k.k.k.l.+.% X.& X.a l.k.k.k.k.k.k.k.j.I V.eXAX8X& @.z.j.k.k.k.k.k.k.7.p X.& % s a 7.k.k.k.k.k.k.wXgXKXHXHXHXFXPX>XgXKXHXHXHXKXgXFXHXHXHXFXPX:XgXKXHXHXHXKXgXFXHXHXHXFXPX:XgXKXFXHXHXKXSXDXKXjXR.PXPXoXoXPXFXHXHXKXDXSXKX*X:X8.#.: n.IXDXPXdX6 R.hXgX0X8X8X0X8X8X",
"wXgXgXpXpXpXpXpXpXpXpXpXgXgXgXgXgXgXgXgXgXgXgXgXgXgXgXgXgXgXgXeXpXgXgXgXwXqXwXwXwXwXwXwXqXqXeXc.4.n.4.9.5.4.v.eXqXwXwXwXwXwXwXwXwXwXwXwXwXwXqXwX3X,Xn.#.z.v.4.5.8.wXqXqXwXwXwXwXwXwXwXwXwXwXwXqXwX3Xb.8.8.v.1.4XwXqXwXwXwXwXqXwX5Xk.j.z.L h.LX5X% DXB.* z.j.k.k.k.k.k.k.7.: a a % s l.k.k.k.k.k.j.z.@.h.HXSX:X3.v.* l.k.k.k.k.k.k.k.k.X.O.: : a X.l.j.k.k.k.k.l.wXgXKXHXHXFXFXKX>XgXKXHXFXFXHXgXFXHXHXFXFXKX>XgXKXHXHXFXHXgXFXHXHXHXFXKX:XgXKXHXHXFXKXSXDXKXjXR.PXPXoXoXPXFXHXFXHXSXSXKX&Xb.0.q.: m.IXFXPX5 L.IX5XgX0X8X8X0X8X8X",
"eXgXgXDXDXDXSXDXDXDXAXDXeXgXgXgXgXgXgXgXgXgXgXgXgXgXgXgXgXgXgXgXAXwXwXAXwXqXwXwXwXwXwXwXwXqXwXwXqXwXqXwXwXwXwXwXqXwXwXwXwXwXwXwXwXwXwXwXwXwXwXqXwXwXwXwXwXpXwXwXwXwXqXwXwXwXwXwXwXwXwXwXwXwXwXwXqXqXwXwXwXwXwXwXqXwXwXwXwXwXqXwX5Xk.j.k.I >XDXwXS.gXgX* +.k.k.k.k.k.k.k.k.k.k.k.k.7.k.k.k.k.k.k.k.z.I >XhXDX0.3.SX* +.k.k.k.k.k.k.k.k.k.7.l.k.k.k.k.k.k.k.k.k.l.wXgXKXFXFXKXKXIX>XgXKXFXKXKXKXAXFXHXFXKXPXIX:XgXKXFXKXKXPXhXFXHXHXHXKXIX:XgXKXFXKXKXPXDXSXPXdXR.IXIXoXoXPXFXKXKXPXDXSXKX&XAXAXyX> m.IXIXe t IXSXwXgX0X8X8X0X8X8X",
"gXQ.b.:Xn.Q.:X:X:XQ.qX,Xz.eXgXgXgXgXgXgXgXgXgXgXgXgXgXgXgXgXgXpXDX$.3.DXwXqXwXwXwXwXwXwXwXwXqXqXwXwXwXwXqXqXqXqXwXwXwXwXwXwXwXwXwXwXwXwXwXwXwXwXqXqXeX^.n.n.4XwXqXqXwXwXwXwXwXwXwXwXwXwXwXwXwXwXqXwXwXwXwXwXqXqXwXqXwXwXwXwXqXwX5Xk.j.z.I >XDXgXDXgXgX* 7.k.k.k.k.k.k.k.k.4.7.4.k.k.k.k.k.k.k.k.j.z.I $XDXgXAXFXgX* +.k.k.k.k.k.k.k.k.7.7.7.7.k.k.k.k.k.k.k.k.k.wXgXFXKXKXeXeXgX>XgXKXKXgXeXgXeXHXFXKXeX:XwX^.gXKXKXDXeX5XgXFXHXKXKXwXeX>XgXKXKXhXqXpXgXDXKXjXE.wXDXG.oXPXHXDXwXqXgXDXKX&XKXPXJX> w.DXL.5 IXKXDXwXgX0X8X8X0X8X8X",
"gX^.1.5.o.#.s X.b.#.0.s X.gXgXgXgXgXgXgXgXgXgXgXgXgXgXgXgXgXgXgXAX3.9.AXwXqXwXwXwXwXwXwXwXwXqXeX!.X.4.c.8.wXqXqXwXwXwXwXwXwXwXwXwXwXwXwXwXwXwXwXqXeX!.X.X.s !.eXqXwXwXwXwXwXwXwXwXwXwXwXwXwXwXqXwX4X#.o.c.5.,XwXqXwXwXwXwXwXqXwX5Xk.j.z.@.-.DXgXgXKX7.* c.j.k.k.k.k.k.j.z.a & : p 7.k.k.k.k.k.k.j.z.@.@.DXAXgXHX7.* c.j.k.k.k.k.k.k.k.7.& : : s l.j.k.k.k.k.k.k.eXgXc.c.SXS.s c.~.gXKXKXQ.1.1.3XKXFXFX5Xn.~.B.gXKXKXQ.5.c.^.KXFXHX!.o.4.B.gXKXDXgX4.4.wXDXKXdXE.~.6.%.uXPXFXwXS.:X:XFXFX&XFXKXhX> 1.*.6 jXKXFXDXwXgX0X8X8X0X8X8X",
"gX^.c.,Xn.b.v.Q.4X:Xv.5.b.gXgXgXgXgXgXgXgXgXgXgXgXgXgXgXgXgXgXpXDXe.m.DXwXqXwXwXwXwXwXwXwXwX5XpXn.4.5.8.o.4XwXqXwXwXwXwXwXwXwXwXwXwXwXwXwXwXwXwX5XeXc.o.o.s Q.eXqXwXwXwXwXwXwXwXwXwXwXwXwXwXwXqXwX:X1.9.8.o.S.eXqXwXwXwXwXwXqXwX5Xk.j.k.k.I h.wXeXB.* ;.k.k.k.k.k.k.k.j.z.a a & p k.k.k.k.k.k.k.k.k.k.I h.wXeXB.* +.k.k.k.k.k.k.k.k.k.7.: a % O.l.j.k.k.k.k.k.k.wXgXb.!.pX4Xc.n.Q.FXIXFX!.c.m.qXIXPXDX5X3XQ.:XSXIXFX^.c.n.5XIXPXDX^.0.b.!.SXIXFXwXn.c.5XKXIXGXw.S./.K.yXIXDXgX4Xn.gXKXPX*XPXIXJX> O.4 2XIXKXPXKXwXgX0X8X8X0X8X8X",
"eXAXSXAXSXSXAXAXAXAXDXDXDXgXgXgXgXgXgXgXgXgXgXgXgXgXgXgXgXgXgXgXgXDXDXgXwXqXwXwXwXwXwXwXwXwXqXwX4X,X3X:X!.qXwXqXwXwXwXwXwXwXwXwXwXwXwXwXwXwXwXwXqXwX4XQ.:XS.5XwXqXwXwXwXwXwXwXwXwXwXwXwXwXwXwXqXwX5X,X3X,X!.4XwXqXwXwXwXwXwXqXwX5Xk.j.k.k.k.7.j.k.7.7.l.j.k.k.k.k.k.k.k.k.7.k.+.O.k.k.k.k.k.k.k.k.k.k.k.7.j.k.7.7.l.j.k.k.k.k.k.k.k.k.j.7.7.X.+.k.k.k.k.k.k.k.k.eXeX5X5XwX4X5XwXb.,XwXwXqX5XpX,X5X5XwXqX4X4Xv.:XwXwXwX4X4X,X5XqXwXpXwXqXb.:XwXwX4X4X5X3X3XwX2XP.4XdXH.H.dX5XwX4X3X,X4XqX@X5XwX<XZ 2 k hX4X5X5X4X5XgX0X8X8X0X8X8X",
"wXwXwXwXwXwXwXwXwXwXwXwXwXwXwXwXwXwXwXwXwXwXwXwXwXwXwXwXwXwXwXwXwXwXwXeXwXqXwXwXwXwXwXwXwXwXwXqXwXwXwXwXeXwXwXwXwXwXwXwXwXwXwXwXwXwXwXwXwXwXwXwXwXqXwXeXwXeXwXqXwXwXwXwXwXwXwXwXwXwXwXwXwXwXwXwXqXwXwXwXwXeXwXqXwXwXwXwXwXwXqXwX5Xl.k.k.k.k.k.k.k.k.k.k.k.k.k.k.k.k.k.k.k.k.k.l.l.k.k.k.k.k.k.k.k.k.k.k.k.k.k.k.k.k.k.k.k.k.k.k.k.k.k.k.k.k.z.l.k.k.k.k.k.k.k.k.gX^.f X.X.X.X.o.p s X.X.X.X.f s X.X.X.X.X.o.p s X.X.X.X.X.s X.X.X.f f o.p s X.X.X.X.X.f f X.d 0 o.f > > X.X.X.X.O.f f X.I X.f %.+ 5 #.f X.o.o.f :XhX0X8X8X0X8X8X",
"qXqXqXqXqXqXqXqXqXqXqXqXqXqXqXqXqXqXqXqXqXqXqXqXqXqXqXqXqXqXqXqXqXqXqXqXqXqXqXqXqXqXqXqXqXqXqXqXqXqXqXqX5XqXqXqXqXqXqXqXqXqXqXqXqXqXqXqXqXqXqXqXqXqXqX5XqX5XqXqXqXqXqXqXqXqXqXqXqXqXqXqXqXqXqXqXqXqXqXqXqX5XqXqXqXqXqXqXqXqXqXwX4Xk.7.7.7.7.7.7.7.7.7.7.7.7.7.7.7.7.7.7.7.7.7.7.7.7.7.7.7.7.7.7.7.7.7.7.7.7.7.7.7.7.7.7.7.7.7.7.7.7.7.7.7.7.7.7.7.7.7.7.7.7.7.k.wXSXIXIXIXIXIXIX3XFXIXIXIXIXIXFXIXIXIXIXIXIX4XFXIXIXIXIXIXFXIXIXIXIXIXIX4XDXIXIXIXIXIXKXKXIXFXW.IXIXoXuXIXIXIXIXIXKXKXIX*XPXIX/.+ U.IXIXIXgX5XFXeXgX0X8X8X0X8X8X",
"gXgXgXgXgXgXgXgXgXgXgXgXgXgXgXgXgXgXgXgXgXgXgXgXgXgXgXgXgXgXgXgXgXgXgXgXgXgXgXgXgXgXgXgXgXgXgXgXgXgXgXgXgXgXgXgXgXgXgXgXgXgXgXgXgXgXgXgXgXgXgXgXgXgXgXgXgXgXgXgXgXgXgXgXgXgXgXgXgXgXgXgXgXgXgXgXgXgXgXgXgXgXgXgXgXgXgXgXgXgXgXgXgXwXwXwXwXwXwXwXwXwXwXwXwXwXwXwXwXwXwXwXwXwXwXwXwXwXwXwXwXwXwXwXwXwXwXwXwXwXwXwXwXwXwXwXwXwXwXwXwXwXwXwXwXwXwXwXwXwXwXwXwXwXwXwXgXgXFXFXFXFXDXKX~.gXHXFXFXFXFXgXDXFXFXFXDXKX>XgXKXFXFXFXFXgXDXFXFXFXDXKX:XeXKXFXFXFXFXAXAXKXdXE.HXKX.XoXPXDXFXFXFXAXAXFX&XPXW.6 > m.IXDXb.4.o.:XpXgX0X8X8X0X8X8X",
"eXeXeXeXeXeXeXeXeXeXeXeXeXeXeXeXeXeXeXeXeXeXeXeXeXeXeXeXeXeXeXeXeXeXeXeXeXeXeXeXeXeXeXeXeXeXeXeXeXeXwXwXeXeXeXeXeXeXeXeXeXeXeXeXeXeXeXeXeXeXeXeXeXeXeXeXwXeXeXeXeXeXeXeXeXeXeXeXeXeXeXeXeXeXeXeXeXeXeXwXwXeXeXeXeXeXeXeXeXeXeXeXwXQ.B.S.B.B.B.B.B.B.B.B.B.B.B.B.B.B.B.B.B.B.B.B.B.B.B.B.B.B.B.B.B.B.B.B.B.B.B.B.B.B.B.B.B.B.B.B.B.B.B.B.B.B.B.B.B.B.B.B.B.S.B.Q.eXgXKXHXHXHXFXPX>XgXKXHXHXHXKXgXFXHXHXHXFXPX>XgXKXHXHXHXKXgXFXHXHXHXFXPX:XgXKXHXHXHXKXSXDXPXjXR.PXPXoXoXPXFXHXHXKXDXSXFX*XjX5 S > m.IXDXn.b.c.4XeXgX0X8X8X0X8X8X",
"qXqXqXqXqXqXqXqXwXwXwXwXwXwXwXwXwXwXwXwXwXwXwXwXwXwXwXwXwXwXwXqXwXqXqXwXqXqXqXqXqXqXqXqXqXqXqXqX5XqXiXiXwX5XqXqXqXqXqXqXqXqXqXqXqXqXqXqXqXqXqXqXqXqXqXwXaXiXqXqXqXqXqXqXqXqXqXqXqXqXqXqXqXqXqXqXqXqXqXiXiXwXqXqXqXqXqXqXqXqXqXwX4Xj.7.7.7.7.7.7.7.7.7.7.7.7.7.7.7.7.7.7.7.7.7.7.7.7.7.7.7.7.7.7.7.7.7.7.7.7.7.7.7.7.7.7.7.7.7.7.7.7.7.7.7.7.7.7.7.7.7.7.7.7.7.j.wXgXKXHXHXHXFXPX>XgXKXHXHXHXKXgXFXHXHXHXFXPX>XgXKXHXHXHXKXgXFXHXHXHXFXPX:XgXKXHXHXHXKXSXDXPXjXR.PXPXoXoXPXFXHXHXKXDXSXKX*Xq  .^ : m.IXFXFXFXDXDXwXgX0X8X8X0X8X8X",
"wXAXAXgXgXgXAXgXgXgXgXgXgXgXgXgXgXgXgXgXgXgXgXgXgXgXgXgXgXgXgXgXgXSXSXgXwXqXwXwXwXwXwXwXwXwXwXqXaXqXN.N.4XgXqXwXwXwXwXwXwXwXwXwXwXwXwXwXwXwXwXwXqXwXaX1X@X$XiXiXqXwXwXwXwXwXwXwXwXwXwXwXwXwXwXwXqXiXqX#X#X0XaXqXwXwXwXwXwXwXqXwX5Xl.k.k.k.k.k.k.k.k.k.k.k.k.k.k.k.k.k.k.k.k.k.k.k.k.k.k.k.k.k.k.k.k.k.k.k.k.k.k.k.k.k.k.k.k.k.k.k.k.k.k.k.k.k.k.k.k.k.k.k.k.k.l.wXgXKXHXHXHXFXPX>XgXKXHXHXHXKXgXFXHXHXHXFXPX>XgXKXHXHXHXKXgXFXHXHXHXFXPX:XgXKXHXHXHXKXSXDXPXjXR.PXPXoXoXPXFXHXHXKXDXgXIXt y ZXE > m.IXFXKXHXKXDXwXgX0X8X8X0X8X8X",
"eX5X4XwXgXwX4XwXgXgXgXgXgXgXgXgXgXgXgXgXgXgXgXgXgXgXgXgXgXgXgXpXSX~.^.DXwXqXwXwXwXwXwXwXwXwXqXaXg.v K K v h.aXqXwXwXwXwXwXwXwXwXwXwXwXwXwXwXwXqXwXiX] H ' H H 1XiXqXwXwXwXwXwXwXwXwXwXwXwXwXwXqXiX#XH ' ' H @XiXqXwXwXwXwXwXqXwX5Xk.v.:X:X:X:X:X:X:X:X:X:X:X:X:X:X:X:X:X:X:X:X:X:X:X:X:X:Xv.j.j.v.:X:X:X:X:X:X:X:X:X:X:X:X:X:X:X:X:X:X:X:X:X:X:X:X:X:X:X:X:Xv.k.wXgXKXFXHXHXFXPX>XgXKXHXHXHXKXgXFXHXHXHXFXPX>XgXKXHXHXHXKXgXFXHXHXHXFXPX:XgXKXFXHXHXKXSXDXKXdXR.PXPXoXoXPXFXHXFXHXgXIXL.9 IX&X^ > m.IXFXHXHXKXDXwXgX0X8X8X0X8X8X",
"gX9.#.X.n.s #.5XAXgXgXgXgXgXgXgXgXgXgXgXgXgXgXgXgXgXgXgXgXgXgXpXSX$.3.DXwXqXwXwXwXwXwXwXwXqXiXM.$ $XJXJX1X$ N.aXqXwXwXwXwXwXwXwXwXwXwXwXwXwXwXqXaX] ' gXkXJX@XH wXwXqXwXwXwXwXwXwXwXwXwXwXwXqXiX$XG *XJXJX9XG #XiXqXwXwXwXwXqXwX5Xk.v.qXwXwXwXwXwXwXwXwXwXwXwX5X3X4XwXwXwXwXwXwXwXwXwXwXqXv.j.j.v.qXwXwXwXwXwXwXwXwXwXwXwXwXeX4X3X4XwXwXwXwXwXwXwXwXwXwXwXwXv.k.wXgXKXHXKXKXFXPX>XAXKXKXKXKXKXhXHXKXKXKXFXPX:XgXKXHXKXKXKXhXFXKXKXKXFXPX:XgXKXHXKXHXKXDXDXPXjXR.PXPXoXoXIXHXKXHXPXIXR.5 @XIX@X) > m.IXFXKXKXKXDXwXgX0X8X8X0X8X8X",
"gX5.o.5.s 4.c.b.DXgXgXgXgXgXgXgXgXgXgXgXgXgXgXgXgXgXgXgXgXgXgXpXSX$.3.DXwXqXwXwXwXwXwXwXqXqXhXK f.LXdXdXLX{.v aXqXqXwXwXwXwXwXwXwXwXwXwXwXwXqXiX2XH gXhXgXS.H.^ p.hXqXwXwXwXwXwXwXwXwXwXwXqXqXaX~ @XJXdXdXkX#X' iXqXqXwXwXwXqXwX5Xk.v.5XqXqXqXqXqXqXqXqXwX^.!.S.n.0.wXqXqXqXqXqXqXqXqXqX5Xv.j.j.v.5XwXqXqXqXqXqXqXqXqXqX5Xc.0.m.n.e.wXqXqXqXqXqXqXqXqXqXqX5Xv.k.wXgXFXDXDXDXDXKX~.gXHXDXDXDXFXgXDXFXDXDXDXKX~.pXHXDXDXDXFXgXDXFXDXDXDXKX>XeXHXDXDXDXFXhXAXHXdXE.HXKX.X.XKXDXFXDXT.P.5 R.*XLX] [.> c.PXDXDXDXFXSXwXgX0X8X8X0X8X8X",
"eX5X3X^.:X,XQ.4XAXgXgXgXgXgXgXgXgXgXgXgXgXgXgXgXgXgXgXgXgXgXgXpXSX!.^.DXwXqXwXwXwXwXwXwXqXqXwXv 1XDXgXgXgXrXv 4XwXqXwXwXwXwXwXwXwXwXwXwXwXwXqXaX@X' kXgXgXs m.p.I hX5XwXwXwXwXwXwXwXwXwXwXqXqXwXH 9XhXDXn.% T.F 4XwXqXwXwXwXqXwX5Xk.v.5XwXqXqXqXqXqXqXqXeX~.c.b.Q.c.wXqXqXqXqXqXqXqXqXwX5Xv.j.j.v.5XwXqXqXqXqXqXqXqXqXqX5Xc.9.m.Q.m.eXqXqXqXqXqXqXqXqXqXqX5Xv.k.eXgXAXhXhXhXgXDXQ.eXSXhXhXhXAXeXgXAXhXhXgXDXQ.wXSXhXhXhXAXeXgXAXhXhXgXDX!.qXDXhXhXhXAXgXgXDXfXE.DXGXG.G.DXgXDXT.o . y PX#XJX^ |.> w.KXSXDXSXAXgXwXgX0X8X8X0X8X8X",
"eXAXAXSXSXAXSXAXgXgXgXgXgXgXgXgXgXgXgXgXgXgXgXgXgXgXgXgXgXgXgXgXgXSXSXgXwXqXwXwXwXwXwXwXqXqXiXv $XiX: wXJX2Xv wXqXqXwXwXwXwXwXwXwXwXwXwXwXwXqXiX$XH kXgXgXAXIXW Q hXqXwXwXwXwXwXwXwXwXwXwXqXqXiX~ &XJXgXwXgX2Xv wXwXqXwXwXwXqXwX5Xk.v.qXwXwXwXwXwXwXwXwXwX5X^.,X^.wXwXwXwXwXwXwXwXwXwXwX5Xv.j.j.v.5XwXwXwXwXwXwXwXwXwXwXwX5XqX:X:XwXwXwXwXwXwXwXwXwXwXwXwXwXv.k.wXgXKXKXKXKXHXPX>XAXKXKXKXKXKXhXHXKXKXKXHXPX:XgXKXKXKXKXKXAXHXKXKXKXHXPX:XgXPXKXKXKXKXDXDXPXjXR.PXPXoXoXIXHXKXqXX o 2XPX&XLX~ 7X> U.FX3X:XAXKXDXwXgX0X8X8X0X8X8X",
"wXqXqXqXqXqXqXwXwXwXwXwXwXwXwXwXwXwXwXwXwXwXwXwXwXwXwXwXwXwXwXwXwXqXqXwXwXqXwXwXwXwXwXwXwXqXhXy.v !.0.DXhXK ( hXqXwXwXwXwXwXwXwXwXwXwXwXwXwXqXqXiXH [ SXgXhX$X$ >XwXqXwXwXwXwXwXwXwXwXwXwXwXqXaX[.H gXgXgXDXK Q hXqXwXwXwXwXqXwX5Xk.v.3X3X3X3X3X3X3X3X3X3X3X4X4X4X3X3X3X3X3X3X3X3X3X3X3X3Xv.j.j.v.3X3X3X3X3X3X3X3X3X3X3X3X4X3X4X4X3X3X3X3X3X3X3X3X3X3X3X3X3Xv.k.wXgXKXFXHXHXFXKX>XgXKXFXHXFXHXgXFXHXHXHXFXPX>XgXKXFXHXFXKXgXFXHXHXHXFXPX:XgXKXFXHXFXKXSXSXKXdXR.PXPXoXoXPXDXIXL.5 2XAXHX&XFX~ tX> w.wXQ.!.pXKXDXwXgX0X8X8X0X8X8X",
"wXgXgXgXgXgXgXgXgXgXpXgXgXgXgXgXgXgXgXgXgXgXgXgXgXgXgXgXgXgXgXpXgXgXgXgXwXqXwXwXwXwXwXwXwXqXqXiXE @XJXhXN.K iXqXqXwXwXwXwXwXwXwXwXwXwXwXwXwXwXqXiX2X~ rXpXhXI d.hXqXwXwXwXwXwXwXwXwXwXwXwXwXqXqXiX' @XhXhXN.K iXqXqXwXwXwXwXqXwX5Xk.k.l.k.k.k.k.k.k.k.k.k.k.k.k.k.k.k.k.k.k.k.k.k.k.k.k.k.k.k.k.k.k.k.k.k.k.k.k.k.k.k.k.k.k.k.k.k.k.k.k.k.k.k.k.k.k.k.k.k.l.k.k.wXgXKXHXHXHXFXPX>XgXKXHXHXHXKXgXFXHXHXHXFXPX>XgXKXHXHXHXKXgXFXHXHXHXFXPX:XgXKXHXHXHXKXSXDXPXjXR.PXPXoXoXPXIXR.6 jXHXSXKX*XCXH NX> w.FX:Xb.DXKXDXwXgX0X8X8X0X8X8X",
"eXgXgXgXgXSXwXDX4XpXDXgXgXgXgXgXgXgXgXgXgXgXgXgXgXgXgXgXgXgXgXgXAX4X4XSXwXqXwXwXwXwXwXwXwXwXqXqXpXqX5XqXqXiXwXqXwXwXwXwXwXwXwXwXwXwXwXwXwXwXwXwXqXwXiXqXqXqXwXiXqXwXqXwXwXwXwXwXwXwXwXwXwXwXwXqXwXiXqXqXqXqXiXwXqXwXwXwXwXwXqXwX5Xl.j.k.k.k.k.k.k.k.k.k.k.k.k.k.k.k.k.k.k.k.k.k.k.k.k.k.j.k.k.k.k.j.k.k.k.k.k.k.k.k.k.k.k.k.k.k.k.k.k.k.k.k.k.k.k.k.k.k.k.k.j.l.wXgXKXHXHXHXFXPX>XgXKXHXHXHXKXgXFXHXHXHXFXPX>XgXKXHXHXHXKXgXFXHXHXHXFXPX:XgXKXHXHXHXKXSXDXPXjXR.PXPXoX.XIXjX6 R.IXgXSXHX*X9X~ JX> m.IXHXKXFXKXDXwXgX0X8X8X0X8X8X",
"gX4.Q.o.:Xb.8.n.X.S.Q.pXgXgXgXgXgXgXgXgXgXgXgXgXgXgXgXgXgXgXgXpXDX$.3.DXwXqXwXwXwXwXwXwXwXwXwXqXqXwXwXwXwXqXqXwXqXwXwXwXwXwXwXwXwXwXwXwXwXwXwXqXwXqXqXwXwXwXwXqXwXqXwXwXwXwXwXwXwXwXwXwXwXwXwXwXqXqXwXwXwXwXqXqXwXqXwXwXwXwXqXwX5Xk.k.k.k.k.k.k.k.k.k.k.k.k.k.k.k.k.k.k.k.k.k.k.k.k.k.k.k.k.k.k.k.k.k.k.k.k.k.k.k.k.k.k.k.k.k.k.k.k.k.k.k.k.k.k.k.k.k.k.k.k.k.k.wXgXKXHXHXHXFXPX>XgXKXHXHXHXKXgXFXHXHXHXFXPX>XgXKXHXHXHXKXgXFXHXHXHXFXPX:XgXKXHXHXHXKXSXDXPXjXR.PXPXoXoXIX5 L.IXFXDXSXFX*X&X^ JX> m.IXFXHXHXKXDXwXgX0X8X8X0X8X8X",
"gX9.s X.X.5.X.4.#.X.a 5XAXgXgXgXgXgXgXgXgXgXgXgXgXgXgXgXgXgXgXpXAX3.5.SXwXqXwXwXwXwXwXwXwXwXwXqXqXqXqXqXqXqXqXwXqXwXwXwXwXwXwXwXwXwXwXwXwXwXwXwXqXwXqXqXqXqXqXqXwXqXwXwXwXwXwXwXwXwXwXwXwXwXwXqXwXqXqXqXqXqXqXqXwXwXwXwXwXwXqXwX5Xk.j.k.k.k.j.k.k.j.j.k.k.k.k.k.k.k.k.k.k.k.k.k.k.k.k.k.k.k.k.k.k.k.k.k.j.k.k.k.k.k.k.k.k.k.k.k.k.k.k.j.k.k.j.k.k.k.k.k.k.k.k.k.wXgXKXFXFXFXFXKX^.gXKXFXFXFXHXgXFXFXFXFXFXKX>XgXKXFXFXFXHXgXFXFXFXFXFXPX:XpXKXFXFXFXKXSXSXKXdXR.PXPX.XsXi e IXDXKXSXSXFX*X@X] JX> m.IXDXFXFXHXDXwXgX0X8X8X0X8X8X",
"eX:Xn.Q.!.b.S.n.n.!.n.gXgXgXgXgXgXgXgXgXgXgXgXgXgXgXgXgXgXgXgXpXDXb.S.DXwXqXwXwXwXwXwXwXwXwXqXeXwXwXeXeXeXeXwXqXwXwXwXwXwXwXwXwXwXwXwXwXwXwXwXwXwXqXwXwXeXwXeXwXqXwXwXwXwXwXwXwXwXwXwXwXwXwXwXwXqXwXeXeXwXwXeXwXqXwXwXwXwXwXqXwX5Xk.j.k.k.k.z.j.7.c.l.j.k.k.k.k.k.k.k.k.k.l.k.l.k.l.k.k.k.k.k.k.k.k.k.k.z.j.7.z.k.j.k.k.k.k.k.k.k.k.k.l.l.k.l.k.k.k.k.k.k.k.k.l.wXhXPXKXPXPXKXIX:XDXIXLXPXPXPXDXKXPXPXPXKXIX:XSXIXKXPXLXPXDXKXPXPXPXKXIX,XgXIXKXPXLXPXFXFXIXjXR.IXIXOXg 5 IXPXKXPXFXFXPXBX| @XLX> n.IXKXPXLXPXKXwXgX0X8X8X0X8X8X",
"eXSXDXSXSXDXDXDXDXSXSXgXgXgXgXgXgXgXgXgXgXgXgXgXgXgXgXgXgXgXgXgXgXDXDXgXwXqXwXwXwXwXwXwXwXqXeXv.c.4X5.c.8.8.n.eXqXwXwXwXwXwXwXwXwXwXwXwXwXwXwXqXwX3X#.!.8.n.5.~.eXqXwXwXwXwXwXwXwXwXwXwXwXwXwXqXeXQ.v.0.S.^.4.5XwXqXwXwXwXwXqXwX5Xk.j.k.k.j.I I I * +.z.j.k.k.k.k.k.k.k.k.a O.a s a k.k.k.k.k.k.k.k.k.j.L I I I ;.z.j.k.k.k.k.k.k.k.4.a a X.a s : +.l.k.k.k.k.k.eXeXqXqXqXqXqXeXb.,XwXqXqXqXqX:XqXqXqXqXqXeXb.:XwXqXqXqXqX,X5XqXqXqXqXeXn.:XwXqXqXqXwX3X4XwX2XP.eXdXG.O R.pX5XqXwX4X4X0X#X^ I.yX: 6.gX5XqXqXwX4X5XgX0X8X8X0X8X8X",
"wXwXwXwXwXwXwXwXwXwXwXwXwXwXwXwXwXwXwXwXwXwXwXwXwXwXwXwXwXwXwXwXwXwXwXwXwXqXwXwXwXwXwXwXqXwX5X9.8.v.5.s #.X.0.wXqXwXwXwXwXwXwXwXwXwXwXwXwXwXwXwXqXeX9.:Xn.s 4.c.pX5XwXwXwXwXwXwXwXwXwXwXwXwXwXqXeX^.o.8.0.v.1.!.eXqXwXwXwXwXqXwX5Xk.j.k.k.I h.eX~.l.* +.l.j.k.k.k.k.k.l.+.% X.& X.a k.k.k.k.k.k.k.k.k.I h.wXdX2X& @.l.j.k.k.k.k.k.k.7.: X.& % s a 4.k.k.k.k.k.k.eXwX4X4X4X4X3XqXv.:X4X4X4X4X4X:X4X4X4X4X3XqXv.>X4X4X4X4X4X:X3X4X4X4X3XqXv.~.5X4X4X4X4X:X:XqX/.P.qX0Xp H.eX3X4X4X4X:X:X4X#X~ #XuX: *.wX4XqX4X4X:X5XgX0X8X8X0X8X8X",
"wXgXpXeXpXpXpXpXpXeXpXpXgXgXpXpXpXpXpXpXpXpXpXpXpXpXpXpXpXpXgXeXpXgXgXpXwXqXwXwXwXwXwXwXqXqXeXc.4.b.4.5.4.1.c.eXqXwXwXwXwXwXwXwXwXwXwXwXwXwXwXqXwX3Xc.~.b.4.#.Q.eXqXwXwXwXwXwXwXwXwXwXwXwXwXwXqXwX3Xb.8.9.c.#.3XwXqXwXwXwXwXqXwX5Xk.j.z.@.h.LXwX% DXB.* z.j.k.k.k.k.k.k.7.: a a % s l.k.k.k.k.k.j.z.@.h.HXSX3Xr.V.* z.j.k.k.k.k.k.k.k.X.O.: & a X.l.j.k.k.k.k.l.wXhXIXPXPXPXKXIX:XDXIXPXPXPXPXDXKXPXPXPXKXIX:XSXIXPXPXPXPXDXKXPXPXPXKXIX3XAXIXPXPXPXPXFXHXIXGXR.IXfX7 yXIXLXPXPXPXHXFXPX*X~ CXJX> T.KX^.:XDXIXKXwXgX0X8X8X0X8X8X",
"eXgXgXDXDXDXSXSXSXDXAXDXpXgXgXgXgXgXgXgXgXgXgXgXgXgXgXgXgXgXgXgXAXeXpXAXwXqXwXwXwXwXwXwXwXqXwXwX5XqX5XwXqXwXwXwXqXwXwXwXwXwXwXwXwXwXwXwXwXwXwXqXwXqXwXwX5XpXqXwXqXwXwXwXwXwXwXwXwXwXwXwXwXwXwXwXwXqXwX5X5XqX5XwXqXwXwXwXwXwXqXwX5Xk.j.z.I >XDXqXm.gXgX* +.k.k.k.k.k.k.k.k.k.j.j.j.7.k.k.k.k.k.k.k.z.I >XhXDX9.1.AX* +.k.k.k.k.k.k.k.k.k.7.k.k.j.k.k.k.k.k.k.k.k.wXgXHXFXFXFXFXKX~.gXKXFXFXFXHXgXFXFXFXFXFXKX>XgXKXFXFXFXHXgXFXFXFXFXFXKX:XpXKXFXFXFXHXSXSXKXdXR.JXR.O OXKXFXFXFXHXSXAXKX@XH UXkX> w.eXc.f wXKXDXwXgX0X8X8X0X8X8X",
"gXQ.b.,XQ.!.3X,X:X~.wX3Xc.eXgXgXgXgXgXgXgXgXgXgXgXgXgXgXgXgXgXpXDX$.3.DXwXqXwXwXwXwXwXwXwXwXqXqXwXeXwXeXwXqXwXqXwXwXwXwXwXwXwXwXwXwXwXwXwXwXwXwXwXqXeX:XQ.S.5XwXqXqXwXwXwXwXwXwXwXwXwXwXwXwXwXwXqXwXwXwXeXwXqXqXwXqXwXwXwXwXqXwX5Xk.j.z.I >XSXgXDXgXgX* +.k.k.k.k.k.k.k.k.7.j.7.l.k.k.k.k.k.k.k.k.z.I >XDXgXAXDXgX* +.k.k.k.k.k.k.k.k.7.7.7.7.k.k.k.k.k.k.k.k.l.wXgXKXHXHXHXFXPX>XgXKXHXHXHXKXgXFXHXHXHXFXPX>XgXKXHXHXHXKXgXFXHXHXHXFXPX:XgXKXHXHXHXKXSXDXKXjXE.NXW.O OXPXFXHXHXKXDXSXLX[ ~ IXNX> m.4X^.wXhXKXDXwXgX0X8X8X0X8X8X",
"gX^.1.4.o.#.s X.b.o.z.f X.gXgXgXgXgXgXgXgXgXgXgXgXgXgXgXgXgXgXgXAX3.9.AXwXqXwXwXwXwXwXwXwXwXqXeX~.o.4.c.8.wXqXqXwXwXwXwXwXwXwXwXwXwXwXwXwXwXwXwXqXwX~.X.X.s !.eXqXwXwXwXwXwXwXwXwXwXwXwXwXwXwXqXwX4X#.#.v.9.3XwXqXwXwXwXwXwXqXwX5Xk.j.z.@.y.DXgXgXKXl.* c.j.k.k.k.k.k.j.z.a : p p 7.k.k.k.k.k.k.j.z.@.y.DXgXgXKXl.* z.j.k.k.k.k.k.k.k.7.& p : X.l.j.k.k.k.k.k.l.wXgXKXHXHXHXFXPX>XgXKXHXHXHXKXgXFXHXHXHXFXPX>XgXKXHXHXHXKXgXFXHXHXHXFXPX:XgXKXHXHXHXKXSXSXPXdXP.IXL.7 sXKXFXHXHXKXDXAXIX~ ] IXNX> m.IXKXKXKXKXDXwXgX0X8X8X0X8X8X",
"gX~.z.:Xn.v.c.S.3X^.c.4.c.gXgXgXgXgXgXgXgXgXgXgXgXgXgXgXgXgXgXpXDX0.e.DXwXqXwXwXwXwXwXwXwXwX5XpXn.#.5.8.o.4XwXqXwXwXwXwXwXwXwXwXwXwXwXwXwXwXwXwX5XpXc.o.o.s S.eXqXwXwXwXwXwXwXwXwXwXwXwXwXwXwXqXwX:X#.5.8.o.Q.eXqXwXwXwXwXwXqXwX5Xk.j.k.k.I V.iXpXB.* +.l.j.k.k.k.k.k.j.z.a : & p k.k.k.k.k.k.k.k.k.k.I h.iXpXB.* +.l.j.k.k.k.k.k.k.k.7.& p % O.l.j.k.k.k.k.k.l.wXgXKXHXHXHXFXPX>XgXKXHXHXHXKXgXFXHXHXHXFXPX>XgXKXHXHXHXKXgXFXHXHXHXFXPX:XgXKXHXHXHXKXSXDXPX:XE.IXi 0 sXPXFXHXHXKXSXDXKXH *XIXNX> m.IXDXFXFXKXDXwXgX0X8X8X0X8X8X",
"eXAXAXAXSXAXAXAXAXAXSXSXSXgXgXgXgXgXgXgXgXgXgXgXgXgXgXgXgXgXgXgXgXDXDXgXwXqXwXwXwXwXwXwXwXwXqXwX4X:X,X:XQ.qXwXqXwXwXwXwXwXwXwXwXwXwXwXwXwXwXwXwXqXwX4Xn.^.n.4XwXqXwXwXwXwXwXwXwXwXwXwXwXwXwXwXqXwX5X:X,X,XQ.3XwXqXwXwXwXwXwXqXwX5Xk.j.k.k.j.;.k.k.7.7.l.j.k.k.k.k.k.k.k.k.7.k.O.X.k.k.k.k.k.k.k.k.k.k.k.;.k.k.7.7.l.j.k.k.k.k.k.k.k.k.j.7.7.X.+.k.k.k.k.k.k.k.l.wXgXKXFXHXHXFXKX>XgXKXFXHXFXHXgXFXHXHXHXFXPX>XgXKXFXHXFXKXgXFXHXHXHXFXPX:XgXKXFXHXFXKXSXDXpX6XR.IXe f OXPXFXHXFXKXAXLX^ ~ LXUXNX> m.IXFXHXFXKXDXwXgX0X8X8X0X8X8X",
"wXeXwXwXwXwXeXwXwXwXwXwXwXeXeXeXeXeXeXeXeXeXeXeXeXeXeXeXeXeXeXwXeXwXwXeXwXqXwXwXwXwXwXwXwXwXwXqXwXwXwXwXeXwXwXwXwXwXwXwXwXwXwXwXwXwXwXwXwXwXwXwXwXqXwXpXeXpXwXqXwXwXwXwXwXwXwXwXwXwXwXwXwXwXwXwXqXwXwXwXwXeXwXqXwXwXwXwXwXwXqXwX5Xl.k.k.k.k.k.k.k.k.k.k.k.k.k.k.k.k.k.k.k.k.k.l.z.k.k.k.k.k.k.k.k.k.k.k.k.k.k.k.k.k.k.k.k.k.k.k.k.k.k.k.k.k.z.l.k.k.k.k.k.k.k.l.wXgXKXKXKXKXHXPX>XAXKXKXKXKXKXhXHXKXKXKXHXPX:XgXKXKXKXKXKXAXHXKXKXKXHXIX:XgXPXKXKXKXKXDXwXgXjXR.IXw q.OXPXHXKXKXUXLX[.~ *XHXKXJX> m.IXFXKXKXKXFXwXgX0X8X8X0X8X8X",
"qX5X5X5X5X5X5X5X5X5X5X5X5X5X5X5X5X5X5X5X5X5X5X5X5X5X5X5X5X5X5X5X5X5X5X5XqXqXqXqXqXqXqXqXqXqXqXqXqX5X5X5X5XqXqXqXqXqXqXqXqXqXqXqXqXqXqXqXqXqXqXqXqXqX5X5X5X5XqXqXqXqXqXqXqXqXqXqXqXqXqXqXqXqXqXqXqXqX5X5X5X5XqXqXqXqXqXqXqXqXqXqX4Xk.7.7.7.7.7.7.7.7.7.7.7.7.7.7.7.7.7.7.7.7.7.7.7.7.7.7.7.7.7.7.7.7.7.7.7.7.7.7.7.7.7.7.7.7.7.7.7.7.7.7.7.7.7.7.7.7.7.7.7.7.7.k.wXgXSXAXAXAXhXDXQ.eXDXAXAXAXSXpXhXAXAXAXhXFX!.wXDXAXAXAXSXpXhXSXAXAXhXFX!.wXDXAXAXAXDXpX3XDXfXE.SX8 H.oXFXhXAXgXJX&XG gX&XhXDXaX> w.KXgXSXAXSXgXwXgX0X8X8X0X8X8X",
"gXgXgXgXgXgXgXgXgXgXgXgXgXgXgXgXgXgXgXgXgXgXgXgXgXgXgXgXgXgXgXgXgXgXgXgXgXgXgXgXgXgXgXgXgXgXgXgXgXgXgXgXgXgXgXgXgXgXgXgXgXgXgXgXgXgXgXgXgXgXgXgXgXgXgXgXgXgXgXgXgXgXgXgXgXgXgXgXgXgXgXgXgXgXgXgXgXgXgXgXgXgXgXgXgXgXgXgXgXgXgXgXgXqX5X5X5X5X5X5X5X5X5X5X5X5X5X5X5X5X5X5X5X5X5X5X5X5X5X5X5X5X5X5X5X5X5X5X5X5X5X5X5X5X5X5X5X5X5X5X5X5X5X5X5X5X5X5X5X5X5X5X5X5X5XqXpXgXFXDXDXDXDXKX!.gXFXDXDXDXDXgXDXDXDXDXDXKX~.eXFXDXDXDXDXgXDXDXDXDXDXKX>XeXFXDXDXDXSX,XSXHXdXR.dX5 G.oXKXDXDXHXdXG 9XHX&XDXFXaX> m.KXSXSXDXDXAXwXgX0X8X8X0X8X8X",
"3X5X4X3X3X3X3X3X3X3X3X3X3X3X3X3X3X3X3X3X3X3X3X3X3X3X3X3X3X3X3X3X3X3X3X3X3X3X3X3X3X3X3X3X3X3X3X3X3X3X3X3X3X3X3X3X3X3X3X3X3X3X3X3X3X3X3X3X3X3X3X3X3X3X3X3X3X3X3X3X3X3X3X3X3X3X3X3X3X3X3X3X3X3X3X3X3X3X3X3X3X3X3X3X3X3X3X3X3X3X3X3X3X4X4X4X4X4X4X4X4X4X4X4X4X4X4X4X4X4X4X4X4X4X4X4X4X4X4X4X4X4X4X4X4X4X4X4X4X4X4X4X4X4X4X4X4X4X4X4X4X4X4X4X4X4X4X4X4X4X4X4X4X4X4X5XpXgXKXKXKXKXHXPX>XAXKXKXKXKXKXhXHXKXKXKXHXPX:XgXKXKXKXKXKXhXFXKXKXKXHXPX:XgXKXHXKXKXwXgXDXPXdXR.fXw oXoXIXFXKXKXH @XLXUX&XHXKXNX> U.DX8.n.FXKXDXwXgX0X8X8X0X8X8X",
"~.0.v.^.Q.Q.^.~.!.!.!.!.!.!.!.!.!.!.!.!.!.!.!.!.!.!.!.!.!.!.!.!.!.!.!.!.!.!.!.!.!.!.!.!.!.!.!.!.!.!.!.!.!.!.!.!.!.!.!.!.!.!.!.!.!.!.!.!.!.!.!.!.!.!.!.!.!.!.!.!.!.!.!.!.!.!.!.!.!.!.!.!.!.!.!.!.!.!.!.!.!.!.!.!.!.!.!.!.!.!.!.!.!.!.!.!.!.!.!.!.!.!.!.!.!.!.!.!.!.!.!.!.!.!.!.!.!.!.!.!.!.!.!.!.!.!.!.!.!.!.!.!.!.!.!.!.!.!.!.!.!.!.!.!.!.!.!.!.!.!.!.!.!.!.!.!.eXgXKXFXHXHXFXPX>XgXKXHXHXHXKXgXFXHXHXHXFXPX>XgXKXFXHXHXKXgXFXHXHXHXFXPX:XgXKXFXKXwXgXDXSXKXdX/.E.e OX.XPXDXLX^ ] LXAXKX&XHXKXNX> 9.gX#.#.eXPXDXwXgX0X8X8X0X8X8X",
"c.X.c.9.a o.f n.^.~.~.~.~.~.~.~.~.~.~.~.~.~.~.~.~.~.~.~.~.~.~.~.~.~.~.~.~.~.~.~.~.~.~.~.~.~.~.~.~.~.~.~.~.~.~.~.~.~.~.~.~.~.~.~.~.~.~.~.~.~.~.~.~.~.~.~.~.~.~.~.~.~.~.~.~.~.~.~.~.~.~.~.~.~.~.~.~.~.~.~.~.~.~.~.~.~.~.~.~.~.~.~.~.~.~.~.~.~.~.~.~.~.~.~.~.~.~.~.~.~.~.~.~.~.~.~.~.~.~.~.~.~.~.~.~.~.~.~.~.~.~.~.~.~.~.~.~.~.~.~.~.~.~.~.~.~.~.~.~.~.~.~.~.~.~.^.eXgXKXHXHXHXFXPX>XgXKXHXHXHXKXgXFXHXHXHXFXPX>XgXKXHXHXHXKXgXFXHXHXHXFXPX:XgXKXKXgXeXKXSXDXPXdX2XL.i OX.XPXLX@X~ LXSXSXKX&XHXKXNX> m.SX5X5XDXKXDXwXgX0X8X8X0X8X8X",
"c.O.s p p f : b.^.!.~.~.~.~.~.~.~.~.~.~.~.~.~.~.~.~.~.~.~.~.~.~.~.~.~.~.~.~.~.~.~.~.~.~.~.~.~.~.~.~.~.~.~.~.~.~.~.~.~.~.~.~.~.~.~.~.~.~.~.~.~.~.~.~.~.~.~.~.~.~.~.~.~.~.~.~.~.~.~.~.~.~.~.~.~.~.~.~.~.~.~.~.~.~.~.~.~.~.~.~.~.~.~.~.~.~.~.~.~.~.~.~.~.~.~.~.~.~.~.~.~.~.~.~.~.~.~.~.~.~.~.~.~.~.~.~.~.~.~.~.~.~.~.~.~.~.~.~.~.~.~.~.~.~.~.~.~.~.~.~.~.~.~.~.~.^.eXgXKXHXHXHXFXPX>XgXKXHXHXHXKXgXFXHXHXHXFXPX>XgXKXHXHXHXKXgXFXHXHXHXFXPX:XpXPXAXqXKXKXSXDXPXdX2X .L.OX.XIX&XG GXKXSXSXKX&XHXKXNX> m.IXKXKXKXKXDXwXgX0X8X8X0X8X8X",
"^.c.c.c.b.b.b.!.~.~.~.~.~.~.~.~.~.~.~.~.~.~.~.~.~.~.~.~.~.~.~.~.~.~.~.~.~.~.~.~.~.~.~.~.~.~.~.~.~.~.~.~.~.~.~.~.~.~.~.~.~.~.~.~.~.~.~.~.~.~.~.~.~.~.~.~.~.~.~.~.~.~.~.~.~.~.~.~.~.~.~.~.~.~.~.~.~.~.~.~.~.~.~.~.~.~.~.~.~.~.~.~.~.~.~.~.~.~.~.~.~.~.~.~.~.~.~.~.~.~.~.~.~.~.~.~.~.~.~.~.~.~.~.~.~.~.~.~.~.~.~.~.~.~.~.~.~.~.~.~.~.~.~.~.~.~.~.~.~.~.~.~.~.~.~.^.eXgXKXHXHXHXFXPX>XgXKXHXHXHXKXgXFXHXHXHXFXPX>XgXKXHXHXHXKXgXFXHXHXHXFXPX:XgXKX5XFXKXKXSXDXPXdX2Xy L.OXoXZXG 9XLXFXDXSXKX&XHXKXNX> m.IXDXFXHXKXDXwXgX0X8X8X0X8X8X",
"~.:X:X:X^.^.^.~.~.~.~.~.~.~.~.~.~.~.~.~.~.~.~.~.~.~.~.~.~.~.~.~.~.~.~.~.~.~.~.~.~.~.~.~.~.~.~.~.~.~.~.~.~.~.~.~.~.~.~.~.~.~.~.~.~.~.~.~.~.~.~.~.~.~.~.~.~.~.~.~.~.~.~.~.~.~.~.~.~.~.~.~.~.~.~.~.~.~.~.~.~.~.~.~.~.~.~.~.~.~.~.~.~.~.~.~.~.~.~.~.~.~.~.~.~.~.~.~.~.~.~.~.~.~.~.~.!.!.~.~.~.!.~.~.~.~.~.~.~.~.~.~.~.~.~.~.~.~.~.~.~.~.~.~.~.~.~.~.~.~.~.~.~.~.~.^.eXgXHXFXFXFXFXKX~.gXKXFXFXFXHXgXFXFXFXFXFXKX>XgXKXFXFXFXHXgXFXFXFXFXFXKX:XgXwXSXKXFXHXSXSXKXdX/.e W.OXoXH @XLXDXHXSXSXFX&XFXKXNX> m.IXDXFXFXHXDXwXgX0X8X8X0X8X8X",
"5X4X4X4X4X4X4X5X5X5X5X5X5X5X5X5X5X5X5X5X5X5X5X5X5X5X5X5X5X5X5X5X5X5X5X5X5X5X5X5X5X5X5X5X5X5X5X5X5X5X5X5X5X5X5X5X5X5X5X5X5X5X5X5X5X5X5X5X5X5X5X5X5X5X5X5X5X5X5X5X5X5X5X5X5X5X5X5X5X5X5X5X5X5X5X5X5X5X5X5X5X5X5X5X5X4XqX5X4X4X4X4X4X4X5X5X5X5X5X5X5X5X5X5X5X5X5X5X5X5X5X5X5X5X4XqX5XwX5X5XqXwX5X5X5X5X5X5X4X5X5X5X5X5X5X5X5X5X5X5X5X5X5X5X5X5X5X5X5X5X5X5X5X5X5X5XpXgXIXPXPXPXKXIX:XDXIXPXPXPXPXDXKXPXPXPXKXIX:XSXIXPXPXPXPXDXKXPXPXPXKXIX:X3XFXIXPXPXPXFXHXIXGXR.w fXsXK | IXKXPXPXHXHXPX*XPXIXJX> n.IXKXPXPXPXKXwXgX0X8X8X0X8X8X",
"wXwXwXwXwXwXwXwXwXwXwXwXwXwXwXwXwXwXwXwXwXwXwXwXwXwXwXwXwXwXwXwXwXwXwXwXwXwXwXwXwXwXwXwXwXwXwXwXwXwXwXwXwXwXwXwXwXwXwXwXwXwXwXwXwXwXwXwXwXwXwXwXwXwXwXwXwXwXwXwXwXwXwXwXwXwXwXwXwXwXwXwXwXwXwXwXwXwXwXwXwXwXwXwXwXeX3X5XeXeXpXeXeXpXwXwXwXwXwXwXwXwXwXwXwXwXwXwXwXwXwXwXwXwXeX:X,X~.wX5X,X^.wXqX4XqXqX3X,X4XqXwXwXwXwXwXwXwXwXwXwXwXwXwXwXwXwXwXwXwXwXwXwXwXwXwXgXwX4X3X3X3X3X5Xc.>X4X3X3X3X4X:X3X4X3X3X3X5Xv.>X4X3X3X3X4X:X3X4X3X4X3X5X:XS.4X3X4X3X4X:X:X4X:X<.5 3Xx.m 0X3X3X3X4X:X:X4Xg.3X4X<X> *.wX4X4X4X4X:X5XgX0X8X8X0X8X8X",
"qXqXqXqXqXqXqXqXwXqXqXqXqXqXqXqXqXwXqXqXqXqXqXqXqXqXqXqXqXqXqXqXqXwXqXqX5XqXwXqXqXqXqXqXqXqXqXqXqXqXwXqXqXqXqXqXqXqXqXqXqXqXqXqXqXqXqX5XqXqXqXwXqXqXqXqXqXqXqXqXqXqXqXwXqXqXqXqXqXqXqXqXqXqXqXqXqXqXqXqXqXqXqXqXeX~.5.S.:XS.v.:XQ.b.5XwXqXqXqXqXqXqXqXqXqXqXqXqXqXqXqXqXqX5XpXn.X.s 9.#.o.O.o.s 8.O.X.4.5.#.4XwXqXqXqXqXqXqXqXqXqXqXqXqXqXqXqXqXwXqXqXwXqXqXqXwXgXeXwXqXwXwXqXeXb.3XwXqXwXqXwX,XqXwXwXwXqXeXb.:XwXqXwXqXwX3XqXwXwXqXwX4Xb.4XwXqXwXqXwX4X4XwX4Xy w #Xv J.dXqXwXqXwX4X4XwX@XqXwX<X> 6.AX:X:XqXwX4X5XgX0X8X8X0X8X8X",
"wXwXwXwXwXqXwXwX5XeXwXeXeXeXwXeXwX5XeXwXqXwXwXwXwXwXqXwXwXwXeXwXwXqXwXwXpXeX5XeXwXeXwXqXwXqXeXwXeXeXqXqXeXeXwXwXeXwXqXwXwXwXwXqXwXeXeXpXeXwXeXqXwXwXqXwXwXwXqXwXwXwXeX5XwXwXwXeXwXeXwXqXwXwXwXwXwXwXwXwXwXwXwX5XgXz.S.n.1.s v.X.s a ,XwXqXwXwXwXwXwXwXwXwXwXwXwXwXwXwXwXwXqXpXS.0.z.s b.X.4.X.o.Q.X.8.X.4.#.~.eXqXwXwXwXwXwXwXwXwXwXwXqXwXwXwXeX5XwXwXqXwXwXqXwXpXgXPXKXPXPXKXIX:XDXIXKXPXKXPXDXKXPXPXPXKXIX:XSXIXKXPXKXPXDXKXPXKXPXKXgX>XgXIXKXPXKXPXFXFXPXKXi e ` l.uXIXKXPXKXPXFXFXPX*XLXIXJX> U.hX5.9.hXIXHXwXgX0X8X8X0X8X8X",
"wXwXwXwXqXwX4X5.S.~.,X!.S.n.:X^.!.0.^.5XwXqXwXwXwXqXwXqX#.c.:X4X8.b.5X3Xn.c.:X!.3XQ.5XwXqXeX4.!.4.4Xc.Q.3X^.4X,XQ.4XwXqXwXwXqXeX:Xz.S.8.~.:X,X9.!.wXwXqXwXqXwX:XO.n.,X0.~.,X:X^.:X^.4XwXqXwXwXwXqXqXqXqXwXwXwXqXwX4X8.n.5.v.5Xc.!.c.qXqXqXwXwXwXwXwXwXwXwXwXwXwXwXqXqXqXqXqXwX5XwX:X0.5X,X4X4X3XwX4X,X,X4X:XqXqXqXqXqXwXwXwXwXwXwXwXqXwXn.Q.n.:Xc.!.4.4XwXqXqXwXpXgXKXFXFXFXFXKX^.gXKXFXFXFXHXgXFXFXFXFXFXKX>XgXKXFXFXFXHXgXFXFXFXHX5XFX:XpXKXFXFXFXKXSXSXFXFXw 9 &XOX.XPXFXFXFXKXSXSXHX&XHXKXNX> w.~.o.4.eXKXDXwXgX0X8X8X0X8X8X",
"wXwXwXwXqXpXn.c.^.o.O.o.X.o.5.5.o.o.o.3XwXqXwXwXwXqXwX5Xa X.a s o.X.z.X.8.o.o.4.O.X.n.pX5XeXX.s f #.: f X.p 8.#.X.0.eX5XwXwX5XpX8.p o.X.c.p #.#.s eXqXqXwXqXeX~.p o.a X.a O.X.s o.p b.pX5XwXwXqXwXeXeXqXqXqXqX5XqXwXeXwXpXeXwXeXeXeXwXeXwX5XqXqXqXqXwXqXwXwXwXwXqXwXeXeXqX5XqXqXqX5XwXwXwXwXwXwXqXwXwXwXpXpXwXwXwXwXwXqXwXwXwXwXwXwX5XpX#.f s 5.X.#.X.4XwXqXqXwXpXgXKXHXHXHXFXPX>XgXKXHXHXHXKXgXFXHXHXHXFXPX>XgXKXHXHXHXKXgXFXHXKXwXgXIX:XgXKXHXHXHXKXSXSXPXPX6 R IX.XoXPXFXHXHXKXDXSXKX&XHXKXNX> m.IXSXgXFXKXDXwXgX0X8X8X0X8X8X",
"wXwXwXwXqXwX4X5.b.9.z.S.z.9.^.z.8.b.5.:XwXqXwXwXwXqXwX4Xc.z.4.z.4.8.#.8.c.8.0.8.z.n.Q.eXqXwXv.4.8.O.#.8.5.z.4.#.f S.eXqXwXqXqXwXv.n.4.c.4.O.8.8.5.5XwXqXwXqXwX:Xc.8.5.c.5.8.O.8.4.#.^.wXqXwXqXwX4X:X^.wXpXeXeXgX5X4XeX5XqXqXqXqXqXwX4X^.qXpXeXpXeXeXqXwXwXwXwXqXwX5X:X^.wXpXeXeXgXqX4XeX5XqXqXqXqXqXwX4X4.S.5X5X3XwX4XwXqXwXwXwXwXwXqXwXn.!.5.8.c.8.4.5XwXqXqXwXpXgXKXHXHXHXFXPX>XgXKXHXHXHXKXgXFXHXHXHXFXPX>XgXKXHXHXHXKXgXFXKXgXeXKXPX:XgXKXHXHXHXKXSXAXmX .w PXPXoXoXPXFXHXHXKXDXSXKX&XHXKXNX> m.IXFXKXHXKXDXwXgX0X8X8X0X8X8X",
"wXwXwXwXwXqXwXwXqXwXwXwXwXqXwXwXwXwXqXwXqXwXwXwXwXwXqXwXwXeXwXwXwXwXwXeX5XwXeXqXwXwXwXqXwXqXwXeXwXwXeXeXwXqXeX,XQ.pXqXwXwXwXwXqXwXeXwXqXwXeXwXqXeXqXwXqXwXwXqXwXwXeXwXwXeXwXeXqXwXwXqXwXqXwXqXwX3Xo.O.8.Q.n.n.n.c.X.:XwXqXwXwXwXqXwXqXo.8.S.n.b.Q.n.wXqXqXwXwXqXwX4Xo.O.9.Q.n.n.b.c.X.:XwXqXwXwXwXqXqXwX8.5.5.o.#.X.O.wXqXqXwXwXwXwXwXqXwXwXeXqXeXwXwXwXqXwXqXwXpXgXKXHXHXHXFXPX>XgXKXHXHXHXKXgXFXHXHXHXFXPX>XgXKXHXHXHXKXgXKXSXwXKXFXPX:XgXKXHXHXHXHXFXg.v @ E.IXKXoXoXPXFXHXHXKXDXSXKX&XHXKXNX> m.IXFXFXHXKXDXwXgX0X8X8X0X8X8X",
"wXwXwXwXwXwXqXwXwXqXqXqXqXwXqXqXqXqXwXqXwXwXwXwXwXwXwXqXqXqXqXqXqXqXwXqXwXqXqXwXqXqXqXwXwXwXqXqXqXqXqXqXqXwXqXwXwXqXwXwXwXwXwXwXqXqXqXqXqXqXqXwXqXwXqXwXwXwXwXqXqXqXwXqXqXwXqXwXqXqXwXqXwXwXwXqXwXc.8.#.s z.p o.X.o.8.eX5XwXwXwXqXwX:X5.9.o.X.4.: O.wXqXqXwXwXwXqXeXc.8.1.s c.p o.X.o.8.eX5XwXwXwXqXeXQ.O.0.1.9.b.s 8.wXqXqXwXwXwXwXwXwXqXqXqXwXqXqXqXqXwXwXqXwXpXgXKXFXHXHXFXKX>XgXKXFXHXHXHXgXFXHXHXHXFXPX>XgXKXFXHXFXHXhXDX5XFXKXFXPX:XgXKXFXHXFXFXKXy.@ $ E.PXPXoXoXPXFXHXFXKXSXSXKX&XHXKXNX> m.IXFXHXFXKXDXwXgX0X8X8X0X8X8X",
"wXwXwXwXwXwXwXqXqXqXwXwXwXqXwXqXqXwXqXwXwXwXwXwXwXwXwXwXwXwXqXqXqXwXqXwXqXqXwXqXwXwXwXwXwXwXwXwXwXqXqXwXqXqXwXqXqXwXwXwXwXwXwXwXwXwXqXqXqXqXqXqXwXwXwXwXwXwXwXwXwXwXqXwXqXqXqXqXqXqXwXwXwXwXwXqXwXQ.!.~.n.4Xv.S.8.!.~.wXqXwXwXwXqXeX!.5.n.c.!.~.v.S.wXqXwXwXwXqXqXwXQ.!.~.n.4Xv.S.8.!.~.wXqXwXwXwXqXwX5X:X3X3XwX5XqX4XwXqXwXwXwXwXwXwXwXwXwXwXqXwXqXqXwXwXwXqXwXpXgXKXKXKXKXHXPX>XAXKXKXKXKXKXhXHXKXKXKXHXPX:XgXKXKXKXKXKXAX5XDXKXKXHXPX:XgXPXKXKXKXKXHX8 R $XR.PXPXoXoXIXHXKXKXKXDXDXKX&XKXKXNX> m.IXFXHXKXKXDXwXgX0X8X8X0X8X8X",
"qXqXqXqXqXqXqXqXqXqXqXqXqXqXqXqXqXqXqXqXqXqXqXqXqXqXqXqXqXqXqXqXqXqXqXqXqXqXqXqXqXqXqXqXqXqXqXqXqXqXqXqXqXqXqXqXqXqXqXqXqXqXqXqXqXqXqXqXqXqXqXqXqXqXqXqXqXqXqXqXqXqXqXqXqXqXqXqXqXqXqXqXqXqXqXqXqXwXwXwXeXwXeXwXpXwXwXqXqXqXqXqXqXqXwXeXeXeXwXwXeXwXqXqXqXqXqXqXqXqXwXwXwXeXwXeXwXeXwXwXqXqXqXqXqXqXqXwXwXwXwXqXqXqXwXqXqXqXqXqXqXqXqXqXqXqXqXqXqXqXqXqXqXqXqXwXgXgXAXhXhXhXgXDXQ.eXSXhXhXhXAXeXgXhXhXhXgXDXQ.wXSXhXhXgXSX4XwXSXgXhXgXDX!.qXDXgXhXgXPXe e IXdXE.DXGXG.G.DXgXhXhXAXgXgXAX#XhXAXaX> w.KXAXDXAXAXgXwXgX0X8X8X0X8X8X",
"gXgXgXgXgXgXgXgXgXgXgXgXgXgXgXgXgXgXgXgXgXgXgXgXgXgXgXgXgXgXgXgXgXgXgXdXgXgXgXgXgXgXgXgXgXgXgXgXgXgXgXgXgXgXgXgXgXgXgXgXgXgXgXgXgXgXgXgXpXgXgXgXgXgXgXgXgXgXgXgXgXgXgXgXgXgXgXgXgXgXgXgXgXgXgXgXgXgXgXgXpXpXpXgXgXgXgXgXgXgXgXgXgXgXgXgXgXdXdXgXgXgXgXgXgXgXgXgXgXgXgXgXgXgXgXgXgXgXgXgXgXgXgXgXgXgXgXgXgXgXgXgXgXgXgXgXgXgXgXgXgXgXgXgXgXgXgXgXgXgXgXgXgXgXgXgXgXgXFXDXFXFXDXKX~.gXHXDXFXFXFXgXDXFXFXFXDXKX^.gXHXDXDXHXpX4XHXDXFXFXDXKX>XeXKXFXDXIXL.5 HXHXdXE.HXKX.X.XKXDXFXDXFXAXAXFX&XDXFXhX> m.KX5X4XDXFXSXwXgX0X8X8X0X8X8X",
"wXwXwXwXwXwXwXwXwXwXwXwXwXwXwXwXwXwXwXwXwXwXwXwXwXwXwXwXwXwXwXeXwXeXhXkXhXwXwXeXwXwXwXwXwXwXwXwXeXwXiXhXhXgXwXwXeXwXwXwXwXwXwXwXeXwXwXdXdXdXeXwXeXwXwXwXwXwXwXwXwXeXwXpXhXhXaXwXwXeXwXwXwXwXwXwXwXeXwXwXdXdXdXeXwXeXwXwXwXwXwXwXwXwXeXwXiXhXkXaXwXwXeXwXwXpX:Xb.B.B.B.B.B.B.!.Q.B.B.B.B.B.B.B.B.B.B.B.B.B.B.S.F.B.B.B.B.B.B.b.:XpXwXwXeXwXwXgXhXhXpXwXeXwXwXwXeXgXgXKXHXKXKXFXPX>XAXKXHXKXKXKXgXHXKXKXKXFXPX:XgXKXHXKXSXwXhXFXKXKXKXFXPX:XgXKXFXIXR.5 dXHXKXjXR.PXPXoXoXIXHXKXHXKXDXDXKX&XHXKXNX> m.^.5.c.wXPXDXwXgX0X8X8X0X8X8X",
"wXiXiXiXiXiXiXiXiXiXiXiXiXqXwXwXwXwXwXqXwXwXwXwXwXqXqXqXqXqXqX5XiX5Xh.Q N.iXwXqXqXqXqXqXqXqXqXqXqXiX1X[.( T.aXqXqXqXqXqXqXqXqXqXqXwXeXG.K.H.5XwX5XqXqXqXqXqXqXqXqX5XaX1Xu.T T.aXqXqXqXqXqXqXqXqXqXqXwXeXG.K.H.5XeX5XqXqXqXqXqXqXqXqXqXiX1X[.[ #XiXqXqXqX5XwXB.7.7.7.7.7.k.@.: : 7.k.7.7.7.7.7.7.7.7.7.7.k.7.@.I @.k.7.7.7.7.7.B.wX5XqXqXqXaXM.( y.1XiX5XqXqXqXwXpXgXKXHXHXHXFXPX>XgXKXHXHXHXKXgXFXHXHXHXFXPX>XgXKXKXFX5XFXAXFXHXHXHXFXPX:XgXKXKXjX6 R.PXjXPXdXR.PXPXoXoXPXFXHXHXKXSXSXKX&XHXKXNX> w.:X9.c.gXKXDXwXgX0X8X8X0X8X8X",
"1X#X#X#X#X#X#X#X#X#X#X#X#XwX4X4X4X4X4XqX4X4X4X4X4X5XwXwXwXwXqXiXM.v K W v K 5XwXqXwXwXwXwXwXwXqXaX@XH ] W v W iXqXqXwXwXwXwXwXqXwXqXZ Z K.Z Z .XeXqXwXwXwXwXwXwXqXaXI.9 R R 9 U iXqXqXwXwXwXwXwXqXwXwXZ Z K.Z Z G.eXqXwXwXwXwXwXwXqXiX#XH ] ] H ' wXwXqXqXeXQ.7.k.k.k.k.& * & * * @.z.k.k.k.k.k.k.k.k.z.+.* & & * & k.k.k.k.7.Q.eXqXqXwXwXK v W K $ g.aXqXwXqXwXpXgXKXHXHXHXFXPX>XgXKXHXHXHXKXgXFXHXHXHXFXPX>XgXKXKXqXSXKXgXFXHXHXHXFXPX:XgXKXPX5 L.IXgXDXPXjXR.PXPXoXoXPXFXHXHXKXDXSXKX&XHXKXNX> m.IXDXDXHXKXDXwXgX0X8X8X0X8X8X",
"@Xc # # # c # # c # # # G wX:X4X,X4X:X4X:X3X4X4X,X3XwXqXwXqXwX8XG g.JXLXJXW K hXqXqXwXwXwXwXqXiX#XG VX(.e.KXv Q hXqXwXwXwXwXqXqXdXZ K.GXGXPXuXZ 5XwXqXwXwXwXwXqXiXT.9 2XJXJXHXU R aX5XwXwXwXwXqXqXdXZ.K.GXGXGX.XZ 4XwXqXwXwXwXwXqXiX$XG *XJXkXkX' ] aXqXqXeXQ.7.k.j.c.& * l.l.l.@.* +.k.k.k.k.k.k.k.k.;.* @.z.k.k.& & z.j.k.7.S.eXqXqXhXW K DXJXLX$X$ $XiXqXqXwXpXgXKXHXHXHXFXPX>XgXKXHXHXHXKXgXFXHXHXHXFXPX>XgXPXwXgXKXHXgXFXHXHXHXFXPX:XeXIXi i IXFXSXDXPXjXR.PXPXoXoXPXFXHXHXKXDXSXKX&XHXKXNX> m.IXFXKXHXKXDXwXgX0X8X8X0X8X8X",
"@X# # # # # # # # c # @ H wX4X3Xn.eX3X4X4X3X0.n.qX3XwXqXwXqXaX[ ] Q.% eXgXSXv $XiXqXwXwXwXwXqXaX^ @XLXc.s LX1Xv qXwXqXwXwXwXqXwX<XZ AXgXgXq.w.%.%.gX5XwXwXwXwX5XaXU I.LXdXeX,X2X9 5XwXqXwXwXwXqXwX<XZ gXgXgXgXUXK.K.dXqXwXwXwXwXqXaX] [ JXdXAXHXdXH 4XwXqXeXQ.7.k.k.7.* 7.j.7.k.B.& & v.j.k.k.k.k.j.c.r & z.7.j.l.7.* 7.k.k.7.S.eXqXwX1Xv rXSXgXeXLX( W hXqXqXwXpXgXKXHXHXHXFXPX>XgXKXHXHXHXKXgXFXHXHXHXFXPX>XAXgXwXKXFXKXgXFXHXHXHXFXPX^.HXL.5 PXFXKXSXDXPXjXR.PXPXoXoXPXFXHXHXKXDXSXKX&XHXKXNX> m.IXFXHXHXKXDXwXgX0X8X8X0X8X8X",
"@X# # A c c # # c c c @ H wX3X4Xc.5X3X4X3X4X1.m.qX,XwXqXwXqXaX' @XJXn.eXgXJXK g.hXqXwXwXwXqXqXiX~ *XhXgXgXgXgXv >XiXqXwXwXwXqXdXG.Z GXgXgX$.~.x.Z jX5XwXwXwXwX5XaXt Y.SXSX^.% Q.u T.iXqXwXwXwXqXdXG.Z AXgXwX5XFXG.Z.dXqXwXwXwXwXqXaX~ %XhXAX~.e.hX' $XiXqXeXQ.7.k.l.+.* k.7.j.% a @.% v.j.k.k.k.k.j.c.& @.k.j.X.p k.* +.l.k.7.S.eXqXiX$Xv SXgX5XgXDXM.K hXqXqXwXpXgXKXFXHXHXFXKX>XgXKXFXHXFXHXgXFXHXHXHXFXKX:XwXwXHXHXFXKXgXFXHXHXHXFXKX4XE.5 jXPXFXKXSXSXKXdXR.PXPXoXoXPXFXHXFXKXSXSXKX&XHXKXNX> m.IXFXHXFXKXDXwXgX0X8X8X0X8X8X",
"@X# @ @ @ @ @ @ @ @ @ @ G wX3XwX3XwX3X4X,XwX5XqX5X3XwXqXwXqXaX[ ] JXGXgXgXSXv $XiXqXwXwXwXwXqXaX^ @XJXgXgXDX8Xv qXwXqXwXwXwXqXwX<XZ gXgXgXDXIXZ %.gX5XwXwXwXwX5XaXU L.LXgXgXHXrX$ 4XwXqXwXwXwXqXwX<XZ gXDX,X% dXK.K.dXqXwXwXwXwXqXaX] [ JXAX,Xp >X` 1XwXqXeXQ.7.k.k.7.* 7.j.j.a p & & v.j.k.k.k.k.j.c.I & z.j.+.% X.* 7.k.k.7.S.eXqXwX1Xv CXe.p GXLX( K hXqXqXwXpXgXKXKXKXKXKXPX>XAXKXKXKXKXKXAXKXKXKXKXHXIX:X:XKXKXKXKXKXAXHXKXKXKXFXIX^.6 W.IXFXKXKXDXDXPXjXR.PXPXoXoXIXHXKXKXKXDXDXKX&XKXKXJX> m.IXFXKXKXKXFXwXgX0X8X8X0X8X8X",
"@XA A A A A A A A A A A ~ wX:X3X3X3X:X5X,X,X3X3X:X3XwXqXwXqXwX0XG #XhXgXDXW K hXqXqXwXwXwXwXqXiX#XG 9XhXgXgXK ( hXqXwXwXwXwXqXqXdXZ K.AXgXAXA., 4XwXqXwXwXwXwXqXiXT.9 $XSXgXhXu L hX5XwXwXwXwXqXqXdXZ.K.gXSXQ.H.Z 4XwXqXwXwXwXwXqXiX$XG *XhXSXHXK W hXqXqXeXQ.7.k.j.c.& * j.7.l.@.= +.l.k.k.k.k.k.k.k.7.* @.j.j.l.* & v.j.k.7.S.eXqXqXhXI K Q.^.FX$X$ $XiXqXqXwXgX5X!.!.!.!.!.>X7.B.~.!.!.!.!.B.!.!.!.!.!.~.S.Q.~.!.!.!.!.B.!.!.!.!.!.>X5 y <XQ.!.!.~.S.S.>XU.<.>X/.K.K.>X!.!.!.~.S.S.!.s.!.~.D.: O.,X>X>X~.!.S.4XgX0X8X8X0X8X8X",
"qX0XrX0XrXrXrX0X0X0X0X0X4X5X4X4X4X4X4X5X5X4X4X4X4XqXwXqXwXwXqXiX#X] aXpX1XI 4XwXqXwXwXwXwXwXwXqXaX[.[.hXgX$XW iXqXqXwXwXwXwXwXqXwX5XK.5XeXgX%.A.dXqXwXwXwXwXwXwX5XaXI.u.hXgXT.r iXqXqXwXwXwXwXwXqXwX5XK.4XeXAXK.G.dXqXwXwXwXwXwXwXqXaX@X[ hXgX$XI wXwXqXqXeXQ.7.k.k.k.k.& +.k.l.& @.v.j.k.k.k.k.k.k.j.z.@.I k.k.+.* j.k.k.k.7.S.eXqXqXwX5XW 9XgXhXy.d.hXqXwXqXwXpXgXHXFXFXFXDXKX~.gXHXFXFXFXFXgXDXFXFXFXFXpXB.gXHXFXFXFXFXgXDXFXFXDXIXy 8 KXFXFXFXFXFXAXAXKXdXE.HXKX.XoXPXDXFXFXFXAXAXFX&XFXHXNX> n.SXn.^.hXKXSXwXgX0X8X8X0X8X8X",
"4X,X,X,X,X,X,X3X4X4X4X4X4X4X4X4X4X4X3X,X,X,X,X3X:X3XwXqXwXwXqXqXiXiX5X5XqXaXwXqXqXqXwXqXwXwXwXqXqXiXiX5X5XwXaXqXqXqXwXwXwXqXwXqXqXwXdXqX5XqXdXeXqXwXqXwXwXwXqXwXqX5XiXiX5XqXwXgXwXqXwXwXwXwXwXqXwXqXwXdXqXqX5XeXwX5XqXqXwXqXwXwXwXwXqXiXiX5X5XwXgXwXqXqXqXeXQ.7.k.k.k.k.z.k.k.j.l.l.j.k.j.k.k.k.k.k.k.j.k.k.k.k.k.c.k.j.k.k.7.S.eXqXwXqXqXaX5X5XqXiXiXqXwXwXqXwXpXgXKXHXKXKXFXPX>XAXKXHXKXHXKXgXFXKXHXKXgXgX:XgXKXHXKXHXKXhXFXKXFXIXL.w 4XpXKXHXKXHXKXSXDXPXjXR.PXPXoXoXPXHXKXHXKXDXDXKX&XHXKXNX> w.hXS.Q.gXPXDXwXgX0X8X8X0X8X8X",
"3X4XwXwXwXwXwX:X!.n.S.n.n.n.S.S.Q.S.~.wXwXwXwXwX4X3XwXqXqXqXeXwXwXqXeXwXeXqX5XwXeXeXqXwXwXwXqXeXwXwXeXeXwX5XqXeXeXwXqXwXwXwXqXeXwXeXqXwXeXqX5X5XqXqXwXwXwXwXwXqXwXwXwXwXeXqXqX5XqXqXwXwXwXwXwXwXqXwXwXwXeXwXwX5XqXeXeXwXqXwXwXwXqXqXeXqXwXwXeXwX5XwXeXeXqXeXQ.7.k.k.k.l.k.k.l.l.k.j.k.l.l.k.k.k.k.k.k.l.j.k.k.l.k.j.k.l.l.k.7.S.eXqXqXeXwXqXeXwXqX5X5XqXqXwXqXwXpXgXKXHXHXHXFXPX>XgXKXHXHXHXKXgXFXHXKXSX5XPX>XgXKXHXHXHXKXgXFXFXIXR.6 GX3XeXKXHXHXHXKXSXDXPXjXR.PXPXoXoXPXFXHXHXKXDXSXKX&XHXKXNX> w.pX3Xb.DXKXDXwXgX0X8X8X0X8X8X",
"3X4XwXqXqXqXwXc.9.8.c.m.0.5.3.c.0.0.m.qXqXqXqXwX4X3XwXqXwXwXQ.4X:XqX~.:X!.5XeX~.Q.^.wXqXwXqXwX!.3X4X~.:X:XgX,XQ.Q.5XwXqXwXqXwX~.:X!.4X,X!.eXeXeXeXeXqXwXwXwXqXwX:X3X!.:X~.eXeXeXeXwXqXwXwXwXqXqXwX:X4X3X!.qX:XeX4XQ.Q.4XwXqXwXqXwXwX~.wX^.:X!.5XpX~.Q.~.wXwXQ.7.l.7.4.O.7.7.+.+.+.z.7.O.O.7.k.k.k.k.k.+.k.+.4.+.7.z.+.O.+.k.7.S.eXqXwX^.:XwXQ.qXeXeXeXeXwXqXqXwXpXgXKXHXHXHXFXPX>XgXKXHXHXHXKXgXFXKXFX5XDXPX>XgXKXHXHXHXKXgXDXPXjX6 R.IX>XgXKXHXHXHXKXSXDXPXjXR.PXPXoXoXPXFXHXHXKXDXSXKX&XHXKXNX> m.IXFXHXFXKXDXwXgX0X8X8X0X8X8X",
"3X4XwXwXwXwXwX3X3X4X^.,X~.^.^.~.!.~.^.wXwXwXwXwX5X3XwXwX5XqXv.8.O.:X5.X.o.Q.n.f X.O.qXwXqXwX3Xo.b.n.O.X.z.:Xo.X.s S.eXqXwXqXwX:XX.o.n.c.#.:X4.4.b.8.4XwXqXqXqXeX9.5.4.X.5.:X4.4.b.8.5XwXqXqXwX5XwX5.Q.Q.o.b.o.5X#.X.s b.pX5XqXqXwXn.X.4X5.X.o.S.S.f X.X.4XeXQ.7.k.X.a X.s X.& & a 4.& & % O.l.j.k.k.X.% 7.a % & O.O.% & % 7.j.S.wXqXqX4.8.Q.O.!.c.o.c.8.~.eXqXwXpXgXKXHXHXHXFXPX>XgXKXHXHXHXKXgXFXKXqXSXKXPX>XgXKXHXHXHXKXgXFXIX5 L.IXKX:XgXKXHXHXHXKXSXDXPXjXR.PXPXoXoXPXFXHXHXKXDXSXKX&XHXKXNX> m.IXFXHXHXKXDXwXgX0X8X8X0X8X8X",
"3X,X4X4X4X4X4X4X4X4X5X5X5X5X5X5X5X5X5X4X4X4X4X4X,X3XwXwX,XS.9.4.p c.8.s #.n.5.o.X.X.4XwXqXwX,X1.9.z.o.X.c.v.O.o.s n.pX5XqXqXeXv.#.4.8.8.4.S.#.4.9.O.~.eXqXwX5XpXS.5.4.s 8.n.#.4.9.O.^.eXqXqXwX4X!.S.v.3X4.p X.S.O.o.s c.pX5XqXwX:X5.X.0.8.s #.n.5.o.X.X.3XeXS.7.O.+.s a X.a & % a X.& & % X.l.j.k.4.a % a a % & X.a & % % 7.j.S.wXqX5X5.4.c.#.n.5.1.5.#.c.pX5XwXpXgXKXHXHXHXFXPX>XgXKXHXHXHXKXgXKXeXgXKXFXPX>XgXKXHXHXHXKXgXIXt e IXDXPX:XgXKXHXHXHXKXSXDXPXjXR.PXPXoXoXPXFXHXHXKXSXSXKX&XHXKXNX> m.IXFXHXHXKXDXwXgX0X8X8X0X8X8X",
"5X4X4X4X4X4X4X3X3X3X3X3X3X3X3X3X3X3X3X4X4X4X4X4X4X5XwXqXwX5Xz.:X:X~.S.~.n.qX~.S.S.S.wXwXwXqXwXS.!.~.Q.Q.~.5Xb.!.b.3XwXqXwXqXwXb.S.S.~.!.Q.5X:X:X:XS.4XwXqXwXqXwX,X,Xn.~.Q.5X:X:X:XS.4XwXqXwXwXwXeX3X:X!.S.4X^.5Xn.!.b.,XwXqXwXqXeX5Xn.^.S.~.n.5X^.n.Q.S.qXeXQ.7.l.7.+.s O.+.O.O.+.j.X.+.X.7.k.k.k.l.k.X.+.O.+.X.7.+.X.O.O.k.7.Q.eXqXeX!.S.:Xn.5X:X:X:XQ.^.wXqXwXpXgXKXHXHXHXFXPX>XAXKXHXHXHXKXSXgXeXKXHXFXPX:XgXKXHXHXHXFXPXL.5 PXKXFXPX:XgXKXHXHXHXKXSXDXPXjXR.PXPXoXoXPXHXHXHXKXDXDXKX&XHXKXNX> m.IXFXHXHXKXDXwXgX0X8X8X0X8X8X",
"qXwXwXwXwXwXwXwXwXwXwXwXwXwXwXwXwXwXwXwXwXwXwXwXwXqXqXqXqXqXpXwXwXeXeXwXeXqXeXeXeXeXqXqXqXqXqXeXeXwXeXeXwXwXpXeXeXwXqXqXqXqXqXpXeXeXeXeXeXqXwXwXwXeXwXqXqXqXqXqXwXwXeXwXeXqXwXwXwXeXwXqXqXqXqXqX5XwXwXeXeXwXwXqXpXeXeXwXqXqXqXqX5XqXeXwXeXwXeXwXwXeXeXeXqXwXB.7.7.7.j.l.k.k.k.k.j.7.k.k.k.j.7.7.7.7.7.k.k.k.k.k.7.j.k.k.k.j.7.B.wXqXqXeXeXwXeXwXwXwXwXeXwXqXqXwXpXgXHXFXFXFXFXKX~.gXKXFXFXFXKXpX5XHXFXFXFXKX>XgXKXFXFXDXIXR.6 dXPXDXFXKX:XpXKXFXFXFXHXAXSXKXdXE.HXKX.XoXPXFXFXFXHXSXSXFX&XFXHXNX> m.IXDXFXFXHXDXwXgX0X8X8X0X8X8X",
"wXwXwXwXwXwXwXwXwXwXwXwXwXwXwXwXwXwXwXwXwXwXwXwXwXwXwXwXwXwXwXwXwXwXwXwXwXwXwXwXwXwXwXwXwXwXwXwXwXwXwXwXwXwXwXwXwXwXwXwXwXwXwXwXwXwXwXwXwXwXwXwXwXwXwXwXwXwXwXwXwXwXwXwXwXwXwXwXwXwXwXwXwXwXwXwXwXwXwXwXwXwXwXwXwXwXwXwXwXwXwXwXwXwXwXwXwXwXwXwXwXwXwXwXwXeX:Xb.B.B.B.n.B.B.B.B.B.B.n.B.n.B.B.B.B.B.B.n.B.B.B.B.B.B.B.B.n.B.b.:XeXwXwXwXwXwXwXwXwXwXwXwXwXwXwXeXgXgXAXgXgXgXgXDXS.wXSXgXgXhXgX,XgXhXgXgXgXDXQ.wXSXgXgXSXdX6 E.HXgXgXgXDX!.qXSXgXgXgXAXpXgXSXwXE.SXGXG.G.DXgXgXgXhXpXpXhX#XgXAXaX> w.KXhXSXhXhXgXwXgX0X8X8X0X8X8X",
"gXgXgXgXgXgXgXgXgXgXgXgXgXgXgXgXgXgXgXgXgXgXgXgXgXgXgXgXgXgXgXgXgXgXgXgXgXgXgXgXgXgXgXgXgXgXgXgXgXgXgXgXgXgXgXgXgXgXgXgXgXgXgXgXgXgXgXgXgXgXgXgXgXgXgXgXgXgXgXgXgXgXgXgXgXgXgXgXgXgXgXgXgXgXgXgXgXgXgXgXgXgXgXgXgXgXgXgXgXgXgXgXgXgXgXgXgXgXgXgXgXgXgXgXgXgXpXeXeXeXeXeXeXwXeXeXwXeXeXeXeXeXeXeXeXeXeXeXeXeXeXeXwXeXeXeXeXeXeXpXgXgXgXgXgXgXgXgXgXgXgXgXgXgXgXgXgXgXKXKXKXKXHXPX>XAXKXKXKXKXwXeXKXKXKXKXHXPX:XgXKXHXKXIXw  .IXFXKXKXHXPX:XgXKXKXKXKXKXDXDXPXjXR.PXPXoXoXIXHXKXKXKXDXDXKX&XHXKXNX> U.pXQ.:XgXKXDXwXgX0X8X8X0X8X8X",
"qX5X5X5X5X5X5X5X5X5X5X5X5XqXqXqXqXqXqXqXqXqXqXqXqXqXqXqXqXqXqXqXqXgXhXiXhXiXqXwXqXqXqXqXqXqXqXwXqXqXaXiXiXhXwXqXwXqXqXqXqXqXqXqXwXqXwXdXeXdXdXqXqXqXqXqXqXqXqXqXwXqXqXaXaXiXaXwXqXwXqXqXqXqXqXqXqXwXqXwXdXeXdXdXqXqXqXqXqXqXqXqXqXqXqXqXaXaXiXaXwXqXwXqXqXeXQ.7.k.k.k.j.k.v.l.z.c.j.k.k.k.k.k.k.k.k.k.k.j.z.z.k.z.k.j.k.k.k.7.S.eXqXqXwXqXwXhXiXgXhXqXqXwXqXqXwXpXgXKXFXHXHXFXLX>XgXKXFXKXeXgXSXFXHXHXHXFXPX>XgXKXDXIXy e PXDXHXHXHXFXPX:XgXKXFXHXFXKXSXSXKXdXR.PXPXoXoXPXFXHXHXKXSXSXKX&XHXKXNX> w.Q.X.f eXPXDXwXgX0X8X8X0X8X8X",
"eXaXaXaXaXaXaXaXaXaXaXaXpXqXwXwXwXwXwXwXwXwXwXwXwXwXqXwXqXqXqXqXaXg.K v K $XaXqXwXqXqXqXqXqXwXqXwXiX[.' K I 1XiXqXwXqXqXqXqXqXwXqXdX<XZ.Z Z H.dXqXwXqXqXqXqXqXwXqXwXiXu.t t R 1XiXqXwXqXqXqXqXqXwXqXeX<XK.Z Z H.dXqXqXqXqXqXqXqXqXqXwXiX[.~ H ' 1XiXqXwXqXeXQ.7.k.k.j.l.+.& * * a l.k.k.k.k.k.k.k.k.k.k.l.@.& * & ;.l.j.k.k.7.S.eXqXwXqXiX>XI v v y.iXwXqXwXqXwXpXgXKXHXHXHXFXPX>XgXKXKXgXwXKXgXFXHXHXHXFXPX>XgXHXIXL.5 PXhXFXHXHXHXFXPX:XgXKXHXHXHXKXSXDXPXjXR.PXPXoXoXPXFXHXHXKXDXSXKX&XHXKXNX> m.eX~.4XgXKXDXwXgX0X8X8X0X8X8X",
"E.w w w w w w w w w w w i wX:X3X3X,X,X5X3X,X3X3X:X4XwXqXwXwXqXaXW v #X$Xa.$ M.iXqXwXwXwXwXwXqXqXiX~ ' #XY.W v >XwXqXwXwXwXwXwXqXeXG.Z H.<X.XZ K.dXqXwXwXwXwXwXqXqXiXU t R.$XR 9 2XiXqXwXwXwXwXwXqXeX.XZ H.<X.XZ K.dXqXwXwXwXwXwXqXqXiX' ' &X*X[ G $XiXqXqXeXQ.7.k.j.l.+.* & O.@.* & l.j.k.k.k.k.k.k.k.z.& * @.+.I * +.k.k.k.7.S.eXqXqXiX$Xv ( $X{.v K iXqXqXqXwXpXgXKXHXHXHXFXPX>XgXKXDX5XHXKXgXFXHXHXHXFXPX:XgXIX2X6 dXPXgXFXHXHXHXFXPX:XgXKXHXHXHXKXSXDXPXjXR.PXPXoXoXPXFXHXHXKXDXSXKX&XHXKXNX> m.IXKXPXKXKXDXwXgX0X8X8X0X8X8X",
"L.. . . . . . . . . .   5 wX,X4X^.wX,X4X,X4X:X,X4X3XwXqXwXqXiX#X` Q.~.FXLX#Xv wXqXqXwXwXwXwXqXaX[.' LXe.s IX( K hXqXqXwXwXwXqXwXwXZ .XUXAXFXeXZ D.eXqXwXwXwXwX5XaXI.t JXDXDXIXI.t aXqXqXwXwXwXqXqXwXZ .XUXAXUXDXZ G.eXqXwXwXwXwXqXaX@X` JXkXhXJX@X~ iXqXqXeXQ.7.k.k.l.* @.v.k.l.k.* @.l.j.k.k.k.k.j.z.@.* k.k.j.z.@.* l.k.k.7.S.eXqXqXiXv d.LXhXJXJXv d.gXqXqXwXpXgXKXHXHXHXFXPX>XAXKX5XDXKXHXgXFXHXHXHXFXPX>XAXFX6 R.IXFXgXFXHXHXHXFXPX:XgXKXHXHXHXKXSXDXPXjXR.PXPXoXoXPXFXHXHXKXDXSXKX&XHXKXNX> m.IXDXFXFXKXDXwXgX0X8X8X0X8X8X",
"L.X X X X X X X X 2 2   5 wX3X3Xc.wX3X4X4X3X$.e.wX,XwXqXwXqXaX] | (.% wXgXJXK M.iXqXwXwXwXqXqXaX~ %XJX!.c.DXeXv 1XwXqXwXwXwXqXeXG.Z GXpXAXp 1.%.Z jX5XwXwXwXwX5XaXt Y.JXgX3Xf !.t 2XwXqXwXwXwXqXeX.XZ AXgXAX$.f K.Z gX5XwXwXwXwXqXaX^ @XJXdXgXDXSXH 2XiXqXeXQ.7.k.l.+.* j.7.7.+.v.: & v.j.k.k.k.k.j.c.& L k.7.7.k.k.* +.k.k.7.S.eXqXiX>Xv gXgXDXeXJXg.K hXqXqXwXpXgXKXFXFXFXFXKX>XAXwXhXKXFXHXgXFXHXFXFXFXKX>XHXw  .IXDXKXgXFXHXFXFXFXPX:XpXKXFXFXFXKXSXSXKXdXR.PXPXoXoXPXFXFXFXKXSXSXKX&XHXKXNX> m.IXFXFXFXHXDXwXgX0X8X8X0X8X8X",
"L.X . X X X X . X X X   5 wX3X5Xn.wX3X4X3X5Xm.!.qX3XwXqXwXqXaX] @XJXgXgXgXJXK N.gXqXwXwXwXqXqXaX~ &XhXAXDXgXgXv >XwXqXwXwXwXqXdXG.Z GXgXgX~.DXK.Z jX5XwXwXwXwX5XaXt Y.DXAX3X$.,X$ T.iXqXwXwXwXqXeXG.Z GXgXgXn.6Xx.> jX5XwXwXwXwXqXaX~ #XkXDXS.p iX` $XiXqXeXQ.7.k.l.+.* k.7.k.% % @.& v.j.k.k.k.k.j.c.& @.k.k.s % 4.* +.l.k.7.S.eXqXiX$Xv DX4Xe.gXJXN.K hXqXqXwXpXgXPXKXKXKXKXIX>X5XAXPXKXKXKXSXKXKXKXKXKXPXtXt e IXKXKXKXSXKXKXKXKXKXIX:XgXPXKXKXKXPXDXFXIXjXR.IXIXoXoXIXKXKXKXPXFXFXPX&XKXPXJX> m.IXKXKXKXKXHXwXgX0X8X8X0X8X8X",
"L.X . . . . . . . . . . 5 wX:X5XqXqX,X4X,X5XwXwX3X3XwXqXwXqXaX@X` kXgXgXDX8Xv 4XwXqXwXwXwXwXqXaX] ] JXgXdXJXN.v iXqXqXwXwXwXqXwX5XZ 5XAXgXSXHX: x.gXqXwXwXwXwX5XaXT U JXgXgXIXY.$ iXqXqXwXwXwXqXwX5XZ <XGXgXDXPX> x.gX5XwXwXwXwXqXaX[ ' JXgXeXH.N.H wXqXqXeXQ.7.k.k.k.* @.k.7.+.O.* : v.j.k.k.k.k.j.z.@.* k.7.7.a a * k.k.k.7.S.eXqXqXwXv $Xr.f DXJXK ( hXqXqXwXgXeXpXeXpXpXeXgX:X~.gXeXpXpXpX5XeXpXpXpXwXHX<.6 gXpXeXpXgX5XeXpXpXpXeXgXB.4XgXeXpXeXgXwXwXgX4XE.pXgXG.G.gXeXpXeXgXwXwXgX#XpXdXyX> 9.DXeXpXpXpXwXqXgX0X8X8X0X8X8X",
"E.e e e e e e e e e e e i wX,X3X3X3X,XwX4X3X3X3X,X4XwXqXwXqXqXiX~ ] kXgXgXv y.hXqXwXwXwXwXwXqXwX0XG @XhXhX1X$ M.iXqXwXwXwXwXwXqXdXK.Z pXgXDX%.> dXqXqXwXwXwXwXqXwXqX9 I.DXgX1X$ V.pX5XwXwXwXwXwXqXdXH.Z pXgXDX%.: eXqXqXwXwXwXwXqXwXwXH [.kXgXCXv g.aXqXqXeXQ.7.k.j.z.@.* 7.7.l.& = k.k.k.k.k.k.k.k.k.k.* I k.j.j.= @.c.j.k.7.S.eXqXqXgXg.v 8XgXJXa.v wXwXqXqXwXgXqX:X:X:X:X:X^.b.:X:X:X:X:X:X!.:X:X:X:X0Xw.2 T.3X:X:X:X:X!.:X:X:X:X:X3Xz.S.,X:X:X:X:X~.~.,XT.<.3X1XK.K.1X:X:X:X:X~.~.:Xg.:X:X.X: =.5X:X:X:X:X>X4XgX0X8X8X8X8X8X",
"wXiXiXiXiXiXiXiXiXiXiXaXiX4X4X4X4X4X4X4X4X4X4X4X4X5XwXqXwXwXqXwX0X#XwXwX4XM.iXqXwXwXwXwXwXwXwXqXiX1X#XiXeX>XT.iXqXwXwXwXwXwXwXwXqXwXG.5XwXwXA.5XwXqXwXwXwXwXwXwXqXiX2XT.iXeX>XB.pX5XwXwXwXwXwXwXwXqXeXG.4XwXeXA.4XwXqXwXwXwXwXwXwXqXiX1X#XiXeX>XM.iXqXwXqXeXQ.7.k.k.j.l.O.7.k.k.@.7.l.k.k.k.k.k.k.k.k.k.7.+.k.k.7.@.z.j.k.k.7.S.eXqXwXqXiX#X8XwXiXM.1XiXqXwXqXwXpXgXIXPXPXPXKXgX!.DXIXPXPXPXPXDXLXPXKXIXHX5 &.PXPXPXPXPXPXDXKXPXPXPXKXIX3XAXIXPXPXPXIXFXHXIXGXR.IXIXoXoXIXLXPXPXPXHXHXPX*XPXIXJX> T.pXc.Q.KXIXKXwXgXqXqX0XqXqX0X",
"3X:X3X3X3X3X3X3X3X3X:X^.:X,X3X,X,X,X,X4X4X4X4X4X,X3XwXqXwXqXqXqXqXiXqX5XwXiXqXqXqXqXqXwXwXwXqXqXqXwXiX5X5XwXiX5XqXqXwXqXwXqXwXqXqX5XeXwX5XqXdXwXqXqXqXwXwXwXqXwXqX5XwXiX5XqXwXiX5XqXqXwXwXwXqXwXqXqX5XeXwX5X5XeXwXqXqX5XqXwXqXqXwXqXqXwXiX5X5XwXiXqXqXqXqXeXQ.7.k.k.k.j.l.k.j.j.l.k.j.k.j.k.k.k.k.k.k.j.k.k.j.j.k.z.j.k.j.k.7.S.eXqXwXqX5XiX5XqXqXiXwXqXqXwXqXwXpXgXHXFXFXKX5XDX:XgXKXFXFXFXFXgXFXFXFXIXq L.wXdXKXFXFXFXHXgXFXFXFXFXFXKX:XpXKXFXFXFXHXAXSXKXdXE.HXPX.XoXPXFXFXFXHXSXSXFX&XFXKXNX> 9.4Xf #.eXKXSXwXgXwX8XqX8X8X0X",
"3X4XwXwXwXwXwXS.c.9.c.m.0.0.0.c.b.c.S.wXwXwXwXwX5X3XwXqXqXqXeXwXeXwXeXeXeXqXwXwXeXeXwXqXwXqXwXeXwXwXeXeXeXqXwXwXeXwXqXwXwXwXqXwXeXeXwXwXeXwXwXwXwXwXwXqXwXwXwXqXeXeXeXeXeXwXwXwXwXwXwXqXwXwXwXqXwXeXeXwXwXeXeXwXqXwXwXeXwXqXwXwXqXwXeXqXeXeXeXwXqXwXeXeXqXwXQ.7.k.l.l.k.k.k.l.l.k.k.l.k.l.k.k.k.k.j.k.l.j.l.l.l.k.k.k.l.l.k.7.S.eXqXqXeXeXwXeXwXwXwXwXwXwXqXqXwXpXgXKXFXKXeXpXIX~.gXKXHXHXHXKXgXFXFXIXy e IX~.gXKXHXHXHXKXgXFXHXHXHXFXPX:XgXKXHXHXHXKXSXDXPXjXR.PXPXoXoXPXFXHXHXKXDXSXKX&XHXKXNX> m.FXqX4XSXKXDXwXgX0X}.7X-X}.=X",
"3X4XwXqXqXqXwXn.m.n.m.S.c.0.0.m.e.c.b.5XqXqXqXwX4X3XwXqXwXeX0.~.b.4Xc.b.8.3X5X8.8.c.wXqXqXqXwX8.!.~.8.c.n.gXn.8.9.:XwXqXwXqXwXn.c.8.:XQ.0.wX:X:X5X,X5XwXqXqXqXeXv.Q.0.v.c.wX:X:X5X,X5XwXqXqXqXgXS.b.!.!.!.0.z.n.gXb.8.9.,XwXqXqXeX4Xz.wXc.v.8.,XqX0.8.z.qXeXQ.7.v.O.X.s O.+.a a X.c.X.a a 4.k.k.k.l.7.a k.s s a 4.k.a a a k.7.S.eX5XeXv.n.4X5.4X4X:X4X3X4XwXqXwXpXgXKXKXgXwXKXKX>XgXKXHXHXHXKXgXDXIXL.5 KXPX>XgXKXHXHXHXKXgXFXHXHXHXFXPX:XgXKXHXHXHXKXSXDXPXjXR.PXPXoXoXPXFXHXHXKXDXSXKX&XHXKXNX> m.IXKXIXPXHXDXwXgXqX=X7X=X-X7X",
"3X4XwXwXwXwXwXwXwXwX4XqX4X5X5X3X4X4X4XwXwXwXwXwX4X3XwXwX3X:XS.#.a Q.8.s 4.n.8.X.f X.5XwXqXeX:X4.c.b.O.f c.n.X.X.s n.pX5XwXqXwX3XX.4.c.c.4.S.X.X.9.#.3XwXqXqX5XpXc.#.5.s 8.S.f X.9.#.4XwXqXwXqX~.:X5.s c.n.X.X.c.n.X.X.s Q.eX5XwX3X5.f !.0.s #.b.0.X.f f 4XeXF.7.+.X.a O.X.X.& % a X.& & % X.l.j.k.7.a % +.a % & X.a % % % 7.j.S.wXwX4X5.8.b.1.n.4.s 5.#.S.eXqXwXpXgXKXDX5XHXFXPX>XgXKXHXHXHXKXgXIX2X6 dXPXKX>XgXKXHXHXHXKXgXFXHXHXHXFXPX:XgXKXHXHXHXKXSXDXPXjXR.PXPXoXoXPXFXHXHXKXDXSXKX&XHXKXNX> c.SXAXpX,XKXDXwXgXwXqXwXqXwXqX",
"4X:X,X,X,X,X,X,X,X,X3X,X3X,X,X3X3X3X3X,X,X,X,X,X:X3XwXwX4X!.X.c.X.z.5.1.#.~.8.#.#.#.5XwXqXwX5X4.9.c.#.#.c.Q.o.4.X.S.eXqXqXqXeX4.5.4.8.0.5.^.0.c.v.#.~.eXqXwXqXeXQ.c.4.#.9.~.0.c.v.#.^.eXqXwXqX,X4.5.4.1.c.#.#.v.S.o.4.X.!.eX5XwX3Xn.o.z.9.#.#.!.z.#.#.o.4XeXF.7.4.+.s & X.a & & s O.& : % O.l.j.k.7.X.& a a & & O.a & & & 7.j.S.eXqXwX8.4.v.o.~.c.c.c.5.c.pX5XwXpXgXKX5XDXKXFXPX>XgXKXHXHXHXFXSXDX5 E.IXDXPX:XgXKXHXHXHXKXgXFXHXHXHXFXPX:XgXKXFXHXHXKXSXDXKXjXR.PXPXoXoXPXFXHXHXKXSXSXKX&XHXKXNX> o.c.c.8.b.PXDXwXgX0X-X7X-X-X7X",
"wXqX5X5X5X5X5X5X5X5X5X5X5X5X5X5X5X5X5X5X5X5X5X5X5XwXwXqXwXwX,XqXeX5X4XqX4XwX5X4X4X4XwXqXwXqXwX4X5X5X5X5X5XwX3X5X3XwXwXwXwXwXwX3X3X4X5X5X4XwX5XqX5X4XwXwXwXwXwXwXqXwX4XqX4XwX5XqX5X4XwXwXwXwXwXeX3X3XpXqX4X5X5X5XwX3X5X3XwXqXwXqXwXeX4XqX4XqX4XwX5X4X4X4XwXwXQ.7.l.k.j.7.7.j.j.j.j.l.7.j.7.k.k.k.k.l.l.7.k.7.k.7.k.j.7.7.7.l.7.Q.eXqXwX5X4X5X4XwXqXqXqX4XqXwXqXwXpXgXwXAXKXHXFXPX~.gXKXHXKXHXKXHXw L.IXDXHXPX>XgXKXHXKXHXKXgXFXKXKXKXFXPX:XgXKXHXKXHXKXSXDXPXdXE.PXPXoXoXIXHXKXHXKXDXDXKX&XHXKXNX> 6.wX,X^.wXKXDXwXgX0X-X7X-X}.7X",
"qXqXqXqXqXqXqXqXqXqXqXqXqXqXqXqXqXqXqXqXqXqXqXqXqXqXqXqXqXqXwXqX5XqXwXqXwX5XqXwXwXwX5XqXqXqXqXwXqXqXqXqXqX5XwXqXwXqXqXqXqXqXqXwXwXwXqXqXwXqXqXqXqXwXqXqXqXqXqXqXqXqXwXqXwXqXqXqXqXwXqXqXqXqXqX5XwXwX5XqXwXqXqXqXqXwXqXwXqXqXqXqX5X5XwXqXwXqXwX5XqXwXwXwX5XwXB.7.7.7.7.j.j.7.7.7.7.7.7.7.j.7.7.7.7.7.7.7.7.7.7.7.7.7.7.7.7.7.7.B.wX5XqXqXwXqXwXqXqXqXqXwXqXqXqXqXgX5XgXHXFXFXDXKX:XgXHXFXFXDXIXy e IXDXFXDXKX:XgXHXFXFXFXFXgXDXFXFXFXDXKX,XgXKXFXFXFXFXSXSXHXjXR.HXKXoXuXKXDXFXFXFXSXSXFX*XFXHXhXZ T.IXKXKXKXFXDXwXgXqX0X0X0X0X0X",
"pXpXpXpXpXpXpXpXpXpXpXpXpXpXpXpXgXpXeXpXeXpXgXpXpXpXgXgXgXpXpXpXpXpXpXpXpXpXpXpXpXpXgXgXgXgXgXpXpXpXpXpXpXpXpXpXpXpXgXgXgXgXgXpXpXpXpXpXpXpXpXpXpXpXpXgXgXgXgXgXpXpXpXpXpXpXpXpXpXpXpXgXgXgXgXgXpXpXpXpXpXpXpXpXpXpXpXpXpXgXgXgXgXpXpXpXpXpXpXpXpXpXpXpXpXgXqX:X:X:X:X:X:X:X:X:X:X:X:X:X:X:X:X:X:X:X:X:X:X:X:X:X:X:X:X:X:X:X:X5XgXpXgXpXpXpXpXpXpXpXpXpXpXgXpXgXgXeXpXeXpXpXpXpXpXpXpXpXpXpXpXR.eXpXeXpXpXeXpXpXpXpXpXpXpXpXpXpXpXpXpXeXpXpXpXpXpXpXpXpXpXpXpXpXeXpXpXpXpXeXeXeXeXeXeXeXpXpXpXeXgXpXeXeXeXeXeXeXeXgXpXgXpXgXpXpX",
"pXgXgXgXpXpXeXeXeXpXeXeXeXpXpXpXeXgXhXgXgXpXeXpXeXeXpXeXeXeXpXpXpXpXgXgXgXgXeXpXeXeXpXpXeXeXpXpXpXpXpXpXpXpXpXpXpXpXpXpXpXpXpXpXpXpXpXpXpXpXpXpXpXpXpXpXpXpXpXpXpXpXpXpXpXpXpXpXpXpXpXpXpXpXpXpXpXpXpXpXpXpXpXpXpXpXpXpXpXpXpXpXpXpXpXpXpXpXpXpXpXpXpXpXpXeXgXgXgXgXgXgXgXgXgXgXgXgXgXgXgXgXgXgXgXgXgXgXgXgXgXgXgXgXgXgXgXgXgXgXeXpXpXpXpXpXpXpXpXpXpXpXpXpXpXpXeXpXeXpXpXpXpXpXeXpXpXpXpXpXeXAXpXeXpXpXpXpXeXpXpXpXpXpXpXpXpXpXpXpXpXpXeXpXpXpXpXpXpXpXpXpXpXeXpXpXpXpXeXpXpXgXeXgXgXpXpXeXeXpXpXpXpXpXeXeXpXpXgXgXpXeXhXeXgXgX",
">Xl.l.l.4XqXwXwXwXqXwXeXwXqXqX5XwX!.@.7.7.4XwXqXwXwXqXwXeXwXqXqXwX4XV.V.l.>XwX5XwXwXqXqXwXwXqXqXqXqXqXqXqXqXqXqXqXqXqXqXqXqXqXqXqXqXqXqXqXqXqXqXqXqXqXqXqXqXqXqXqXqXqXqXqXqXqXqXqXqXqXqXqXqXqXqXqXqXqXqXqXqXqXqXqXqXqXqXqXqXqXqXqXqXqXqXqXqXqXqXqXqXqXqXqXqXqX5X5X5X5X5X5X5X5X5X5X5X5X5X5X5X5X5X5X5X5X5X5X5X5X5X5X5X5X5X5X5X5XqXqXqXqXqXqXqXqXqXqXqXqXqXqXqXqXqXqXqXqXqXqXqXqXqXqXqXqXqXqXqXqX5X5XqXqXqXqXqXqXqXqXqXqXqXqXqXqXqXqXqXqXqXqXqXqXqXqXqXqXqXqXqXqXqXqXqXqXqXqX5X4X4XwX>X,X4X4XwXwX/./.3X4X4XqXqX4XV.h.V.>XqX+.B.+.T.",
"!.n +.+.3XwXwXh.B.iX3X>X>XwXwXqXgXl.@.@.n :XwXwXh.V.iX4X>X>XwXqXwX4X+.n n B.eXwXM.h.wX5X>X>XqXwXwXwXwXwXwXwXwXwXwXwXwXwXwXwXwXwXwXwXwXwXwXwXwXwXwXwXwXwXwXwXwXwXwXwXwXwXwXwXwXwXwXwXwXwXwXwXwXwXwXwXwXwXwXwXwXwXwXwXwXwXwXwXwXwXwXwXwXwXwXwXwXwXwXwXwXwXwXwXwXwXwXwXwXwXwXwXwXwXwXwXwXwXwXwXwXwXwXwXwXwXwXwXwXwXwXwXwXwXwXwXwXwXwXwXwXwXwXwXwXwXwXwXwXwXwXwXwXwXwXwXwXwXwXwXwXwXwXwXwXwXwXwXwXwXwXwXwXwXwXwXwXwXwXwXwXwXwXwXwXwXwXwXwXwXwXwXwXwXwXwXwXwXwXwXwXwXwXwXwXqXwX>XB.j.B.B.B.j.>XqX3XL.P.y ,.E.wXwX4XB.h.@.>X4X@.h.@.B.",
"B.@.@.* 4XwX1Xn -.pXT.+.V.wXqXqXgXv.@.+.B.>XeX4Xn @.pX>X+.V.wXqXwX>X4Xj.@.3XwXwX@.n 5X4Xh.h.4XwXqXwXwXwXwXwXwXwXwXwXwXwXwXwXwXwXwXwXwXwXwXwXwXwXwXwXwXwXwXwXwXwXwXwXwXwXwXwXwXwXwXwXwXwXwXwXwXwXwXwXwXwXwXwXwXwXwXwXwXwXwXwXwXwXwXwXwXwXwXwXwXwXwXwXwXwXwXwXwXwXwXwXwXwXwXwXwXwXwXwXwXwXwXwXwXwXwXwXwXwXwXwXwXwXwXwXwXwXwXwXwXwXwXwXwXwXwXwXwXwXwXwXwXwXwXwXwXwXwXwXwXwXwXwXwXwXwXwXwXwXwXwXwXwXwXwXwXwXwXwXwXwXwXwXwXwXwXwXwXwXwXwXwXwXwXwXwXwXwXwXwXwXwXwXwXwXwXwXwXqXwX3X7.7.+.>XB.+.>XwX/.L.P.L.y L.pXwX,X>XV.V.>X4Xh.h.h.B.",
"!.+.@.n 5XwXeX,X5XwXwXgXiXqXwXqXpXB.@.V.!.3XwXeX,X4XwXwXgXiXqXqXwX3XB.j.+.,XwXwX5X,XeXqXpXpXwXqXwXwXwXwXwXwXwXwXwXwXwXwXwXwXwXwXwXwXwXwXwXwXwXwXwXwXwXwXwXwXwXwXwXwXwXwXwXwXwXwXwXwXwXwXwXwXwXwXwXwXwXwXwXwXwXwXwXwXwXwXwXwXwXwXwXwXwXwXwXwXwXwXwXwXwXwXwXwXwXwXwXwXwXwXwXwXwXwXwXwXwXwXwXwXwXwXwXwXwXwXwXwXwXwXwXwXwXwXwXwXwXwXwXwXwXwXwXwXwXwXwXwXwXwXwXwXwXwXwXwXwXwXwXwXwXwXwXwXwXwXwXwXwXwXwXwXwXwXwXwXwXwXwXwXwXwXwXwXwXwXwXwXwXwXwXwXwXwXwXwXwXwXwXwXwXwXwXwXwXqXeX>Xl.wX>XB.>X,X!.5XeXU.U.3X/.T.wXwX4XB.l.V.!.wXP B.@.B.",
"wXwXwXpXwXwXqXwXwXqXqX5XqXwXqXwXqXwXwX5X4XwXwXqXwXwXqXqX5XqXwXwXqXwX5XqXwXqXwXqXwXwXqXwXqXqXqXwXwXwXwXwXwXwXwXwXwXwXwXwXwXwXwXwXwXwXwXwXwXwXwXwXwXwXwXwXwXwXwXwXwXwXwXwXwXwXwXwXwXwXwXwXwXwXwXwXwXwXwXwXwXwXwXwXwXwXwXwXwXwXwXwXwXwXwXwXwXwXwXwXwXwXwXwXwXwXwXwXwXwXwXwXwXwXwXwXwXwXwXwXwXwXwXwXwXwXwXwXwXwXwXwXwXwXwXwXwXwXwXwXwXwXwXwXwXwXwXwXwXwXwXwXwXwXwXwXwXwXwXwXwXwXwXwXwXwXwXwXwXwXwXwXwXwXwXwXwXwXwXwXwXwXwXwXwXwXwXwXwXwXwXwXwXwXwXwXwXwXwXwXwXwXwXwXwXwXwXqXwX:X5XwXwXiXwXwXeXwXqXpXpXwXwXiXqXwXwX5XqX4XqXqXiX4XwXwX"
};
