/* XPM */
static char *sc_mb_gate_stereo[] = {
/* columns rows colors chars-per-pixel */
"256 256 256 2 ",
"   c #615D1A",
".  c #055B66",
"X  c #016E78",
"o  c #276265",
"O  c #797468",
"+  c #686A59",
"@  c #973738",
"#  c #903130",
"$  c #AB3235",
"%  c #D64A32",
"&  c #AB3C41",
"*  c #8F5E54",
"=  c #984F42",
"-  c #AF514D",
";  c #AE6B5C",
":  c #8E7468",
">  c #AD6C61",
",  c #B87879",
"<  c #AF726C",
"1  c #9B5E62",
"2  c #D1554D",
"3  c #D56553",
"4  c #CA7770",
"5  c #E06062",
"6  c #B54938",
"7  c #6F921D",
"8  c #6B9C63",
"9  c #249E64",
"0  c #8B8876",
"q  c #958C78",
"w  c #97947C",
"e  c #8C8F6C",
"r  c #A18C77",
"t  c #AB8F79",
"y  c #93A062",
"u  c #CC8477",
"i  c #EA817E",
"p  c #D1E35B",
"a  c #3C55BB",
"s  c #147587",
"d  c #5E6783",
"f  c #707691",
"g  c #5067BE",
"h  c #7478A9",
"j  c #775CB2",
"k  c #3E5DC6",
"l  c #396AEE",
"z  c #6F71D0",
"x  c #4E6FEE",
"c  c #657BE7",
"v  c #586BD3",
"b  c #937291",
"n  c #AC7488",
"m  c #8B72B1",
"M  c #936098",
"N  c #C9738B",
"B  c #C96087",
"V  c #857BCA",
"C  c #1497AB",
"Z  c #228FA7",
"A  c #3096AC",
"S  c #32ABB6",
"D  c #149FA8",
"F  c #72999B",
"G  c #6D8F92",
"H  c #7097AD",
"J  c #5FA7B5",
"K  c #56A9B6",
"L  c #49AEB7",
"P  c #70AFB6",
"I  c #579E9E",
"U  c #35A3C5",
"Y  c #7689D8",
"T  c #46BAC2",
"R  c #55B6C6",
"E  c #71B4C9",
"W  c #728DED",
"Q  c #5690DD",
"!  c #70C7CB",
"~  c #52C4C9",
"^  c #44C1BF",
"/  c #9A9885",
"(  c #9C9A99",
")  c #8E908D",
"_  c #A19E8C",
"`  c #A69889",
"'  c #AE9A93",
"]  c #A59B98",
"[  c #B39C98",
"{  c #B4888D",
"}  c #97A39D",
"|  c #92AA89",
" . c #A6A28C",
".. c #A9A695",
"X. c #A5A49E",
"o. c #ADAA9B",
"O. c #A8A496",
"+. c #B5A29D",
"@. c #B3A79A",
"#. c #B3B199",
"$. c #9D9BA4",
"%. c #9899B7",
"&. c #8B8FB0",
"*. c #A39DA9",
"=. c #AD98AF",
"-. c #9BA3A8",
";. c #9AA6B6",
":. c #8CB0B5",
">. c #A5A4A3",
",. c #ABAAA3",
"<. c #A6A2AB",
"1. c #ABACAC",
"2. c #A8A8A9",
"3. c #BBA5A2",
"4. c #BDAAA5",
"5. c #B5ACAC",
"6. c #BDACAA",
"7. c #B4A8A5",
"8. c #B5B2A3",
"9. c #B2B1AE",
"0. c #BAB5AB",
"q. c #BCBAAC",
"w. c #B9B6A6",
"e. c #AAA4B3",
"r. c #AEABB4",
"t. c #A8A9B8",
"y. c #B2AEBB",
"u. c #B7ABB4",
"i. c #ABB3B7",
"p. c #B5B5B4",
"a. c #BBB4B2",
"s. c #BCBBB5",
"d. c #B3B1BC",
"f. c #BBBABA",
"g. c #B8B8B9",
"h. c #ADB0AA",
"j. c #CA908F",
"k. c #E98D8A",
"l. c #CAA49A",
"z. c #ECA59D",
"x. c #CC98A5",
"c. c #C1ADAA",
"v. c #C4A8A6",
"b. c #C4B1AE",
"n. c #C8B6AD",
"m. c #C7AEB3",
"M. c #C5B4B2",
"N. c #C9B4B4",
"B. c #C3BCB5",
"V. c #CCB6BB",
"C. c #C4BCB9",
"Z. c #CBBBBD",
"A. c #C8B9B8",
"S. c #D7B9B8",
"D. c #D6ADAE",
"F. c #E6B3B0",
"G. c #B5C9B6",
"H. c #A1C69D",
"J. c #C4C2B6",
"K. c #C6C4B9",
"L. c #C8C6BB",
"P. c #CBC9BE",
"I. c #C9C6B6",
"U. c #DDC3BD",
"Y. c #D4C3BB",
"T. c #DDDBBC",
"R. c #CDD3B0",
"E. c #E1D6B3",
"W. c #E1E099",
"Q. c #8F92D1",
"!. c #92B2CE",
"~. c #ACA8C7",
"^. c #B3ADC4",
"/. c #B5B2C2",
"(. c #B9B4C4",
"). c #BCBAC6",
"_. c #ACB3CE",
"`. c #8998E8",
"'. c #96AAEA",
"]. c #ABB4E7",
"[. c #A39BC6",
"{. c #C5BBC5",
"}. c #CBBDC3",
"|. c #C6B9C6",
" X c #D4BCC4",
".X c #C3BEDA",
"XX c #DEBDC9",
"oX c #92CCD1",
"OX c #BAC8C8",
"+X c #B8D6D9",
"@X c #B0CBD1",
"#X c #B7C9E8",
"$X c #A8E5E1",
"%X c #CEC2C6",
"&X c #CDCBC2",
"*X c #CDCCCA",
"=X c #C5C4C8",
"-X c #D1C3C6",
";X c #D2CEC6",
":X c #D1CDCB",
">X c #D7C7C7",
",X c #C9D4CB",
"<X c #D2D0C7",
"1X c #D6D4CC",
"2X c #D9D6CF",
"3X c #D9DAC9",
"4X c #C9CBD4",
"5X c #CBD9D8",
"6X c #D6D6D4",
"7X c #D9D7D0",
"8X c #DBD9D2",
"9X c #DDDDDA",
"0X c #D6D9DA",
"qX c #D5CED6",
"wX c #E3C7C9",
"eX c #E1DCD4",
"rX c #E0DFD9",
"tX c #EADBDA",
"yX c #EED5D1",
"uX c #DCE2DB",
"iX c #DAE2D7",
"pX c #D6E1D1",
"aX c #E1E5D4",
"sX c #E4E3DC",
"dX c #E9E5DD",
"fX c #E9E9D9",
"gX c #EEE9D4",
"hX c #C9C8E4",
"jX c #C9D7E5",
"kX c #D9D6E5",
"lX c #DDDBE3",
"zX c #DBDBE8",
"xX c #CFD3EE",
"cX c #E2DEE7",
"vX c #D5E5E4",
"bX c #D8E7E5",
"nX c #DAE9E6",
"mX c #D9EAE9",
"MX c #D1EAE7",
"NX c #E6E5E1",
"BX c #E8E6E1",
"VX c #E4E9E4",
"CX c #EBEAE5",
"ZX c #E3E2EA",
"AX c #EEEEE9",
"SX c #E7EAE9",
"DX c #F0EFEA",
"FX c #F4E9E7",
"GX c #E9F3E9",
"HX c #F2F1EC",
"JX c #FDF3ED",
"KX c #F4F4E9",
"LX c #EAE9F1",
"PX c #F6F5F1",
"IX c #FAFBF6",
"UX c #EEF5F3",
/* pixels */
"7X7X7X7X7X8X8X8X7X8XeXeXeXeX8X7X8X8X8X8X8X8X8X8X8X8X8X8X8X8X8X8X8X8X8X8X8X8X8X8X8X8X8X8X8X8X8X8X8X8X8X8X8X8X8X8X8X8X8X8X8X8X8X8X8X8X8X8X8X8X8X8X8X8X8X8X8X8X8X8X8X8X8X8X8X8X8X8X8X8X8X8X8X8X8X8X8X8X8X8X8X8X8X8X8X8X8X8X8X8X8X8X8X8X8X8X8X8X8X8X8X8X8X8X8X8X8X8X8X8X8X8X8X8X8X8X8X8X8X8X8X8X8X8X8X8X8X7X8X8X8X8X8XeX8X7X8X8X7X8X8X8X8X8X8X8X8X8X8X8X8X8X8X7X8X8X8X8X8X8X8X8X8X7X8XeX8X8X8X8X8X7X8X8X8X8X8X8X8XeX8X7X7X8XeX8X7X8X8X8XeX8X8X8X7X8X8X8X8X9X8XeX8X8X8X8X8X8X7X8X8X7X8X8X8X8X8X8X7X7X8X8X7X7XeXeX7XeXeXeX8X8X8X8XeX8X",
"eXeXeXeX8X7X8X7XeXqX@X@X@X+X8X8X7X8X8X8X8X8X8X8X8X8X8X8X8X8X8X8X8X8X8X8X8X8X8X8X8X8X8X8X8X8X8X8X8X8X8X8X8X8X8X8X8X8X8X8X8X8X8X8X8X8X8X8X8X8X8X8X8X8X8X8X8X8X8X8X8X8X8X8X8X8X8X8X8X8X8X8X8X8X8X8X8X8X8X8X8X8X8X8X8X8X8X8X8X8X8X8X8X8X8X8X8X8X8X8X8X8X8X8X8X8X8X8X8X8X8X8X8X8X8X8X8X8X8X8X8X8X8X8X8X8X7X8X*X=X*X=X1X).*X8X=X=X8X=X=X*X8X:X7X1X1X*X=X:X1X1X1X8X*X1X1X*X:X7X:X1X:X8X=X).=X=X1X=X*X8X1X1X1X*X7X:X*X).2X8X8X1X=X1X8X*X2X=X).*X=X=X8X2X=X*X=X=X*X=X*X=X=X7X=X=X8X=X*X8X1X*X1X*X*X*X8X8Xf.;X8X8XOXOX8XOXOXOX1X,X=X=XOX,X",
"!.!.!.!.,X8X7XeX@X:.H.p H.H.oX,X8X7X8X8X8X8X8X8X8X8X8X8X8X8X8X8X8X8X8X8X8X8X8X8X8X8X8X8X8X8X8X8X8X8X8X8X8X8X8X8X8X8X8X8X8X8X8X8X8X8X8X8X8X8X8X8X8X8X8X8X8X8X8X8X8X8X8X8X8X8X8X8X8X8X8X8X8X8X8X8X8X8X8X8X8X8X8X8X8X8X8X8X8X8X8X8X8X8X8X8X8X8X8X8X8X8X8X8X8X8X8X8X8X8X8X8X8X8X8X8X8X8X8X8X8X8X8X8X8X7X8X7X;.=X).y.).t.y.=X;.).).t.=Xt.=Xt.1Xt.d.=Xy.).;.=X).sX%.).).t.d.*Xd.).d.eX).;.=Xt.=X;.e.7Xd.t.*X%.=X/.y.d.y.8X1Xt.d.*X2X%.*X(.t.=X%.=XeXd.t.1Xt.y.(.t.=Xt.t./.;.=X(.d.t.=X8Xy.t.=Xt.t.1XrX9.&XrXOXI =X:.P OXI OX:.P :.I :.",
"C C C C L 6XeX@XH.p H.R.R.p H.oX,X8X7X8X8X8X8X8X8X8X8X8X8X8X8X8X8X8X8X8X8X8X8X8X8X8X8X8X8X8X8X8X8X8X8X8X8X8X8X8X8X8X8X8X8X8X8X8X8X8X8X8X8X8X8X8X8X8X8X8X8X8X8X8X8X8X8X8X8X8X8X8X8X8X8X8X8X8X8X8X8X8X8X8X8X8X8X8X8X8X8X8X8X8X8X8X8X8X8X8X8X8X8X8X8X8X8X8X8X8X8X8X8X8X8X8X8X8X8X8X8X8X8X8X8X8X8X8X8X8X7X8X=Xd.=X).).*X)./.t.=Xy.=XfXy.t.t.*X%.;.=X).=Xt.t.OXaXt.t.t.d.y.1Xd.).d.sX1Xd.8Xd.*Xt.t.*X;.%.=Xt.t./.d.8Xt.2X*Xd.*Xd.).&.(.1X(.*Xt.*X8X<Xy.*X=X=X=Xt.<Xt.t.=Xt.*Xt.7X=Xd.fX(.%.8Xt.t.1XeXp.&X8X7X:.:.P 1XgXP P P :.:.P :.",
"oXoX!.S C @X6XH.p P.rX9X9X9XG.L @X8X7X8X8X8X8X8X8X8X8X8X8X8X8X8X8X8X8X8X8X8X8X8X8X8X8X8X8X8X8X8X8X8X8X8X8X8X8X8X8X8X8X8X8X8X8X8X8X8X8X8X8X8X8X8X8X8X8X8X8X8X8X8X8X8X8X8X8X8X8X8X8X8X8X8X8X8X8X8X8X8X8X8X8X8X8X8X8X8X8X8X8X8X8X8X8X8X8X8X8X8X8X8X8X8X8X8X8X8X8X8X8X8X8X8X8X8X8X8X8X8X8X8X8X8X8X8X8X8X8X7X).t.d.d.=Xt.t.*Xt.).=Xt.=Xd.1X).d.(.).t.d.).=Xt.).eX/.y.y.).).t.d.*X;.).*Xd.:Xt.=Xt.y.d.d.).t.=Xd.y.d.t.d.8X7Xy.t.d.y.=Xy.=X(.*Xt.=X8X=Xt.).=X=X=Xt.=Xd./.(.t.=X=Xt.t.*X2Xd.(./.y.t.:XrX9.&XeX,X:.P i.P OX:.P :.i.:.P :.",
"tXtXgXE C OX@XP G.9X2XeX@XoXeXP !.,X8X7X8X8X8X8X8X8X8X8X8X8X8X8X8X8X8X8X8X8X8X8X8X8X8X8X8X8X8X8X8X8X8X8X8X8X8X8X8X8X8X8X8X8X8X8X8X8X8X8X8X8X8X8X8X8X8X8X8X8X8X8X8X8X8X8X8X8X8X8X8X8X8X8X8X8X8X8X8X8X8X8X8X8X8X8X8X8X8X8X8X8X8X8X8X8X8X8X8X8X7X7X7X7X7X7X7X7X7X7X7X7X7X7X7X7X7X7X7X7X7X7X7X7X7X7X7X7X7X7X*X1X1X:X2X*X1X8X:X*X8X<X*X1X2X1X1X8X8X*X1X2X7X7X1X8X1X2X2X1X8X*X2X8X*X*X7X1X2X*X7X*X1X2X7X8X1X2X7X1X1X*X8X7X8X7X*X1X1X8X2X2X2X7X*X*X8X1X*X8X2X2X7X*X<X7X7X1X:X*X8X*X1X8X1X2X8X1X1X1X8X8X&X1X8X1XOX2XeX=X*X1X1X1X1X1XOX7X",
",X,X,XL C @X8X!.S E eX7X,X6XtX!.J ,X8X7X8X8X8X8X8X8X8X8X8X8X8X8X8X8X8X8X8X8X8X8X8X8X8X8X8X8X8X8X8X8X8X8X8X8X8X8X8X8X8X8X8X8X8X8X8X8X8X8X8X8X8X8X8X8X8X8X8X8X8X8X8X8X8X8X8X8X8X8X8X8X8X8X8X8X8X8X8X8X8X8X8X8X8X8X8X8X8X8X8X8X8X8X8X8X8X8X8X7X8XsXsXsXsXsXsXsXsXsXsXsXsXsXsXsXsXsXsXsXsXsXsXsXsXsXsXsXsXrXsXsXsXsXsXsXsXrXsXsXrXsXsXsXsXsXsXrXrXsXsXsXsXsXsXsXsXsXsXsXrXsXsXrXsXsXsXsXsXsXsXsXsXsXsXrXsXsXsXsXsXsXrXsXrXsXsXsXrX9X9X8X9X9XaXrX9XrXaX9X9X9X9XsX9X9X9XrXrXsX9XrXrX9X9X9X9XsXsXsXrXsXsXsXrXsXsXrX9XsXsXsXsXsXsXsXdXsX",
"C C C C S ,X,XP C L eX8X8X7XeX!.E ,X8X7X8X8X8X8X8X8X8X8X8X8X8X8X8X8X8X8X8X8X8X8X8X8X8X8X8X8X8X8X8X8X8X8X8X8X8X8X8X8X8X8X8X8X8X8X8X8X8X8X8X8X8X8X8X8X8X8X8X8X8X8X8X8X8X8X8X8X8X8X8X8X8X8X8X8X8X8X8X8X8X8X8X8X8X8X8X8X8X8X8X8X8X8X8X8X8X8X7X9XsXsXsXsXsXsXsXsXsXsXsXsXsXsXsXsXsXsXsXsXsXsXsXsXsXsXsXsXsXBXCXsXsXBXdXsXsXsXsXsXsXsXsXsXsXsXsXsXsXsXsXsXsXsXsXsXsXsXsXsXsXsXsXsXsXsXsXsXsXsXsXsXsXsXsXsXsXsXsXsXsXsXsXsXsXsXsXsXrXrXsXBXrXrXrXrXrX9X9X9XrXrXrXrXsXsXsX9XrXrXrXrXrXsXrXsXsXdXdXdXdXsXBXsXsXBXBXCXBXsXsXNXsXNXsXsXsXdX",
"L L L K @XtX@XS K C !.8X7X8X6XK oX,X8X7X8X8X8X8X8X8X8X8X8X8X8X8X8X8X8X8X8X8X8X8X8X8X8X8X8X8X8X8X8X8X8X8X8X8X8X8X8X8X8X8X8X8X8X8X8X8X8X8X8X8X8X8X8X8X8X8X8X8X8X8X8X8X8X8X8X8X8X8X8X8X8X8X8X8X8X8X8X8X8X8X8X8X8X8X8X8X8X8X8X8X8X8X8X8X8X7X9XsXsXsXsXdXsXsXsXsXsXsXsXsXsXsXsXsXsXsXsXsXsXsXsXsXsXsXsXsXsX2XP.dXAX;X7XCXBXCXsXsXsXCXBXBXBXBXBXCXNXNXCXsXsXsXsXsXsXsXsXsXsXsXsXsXsXsXsXsXsXsXsXsXsXsXsXsXsXdXsXsXsXsXsXsXsXsXsXrXrXsX7X| rXrXrX9XsXdXdXdXrX9X9XsXoXP OXsX9XrXrXrXrXrXsXsXsXuX5X5X5XsX1XrX9X1X<XP.1XsX8X2XsX8XsXsXsX0X",
"eXeX8XeXeX7X8XeXJ C A A !.eXE K @X8X7X8X8X8X8X8X8X8X8X8X8X8X8X8X8X8X8X8X8X8X8X8X8X8X8X8X8X8X8X8X8X8X8X8X8X8X8X8X8X8X8X8X8X8X8X8X8X8X8X8X8X8X8X8X8X8X8X8X8X8X8X8X8X8X8X8X8X8X8X8X8X8X8X8X8X8X8X8X8X8X8X8X8X8X8X8X8X8X8X8X8X8X8X8X8X8X7X9XsXsXsXsXdX5X@XdXsXsXsXsXsXsXsXsXsXsXsXsXsXsXsXsXsXsXsXsXsXsXsX/ P.;Xw.8.B.w.&Xq. .o.BXw.w.&X0.J.w.q.J.&Xw. .8.CXsXsXsXsXsXsXsXsXsXsXsXsXsXsXsXsXsXsXsXsXsXdX+X+XdXsXsXsXsXsXsXsXrXrX9XBXH.9 P.NX9XsX5XOXOXoX9XrXrXrXJ K oXdX9XrXrXrXrXsXsXsXdX5XE E !.AX/ q.q._ O.J./ #.J...1X8.1XNXdX5X",
"7X7X7X7X7X7XeXOXS oXL A J E K @X6X8X7X8X8X8X8X8X8X8X8X8X8X8X8X8X8X8X8X8X8X8X8X8X8X8X8X8X8X8X8X8X8X8X8X8X8X8X8X8X8X8X8X8X8X8X8X8X8X8X8X8X8X8X8X8X8X8X8X8X8X8X8X8X8X8X8X8X8X8X8X8X8X8X8X8X8X8X8X8X8X8X8X8X8X8X8X8X8X8X8X8X8X8X8X8X8X7X9XsXsXsXsXsXdXoX5XdXsXsXsXsXsXsXsXsXsXsXsXsXsXsXsXsXsXsXsXsXsXsXNXL.8./ _ ..w  .w &XB.J.sX..B.w q./  ...w./  ._ <XBXsXsXsXsXsXsXsXsXsXsXsXsXsXsXsXsXsXsXsXsXsXdXuXoXuXsXsXsXsXsXsXrXrXrX9XNX8 9 8 BX9XsX@XP P L 5XsX9X9XP P P dX9XrXrXrXsXsXsXsXdX5XE E oXCX8. ...8...P.0. ...o.8X8.1XNXsX5X",
"8X8X7X8X8X8X7X8X8X7XS @XE E @X1X8X7X8X8X8X8X8X8X8X8X8X8X8X8X8X8X8X8X8X8X8X8X8X8X8X8X8X8X8X8X8X8X8X8X8X8X8X8X8X8X8X8X8X8X8X8X8X8X8X8X8X8X8X8X8X8X8X8X8X8X8X8X8X8X8X8X8X8X8X8X8X8X8X8X8X8X8X8X8X8X8X8X8X8X8X8X8X8X8X8X8X8X8X8X8X8X7X9XsXsXsXsXsXsXdX0X+XdXsXsXsXsXsXsXsXsXsXsXsXsXsXsXsXsXsXsXsXsXsXsXsXJ...o.w.q...8.J.8.q.w.NX_ o.8.<X8.0.P. .o.q.q.q.BXsXsXsXsXsXsXsXsXsXsXsXsXsXsXsXsXsXsXsXsXsXdX+X5XdXsXsXsXsXsXrXrXrXrXsX3XH.9XH.9XrX9XsXdXdXrXsX9XrXsX!.P @XsX9XrXrXsXsXsXsXsXdX5XE E oXBXJ.o.o.B...J.q.<X/ K.o.#.sXsXdX5X",
"7X7X7X7X7X7X7X7X8X7XOX7X,X,X8X8X7X7X7X7X7X7X7X7X7X7X7X7X7X7X7X7X7X7X7X7X7X7X7X7X7X7X7X7X7X7X7X7X7X7X7X7X7X7X7X7X7X7X7X7X7X7X7X7X7X7X7X7X7X7X7X7X7X7X7X7X7X7X7X7X7X7X7X7X7X7X7X7X7X7X7X7X7X7X7X7X7X7X7X7X7X7X7X7X7X7X7X7X7X7X7X7X8XsXsXsXsXsXsXsXsXdXdXsXsXsXsXsXsXsXsXsXsXsXsXsXsXsXsXsXsXsXsXsXsXsXsX1X9XBX1XrXdX2XsX8X9X9XrX..8XsXsXsX2X8X9XNX1XsX8XsXsXsXsXsXsXsXsXsXsXsXsXsXsXsXsXsXsXsXsXsXsXsXdXdXsXsXsXsXsXrXrXrXrXrXrXrXNXrXNXrXrXrX9X9X9XrX9XrXrXrXsXsXsX9XrXrXsXsXsXsXsXsXsXsXuXsXuXsXsXsXsXsX8X1XsXsXsXdX7XsXsXsXsXuX",
"8X8X8X8X8X8X8X8X8X8XeX8X8XeX8X8X8X8X8X8X8X8X8X8X8X8X8X8X8X8X8X8X8X8X8X8X8X8X8X8X8X8X8X8X8X8X8X8X8X8X8X8X8X8X8X8X8X8X8X8X8X8X8X8X8X8X8X8X8X8X8X8X8X8X8X8X8X8X8X8X8X8X8X8X8X8X8X8X8X8X8X8X8X8X8X8X8X8X8X8X8X8X8X8X8X8X8X8X8X8X8X9XsXsXsXsXsXsXsXsXsXsXsXsXsXsXsXsXsXsXsXsXsXsXsXsXsXsXsXsXsXsXsXsXsXsXsXBXsXsXBXsXsXBXsXNXsXNXsX2XNXsXsXsXNXNXsXsXBXsXNXsXsXsXsXsXsXsXsXsXsXsXsXsXsXsXsXsXsXsXsXsXsXsXsXsXsXsXsXsXrXsXsXsXsXsXsXsX9XsX9XsXsXsXsXsXsXsXsXsXsXsX9X9X9XsXsXsXsXsXsXsXsXsXsXsXsXsXsXsXsXsXsXsXNXBXsXsXsXsXNXsXsXsXsXsX",
"sXsXsXsXsXsXsXsXsXsXsXsXsXsXsXsXsXsXsXsXsXsXsXsXsXsXsXsXsXsXsXsXsXsXsXsXsXsXsXsXsXsXsXsXsXsXsXsXsXsXsXsXsXsXsXsXsXsXsXsXsXsXsXsXsXsXsXsXsXsXsXsXsXsXsXsXsXsXsXsXsXsXsXsXsXsXsXsXsXsXsXsXsXsXsXsXsXsXsXsXsXsXsXsXsXsXsXsXsXsXsXsXsXsXsXsXsXsXsXsXsXsXsXsXsXsXsXsXsXsXsXsXsXsXsXsXsXsXsXsXsXsXsXsXsXsXsXsXsXsXsXsXsXsXsXsXsXsXsXNXsXsXsXsXsXsXsXsXsXsXsXsXsXsXsXsXsXsXsXsXsXsXsXsXsXsXsXsXsXsXsXsXsXsXsXsXsXsXsXsXsXsXsXsXsXsXsXsXsXsXsXsXsXsXsXsXsXsXsXsXsXsXsXsXsXsXsXsXsXsXsXsXsXsXsXsXsXsXsXsXsXsXsXsXsXsXsXsXsXsXsXsXsXsXsXsX",
"&XP.&X&X&X&XP.&X&X&X&X&X&X&X&X&X&X&X&X&X&X&X&X&X&X&X&X&X&X&X&X&X&X&X&X&X&X&X&X&X&X&X&X&X&X&X&X&X&X&X&X&X&X&X&X&X&X&X&X&X&X&X&X&X&X&X&X&X&X&X&X&X&X&X&X&X&X&X&X&X&X&X&X&X&X&X&X&X&X&X&X&X&X&X&X&X&X&X&X&X&X&X&X&X&X&X&X&X&X&X&X&X&X&X&X&X&X&X&X&X&X&X&X&X&X&X&X&X&X&X&X&X&X&X&X&X&X&X&X&X&X&X&X&X&X&X&X&X&X&X&X&X&X&X&X&X&X&X&XP.&X&X&X&X&X&X&X&X&X&X&X&X&X&X&X&X&X&X&X&X&X&X&X&X&X&X&X&X&X&X&X&X&X&X&X&X&X&X&X&X&X&X&X&X&X&X&XP.&XsX9X8X8X8X8X8X9X8X8X8X8X8X9XsX8X8X9X8X7X8X8X8XsXrX7X9X8X8X8X8X7X9XsX&XP.&X&X&XP.P.P.P.P.P.&X&X",
"J.L.J.q.J.q.L.J.K.q.J.K.K.K.L.K.K.K.K.K.K.K.K.K.K.K.K.K.K.K.K.K.K.K.K.K.K.K.K.K.K.K.K.K.K.K.K.K.K.K.K.K.K.K.K.K.K.K.K.K.K.K.K.K.K.K.K.K.K.K.K.K.K.K.K.K.K.K.K.K.K.K.K.K.K.K.K.K.K.K.K.K.K.K.K.K.K.K.K.K.K.K.K.K.K.K.K.K.K.K.K.K.K.K.K.K.K.K.K.K.K.K.K.K.K.K.K.K.K.K.K.K.K.K.K.K.K.K.K.K.K.K.K.K.K.K.K.K.K.K.K.K.K.K.K.K.K.K.K.K.K.K.K.K.K.K.K.K.K.K.K.K.K.K.K.K.K.K.K.K.K.K.K.K.K.K.K.K.K.K.K.K.K.K.K.K.K.K.K.K.K.K.K.K.K.K.K.K.P.sX8X7X7X8X;XJ.q.K.;X8X7X7X8XsX8X8X;X1XsX8X7X7XsX9X8X&X<X9X8X9X8X9XsXL.L.J.q.J.&XP.P.P.L.P.q.L.",
"w P._ 8.o.w w._ 8.w _ o.8.#.&XL.L.L.L.L.L.L.L.L.L.L.L.L.L.L.L.L.L.L.L.L.L.L.L.L.L.L.L.L.L.L.L.L.L.L.L.L.L.L.L.L.L.L.L.L.L.L.L.L.L.L.L.L.L.L.L.L.L.L.L.L.L.L.L.L.L.L.L.L.L.L.L.L.L.L.L.L.L.L.L.L.L.L.L.L.L.L.L.L.L.L.L.L.L.L.L.L.L.L.L.L.L.L.L.L.L.L.L.L.L.L.L.L.L.L.L.L.L.L.L.L.L.L.L.L.L.L.L.L.L.L.L.L.L.L.L.L.L.L.L.L.L.L.L.L.L.L.L.L.L.L.L.L.L.L.L.L.L.L.L.L.L.L.L.L.L.L.L.L.L.L.L.L.L.L.L.L.L.L.L.L.L.L.L.L.L.L.L.L.L.L.L.L.P.sX8X7X7X8XL.8.q.w.P.8X7X7X8XsX7XrX..8.8.&X8X7XsXsXB._ O.J.<Xo.o.sXsXP.J.w w.q.#.w.#.w.B.8. .P.",
"_ q. .8.w q o.e _ w 8./ w o.&XK.L.L.L.L.L.L.L.L.L.L.L.L.L.L.L.L.L.L.L.L.L.L.L.L.L.L.L.L.L.L.L.L.L.L.L.L.L.L.L.L.L.L.L.L.L.L.L.L.L.L.L.L.L.L.L.L.L.L.L.L.L.L.L.L.L.L.L.L.L.L.L.L.L.L.L.L.L.L.L.L.L.L.L.L.L.L.L.L.L.L.L.L.L.L.L.L.L.L.L.L.L.L.L.L.L.L.L.L.L.L.L.L.L.L.L.L.L.L.L.L.L.L.L.L.L.L.L.L.L.L.L.L.L.L.L.L.L.L.L.L.L.L.L.L.L.L.L.L.L.L.L.L.L.L.L.L.L.L.L.L.L.L.L.L.L.L.L.L.L.L.L.L.L.L.L.L.L.L.L.L.L.L.L.L.L.L.L.L.L.L.L.K.P.sX8X7X7X9XJ.8.9Xo.P.8X7X7X8XsX7X9X0._ / o.rX2XrXBX .&X8.q 0.0 w.sXrXL.L.o. .w  ./ _  ...e  .P.",
"o.L..._  .8._ q. .#.&Xo.q.8.&XL.L.L.L.L.L.L.L.L.L.L.L.L.L.L.L.L.L.L.L.L.L.L.L.L.L.L.L.L.L.L.L.L.L.L.L.L.L.L.L.L.L.L.L.L.L.L.L.L.L.L.L.L.L.L.L.L.L.L.L.L.L.L.L.L.L.L.L.L.L.L.L.L.L.L.L.L.L.L.L.L.L.L.L.L.L.L.L.L.L.L.L.L.L.L.L.L.L.L.L.L.L.L.L.L.L.L.L.L.L.L.L.L.L.L.L.L.L.L.L.L.L.L.L.L.L.L.L.L.L.L.L.L.L.L.L.L.L.L.L.L.L.L.L.L.L.L.L.L.L.L.L.L.L.L.L.L.L.L.L.L.L.L.L.L.L.L.L.L.L.L.L.L.L.L.L.L.L.L.L.L.L.L.L.L.L.L.L.L.L.L.L.L.P.sX8X7X7X8XP.w.#.q q.9X7X7X8XsX7XrXo. .B.w.9X2XsXsXL./ o.w.w ..8.sXsXL.K.o._ o. .w 8.#./ / ..P.",
"K.K.K.B.K.K.J.L.K.J.J.K.J.K.J.J.J.J.J.J.J.K.K.J.J.J.K.L.L.L.L.L.L.K.J.J.J.K.K.J.J.K.K.J.K.K.K.K.P.K.K.K.K.J.J.J.J.J.J.J.J.J.J.J.J.J.J.J.K.K.J.J.J.J.J.J.J.J.J.J.K.J.J.J.J.J.J.J.K.K.J.J.J.J.J.K.J.J.K.K.K.L.L.K.K.K.K.J.K.K.J.J.K.J.J.L.K.J.J.J.J.J.J.J.J.J.J.J.J.J.J.J.J.J.J.K.K.J.J.J.J.J.J.J.J.J.J.K.J.J.J.K.K.K.K.L.L.K.K.K.J.J.K.J.J.J.J.K.K.J.J.K.K.J.J.K.K.J.J.K.J.J.L.K.J.J.J.J.J.J.J.J.J.J.J.J.J.J.J.J.J.J.K.K.K.K.K.K.P.sX8X7X7X8X<X&X&XJ.&X8X7X7X8XsX8X7X2X7X8X8X8X7XsX9X8X1X7X8X1X8X1X9XsXL.K.B.L.L. .o.P.K.K.K.L.K.",
"rX8X9XrX9X9XrX9X9XrXrX9XrX8X9XrXrXrXrX9XrX8X9XrX9XsX2X%XL.%X%X%X%X2XrX9XrX9X8XrXrX8X9XrX9X8X8X8XP.1X8X8X9X9XrXrXrXrXrXrXrXrXrXrXrXrX9XrX8X9XrXrXrXrXrXrXrXrX9XrX8X9XrXrXrXrX9XrX8X9XrXrXrXrX9X8XrX9X9X8X7X,XOX8X6X8X9XrX8X8XrX9X8X9XrX<X9XrXrXrXrXrXrXrXrXrXrXrXrXrXrXrXrX9XrX8X9XrXrXrXrXrXrXrXrXrX9X8XrX9XrX9X9X8X8X,X:X9X8X9X9XrX8XrXrX9XrX8X9XrXrX9X8XrXrX9X8XrX9X8X9XsX<X8XrXrXrXrXrXrXrXrXrXrXrXrXrXrXrXrX9XrX8X9X9X8X8X6X*XsX8X7X8X7X8X9X9XrX8X7X8X7X8XsX8X7X8X8X7X7X8X7XsXrX2X8X8X7X8X7X8X9XsX<X<X<X<X<X;X1X<X<X<X<X<X<X",
"HXdXHXHXHXHXHXHXHXHXHXHXHXdXHXHXHXHXHXHXHXBXAXHXHXPXrX}.Z.-X%X-X%X8XHXHXHXAXBXHXHXCXCXHXAXeXdXtXt R.fXdXCXHXHXHXHXHXHXHXHXHXHXHXHXHXHXHXNXHXHXHXHXHXHXHXHXHXHXHXdXHXHXHXHXHXHXPXBXAXHXHXHXHXHXdXHXHXCXdXeXG.P mXiXuXAXHXCXCXPXHXdXHXPXs.AXHXHXHXHXHXHXHXHXHXHXHXHXHXHXHXHXHXHXBXDXHXHXHXHXHXHXHXHXHXHXdXHXHXHXDXSXbXnX_._.SXZXAXDXHXdXHXHXHXPXBXAXHXHXDXBXHXHXCXCXHXHXdXHXPXC.CXPXHXHXHXHXHXHXHXHXHXHXHXHXHXHXHXHXHXBXAXAXSXZXkX~.dX8X7X8X8X7XsXsXsX7X8X8X7X8XsX8X7X7X7X7X7X7X7XsXrX2X7X7X7X7X7X7X9XsX8X8X8X8X8X8X8X8X8X8X8X8X8X",
"DXsXAXDXAXAXAXAXAXAXAXAXDXsXAXDXAXAXAXAXHXsXCXDXAXHXrX}.Z.%X%X%X%X7XAXAXHXCXdXHXHXdXBXHXCXeXtXtX .P.aXsXBXAXDXAXAXAXAXAXAXAXAXAXAXAXAXHXsXAXDXAXAXAXAXAXAXAXAXHXsXAXDXAXAXAXAXHXsXCXDXAXAXAXAXsXDXAXBXsX3XG.P bX5X0XSXDXBXBXHXAXsXAXHXs.CXDXAXAXAXAXAXAXAXAXAXAXAXAXAXAXAXAXHXsXCXDXAXAXAXAXAXAXAXDXAXsXDXAXDXCXVXvXvX_._.BXNXSXAXAXsXAXAXAXHXsXCXDXDXCXsXHXHXBXBXHXAXsXAXHXB.BXHXAXAXAXAXAXAXAXAXAXAXAXAXAXAXAXAXHXsXCXCXNXNXqX~.dX8X7X8X8X7XsXsXsX7X8X8X7X8XsX2XU.U.U.>XU.U.>XsX9X>XU.U.>XU.U.U.8XsX7X7X7X7X8XeXeXeXeXeX7X7X7X",
"HXsXAXDXDXDXDXDXDXDXDXDXHXsXAXDXDXDXDXDXHXsXCXHXAXHX9X}.Z.-X%X%X%X7XHXHXHXCXdXHXHXBXCXHXCXeXtXtXt R.sXsXBXAXDXDXDXDXDXDXDXDXDXDXDXDXDXHXsXAXHXDXDXDXDXDXDXDXDXHXsXAXDXDXDXDXDXHXdXCXHXDXDXDXAXsXHXAXBXsXeXG.P bX5X0XSXHXBXBXHXAXsXDXHXs.CXHXDXDXDXDXDXDXDXDXDXDXDXDXDXDXDXDXHXsXCXHXDXDXDXDXDXDXDXDXAXsXHXDXDXAXVXvXvX_._.SXZXSXAXDXsXDXDXDXHXdXCXHXHXCXsXHXHXBXBXHXDXsXAXHXB.BXHXDXDXDXDXDXDXDXDXDXDXDXDXDXDXDXDXHXsXCXSXNXNXkX~.dX8X7X8X8X7XsXBXsX7X8X8X7X8XsX2XU.U.U.>XU.U.>XsX9X>XU.U.>XU.U.U.8XsX8X8X7XeX1X:.J K P OXeX7X7X",
"HXsXAXDXDXDXDXDXDXDXDXDXHXsXAXDXDXDXDXDXHXsXCXHXAXHX9X}.Z.-X%X%X-X%X6XNXHXCXdXHXHXBXCXHXCXeXtXtX .P.aXsXBXAXDXDXDXDXDXDXDXDXDXDXDXDXDXHXsXAXHXDXDXDXDXDXDXDXDXHXsXAXDXDXDXDXDXHXdXCXHXDXDXDXAXsXHXAXBXsXeXG.P bX5X0XSXHXBXBXHXAXsXDXHXs.CXHXDXDXDXDXDXDXDXDXDXDXDXDXDXDXDXDXHXsXCXHXDXDXDXDXDXDXDXDXAXsXHXDXDXAXVXvXvX_._.SXZXSXAXDXsXDXDXDXHXdXCXHXHXCXsXHXHXBXBXHXDXsXAXHXB.BXHXDXDXDXDXDXDXDXDXDXDXDXDXDXDXDXDXHXsXCXSXNXNXkX~.dX8X7X8X7XeXP L P eX7X8X7X8XsX2XU.U.U.>XU.U.>XsX9X>XU.U.>XU.U.U.8XsX8X7XeX@XA A P E K Z P eX7X",
"HXsXAXDXDXDXDXDXDXDXDXDXHXsXAXDXDXDXDXDXHXsXCXHXAXHX8X}.Z.-X%X%X-XZ.Z.8XHXCXdXHXHXBXCXHXCXeXtXtX .G.uXsXBXAXDXDXDXDXDXDXDXDXDXDXDXDXDXHXsXAXHXDXDXDXDXDXDXDXDXHXsXAXDXDXDXDXDXHXdXCXHXDXDXDXAXsXHXAXBXsXeXG.P bX5X0XSXHXBXBXHXAXsXDXHXs.CXHXDXDXDXDXDXDXDXDXDXDXDXDXDXDXDXDXHXsXCXHXDXDXDXDXDXDXDXDXAXsXHXDXDXAXVXvXvX_._.SXZXSXAXDXsXDXDXDXHXdXCXHXHXCXsXHXHXBXBXHXDXsXAXHXB.BXHXDXDXDXDXDXDXDXDXDXDXDXDXDXDXDXDXHXsXCXSXNXNXkX~.dX8X7X8X7XeXK Z J eX7X8X7X8XsX2XU.U.U.>XU.U.>XsX9X>XU.U.>XU.U.U.8XsX7XeXOXA P sXFXFXCX@XA :.eX",
"HXsXAXDXDXDXDXDXDXDXDXDXHXsXAXDXDXDXDXDXHXsXCXHXAXHX8X}.Z.-X%X%X-XZ.}.8XHXCXdXHXHXBXCXHXCXeXtX8X_ 0.8XfXBXAXDXDXDXDXDXDXDXDXDXDXDXDXDXHXsXAXHXDXDXDXDXDXDXDXDXHXsXAXDXDXDXDXDXHXdXCXHXDXDXDXAXsXHXAXBXsXeXG.P bX5X0XSXHXBXBXHXAXsXDXHXs.CXHXDXDXDXDXDXDXDXDXDXDXDXDXDXDXDXDXHXsXCXHXDXDXDXDXDXDXDXDXAXsXHXDXDXAXVXvXvX_._.SXZXSXAXDXsXDXDXDXHXdXCXHXHXCXsXHXHXBXBXHXDXsXAXHXB.BXHXDXDXDXDXDXDXDXDXDXDXDXDXDXDXDXDXHXsXCXSXNXNXkX~.dX8X7X8X7XeXJ Z J eX7X8X7X8XsX2XU.U.U.>XU.U.>XsX9X>XU.U.>XU.U.U.8XsX7XeXJ J FXsXsXsXsXFX@XA ,X",
"HXsXAXDXDXDXDXDXDXDXDXDXHXsXAXDXDXDXDXDXHXsXCXHXHXHX8X}.Z.-X%X%X-XZ.}.7XHXCXdXHXHXBXCXHXCXeXtX-X` 8.8XfXBXAXDXDXDXDXDXDXDXDXDXDXDXDXDXHXsXAXHXDXDXDXDXDXDXDXDXHXsXAXDXDXDXDXDXHXdXCXHXDXDXDXAXsXHXAXBXsXeXG.P bX5X0XSXHXBXBXHXAXsXDXHXs.CXHXDXDXDXDXDXDXDXDXDXDXDXDXDXDXDXDXHXsXCXHXDXDXDXDXDXDXDXDXAXsXHXDXDXAXVXvXvX_._.SXZXSXAXDXsXDXDXDXHXdXCXHXHXCXsXHXHXBXBXHXDXsXAXHXB.BXHXDXDXDXDXDXDXDXDXDXDXDXDXDXDXDXDXHXsXCXSXNXNXkX~.dX8X7X8X7XeXJ Z J eX7X8X7X8XsX2XU.U.U.>XU.U.>XsX9X>XU.U.>XU.U.U.8XsX8X,XA @XBXsXsXsXsXrXsXL !.",
"HXsXAXDXDXDXDXDXDXDXDXDXHXsXAXDXDXDXDXDXHXsXCXSXSXSXqX}.Z.-X%X%X-XZ.}.6XHXCXdXHXHXBXCXHXCXeXeXV.` 5.8XfXBXAXDXDXDXDXDXDXDXDXDXDXDXDXDXHXsXAXHXDXDXDXDXDXDXDXDXHXsXAXDXDXDXDXAXHXdXCXHXDXDXDXAXsXHXAXBXsXeXG.P bX5X0XSXHXBXBXHXAXsXDXHXs.CXHXDXDXDXDXDXDXDXDXDXDXDXDXDXDXDXAXHXsXCXHXDXDXDXDXDXDXDXDXAXsXHXDXDXAXVXvXvX_._.SXZXSXAXDXsXDXDXAXHXdXCXHXHXCXsXHXHXBXBXHXDXsXAXHXB.BXHXDXDXDXDXDXDXDXDXDXDXDXDXDXDXDXAXHXsXCXSXNXNXkX~.dX8X7X8X7XeXJ Z J eX7X8X7X8XsX2XU.U.U.>XU.U.>XsX9X>XU.U.>XU.U.U.8XsXeXOXA 5XdXsXNX7X: + I.I H ",
"DXsXAXAXAXAXAXAXAXAXAXAXAXsXAXAXAXAXAXAXDXsXNX0X0X0X:X}.Z.%X%X%X%XZ.}.:XHXBXsXDXDXdXBXDXBXeXeXV.` 7.2XsXBXAXAXAXAXAXAXAXAXAXAXAXAXAXAXAXsXCXAXAXAXAXAXAXAXAXAXAXsXAXAXAXAXAXAXHXsXCXAXAXAXAXAXsXAXAXBXsX3XG.P vX5X0XSXAXNXBXDXAXsXAXHXs.CXAXAXAXAXAXAXAXAXAXAXAXAXAXAXAXAXAXDXsXCXAXAXAXAXAXAXAXAXAXAXsXAXAXAXSXnXvXvX_._.NXZXSXAXAXsXAXAXAXDXsXCXAXAXCXsXDXDXBXNXHXAXsXAXHXs.NXHXAXAXAXAXAXAXAXAXAXAXAXAXAXAXAXAXDXsXCXSXZXZXqX~.dX8X7X8X7XeXJ Z J eX7X8X7X8XsX2XU.U.U.>XU.U.>XsX9X>XU.U.>XU.U.U.8XsXeX,XA @XdXsXsXsX;XP.sXo ) ",
"PXCXPXPXPXPXPXPXPXPXPXPXPXCXPXPXPXPXPXPXPXAXBX:X:X:X:X-X}.>X>X>X>X}.-X7XIXHXCXPXPXAXHXIXHXdXtX X` 0.8XCXHXPXPXKXPXIXIXIXIXIXIXIXIXIXIXIXFXJXJXJXJXJXJXJXJXJXJXJXdXJXJXJXJXJXJXJXFXFXJXJXJXJXJXdXJXJXFXCXgXG.P SXuXsXHXJXFXFXJXJXdXJXJXA.FXJXJXJXJXJXJXJXJXJXJXJXJXJXJXJXJXJXJXFXJXJXJXJXJXJXJXJXJXJXJXdXJXJXJXHXAXVXVX_.).FXFXFXJXJXdXJXJXJXJXFXFXJXJXJXFXJXJXFXFXJXJXdXJXIXK.FXJXJXJXJXJXJXJXJXJXJXJXJXJXJXJXJXJXJXFXFXHXFXFXcX^.sX8X7X8X7XeXJ Z J eX7X8X7X8XsX2XU.U.U.>XU.U.>XsX9X>XU.U.>XU.U.U.8XsX7XeXK P FXsXsXsXNXJXOXo G.",
"&XJ.&X&X&X&X&X&X&X&X&X&X&XJ.&X&X&X&X&X&X&XK.C.5.5.5.5.5.7.5.5.5.5.7.5.a.&XL.K.*X*XL.L.&XP.B.M.3.q ] a.K.K.&X:X6X:XK.G.G.G.H.H.H.#.#.#.y | P P P ! ~ ~ R R T T T L T T T T T T T L L L L L L T R T T L L L S S T S S T T R R T T S T T S T T T T T T T T T T T T T T T T T T T L T T T T T T T T T T T S R ~ T T T T T S S T T T T T L T T T T L T T T T L T T T T T T L T T S T T T T T T T T T T T T T T T T T T T L T T T T S !.dX8X7X8X7XeXJ Z J eX7X8X7X8XsX2XU.U.U.>XU.U.>XsX9X>XU.U.>XU.U.U.8XsX7XeX@XZ oXdXsXsXdX=Xo G rX",
"7X&X2X7X7X7X7X7X7X7X7X7X7X&X7X7X7X7X7X7X8X<X&Xa.M.M.M.a.5.M.M.M.M.6.a.C.8X2X=X).=X*X*X8X1XP.L.6.w o.p.&X9X9XH.y 8 8 y y y | H.R.H.I D D D S L K ! ! ! oXoXoXoXoXoXoXoXoXoXoXoXoXoX:.:.P I 8 9 8 :.$X$XoXoXP L oXoXoX$XoXR S D S T ! ! P oXoXoXoXoXoXoXoXoXoXoXoXoXoXoXoXoXoXoXoXoXoXoXoXoXoXoXoX! R T S C U ! $XoXoXoXE E oXoX$X$X!.Q Q Q E !.!.oXoXoXoXoXoXoXoXoXoXoXoXoXoXP oXoXoXoXoXoXoXoXoXoXoXoXoXoXoXoXoXoXoXoXoXoXoXoX!.[.dX8X7X8X7XeXJ Z J eX7X8X7X8XsX2XU.U.U.>XU.U.>XsX9X>XU.U.>XU.U.U.8XsX8X7XeX:.L 6XsX9XdXG o 7X8X",
"PXBXHXPXPXPXPXPXPXPXPXPXPXBXHXPXPXPXPXPXPXCXsX-X-X-X-X-X}.>X-X-X>X}.-X:X9X6X-X-XqXqX9XPXDXtXeXV.` 0.%XrXR.y y H.K.iXCXBX0XKXVX! S T oX+X1XfXgXgXgXgXgXgXgXgXgXgX3XgXgXgXgXgXgXgXeXgXgXgXgXgXT.#.y y R.JXgXG.P VXBXsXoXR E @XbXSXuXSXDXs.VXSXSXSXSXSXSXSXSXSXSXSXSXSXSXSXSXSXSXuXVXSXSXSXSXSXSXSXAXSXSX0XjXoXE E jXDXVX_.).FXFXkX].]..XcXFXFXHXcXCXFXFXFXcXFXFXcXcXFXFXcXFXHXC.cXFXFXFXFXFXFXFXFXFXFXFXFXFXFXFXFXFXFXcXCXLXcXcXhX~.dX8X7X8X7XeXJ Z J eX7X8X7X8XsX2XU.U.U.>XU.U.>XsX9X>XU.U.>XU.U.U.8XsX8X7X7X8X1X8X7X7X8X1X7X8X7X",
"DXsXAXAXAXAXAXAXAXAXAXAXDXsXAXAXAXAXAXAXDXdX9X%X%X%X%X%XZ.%X%X%X%XZ.}.%X%XZ.Z.%X-X}.6XPXAXsX8XV.` 0.B.y y R.dXBX,X8XaX3X1X@XD L +XgXgXgX3XpXiXiXiXiXiXiXiXiXiXiX3XpXiXiXiXiXiXiX3XpXiXiXiXiXaX8XVXR.y y 3XOXP VX@XT E MXuXuXnXvX5XvXmXi.vXbXvXvXvXvXvXvXvXvXvXvXvXvXvXvXvXvXbX5XvXbXvXvXvXvXvXvXvXvXvX5XnXSXVXoXT E nX_._.SX].`.xXSX9XZXZXZXZXkXlXZXZXlX0XZXZXlXlXZXZX0XbXZXg.lXZXZXZXZXZXZXZXZXZXZXZXZXZXZXZXZXZXZX0XlXzXkXkXhX~.dX8X7X8X7XeXJ Z J eX7X8X7X8XsX2XU.U.U.>XU.U.>XsX9X>XU.U.>XU.U.U.8XsX8X7X7X7X8X7X7X7X7X8X8X7X8X",
"HXsXAXDXDXDXDXDXDXDXDXDXHXsXAXDXDXDXDXDXHXBX9X%X%X%X%X%XZ.-X%X%X-XZ.%X%X-X}.Z.-X:Xv.j.k.k.k.S.}.` ..e #.fXsXiXpX*X1XpXgXE D oXgXfXiXiXiX3XgXaXaXaXaXaXaXaXaXaXaX3XiXaXaXaXaXiXaX3XpXaXaXaXaXiX3XiXfXdXH.7 } E oXU @XSXnX5XiXnXbX5XbXmXi.vXnXbXbXbXbXbXbXbXbXbXbXbXbXbXbXbXbXnX5XvXbXbXbXbXbXbXbXbXbXvX5XbXvXvXVXvXE R _._.'.].ZXZXZX0XZXZXZXZXlXlXZXZXcX0XZXZXlXlXZXZX0XZXSXg.lXZXZXZXZXZXZXZXZXZXZXZXZXZXZXZXZXZXZX0XlXzXkXkXhX~.dX8X7X8X7XeXJ Z J eX7X8X7X8XsX2XU.U.U.>XU.U.>XsX9X>XU.U.>XU.U.U.8XsX8X7X8X7X8XeXeXeXeXeX7X7X8X",
"HXsXAXDXDXDXDXDXDXDXDXDXHXsXAXDXDXDXDXDXHXBX9X%X%X%X%X%XZ.-X%X%X-XZ.%X%X-X}.}.-Xj.4 x.wXwXj.4 j.w 8 o.&X3XpXaXiX,X,X2X! D OXgXiXiXaXiXfXOX].aXaXaXaXaXaXaXaXaXaX3XiXaXaXaXaXaXgXpXpXaXaXaXaXiX3XaXiX3XaXG.7 A R 5X5XvXbXiXiXnXbX5XbXmXi.vXnXbXbXbXbXbXbXbXbXbXbXbXbXbXbXbXbXnX5XvXbXbXbXbXbXbXbXbXbXvX5XnXbXbXvXjXvX! S V ].ZXzXcXZX0XZXZXZXZXlXlXZXZXcX0XZXZXlXlXZXZX0XZXSXg.lXZXZXZXZXZXZXZXZXZXZXZXZXZXZXZXZXZXZX0XlXzXkXkXhX~.dX8X7X8X7XeXJ Z J eX7X8X7X8XsX2XU.U.U.U.U.U.>XsX9X>XU.U.>XU.U.U.8XsX8X7X7XeX,XP K L J @XeX8X7X",
"HXsXAXDXDXDXDXDXDXDXDXDXHXsXAXDXDXDXDXDXHXBX8X%X%X%X%X%XZ.-X%X%X-XZ.%X%X-X%XN.4 x.A.}.tXeX=X X{ * o.a.J.pXiXaX7X,X2XoXC Y >XiXaXaXaXiXaX`.W 9XaXiXaXaXaXaXaXaXaX3XiXaXaXaXaX8X#XA.3XaXaXaXaXiX3XaXiX3X3XT.:.9 OXjX+XjXbX0XiXnXbX5XbXmXi.vXnXbXbXbXbXbXbXbXbXbXbXbXbXbXbXbXbXnX5XvXbXbXbXbXbXbXbXbXbXvX5XnXbXbXvXjX+X5XQ Y cXkXzXZXZX0XZXZXZXZXlXlXZXZXcX0XZXZXlXlXZXZX0XZXSXg.lXZXZXZXZXZXZXZXZXZXZXZXZXZXZXZXZXZXZX0XlXzXkXkXhX~.dX8X7X8X7XeXJ Z J eX7X8X7X8XsX8X3X3X2X2X3X3X2XsX9X3XT.T.3XT.T.T.8XsX8X7XeXoXA K !.!.P Z P 8X8X",
"HXsXAXDXDXDXDXDXDXDXDXDXHXsXAXDXDXDXDXDXHXBX8X%X%X%X%X%XZ.-X%X%X-XZ.%X%X-X}.4 x.%XN.N. XZ.v.m.e : , 0.J.pXiXiX,X1X@XD E c Q.aXiXaXiXgX4X`.'.5XaXiXaXaXaXiXaXaXaX3XiXaXaXiXgX+Xz M S.fXaXaXaXiX3XaXiX3X3XG.A I 8 +X+XW nXuXiXnXbX5XbXmXi.vXnXbXbXbXbXbXbXbXbXbXbXbXbXbXbXbXbXnX5XvXbXbXbXbXbXbXbXbXbXvX5XnXbXbXvXjXMX'.Q.A !.cXzXZXZX0XZXZXZXZXlXlXZXZXcX0XZXZXlXlXZXZX0XZXSXg.lXZXZXZXZXZXZXZXZXZXZXZXZXZXZXZXZXZXZX0XlXzXkXkXhX~.dX8X7X8X7XeXJ Z J eX7X8X7X8XNXT.p p p p p p W.NXrX3XT.T.3XT.T.T.8XsX7XeXOXZ !.dXFXCXFX,XA P eX",
"HXsXAXDXDXDXDXDXDXDXDXDXHXsXAXDXDXDXDXAXHXBX8X%X%X%X%X%XZ.-X%X%X-XZ.%X%X-X4 x.%XV.N.N.V.N.m.w r ` t , K.3XaXiX,X,XD oX].[.Y 4XaXiXiXgX#Xb m jXaXiXiXaX0XW 0XaXaX3XiXaXaXiXgX]., z '.gXiXaXaXiX3XaXiX3X3XL P P | 8 #XW '.'.jXnXvX5XbXmXi.vXnXbXbXbXbXbXbXbXbXbXbXbXbXbXbXbXbXnX5XvXbXbXbXbXbXbXbXbXbXvX5XnXbXbXvXMX#X`.!.!.R #XcXcXZX0XZXZXZXZXlXlXZXZXcX0XZXZXlXlXZXZX0XZXSXg.lXZXZXZXZXZXZXZXZXZXZXZXZXZXZXZXZXZXZX0XlXzXkXkXhX~.dX8X7X8X7XeXJ Z J eX7X8X7X8XNXT.p p p p p p W.NXrX3XT.T.3XT.T.T.8XsX7XeXK P FXsXsXsXsXFX@XA OX",
"HXsXAXDXDXDXDXDXDXDXDXAXDXsXAXDXDXDXDXDXHXBX7X%X%X%X%X%XZ.%X%X%X-XZ.}.:Xj.j.Z.V.V.N.N.V. X` e m.q @., j.iXaXpX1XL L eXQ.3 %.#XgXiXiXgX#Xn m +XgXiXiXgX4Xx 5XaXaX3XaXfXiXiXgX'.=.W `.gXiXaXaXiX3XaXpXgXJ P H.I +X8 H W W x ].VXvX5XbXnXi.vXbXbXbXbXbXbXbXbXbXbXbXbXbXbXbXbXbXnX5XvXbXbXbXbXbXbXbXbXbXvX5XbXbXbXvXjX`.#X!._.@XR cXcXZX0XZXZXZXZXlXlXZXZXcX0XZXZXlXlXZXZX0XZXSXg.lXZXZXZXZXZXZXZXZXZXZXZXZXZXZXZXZXZXZX0XlXzXkXkXhX~.dX8X7X8X7XeXJ Z J eX7X8X7X8XsX8X3X3X3X2X3X3X2XsX9X3XT.T.3XT.T.T.8XsX8X,XA @XBXsXsXsX7X2XrXL !.",
"HXsXDXHXHXHXHXHXHXHXHXHXHXsXHXHXHXHXAXAXAXsX6X%X-X-X-X%XZ.-X-X-X-XZ.*Xv.N }.N.Z.Z.N.V. XN.e +.v.r @.0.4 U.fXgXoXD P.).z u n ].gXaXaXgX].%.Q.#XgXaXaXfX'.W 4XfXaX3X5X-XaXaXuXz l.W W gXaXaXaXaX3XiXgX@XK R.:.J +XG.g ].jXx ].GXbX5XnXmXi.vXmXnXnXnXnXnXnXnXnXnXnXnXnXnXnXnXnXmX5XvXmXnXnXnXnXnXnXnXnXbX5XmXnXbXnX'.'.+X!.!.zXE !.FXZX0XZXZXZXZXlXcXZXZXZXlXZXZXlXlXZXZX0XZXLXg.lXZXZXZXZXZXZXZXZXZXZXZXZXZXZXZXZXZXZXlXcXcXzXkXhX~.dX8X7X8X7XeXJ Z J eX7X8X7X8XsX7XT.T.T.T.T.T.3XsX9X3XT.T.3XT.T.T.8XsXeXOXA 5XdXsXNX7X: + I.I F ",
"BX9XdXBXBXBXBXBXBXBXBXBXBX9XdXBXNXBX9XqXqX4X%XZ.}.}.}.Z.A.}.}.}.}.A.Z.4 m.N.m.N.N.m.m. Xw w v.3.q ' 4.{ 4 3X,XD Q ~.Q.M l.=.Y 3X3X3XaX].*.$.'.aX3X3X3X`.Q._.aX3XT.'.j U.aX#XM l.%.j #X3X3X3X3X<X3X3XL G.G.:.I OX@XY | N.x '.uX5X5X0XuXi.5XiX0X0X0XjX5X0X0X0X0X0X0X0X0X0X0X0XiX5X5X0X0X0X0X0X0X0X0X0X5X5X0X5XiX4X`.+X@X!.!.4X@XR 5XlX6XlXlXlXlXqX0XlXlX0XqXlXlX0X0XlXlX6XlXcXp.0XlXlXlXlXlXlXlXlXlXlXlXlXlXlXlXlXlXlXqX0XkXqXqX.X~.dX8X7X8X7XeXJ Z J eX7X8X7X8XsX8XT.T.T.3XT.T.3XsX9X3XT.T.3XT.T.T.8XsX8X,XA @XBXsXsXsX2X1XsXo } ",
"CXrXBXCXCXCXCXCXCXCXCXBXCXrXBXCXBXCX6X%X-X}.}.}.}.}.}.}.A.}.}.}.}.=Xj.j.}.m.m.V.V.m.V.@.e 4.3.v.q ' +.0., l.P U Q.Q.Q.> v.j.m '.3X3XaX`.%.u Q.iX3X3XiXQ.< W 1XpX3X!.z @XgX].1 v.n.< `.aX3X3X3X<XgXE P <XG.:.I OX@XY e % c `.uXiX5XiXvXi.5XvXuXuXuXW jXuXuXuXuXuXiXvXvXiXuXiXvX5X0XuXuXuXuXuXuXuXuXuXiX5XuXiXuX`.].+X+X!.!.4XqX!.E BXqXlXlXlXlX0X0XlXlXlX0XlXlX0X0XlXlXqXlXZXd.0XlXlXlXlXlXlXlXlXlXlXlXlXlXlXlXlXlXlX0XkXkXkXkX4X~.dX8X7X8X7XeXJ Z J eX7X8X7X8XsX8XT.T.T.3XT.T.3XsX9X3XT.T.3XT.T.T.8XsX7XeXK P FXsXsXsXsXJXi.o OX",
"HXsXDXHXHXHXHXHXHXHXHXHXHXsXDXHXHXHX8X}.-XZ.%X-X-X-X-X%XZ.-X-X-X:Xm.4 }.V.V.N.Z.Z.N.V.e @.v.v.v.r @.4.4.v.n S Y ~.Y z 4 L.j.j.W #XgX#Xz j.v.Q.sXaXfX;Xm u b '.fX3X!.m ].gX'.n I.B.4 Q.fXaXaXiX3X5XL ,X,XG.H.J ,XW M u 6 =.x jXnX5XnXmXi.vXmXbXnXvXW jXnXbXnXnXnXmX9X>XmXbXnXmX5XvXnXnXnXnXnXnXnXnXnXbX5XnXVX#X`.jX+X+X!.!.jXhXkXR jXcXZXZXZXZXlXcXZXZXZXlXZXZXlXlXZXZX0XZXLXg.lXZXZXZXZXZXZXZXZXZXZXZXZXZXZXZXZXZXZXlXcXcXzXkXhX~.dX8X7X8X7XeXJ Z J eX7X8X7X8XsX8XT.T.T.3XT.T.3XsX9X3XT.T.3XT.T.T.8XsX7XeXOXZ !.dXsXsXBXOXo G rX",
"HXsXAXDXDXDXDXDXDXDXDXDXHXsXAXDXAXHX7X}.-XZ.%X%X%X%X%X%XZ.%X%X%X:XN x.}.V.V.N.V.V.V. .e N.3.v.v.q +.4.4.D.S F [.~._.n l.=Xj.u #XW 3X].n u =XQ.0XaXfXj.M j.4 Q.fX3XQ.b '.gXQ.{ L.f.4 V jXaXuXiX3XE oX3XOXG.H.J @XW ; 3 ; 4 W #XnX5XbXmXi.vXvXj.uXjXx jXnXbXbXbXvXmXD.3 mXvXbXnX5XvXbXbXbXbXbXbXbXbXbXvX5XbXnX`.#XjX+X+X!.!.jXhXkXoXE cXZXZXZXZXlXlXZXZXcX0XZXZXlXlXZXZX0XZXSXg.lXZXZXZXZXZXZXZXZXZXZXZXZXZXZXZXZXZXZX0XlXzXkXkXhX~.dX8X7X8X7XeXJ Z J eX7X8X7X8XsX8XT.T.3X3XT.T.3XsX9XT.T.E.T.<XT.<X8XsX8X7XeX!.K 6XrX9XdXF d 8X8X",
"HXsXAXDXDXDXDXDXDXDXDXDXHXsXAXDXDXHX6X}.-XZ.%X-X%X%X%X%XZ.-X%X*Xv.4 }.V.V.V.N.V.V.N.e 4.c.3.v.v.r @.4.v.-.D n Y ^.P.4 l.=Xv.2 Z.'.W W , j.L.Q.].fXE.M Q.n.l.m #XW M j.Q.jXz j.L.f.j.j Q >Xz.fX@XR pX,X,XG.H.K c Y % % @.; Q.#XnX5XbXmXi.vX0X3 uX#Xx jXnXbXbXbXvXmXj.2 mXbXbXnX5XvXbXbXbXbXbXbXbXbXbXvX5XVX].'.vXjX+X+X!.!.jXhXjXzXR @XLXZXZXZXlXlXZXZXcX0XZXZXlXlXZXZX0XZXSXg.lXZXZXZXZXZXZXZXZXZXZXZXZXZXZXZXZXZXZX0XlXzXkXkXhX~.dX8X7X8X7XeXJ Z J eX7X8X7X8XsX2X>X>X>X1X6X1X2XsX9Xp p p W.W W W 0XsX7X7X7XeX7X7X2X2X7X7X8X8X7X",
"HXsXAXDXDXDXDXDXDXDXDXDXHXsXAXDXDXHX6X}.-XZ.%X-X%X%X%X%XZ.-X%X-XN v.Z.V.V.V.N.V. X .w V.c.3.v.v.) %.7.v.S :.[.m I.=X4 v.C.=Xj.u pX[ , 3 4.K.6.z VXz.M _.A.L.{ Y x n u m W =.j.=Xa.n.m W Q.3 gXK r 3X,X,XG.H.A W j 3 [ f.u M #XVX5XbXmXi.MX2X2 sX#XW #XnXvXnXbXvXmXj.2 bXbXbXnX5XvXbXbXbXbXbXbXbXbXbXvX5XbX`.jXjXjX+X+X!.!.jXhXjXzXoXE FXZXZXZXlXlXZXZXcX0XZXZXlXlXZXZX0XZXSXg.lXZXZXZXZXZXZXZXZXZXZXZXZXZXZXZXZXZXZX0XlXzXkXkXhX~.dX8X7X8X7XeXJ Z J eX7X8X7X8XsX8X1X1X2X~.%.%.).dX9XT.E.E.P.#XOX4X8XsX8X7X8X7X2X8XrXsX9X2X2X7X8X",
"HXsXAXDXDXDXDXDXDXDXDXDXHXsXAXDXDXHXqX}.-XZ.%X-X%X%X%X%XZ.%X:Xx.j.Z.V.V.V.V.N.V.V.e 4.M.c.3.v.v.Y j [.:.S D.Q.b j.j.3 b.C.C.A.4 4 3 j.C.a.C.l.M '.=.j ).A.C.a.c '.u u n W j.j.=Xa.M.4 *Xm M X.I m '.OX,XG.H.A Q.n ' OXg.4.1 W jX5XbXmXi.MX>X% sX].W #XVXnX#XvXnXmXj.3 9XmXbXnX5XvXbXbXbXbXbXbXbXbXbXvXiX].'.vXjXjX+X+X!.!.jXhXjXjXzXR +XLXZXZXlXlXZXZXcX0XZXZXlXlXZXZX0XZXSXg.lXZXZXZXZXZXZXZXZXZXZXZXZXZXZXZXZXZXZX0XlXzXkXkXhX~.dX8X7X8X7XeXJ Z J eX7X8X7X8XNX>Xl.l.l.%.&.&./.dX9X>X>X>X:X6X6X6X9XsX8X8X7X8XNX<Xw.#.P.sX9X2X8X",
"HXsXAXDXDXDXDXDXDXDXDXDXHXsXAXDXAXHX:X%X-XZ.%X-X%X%X%X%XZ.-X%X4 m.N.V.V.V.V.M. X .w N.b.c.3.v.4.m < Q.S :.D.Q.n % u j.C.C.C.C.M.3 l.=XA.0.C.n.< W =.%.K.C.C.C.x < 4 l.u +Xu j.=Xb.C.4 P.4 m : ( m x W I.G.H.g > 4 ' g.g.0.; x W 0XbXmXi.MXS.% 9X'.Y ^.MX`.c #XvXmXj.3 8XmXbXnX5XvXbXbXbXbXbXbXbXbXbXbX5X`.jXjXjXjX+X+X!.!.jXhXjXjXzX!.E FXZXZXlXlXZXZXcX0XZXZXlXlXZXZX0XZXSXg.lXZXZXZXZXZXZXZXZXZXZXZXZXZXZXZXZXZXZX0XlXzXkXkXhX~.dX8X7X8X7XeXJ Z J eX7X8X7X8XNXY.4 4 u %.&.&./.dX9X>XU.U.:X4X4X4X9XsX8X7X8X8Xe         + P.rX2X",
"HXsXAXDXDXDXDXDXDXDXDXDXHX6XlXlXlXlX:X%X-XZ.%X-X%X%X%X%XA.:Xx.j.%Xm.V.V.V.V.N.V.e 4.c.b.c.3.v.5.z +.Q S c.n.Q.< 3 a.=XC.C.C.C.C.K.C.A.C.a.B.=Xu n.4 l.C.C.C.A._.4 l.c.u 5X3 M.C.b.K.4 v.u Y < [ M [ W 3 @.Q g 2 2 1.p.g.0.< c W #XvXnXi.mXZ.2 8X'.`.u.].x c W '.GXj.3 2XmXbXnX5XvXbXbXbXbXbXbXbXbXbXnX_.'.vXjXjXjX+X+X!.!.jXhXjXjXjX5XR jXZXZXlXlXZXZXcX0XZXZXlXlXZXZX0XZXSXg.lXZXZXZXZXZXZXZXZXZXZXZXZXZXZXZXZXZXZX0XlXzXkXkXhX~.dX8X7X8X7XeXJ Z J eX7X8X7X8XNXY.u u u %.&.&./.dX9X>X>XU.:X4X4X4X9XsX7X8X8X+   w <X1Xw.    I.9X",
"DXsXAXAXAXAXAXAXAXAXAXAXAX%X-X:X*X*X%X%X%XZ.}.%X%X%X%X%XZ.%X4 m.}.m.V.V.V.N. X .w m.6.b.c.l.%.Y b [ S Q c.b.Y { l., C.B.C.C.C.C.B.C.C.C.a.M.=Xu j.u C.B.C.C.C.A.s.C.b.2 2 j.K.A.0.C.l.3 4 Q , < m 2 m z %.v v % 4 i.p.p.p.4 f G W '.bXi.uX#Xz >X'.Q.=.].z v x W GXu 4 >XmXvXbX5XvXbXvXvXvXvXvXvXvXbXbX`.hXjXjXjXjX+X+X!.!.jXhXjXjXjX0XoXE FXZX0XlXZXZXlX0XZXZXlXlXZXZX0XZXZXg.lXZXZXZXZXZXZXZXZXZXZXZXZXZXZXZXZXZXZX0XlXzXkXkXhX~.dX8X7X8X7XeXJ Z J eX7X8X7X8XNXY.u u u %.&.&./.dX9X>X>XU.:X4X4X4X9XsX2XsXw   P.PXBXNXAXAX+   8X",
"PXCXPXPXPXPXPXPXPXPXPXPXPX%X-X>X-X-X>X>X>X}.-X>X>X>X>X-X*Xx.j.>XS.N.Z. X XV.M.e b.b.b.N.b.l.Q.=.2 F S Q.u.`.m l.L.4 l.%XZ.Z.Z.Z.Z.Z.Z.L.B.A.=Xj.3 u =XZ.Z.Z.Z.Z.M.Z.Z.2 u =XZ.L.B.A.=Xk.< E Q.v %.2 z z c z z % t i.g.f.f.u j.8 x x `.G.mX`.j *X'.%.=.[.n b c '.jX{ u >XGXmXSXvXmXmXmXmXmXmXmXmXmXGX].'.mXzXvXjXjX+X+X!.!.jXjXjXzXvXjXvXR zXLXcXZXLXLXZXlXLXLXZXZXLXLXlXLXLX).ZXLXLXLXLXLXLXLXLXLXLXLXLXLXLXLXLXLXLXcXZXZXcXzXhX~.dX8X7X8X7XeXJ Z J eX7X8X7X8XNXY.4 u u %.&.&./.dX9X>X>XU.1X6X6X6X9XsX8X7X  w PX9XsXsXsXCX<X  #.",
"*XK.&X*X*X*X*X;X;X;X;X;X*X5.5.u.u.u.5.5.u.7.5.u.5.5.6.0.4.4 =.~.~.7.3.3.3.6.w e 3.' [ +.[ ' Q.> ; D ) Q.m z 3 { 7.{ , 5.7.7.7.7.7.7.7.7.X.7.7.[ ; [ 7.7.7.7.7.7.X.7.7.+.5.7.7.7.+.7.7.0.H ( 2.Y %...W m z Y - ; / -.>.>.>.` 3 q v x c &.@Xm M Q.`.n V Q.' n z `.!.z m u.OXOXOXG.OXOXOXOXOXOXOXOXOXOXQ.t.OX).)._._._.!.!.Q._._._.).).i.=XP E :X).{.=X=X=X).=X=X{.).=X=X).=X=X>.).=X=X=X=X=X=X=X=X=X=X=X=X=X=X=X=X=X=X).{.{.).).^.~.dX8X7X8X7XeXJ Z J eX7X8X7X8XNXY.4 4 u %.&.&./.dX9X>X>XU.=X'.'.].8XsX9XJ.  I.CXsXCXsXsXsXBX  e ",
"2X&X1X1X1X1X*X=X*X*X*X*X=X5.a.a.a.a.a.a.a.5.a.a.a.M.u.[.$.M Y Q.Y Q.v.c.6.3.8 +.3.[ +.3.[ [ Y [ G A +.*.Q.{ u 3.+.7., ' 9.7.5.5.5.5.7.5.7.7.7.5.p.5.7.5.5.5.7.5.7.7.5.5.7.7.7.5.7.7.6.$.H 5.,.X.2.,.c &.m H * { -.} 2.2.2.' % 2 e g.!.h +Xm m c @X4 V Y r.u { Q.!.v v (.,X,X,XOXOX,X,X,X,X,X,XOX,X_.Q.OXOXOXOXOX@X_.@X!.Q.)._.).OXOX/.OX@XL 4X=X=X4X:X*X=X4X4X=X=X4X:X{.4X4X2.=X4X4X4X4X4X4X4X4X4X4X4X4X4X4X4X4X4X4X=X=X4X=X=X_.~.dX8X7X8X7XeXJ Z J eX7X8X7X8XNXY.4 u u %.&.&./.dX9X>X>XU._.W W W 0XsX9XJ.  P.BXNXJ.8XsXsXCX  e ",
"PXBXHXPXPXPXZX0XlXlXlXlX0X}.-X>X-X-X-X-X>X}.-X-X-X>X`.Q.m Q.V.S.V.Y Q.Q.>X .w V.M.c.b.N.b.v.Q.+.S } v.c.n.n.C.M.M.A.l.j.%XZ.Z.Z.Z.Z.Z.Z.B.C.Z.Z.Z.Z.Z.Z.Z.Z.Z.Z.B.C.Z.Z.Z.Z.Z.K.B.C.Y.H ;.C.g.p.f.s.c Q.8.-.F i.i.1.g.f.g.6.u 4 % 2 4 c '.b m W :X4 Y Y =Xl.3 V W M x hXGXjXmXuXnXmXmXmXmXmXmXmXGX'.hX5XzXzXzXjXjX+X+X!.!.jXjXjXzXzX5XvXmXE #XCXZXLX'.zXcXLXLXZXZXzXxXNXZXLX).SXLXLXLXLXLXLXLXLXLXLXLXLXLXLXLXLXLXLXlXZXZXzXzXhX~.dX8X7X8X7XeXJ Z J eX7X8X7X8XNXY.4 u u %.&.&./.dX9X>XU.U.).W W W 0XsX8X<X   .IXq.+ 8XsXNX8X   .",
"DXsXAXAXAXHX6X}.%X%X%X%X%XZ.%X%X%X%X%X%X-XZ.-X>X>X-X`.x.u Y.V.V.V.m.V.Y Q.G *.n.b.6.c.b.c.v.Q.H Z +.4.4.6.c.c.b.b.c.M., v.K.C.C.C.C.C.C.a.B.C.C.C.C.C.C.C.C.C.C.a.B.C.C.C.C.C.C.a.A.i.H s.p.p.9.p.a.Q.;.8.} F i.1.1.p.p.p.p.g.f.2 % 2 2 z m Q.`.3 2 Q.m =Xv.% z z 4 W #XGX`.#X+XjXGX].'.VXvXvXnX#X`.vX4XjXjXjXjXjX+X+X!.!.jXhXjXjXjX+XhXvX'.W rXcXxXx hXNX#X'.NXNX].'.hXzXSXd.].ZXZXZXZXZXZXZXZXZXZXZXZXZXZXZXZXZXZX0XlXzXkXkXhX~.dX8X7X8X7XeXJ Z J eX7X8X7X8XNXY.4 u u %.&.&./.dX9X1X1X3X).W W W 0XsX2XNXe   BXw o.AXsXDXe   1X",
"HXsXAXDXDXHX6X}.%X%X%X%X%XZ.%X%X%X%X%X%X%XZ.~.Q.Q.Q.`.N v.}.V.V.V.N.S.|.H H Y [.u.c.c.b.6.Q.z A 8 +.4.4.c.b.b.b.b.b.M.l., K.C.C.C.C.C.C.a.B.C.C.C.C.C.C.C.C.C.C.a.C.C.C.C.C.C.C.a.A.H ;.s.p.p.9.p.p.0.9.1.} F i.1.1.p.g.p.p.p.g.[ % % % 1 Q.y.n 2 2 l.4 OXc.% Y n k.!.].GXW '.W ].GX'.W VXvXbXnX'.#XzX4XjXjXjXjXjX+X+X'.'.hXhXjX#X'.].`.VX'.l @XFX].z ].E.].W NXkXW `.`.hXAXQ.W ZXZXZXZXZXZXZXZXZXZXZXZXZXZXZXZXZXZX0XlXzXkXkXhX~.dX8X7X8X7XeXJ Z J eX7X8X7X8XNXY.4 u u %.&.&./.dXuXj.4 4 =.W W W 0XsX7X8X1X    aXNXsXCXw   #.rX",
"HXsXAXDXDXHXqX%X%X%X%X%X%XZ.%X%X%X%X-X>X>XY.`._._._.v.N A.V.V.V.V.N.V.S.y l.=.Q.Y 6.6.n.[.Q.G S t ..4.4.c.b.b.b.b.b.b.M., v.K.C.C.C.C.C.a.B.C.C.C.C.C.C.C.C.C.C.a.C.C.C.C.C.C.C.M.i.H s.p.p.p.9.p.p.p.9.,.} F i.1.1.p.g.p.p.g.p.9.2 % ; % j.=X3 % 3 =XC.).C.j.Y - n.[.].GXW W W ].GX`.W VXvXnXjX`.vXjX4XjXjXjXjXjX#X+XW `.`.#XjX].W '.W VX`.Q E FX'.%.Q.n m W cXjXx W `.W ZXW c ZXZXZXSXZXZXZXZXZXZXZXZXZXZXZXZXZXZX0XlXzXkXkXhX~.dX8X7X8X7XeXJ Z J eX7X8X7X8XNXY.4 4 u %.&.&./.dXuX4 2 3 { W W W 0XsX8X2X9XP.y 7X8X8XrX.. .sX2X",
"HXsXAXHXDXHX:X%X%X%X%X%X%XZ.%X%X%X-XV.u.m.u.Y -X>X>XN v.N.V.V.V.V.m. X..e N.c.n.Q.r.n.n.[.%.S -.t ..4.4.c.b.b.b.b.b.b.M.j., L.A.C.C.C.C.a.B.C.C.C.C.C.C.C.C.C.C.a.C.C.C.C.C.C.C.N.H ;.s.p.p.p.9.p.p.p.9.,.} F i.1.1.p.g.p.p.g.p.5.4 % / j.v.OXv.4 j.).{.{.).=XQ.- I.[.'.GX'.W c '.GX`.W jXbXnX'.].vXjX4XjXjXjXjX5XQ.W x W W #XvX'.W `.W bXY z R vX'.^.[.x z W cX_.x W W c #X`.x zXZXzX#XZXZXZXZXZXZXZXZXZXZXZXZXZXZX0XlXzXkXkXhX~.dX8X7X8X7XeXJ Z J eX7X8X7X8XNXY.4 u u %.&.&./.dXuXu 3 3 { W W W 0XsX7X8X2X8XrX7X7X7X7X9XrX2X8X",
"lX6XlXlXlXlX:X%X%X%X%X%X%X{.%X%X%X%XQ.Q.Q.Q.Q.-X*Xv.N }.m.V.V.V.V.N.V.e @.b.6.n.&.z Q.n.[.g L v.q @.4.4.c.b.b.b.b.b.b.b.M., c.C.C.C.C.C.a.B.C.C.C.C.C.C.C.C.C.C.a.C.C.C.C.C.C.Z.r.H s.p.p.p.p.9.p.p.p.9.,.} F i.1.1.p.g.p.p.g.p.9.a.2 : OX).{.OXOXOX{.{.{.{.{.a.3 =Xt.'.#XW W x '.#Xj z W VXjX`.jXjXjX4XjXjXjXjX#Xz x x W x W #X'.W W Y xXm V E Q W ).~.x c `.#Xz [.W c c W x x zXSXxX`.SXZXZXZXZXZXZXZXZXZXZXZXZXZX0XlXzXkXkXhX~.dX8X7X8X7XeXJ Z J eX7X8X7X8XNXY.u u u %.&.&./.dXuXu 3 3 { W W W 0XsX8X7X8X7X2XeXeXeXeX8X2X8X8X",
"0X4X0X0X0X0X-X%X%X%X%X%X-XN.S.S.U.|.`.>X>XL.-X%X:XN v.}.m.V.V.V.V.V.@.e N.c.6.M.l.u h ~.Q.C >.v.q @.4.4.c.b.b.b.b.b.b.b.M.j.j.L.A.C.C.C.a.B.C.C.C.C.C.C.C.C.C.C.a.C.C.C.C.C.C.Z.H :.B.p.p.p.p.9.p.p.p.9.,.} F i.1.1.p.g.p.p.g.p.9.g.4 e ,.{.).{.{.{.{.{.{.{.{.{.v.=Xy.W x c '.W '.W z m x '.'.].vXjXjX4XjXjXjXvX'.m x M Y x v c `.c Y Y ].M Q.#XQ x |.V.[.c `.`.[.U.W x Y W v m xXCXhX`.SXZXZXZXZXZXZXZXZXZXZXZXZXZX0XlXzXkXkXhX~.dX8X7X8X7XeXJ Z J eX7X8X7X8XNXY.4 u u %.&.&./.dXuXu 3 3 { W W W 0XsX7X8X7XeX7X!.E E !.4XeX7X7X",
"-X}.%X-X-X-X%X%X%X%X%X-X|.V Q.Q.Q.z Q.>X%XZ.}.*Xm.N }.V.N.V.V.V.V.V.e @.N.c.6.b.M.n.n V U L v.v.r @.4.4.c.b.b.b.b.b.b.b.b.b., b.C.C.C.C.a.B.C.C.C.C.C.C.C.C.C.C.a.B.C.C.C.C.A.g.H p.p.p.p.p.p.9.p.p.p.9.,.} F i.1.1.p.g.p.p.g.p.9.p.f.) e =X).{.{.{.{.{.{.{.{.).OXOXv.z x z N.[ z Y (.`.c x `.zXjXjXjX4XjXjXjX#Xc &.z % v v j x W c z m W =.Q.`.x c }.|./.b Q.W ~. XY x Y Y z [.#XKXhXW DXZXZXZXZXZXZXZXZXZXZXZXZXZX0XlXzXkXkXhX~.dX8X7X8X7XeXJ Z J eX7X8X7X8XNXY.4 u u %.&.&./.dXuXu 3 3 { W W W 0XsX8X7XeXOXU U Q E Q U !.eX7X",
"-XZ.%X-X-X%X-X>X>X>X>X>X_.Q.=X).).).%X-X-XZ.}.:Xj.x.}.V.N.V.V.V. X@.e N.b.c.c.M.b.a.4 [ D ] v.v.r @.4.4.c.b.b.b.b.b.b.b.b.A.j.j.=XA.C.C.a.C.C.C.C.C.C.C.C.C.C.C.a.C.C.C.C.C.Y.:.&.s.g.g.g.g.g.9.g.g.p.p.1.} F i.1.1.p.g.p.p.g.p.9.g.g.>.e 9.=X{.{.{.{.{.{.{.{.{.{.=Xc.% `.j v.3 j =.*X[ =.W '.jXjXjXjX4XzXzXjXW x Q.W , z j M c W Y z =.c _.Q.v z Q.}.|.m.l.Q.W _.-XY x `.^.Y Q.#XxX].W ].SXZXZXZXZXZXZXZXZXZXZXZXZXlXcXcXzXkXhX~.dX8X7X8X7XeXJ Z J eX7X8X7X8XNXY.4 4 u %.&.&./.dXuXu 3 3 { W W W 0XsX7X8X4XU E 9XdXdXdXoXU !.eX",
"}.A.}.}.}.}.u.e.y.y.e.u.Q.[.Y.Z.Z.Z.}.}.}.A.}.N.4 V.N.N.m.N.N.N. Xe  .b.c.4.4.c.c.9.4 G O u 4.v.q ' 3.3.4.6.c.c.c.c.c.c.c.c.c., b.B.M.M.0.a.M.M.M.M.M.M.M.M.M.M.0.M.M.M.M.M.a.H 1.9.p.p.p.p.p.1.p.p.5.1.,.} F 1.2.2.9.p.5.5.p.p.1.p.p.( _ w {.g.f.f.f.f.f.f.f.f.f.).6.% u 3 4 3 ; j.OXl.u Y W '.`.`.`.'.jX#XhXx x Q.W { j j n - z Q.z =.x ~.Q.c u : _.V.d.}.[.c ~.Z.Y z Q.|.%.Q.].`.`.x W ZXlXlXcXlXlXlXlXlXlXlXlXlXqX0XkXqXqX.X~.dX8X7X8X7XeXJ Z J eX7X8X7X8XNXY.4 u u %.&.&./.dXuXu 3 3 { W W W 0XsX7XeXE Q dXdXsXsXsXFX!.U ,X",
"}.A.}.}.}.Z.Y Q.Q.Q.Q.Q.Q.g.}.}.}.}.}.}.}.A.=Xj.j.Z.N.N.m.N.N.V.4.e c.c.c.4.4.c.c.c.] Z , l.3.v.q ' 3.3.4.c.c.c.c.c.c.c.c.c.M.{ { C.M.B.0.M.B.M.M.M.M.M.M.M.M.B.0.M.B.M.a.A.:.H 0.9.p.p.p.p.p.1.p.p.9.1.,.} F 1.2.2.p.p.5.9.p.p.1.p.p.( p.e 9.).f.f.f.f.f.f.f.f.f.).a.j.2 2 2 3 % j.OXa.2 < x W j c W W W x m x x %.W { j z n % 3 Q.Q.u.x ^.Q.c {.;.H }.d.}.^.x ^.}.Q.m Q.}.7.[.`.z W x c wXZXkX#XcXlXlXlXlXlXlXlXlX0X0XkXkXqX4X~.dX8X7X8X7XeXJ Z J eX7X8X7X8XNXY.u u u %.&.&./.dXuXu 3 3 { W W W 0XsX8X6XU @XdXsXsXsXNXBXsXU !.",
">X%X>X>X>X|.`.>X>X>X>X>X>XZ.%X-X-X-X-X-X-X}.V.N V.V.V.V.N.V.V. Xw ` N.b.M.c.c.M.M.D.S J D.3.v.v.r @.4.4.c.b.b.b.b.b.b.b.b.b.M.c., A.C.C.a.C.C.C.C.C.C.C.C.C.C.C.a.C.C.C.C.C.H i.p.p.g.g.g.g.g.9.g.p.p.p.1.} F i.1.1.p.g.p.p.g.p.9.g.f.( f.| / =X).{.{.{.{.{.{.{.{.{.{.OXC.j.3 j.4 m.=X{.% % Q.x v W W c W W z z x t.!.] m Q.b u 4 (.^.6.z (.Q.Y f.(.H (.{.}.|.c ^.4Xj.{ u.%X7.^.W Q.x x z m #XxX`.AXZXZXZXZXZXZXZXZXlXcXcXzXkXhX~.dX8X7X8X7XeXJ Z J eX7X8X7X8XNXY.4 u u %.&.&./.dXuXu 3 3 { W W W 0XsXeXOXU 5XdXsXNX7Xe + I.K P ",
"=.=.=.=.u.[.`.>X}.%X%X%X%XZ.%X%X%X%X%X%X-X=Xj.j.}.V.V.V.m.V.V.M.e 6.c.b.b.c.6.b.D.:.D b.c.3.v.v.r @.4.4.c.b.b.b.b.b.b.b.b.b.c.B.j.j.K.C.a.B.C.C.C.C.C.C.C.C.C.C.a.B.C.C.Z.;.H B.9.p.g.p.p.p.p.9.p.p.p.9.,.} F i.1.1.p.g.p.p.g.p.9.p.g.( p.g.e g.{.{.{.{.{.{.{.{.{.{.{.{.{.OXm.u.OX{.=X_.> % > c c W z j m =.v m x e._.' 1 e./.(.(.(./.u.{ ).Q.Y f.|.&.;.}.|.|.[.(.|.|.A.|.|.*.{.c `.Y Y c l '. XW SXZXZXZXZXZXZXZXZX0XlXzXkXkXhX~.dX8X7X8X7XeXJ Z J eX7X8X7X8XNXY.u u u %.&.&./.dXuXu 3 3 { W W `.0XsXeX4XU +XdXsXsXsXJ.q.eXd F ",
"Q.Q.Q.Q.Q.Q.(.-X%X%X%X%X%XZ.%X%X%X%X%X%X-XA.4 V.V.V.V.V.N.V. Xw ` m.c.b.b.c.6.b.b.D :.D.c.3.v.v.r @.4.4.c.b.b.b.b.b.b.b.b.b.b.M.v., C.C.a.B.C.C.C.C.C.C.C.C.C.C.a.C.C.C.A.H i.s.9.p.g.p.p.p.p.9.p.p.p.9.,.} F i.1.1.p.g.p.p.g.p.9.p.g.( p.f./ | =X).{.{.{.{.{.{.{.{.{.{.{.{.=Xf.).{.=XQ.e.).n m z Y M M M 2 c =.W t._.' % y././.(.(.y.(.(.{.Q.Y f.(.~.H |.|.|.}.{.|.|.C.|.}.*.Z.`.Q.Q.`.[.x Q.m W SXZXZXZXZXZXZXZXZX0XlXzXkXkXhX~.dX8X7X8X7XeXJ Z J eX7X8X7X8XNXY.< < u %.H H d.dXuX4 2 3 { W c W 6XsX7X8XQ E FXsXsXsXBXJX=X. ).",
">XL.>X>X>X>X-X%X%X%X%X%X%XZ.%X%X%X%X%X%X:Xj.j.}.V.V.V.V.m.V.N.e b.c.c.b.b.c.6.D.K S D.b.c.3.v.v.r @.4.4.c.b.b.b.b.b.b.b.b.b.b.b.B., l.L.0.B.C.C.C.C.C.C.C.C.C.C.a.C.C.Z.;.H B.p.9.p.g.p.p.p.p.9.p.p.p.9.,.} F i.1.1.p.g.p.p.g.p.9.p.g.( p.g.p.e ).{.{.{.{.{.{.{.{.{.{.{.{.{.{.g.).=X^.Q.).).j.2 2 2 - - =.2 z (.b t._.$.2 y.^./.(.(.y.(.(.{.Q.Y f.(.{.H t.}.|.{.{.|.|.A.|.}.*.{.}.V.v.W _.c W x W ZXZXZXZXZXZXZXZXZX0XlXzXkXkXhX~.dX8X7X8X7XeXJ Z J eX7X8X7X8XVXY.; > < &.h f t.dXuX, - - b l l x 6XsX7XeX_.U @XdXsXsXsX6Xs d eX",
"%XZ.%X%X%X%X%X%X%X%X%X%X%XZ.%X%X%X%X%X%X%X4 m.Z.V.V.V.V.m. X .w V.4.c.b.b.6.v.:.D 5.c.b.c.3.v.v.r @.4.4.c.b.b.b.b.b.b.b.b.b.b.b.M.v., K.0.B.C.C.C.C.C.C.C.C.C.C.a.C.C.Z.H ;.s.g.9.p.g.p.p.p.p.9.p.p.p.9.,.} F i.1.1.p.g.p.p.g.p.9.p.g.( p.p.f./ } =X).{.{.{.{.{.{.{.{.{.{.{.{.g.).=X[.~.).(.).3 3 % 2 2 v.3 =.).j.y.^.%.$./.^./.(.(.y.(.(.).~.Q.g.(.{.;.&. X|.{.{.|.|.C.|.}.*.{.|.|.%X[.(.`.c x W BXZXZXZXZXZXZXZXZX0XlXzXkXkXhX~.dX8X7X8X7XeXJ Z J eX7X8X7X8XVXY.> > < &.h h t.dXuX4 - 2 b x x x 6XsX7X7XeXE U 8XsX9XdXG s 1X8X",
"%XZ.%X%X%X%X%X%X%X%X%X%X%XZ.%X%X%X%X%X*Xx.N }.V.V.V.V.V.N.V.e 4.M.4.c.b.b.c.5.D :.v.6.b.c.3.v.v.r @.4.4.c.b.b.b.b.b.b.b.b.b.b.b.b.M., v.s.B.C.C.C.C.C.C.C.C.C.C.a.B.Z.i.H s.p.g.9.p.g.p.p.p.p.9.p.p.p.9.,.} F i.1.1.p.g.p.p.g.p.9.p.g.( p.p.g.h.e {.{.{.{.{.{.{.{.{.{.{.{.{.{.g.{./.Q.(.(.(.(.(.j.% 4 3.(.3 l.)._.^.d.%.%./.^./.(.(.y.(.(.(.(.d./.(.(.(.H ).}.{.{.|.|.C.|.}.*.{.|.|.|.}.}.|.c x x 4XSXZXZXZXZXZXZXZX0XlXzXkXkXhX~.dX8X7X8X7XeXJ Z J eX7X8X7X8XVXY.> > < &.h h t.dXuX4 - 2 b x x x 6XsX7X7X8X8X4X7X7X2X8X*X<XeX7X",
"%XZ.%X%X%X%X%X%X%X%X%X%X%XZ.%X%X%X%X%X-XN v.Z.V.V.V.V.V.V...w V.b.4.c.b.b.n.A K D.6.c.b.c.3.v.v.r @.4.4.c.b.b.b.b.b.b.b.b.b.b.b.b.M.l.4 s.B.C.C.C.C.C.C.C.C.C.C.a.B.Z.H ;.s.p.g.9.p.g.p.p.p.p.9.p.p.p.9.,.} F i.1.1.p.g.p.p.g.p.9.p.g.( p.g.p.f.w X.=X).{.{.{.{.{.{.{.{.{.{.{.g.=X[.[.).(.(.(.).x.3 4 _.).4 3.(.d.y.^.%.%./.^./.(.(.y.(.(.(.(.y./.(.(.{.H ;. X{.{.|.|.C.|.}.*.{.|.|.|.|.|.|.x [.W ].CXZXZXZXZXZXZXZX0XlXzXkXkXhX~.dX8X7X8X7XeXJ Z J eX7X8X7X8XVXY.> > < &.h h t.dXuX4 - 2 b x x x 6XsX7X7X7X7X8X7X8X8X7X8X8X7X8X",
"%XZ.%X%X%X%X%X%X%X%X%X%X%XZ.%X%X%X%X*Xv.N A.N.V.V.V.V.V.N.e @.M.b.4.c.b.D.L S n.b.6.c.b.c.3.v.v.r @.4.4.c.b.b.b.b.b.b.b.b.b.b.b.b.b.M., 3.C.C.C.C.C.C.C.C.C.C.C.0.A.p.H s.p.p.p.9.p.p.p.p.p.p.5.p.p.p.9.,.} F i.1.1.p.p.p.p.p.p.5.p.g.( p.p.p.g.,.e {.).).).).).).).).).).).{.g.(.Q.(.(.(.(.(.(.d.d./.y.(.u./././.y.i.%.%./.^././.(.y.(.(.(.(.y./.(.(.(.t.H }.{.{.|.|.f.|.|.*.{.|.|.|.|.|.|.x ~.W v qXZXZXZXZXZXZXZX0XlXzXkXkXhX~.dX8X7X8X7XeXJ Z J eX7X8X7X8XVXY.> > < &.h h t.dXuX4 - 2 b x x x 6XsX7X7X7X2X9X9X<X<X8XrX8X7X8X",
">X}.-X>X>X>X>X>X>X>X>X>X>X}.-X>X>X-X:XN D.Z.V. X X XZ. X..w V.M.N.6.n.D.L S b.N.N.c.b.N.b.v.c.v.r @.c.c.b.M.N.N.N.N.N.N.N.N.N.N.N.M.A.l.{ =XZ.Z.Z.Z.Z.Z.Z.Z.Z.K.B.Y.:.:.C.f.f.f.p.g.f.f.f.f.f.p.f.f.p.p.9.-.F i.i.i.g.f.p.p.f.f.p.f.f.X.g.f.f.s.{.w h.=X=X=X=X=X=X=X=X=X=X=X=XK.[.[.{.).).).).).).).)./.).).).).(.^./.%.%.(./.(.).)./.).).).)./.(.).).(.(.H /.}.|.}.}.{.}.%X<.|.}.}.}.}.}.}.c _.'.l ].PXLXLXLXLXLXLXcXZXZXzXzXhX~.dX8X7X8X7XeXJ Z J eX7X8X7X8XVXY.> > < &.h h t.dXuX4 - 2 b x x x 6XsX7X7X7XrXw.7 7 7 7 y 7X8X2X",
"a.5.u.u.u.u.u.u.u.u.u.u.a.5.u.u.u.a.v., 6.+.3.6.4.4.3.m.e ` 3.+.+.l.,.S Z [ [ +.+.[ [ +.[ ' [ [ q ` ' ' [ +.+.+.+.+.+.+.+.+.+.+.+.+.+.+.< 3.7.7.7.7.7.7.7.7.7.7.+.2.I >.>.>.>.,.>.>.>.>.>.>.>.X.>.>.>.X.] ) G -.-.} >.>.>.>.,.>.X.>.2.) >.>.>.>.2./ e y.1.r.r.r.r.r.r.r.r.r.r.2.m e.e.e.e.e.e.e.e.e.e.*.e.e.e.e.<.;.;.&.&.e.<.e.e.e.*.e.e.e.e.*.e.e.e.e.e.&.H u.e.u.u.e.u.u.( e.u.u.u.u.u.u.c [.e.x Q.:X=X=X=X=X=X4X{.=X=X{.{.^.~.dX8X7X8X7XeXJ Z J eX7X8X7X8XVXY.> > < &.h h t.dXuX4 - 2 b x x x 6XsX7X7X9Xy 7 y q.R.w 7 7 1X8X",
"a.5.u.u.u.u.u.u.u.u.u.u.a.5.u.u.u.g., { u.+.7.6.7.7.6.' e 3.+.l.+.I D J v.[ [ +.+.[ [ +.[ ' [ [ q ` ' [ [ +.+.+.+.+.+.+.+.+.+.+.+.+.+.7.{ , 9.7.7.7.7.7.7.7.7.7.3.F H 7.>.,.,.2.>.>.2.,.,.,.>.X.,.>.>.>.X.) G -.-.-.>.2.>.>.2.>.X.,.2.) >.2.,.,.>.1.e X.y.r.r.r.r.r.r.r.r.r.p.%.%.r.e.e.e.e.e.e.e.e.e.*.e.e.e.e.e.;.;.&.&.e.e.e.e.e.*.e.e.e.e.<.e.e.e.e.*.e.H e.u.u.u.e.u.u.] u.u.u.u.u.u.6.Q.[.t.x Q.*X=X4X4X4X=X*X{.=X=X{.{.^.~.dX8X7X8X7XeXJ Z J eX7X8X7X8XVXY.> > < &.h h t.dXuX4 - 2 b x x x 6XsX2XrX#.7 R.LXSXCXAXiX7 y 9X",
"wX X>XwXwXwXwXwXwXwXwXwXwX XwXwXwXS.4  XXXS.S.XXU.S.wXr ` g.:.K D S 1.D.M.b.c.N.N.c.b.N.b.v.c.v.r @.c.c.b.M.N.M.M.M.M.M.M.M.M.M.M.M.M.N.4.4 A.K.Z.Z.Z.Z.Z.Z.Z.L.a.H p.f.f.f.f.f.p.g.f.f.f.f.f.p.f.f.p.p.9.-.F i.i.i.g.f.p.p.f.f.p.f.f.X.g.f.f.f.f.).O.| 4X=X=X=X=X=X=X=X=X=X=XQ.^.).).).).).).).).).)./.).).).).(.^./.%.%.(./.(.).)./.).).).)./.(.).).(./.|.:.;.}.}.}.{.}.%X<.|.}.}.}.}.}.}.|.}.).c `.LXLXLXLXLXLXLXcXZXZXzXzXhX~.dX8X7X8X7XeXJ Z J eX7X8X7X8XVXY.> > < &.h h t.dXuX4 - 2 b x x x 6XsX7X8X7 y HXsXsXsXaXSXR.7 J.",
"!.:.:.:.:.:.:.:.:.:.:.:.!.:.:.:.!.&.) :.:.P P P J J L Z S D S J 1.v.b.b.b.c.6.b.b.6.c.b.c.3.v.v.r @.4.4.c.b.b.b.b.b.b.b.b.b.b.b.b.b.b.b.0.{ j.K.B.C.C.C.C.C.B.Z.-.H B.p.p.p.p.p.9.p.p.p.p.p.p.5.p.p.p.9.,.} F i.1.1.p.p.p.p.p.p.9.p.g.( p.p.p.p.p.p.g.e p.{.).).).).).).).=X~.&.(.(.(.(.(.(.(.(.(.(./.y.(.(.(././.y.i.%.%./.^././.(.y.(.(.(.(.y./.(.(./.y.).~.H |.|.|.f.|.|.*.{.|.|.|.|.|.|.|.}.^.W `.ZXZXZXZXZXZXZX0XlXzXkXkXhX~.dX8X7X8X7XeXJ Z J eX7X8X7X8XVXY.> > < &.h h t.dXuX4 - 2 b x x x 6XsX9XP.7 R.BXsXsXBXsXsXNX7 y ",
"S S S S S S S S S S S S S S S S S A S S S S L L K P I F ;.9.n.D.n.4.c.b.b.c.6.b.b.c.c.b.c.3.v.v.r @.4.4.c.b.b.b.b.b.b.b.b.b.b.b.b.b.b.b.6.v., C.C.C.C.C.C.C.C.A.H i.s.p.p.p.p.g.9.p.g.p.p.p.p.9.p.p.p.9.,.} F i.1.1.p.g.p.p.g.p.9.p.g.( p.g.p.p.p.p.f.| / =X).{.{.{.{.{.).=XQ.t.(.(.(.(.(.(.(.(.(.(.(.y.(.(.(././.^.d.%.%./.^./.(.(.y.(.(.(.(.y./.(.(./.y.(.).H d.}.|.C.|.}.*.{.|.|.|.|.|.|.|.}.(.W `.cXZXZXZXZXZXZX0XlXzXkXkXhX~.dX8X7X8X7XeXJ Z J eX7X8X7X8XVXY.> > < &.h h t.dXuX4 - 2 b x x x 6XsX9XI.7 T.BXsXsX1XsXsXSX7 y ",
">XZ.>X>X>X>X>X>X>X>X>X>X>XS.>XqXj.j. XS.S.S.S.S.S.S.y v.v.b.b.b.b.4.c.b.b.c.6.b.b.c.c.b.c.3.v.v.r @.4.4.c.b.b.b.b.b.b.b.b.b.b.b.b.b.b.b.4.M.j.l.K.C.C.C.C.C.Z.;.H B.p.p.p.p.p.g.9.p.g.p.p.p.p.9.p.p.p.9.,.} F i.1.1.p.g.p.p.g.p.9.p.g.( p.g.p.p.p.p.g.p.e f.{.{.{.{.{.).=X^.Q.d./.(.(.(.(.(.(.(.(.(.(.y.(.(.(././.^.d.%.%./.^./.(.(.y.(.(.(.(.y./.(.(./.y.(.{.;.:. X|.C.|.}.*.{.|.|.|.|.|.|.|.}.).Q.`.zXZXZXZXZXZXZX0XlXzXkXkXhX~.dX8X7X8X7XeXJ Z J eX7X8X7X8XVXY.> > < &.h h t.dXuX4 - 2 b x x x 6XsX8X<X7 w.SXaXAXe _ AXsX7 #.",
"%XZ.%X%X%X%X%X%X%X%X%X%X%XZ.%X%X4 N.Z.V.V.M.A.V. X_ w N.4.b.b.b.b.4.c.b.b.c.6.b.b.c.c.b.c.3.v.v.r @.4.4.c.b.b.b.b.b.b.b.b.b.b.b.b.b.b.b.4.M.v., C.C.C.C.C.C.Z.H -.s.p.p.p.p.p.g.9.p.g.p.p.p.p.9.p.p.p.9.,.} F i.1.1.p.g.p.p.g.p.9.p.g.( p.g.p.p.p.p.p.f./ | =X).{.{.{.).=X[.~.d./.(.(.(.(.(.(.(.(.(.(.y.(.(.(././.^.d.%.%./.^./.(.(.y.(.(.(.(.y./.(.(./.y.(.(.y.H |.|.C.|.}.*.{.|.|.|.|.|.|.|.|.|.}.`.kXZXZXZXZXZXZX0XlXzXkXkXhX~.dX8X7X8X7XeXJ Z J eX7X8X7X8XVXY.> > < &.h h t.dXuX4 - 2 b x x x 6XsX2XrXy 7 SXsXBXP.+ ZX#.7 <X",
"%XZ.%X%X%X%X%X%X%X%X%X%X%XA.*Xx.j.%XV.V.V.N.V.V.V.e 6.b.4.b.b.b.b.4.c.b.b.c.6.b.b.c.c.b.c.3.v.v.r @.4.4.c.b.b.b.b.b.b.b.b.b.b.b.b.b.b.b.4.c.A., v.K.C.C.C.Z.i.H 0.p.p.p.p.p.p.g.9.p.g.p.p.p.p.9.p.p.p.9.,.} F i.1.1.p.g.p.p.g.p.9.p.g.( p.g.p.p.p.p.p.g.9.e {.{.{.{.{.=X/.Q.).y./.(.(.(.(.(.(.(.(.(.(.y.(.(.(././.^.d.%.%./.^./.(.(.y.(.(.(.(.y./.(.(./.y.(.(.(.H ~.}.f.|.}.*.{.|.|.|.|.|.|.|.|.|.}.`.xXSXZXZXZXZXZX0XlXzXkXkXhX~.dX8X7X8X7XeXJ Z J eX7X8X7X8XVXY.> > < &.h h t.dXuX4 - 2 b x x x 6XsX7X9XP.7 y sXsXdX8X#.7 w rX",
"-XZ.%X%X%X%X%X%X%X%X%X%X%XZ.-XN m.Z.V.V.V.N.N. X .w V.c.4.b.b.b.b.4.c.b.b.c.6.b.b.c.c.b.c.3.v.v.r @.4.4.c.b.b.b.b.b.b.b.b.b.b.b.b.b.b.b.4.c.M.l., K.C.C.C.Z.H ;.0.p.p.p.p.p.p.g.9.p.g.p.p.p.p.9.p.p.p.9.,.} F i.1.1.p.g.p.p.g.p.9.p.g.( p.g.p.p.p.p.p.p.f.w X.=X).{.).=X[.[.).y./.(.(.(.(.(.(.(.(.(.(.y.(.(.(././.^.d.%.%./.^./.(.(.y.(.(.(.(.y./.(.(./.y.(.(.(.;.H  Xg.|.}.*.{.|.|.|.|.|.|.|.|.|.}.Q.xXSXZXZXZXZXZX0XlXzXkXkXhX~.dX8X7X8X7XeXJ Z J eX7X8X7X8XVXY.> > < &.h h t.dXuX4 - 2 b x x x 6XsX8X2XrXJ.y 2X9X8XNXw y rX7X",
"%XZ.%X%X%X%X%X%X%X%X%X%X%X=Xv.N }.V.V.V.V.N.V.V.e @.M.b.4.b.b.b.b.4.c.b.b.c.6.b.b.c.c.b.c.3.v.v.r @.4.4.c.b.b.b.b.b.b.b.b.b.b.b.b.b.b.b.4.b.b.M., v.C.C.A.i.H s.9.p.p.p.p.p.p.g.9.p.p.p.p.p.p.9.p.p.p.9.,.} F i.1.1.p.g.p.p.g.p.9.p.g.( p.p.p.p.p.p.p.p.g.,.e {.).{.{.(.Q.(.(.y./.(.(.(.(.(.(.(.(.(.(.y.(.(.(././.y.i.%.%./.^./.(.(.y.(.(.(.(.y./.(.(./.y.(.(./.y.H ).A.|.}.*.{.|.|.|.|.|.|.|.|.|.}.`.hXSXZXZXZXZXZX0XlXzXkXkXhX~.dX8X7X8X7XeXJ Z J eX7X8X7X8XVXY.> > < &.h h t.dXuX4 - 2 b x x x 6XsX7X8X2X9XrX8X7X7X2X9XrX7X7X",
"-XZ.%X-X-X-X-X-X-X-X-X-X-X%XN v.}.V.V.V.Z.N. X@.e V.b.b.4.M.b.b.M.6.b.b.M.c.c.M.M.c.c.M.c.3.v.v.r @.4.4.c.b.b.b.b.b.b.b.b.b.b.b.b.b.b.M.6.b.b.A.l.j.=XC.Y.H :.B.9.p.g.g.g.g.g.g.p.p.g.g.g.g.g.9.g.g.p.p.1.} F i.1.1.p.g.p.p.g.p.9.g.f.( p.g.g.g.g.g.g.g.p.f.e ,.=X).=X[.[.).(.y.(.(.(.(.(.(.(.(.(.(.(.y.(.(.(.(./.^./.%.%./.^./.(.(.y.(.(.(.(.y./.(.(.(.y.(.(./.(.:.;.}.|.}.*.{.|.|.|.|.|.|.|.|.|.-X`.hXSXZXZXZXZXZXlXcXcXzXkXhX~.dX8X7X8X7XeXJ Z J eX7X8X7X8XVXY.> > < &.h h t.dXuX4 - 2 b x x x 6XsX8X8X8X7X7X8X8X8X8X7X2X7X8X",
"}.A.}.}.}.}.}.}.}.}.}.}.%Xv.N Z.N.N.N.N.N.m.V.e @.c.c.c.3.c.c.c.c.4.6.c.c.4.4.c.c.4.4.c.v.+.3.v.q ' 3.3.4.c.c.c.c.c.c.c.c.c.c.c.c.c.c.c.3.c.c.c.c., c.B.p.H p.p.1.p.p.p.p.p.p.p.1.9.p.p.p.p.p.1.p.p.9.1.,.} F 1.2.2.p.p.5.9.p.p.1.p.p.( 9.p.p.p.p.p.p.p.p.g.O.e {.f.f.Q.y.d./.y.y./.d.d.d.d.d.d.d./.y.y./.d./.d.y.t.t.%.%.y.y.y.d.d.y.d.d.d./.y.y././.y.y././.y.y.;.H A.{.|.*.g.|.{.{.{.{.{.{.{.{.Z.Q.#XNXlXlXlXlXlX0X0XkXqXqX.X~.dX8X7X8X7XeXJ Z J eX7X8X7X8XVXY.> > < &.h h t.dXuX4 - 2 b x x x 6XsX7X7X7X7X7X7X7X7X7X7X7X7X7X",
"}.A.}.}.}.}.}.}.}.}.}.Z.%XN x.Z.N.N.N.N.N.N.@.e M.6.c.c.3.c.c.c.c.4.6.c.c.4.4.c.c.4.4.c.v.+.3.v.q ' 3.3.4.c.c.c.c.c.c.c.c.c.c.c.c.c.c.c.3.6.c.c.M.{ { L.H :.a.p.1.p.p.p.p.p.p.p.1.9.p.p.p.p.p.1.p.p.9.1.,.} F 1.2.2.p.p.5.5.p.p.1.p.p.( 9.p.p.p.p.p.p.p.p.p.p.e 1.=Xt.[.g.y./.y.y./.d.d.d.d.d.d.d.d.y.y./.d.d.d.y.t.t.%.%.y.y.y.d.d.y.d.d.d./.y.y././.y.y././.y.y.(.H r.|.|.*.g.{.{.{.{.{.{.{.{.{.Z.Q.].0XlXlXlXlXlXqX0XkXqXqX.X~.dX8X7X8X7XeXJ Z J eX7X8X7X8XVXY.> > < &.h h t.dXuX4 - 2 b x x x 6XsX8X8X8X8X8X8X8X8X8X8X8X8X8X",
"-XZ.%X-X-X-X-X-X-X-X-X*XV.4 }.V.V.V.V.V.V.V.e ..N.b.b.b.4.M.b.b.M.6.b.b.M.c.c.M.M.c.c.M.c.3.v.v.r @.4.4.c.b.b.b.b.b.b.b.b.b.b.b.b.b.b.M.6.b.b.b.M.b.4 a.H p.g.g.9.p.g.g.g.g.g.g.p.p.g.g.g.g.g.9.g.g.p.p.1.} F i.1.1.p.g.p.p.g.p.9.g.f.( p.g.g.g.g.g.g.g.g.p.f.O.w 4XQ.^.).(.(.y.(.(.(.(.(.(.(.(.(.(.(.y.(.(.(.(./.^./.%.%./.^./.(.(.y.(.(.(.(.y./.(.(.(.y.(.(./.d.|.:.%. X|.*.{.|.|.|.|.|.|.|.|.|.}.Q.'.'.AXZXZXZXZXlXcXcXzXkXhX~.dX8X7X8X7XeXJ Z J eX7X8X7X8XVXY.> > < &.h h t.dXuX4 - 2 b x x x 6XdXsXsXsXsXsXsXsXsXsXsXsXsXsX",
"%XZ.%X%X%X%X%X%X%X%X%X:Xj.j.}.V.V.V.V.V. X4.e N.b.b.b.b.4.b.b.b.b.4.c.b.b.c.6.b.b.c.c.b.c.3.v.v.r @.4.4.c.b.b.b.b.b.b.b.b.b.b.b.b.b.b.b.4.b.b.b.c.B.j.b :.B.p.g.9.p.p.p.p.p.p.g.9.p.p.p.p.p.p.9.p.p.p.9.,.} F i.1.1.p.g.p.p.g.p.9.p.g.( p.p.p.p.p.p.p.p.p.p.p.g.e <.[.).(.(.(.y./.(.(.(.(.(.(.(.(.(.(.y.(.(.(././.y.i.%.%./.^./.(.(.y.(.(.(.(.y./.(.(./.y.(.(./.y.).~.H |.|.*.{.|.|.|.|.|.|.|.|.|.}.[.`.W CXZXZXZXZX0XlXzXkXkXhX~.dX8X7X8X7XeXJ Z J eX7X8X7X8XVXY.> > < &.h h t.dXuX4 - 2 b x x x 6XsXP.P.P.P.P.P.P.P.&XP.P.P.P.",
"-XZ.%X%X%X%X%X%X%X%X-XZ.N N.V.V.V.V.V.V. Xw  .N.b.b.b.b.4.b.b.b.b.4.c.b.b.c.6.b.b.c.c.b.c.3.v.v.r @.4.4.c.b.b.b.b.b.b.b.b.b.b.b.b.b.b.b.4.b.b.b.b.b.c.G i.s.p.g.9.p.p.p.p.p.p.g.9.p.g.p.p.p.p.9.p.p.p.9.,.} F i.1.1.p.g.p.p.g.p.9.p.g.( p.g.p.p.p.p.p.p.p.p.p.f. .h ^.(.(.(.(.y./.(.(.(.(.(.(.(.(.(.(.y.(.(.(././.^.d.%.%./.^./.(.(.y.(.(.(.(.y./.(.(./.y.(.(./.d.(.{.H ^. X*.{.|.|.|.|.|.|.|.|.|.}.[.W W kXlXSXZXZX0XlXzXkXkXhX~.dX8X7X8X7XeXJ Z J eX7X8X7X8XVXY.> > < &.h h t.dXuX4 - 2 b x x x 6XsXL.L.J.J.&XP.L.&Xq.L.P.&XJ.",
"-XZ.%X%X%X%X%X%X%X%X:Xj.j.A.V.V.V.V.V.V.M.e b.b.b.b.b.b.4.b.b.b.b.4.c.b.b.c.6.b.b.c.c.b.c.3.v.v.r @.4.4.c.b.b.b.b.b.b.b.b.b.b.b.b.b.b.b.4.b.b.b.b.n.;.f [ f.p.g.9.p.p.p.p.p.p.g.9.p.g.p.p.p.p.9.p.p.p.9.,.} F i.1.1.p.g.p.p.g.p.9.p.g.( p.g.p.p.p.p.p.p.p.p.p.s.y.m g.(.(.(.(.y./.(.(.(.(.(.(.(.(.(.(.y.(.(.(././.^.d.%.%./.^./.(.(.y.(.(.(.(.y./.(.(./.y.(.(./.d.(.{.%.:.-X*.{.|.|.|.|.|.|.|.|.|.}.[.W W '.].hXZXZX0XlXzXkXkXhX~.dX8X7X8X7XeXJ Z J eX7X8X7X8XVXY.> > < &.h h t.dXuX4 - 2 b x x x 6XsXL.&X ...w.o.B.8._ w.q.o.8.",
"-XZ.%X%X%X%X%X%X%X%X}.4 N.N.V.V.V.V.V. X_ w N.b.b.b.b.b.4.b.b.b.b.4.c.b.b.c.6.b.b.c.c.b.c.3.v.v.r @.4.4.c.b.b.b.b.b.b.b.b.b.b.b.b.b.b.b.4.b.b.b.b.n.H *., g.p.g.9.p.p.p.p.p.p.g.9.p.g.p.p.p.p.9.p.p.p.9.,.} F i.1.1.p.g.p.p.g.p.9.p.g.( p.g.p.p.p.p.p.p.p.p.p.s.[.) } ).(.(.(.y./.(.(.(.(.(.(.(.(.(.(.y.(.(.(././.^.d.%.%./.^./.(.(.y.(.(.(.(.y./.(.(./.y.(.(./.d.(.(.t.H }.*.{.|.|.|.|.|.|.|.|.|.}.[.W W '.'.`.ZXZX0XlXzXkXkXhX~.dX8X7X8X7XeXJ Z J eX7X8X7X8XVXY.> > < &.h h t.dXuX4 - 2 b x x x 6XsXL.K.q w _  ...q / _ _  .` ",
"-XZ.%X%X%X%X%X%X%X:Xx.j.%Xm.V.V.V.V.V.V.e 4.c.b.b.b.b.b.4.b.b.b.b.4.c.b.b.c.6.b.b.c.c.b.c.3.v.v.r @.4.4.c.b.b.b.b.b.b.b.b.b.b.b.b.b.b.b.4.b.b.b.n.<.H a.n [ f.p.9.p.p.p.p.p.p.g.9.p.g.p.p.p.p.9.p.p.p.9.,.} F i.1.1.p.g.p.p.g.p.9.p.g.( p.g.p.p.p.p.p.p.p.p.s.r.Q.1.0 (.(.(.(.y./.(.(.(.(.(.(.(.(.(.(.y.(.(.(././.^.d.%.%./.^./.(.(.y.(.(.(.(.y./.(.(./.y.(.(./.d.(.(.d.H ^.7.{.|.|.|.|.|.|.|.|.|.}.~.c `.`.'.W zXZX0XlXzXkXkXhX~.dX8X7X8X7XeXJ Z J eX7X8X7X8XVXY.> > < &.h h t.dXuX4 - 2 b x x x 6XsX&Xq.8.#...w._ / o.....8./ ",
"-XZ.%X%X%X%X%X%X%X-XN m.Z.m.V.V.V.V. X .w m.c.b.b.b.b.b.4.b.b.b.b.4.c.b.b.c.6.b.b.c.c.b.c.3.v.v.r @.4.4.c.b.b.b.b.b.b.b.b.b.b.b.b.b.b.b.4.b.b.b.n.H -.a.[ , f.p.9.p.p.p.p.p.p.g.9.p.g.p.p.p.p.9.p.p.p.9.,.} F i.1.1.p.g.p.p.g.p.9.p.g.( p.g.p.p.p.p.p.p.p.p.s.%.%.(.) >.).(.(.y./.(.(.(.(.(.(.(.(.(.(.y.(.(.(././.^.d.%.%./.^./.(.(.y.(.(.(.(.y./.(.(./.y.(.(./.d.(.(.d.;.:.7.{.|.|.|.|.|.|.|.|.|.}.~.x Q.Y '.W kXSX0XlXzXkXkXhX~.dX8X7X8X7XeXJ Z J eX7X8X7X8XVXY.> > < &.h h t.dXuX4 - 2 b x x x 6XsXK.K.L.L.L.L.L.L.L...B.K.P.",
"%XZ.%X%X%X%X%X%X*Xx.N }.V.m.V.V.V.V.V.e 4.c.c.b.b.b.b.b.4.b.b.b.b.4.c.b.b.c.6.b.b.6.c.b.c.3.v.v.r @.4.4.c.b.b.b.b.b.b.b.b.b.b.b.b.b.b.b.4.c.b.n.1.H 6.5.p., 7.f.5.p.p.p.p.p.p.p.9.p.p.p.p.p.p.9.p.p.p.9.,.} F i.1.1.p.p.p.p.p.p.9.p.g.( p.p.p.p.p.p.p.p.p.p.p.&.r.d.2.0 )./.(.y./.(.(.(.(.(.(.(.(.(./.y.(.(.(././.y.i.%.%./.^./.(.(.y.(.(.(.(.y./.(.(./.y.(.(.d.y.(.(.y./.H *.{.|.|.|.|.|.|.|.|.|.}.~.c Q.z M c xXSX0XlXzXkXkXhX~.dX8X7X8X7XeXJ Z J eX7X8X7X8XVXY.> > < &.h h t.dXuX4 - 2 b x x x 6XsX<X<X<X<X<X<X<X<X<X1X1X1X<X",
">X}.-X>X>X>X>X-X:XN D. X XN.Z. XZ. X@.w V.c.b.N.M.M.N.M.c.N.M.M.N.c.M.N.N.b.c.N.N.c.b.N.b.4.c.v.r @.c.c.b.M.M.M.M.M.M.M.M.M.M.M.M.M.M.N.c.M.M.N.H ;.M.5.a.[ { G.p.g.f.f.f.f.f.f.p.g.f.f.f.f.f.p.f.f.p.p.9.-.F i.i.1.g.f.p.p.f.f.p.f.f.X.g.f.f.f.f.f.f.f.f.s.%.[.g.d.(.w 2.|.)./.(.).).).).).).).).).)./.).).).(./.^./.%.%.(./.(.).)./.).).).)./.(.).).(./.).).(.(.).).d.|.P &.}.}.}.}.}.}.}.}.}.|.-X_.W [.v j x xXLXlXZXZXzXzXhX~.dX8X7X8X7XeXJ Z J eX7X8X7X8XVXY.> > < &.h h t.dXuX4 - 2 b x x x 6XsX8X8X7X8X7X8X7X8X8X8X8X8X8X",
"a.5.a.a.a.a.a.a.v., 6.6.6.3.6.6.6.m.e ` 3.[ +.+.+.+.+.+.[ +.+.+.+.[ +.+.+.+.[ +.+.[ [ +.[ ' [ [ q ` [ [ +.+.+.+.+.+.+.+.+.+.+.+.+.+.+.+.[ +.+.>.G ] X.X.] >.< +.>.,.2.2.2.2.2.2.>.>.2.2.2.2.2.>.2.2.>.>.X.) G -.-.-.2.2.>.>.2.2.>.2.2.) >.2.2.2.2.2.2.2.,.2.&.*.<.<.<.( 0 y.e.<.e.e.e.e.e.e.e.e.e.e.e.<.e.e.e.e.e.;.;.&.&.e.e.e.e.e.<.e.e.e.e.<.e.e.e.e.<.e.e.e.e.e.e.*.r.%.G u.u.u.u.u.u.u.u.u.u.u.r.r.Q.x x x ).:X=X=X=X=X{.^.~.dX8X7X8X7XeXJ Z J eX7X8X7X8XVXY.> > < &.h h t.dXuX4 - 2 b x x x 6XsX7X8X9X9X9X9XsX8X9X8X8X7X7X",
"u.7.5.u.u.u.6.a., [ 6.3.3.+.3.3.6.` e 3.+.' [ +.+.+.+.[ ' +.+.+.+.' [ +.+.[ [ +.+.[ [ +.[ ' [ [ q ` ' ' [ [ +.+.+.+.+.+.+.+.+.+.+.+.+.+.' [ +.F &.[ ] ] ] >.{ , >.>.>.>.>.>.>.>.X.>.>.>.>.>.>.X.>.>.>.X.] ) G -.-.( >.>.>.>.>.>.X.>.,.) >.>.>.>.>.>.>.>.,.&.&.>.*.<.*.<.8 $.e.*.e.e.e.e.e.e.e.e.e.e.e.*.e.e.e.e.<.%.-.&.&.e.<.e.e.e.*.e.e.e.e.*.<.e.e.e.*.e.e.<.<.e.e.*.e.e.H e.u.u.u.u.u.u.u.u.u.u.u.u.u.`.x x _.*X).=X=X).).^.~.dX8X7X8X7XeXJ Z J eX7X8X7X8XVXY.> > < &.h h t.dXuX4 - 2 b x x x 6XsX8XP.o.q.o.8./ <X8.&X2X8X7X",
">X}.-X>X>X>X:XV.N  X X X XN. XZ. Xw ..V.N.c.M.N.N.N.N.M.c.N.N.M.N.c.M.N.N.b.c.N.N.b.b.N.b.v.c.v.r @.c.c.b.M.N.N.N.N.N.N.N.N.N.N.N.N.M.N.c.N.M.H 5.a.a.a.a.a.5., 5.f.f.f.f.f.f.f.p.g.f.f.f.f.f.p.f.f.p.p.9.-.F i.i.i.g.f.p.p.f.f.p.f.f.X.g.f.f.f.f.f.f.f.f.Q.t.g.d.d.d.(.} / .Xd.(.).).).).).).).).).)./.).).).).(.^./.%.%.(./.(.).)./.).).).)./.(.).).(./.).).(.(.).)./.).|.H ~.-X}.}.}.}.}.}.}.}.}.}.|.-X(.x c xXUXlXZXZXzXzXhX~.dX8X7X8X7XeXJ Z J eX7X8X7X8XVXY.> > < &.h h t.dXuX4 - 2 b x x x 6XsXrX0./ o./ K./ sXo...w B.9X",
"%XZ.%X%X%X}.*Xj.x.}.V.V.V.m.V. X6.e N.b.b.4.c.b.b.b.b.b.4.b.b.b.b.4.c.b.b.c.4.b.b.6.c.b.c.3.v.v.r @.4.4.c.b.b.b.b.b.b.b.b.b.b.b.b.b.b.b.4.n.-.&.b.5.5.5.5.5.p.{ { f.p.p.p.p.p.p.9.p.p.p.p.p.p.5.p.p.p.9.,.} F i.1.1.p.p.p.p.p.p.5.p.g.( p.p.p.p.p.p.p.s.t.&.p.y.y.y.y.y.y.e d.y./.(.(.(.(.(.(.(.(.(./.y.(.(.(././.y.i.%.%./.^././.(.y.(.(.(.(.y./.(.(./.y.(.(.d.y.(.(.y./.{.&.H  X|.|.|.|.|.|.|.|.|.|.|.}._.W Q.#XSX0XlXzXkXkXhX~.dX8X7X8X7XeXJ Z J eX7X8X7X8XBXA.* * 1 f d d -.dXuX< = = b k a g 6XsXrX0.o.8.o.;XO.sX.._ ,.o.sX",
"-XZ.%X%X%X-XV.4 V.V.V.V.V.N.V. Xw  .N.b.b.6.c.b.b.b.b.b.4.b.b.b.b.4.c.b.b.c.6.b.b.c.c.b.c.3.v.v.r @.4.4.c.b.b.b.b.b.b.b.b.b.b.b.b.b.b.b.4.c.H 1.5.5.5.5.5.5.5.7., p.g.p.p.p.p.g.9.p.g.p.p.p.p.9.p.p.p.9.,.} F i.1.1.p.g.p.p.g.p.9.p.g.( p.g.p.p.p.p.p.s.&.t.d.y.y.y.y.y././ ( (./.(.(.(.(.(.(.(.(.(.(.y.(.(.(././.^.d.%.%./.^./.(.(.y.(.(.(.(.y./.(.(./.y.(.(./.d.(.(.y.(.).$.H {.|.|.|.|.|.|.|.|.|.|.|.}._.W Q.].AX0XlXzXkXkXhX~.dX8X7X8X7XeXJ Z J eX7X8X7X8XBXA.* * 1 f d d -.dXsX< = = b k a g 6XsX8X&X1X;X1X2XL.9Xq.J.&X&X8X",
"-XZ.%X%X%X:Xj.j.}.V.V.V.V.m.V.b.e b.b.b.b.6.c.b.b.b.b.b.4.b.b.b.b.4.c.b.b.c.6.b.b.c.c.b.c.3.v.v.r @.4.4.c.b.b.b.b.b.b.b.b.b.b.b.b.b.b.b.v.-.H b.5.5.5.5.5.5.5.p.{ ' f.p.p.p.p.g.9.p.g.p.p.p.p.9.p.p.p.9.,.} F i.1.1.p.g.p.p.g.p.9.p.g.( p.g.p.p.p.p.s.r.&.p.y.y.y.y.y.y.d.r.e y.(.(.(.(.(.(.(.(.(.(.(.y.(.(.(././.^.d.%.%./.^./.(.(.y.(.(.(.(.y./.(.(./.y.(.(./.d.(.(.y.(.(.*.H t. X|.|.|.|.|.|.|.|.|.|.}._.Y Q.].AX0XlXzXkXkXhX~.dX8X7X8X7XeXJ Z J eX7X8X7X8XBXA.* * 1 f d d -.dXsX< = = b k a g 6XsX7X8X8X8X8X7X8X7X9X9X8X8X7X",
"-XZ.%X%X%X}.4 V.V.V.V.V.V.m. Xw w N.b.b.b.6.c.b.b.b.b.b.4.b.b.b.b.4.c.b.b.c.6.b.b.c.c.b.c.3.v.v.r @.4.4.c.b.b.b.b.b.b.b.b.b.b.b.b.b.b.b.c.H 2.6.5.5.5.5.5.5.5.a.[ , g.p.p.p.p.g.9.p.g.p.p.p.p.9.p.p.p.9.,.} F i.1.1.p.g.p.p.g.p.9.p.g.( p.g.p.p.p.p.s.%.%.p.y.y.y.y.y.y.r././ ( ).(.(.(.(.(.(.(.(.(.(.y.(.(.(././.^.d.%.%./.^./.(.(.y.(.(.(.(.y./.(.(./.y.(.(./.d.(.(.y.(.(.*.;.&. X|.|.|.|.|.|.|.|.|.|.}._.`.Q.].AX0XlXzXkXkXhX~.dX8X7X8X7XeXJ Z J eX7X8X7X8XBXA.* * 1 f d d -.dXsX< = = b k a g 6XsX8X8X8X8X8X8X8X8X8X8X8X8X8X",
"-XZ.%X%X:Xx.j.%XV.V.V.V.V.N.N.e b.b.b.b.b.6.c.b.b.b.b.b.4.b.b.b.b.4.c.b.b.c.6.b.b.c.c.b.c.3.v.v.r @.4.4.c.b.b.b.b.b.b.b.b.b.b.b.b.b.b.n.-.H b.5.5.5.5.5.5.5.5.5.5.{ [ f.p.p.p.g.9.p.g.p.p.p.p.9.p.p.p.9.,.} F i.1.1.p.g.p.p.g.p.9.p.g.( p.g.p.p.p.s.y.&.d.y.y.y.y.y.y.y.y.d.1.0 (.(.(.(.(.(.(.(.(.(.(.y.(.(.(././.^.d.%.%./.^./.(.(.y.(.(.(.(.y./.(.(./.y.(.(./.d.(.(.y.(.).*.y.H {.|.|.|.|.|.|.|.|.|.|.}._.`.[.].AX0XlXzXkXkXhX~.dX8X7X8X7XeXJ Z J eX7X8X7X8XBXA.* * 1 f d d -.dXuX< = = b k a g 6XdXsXsXsXsXsXsXsXsXsXsXsXsXsX",
"-XZ.%X%X%X4 m.Z.V.V.V.V.V.V. .w V.b.b.b.b.6.c.b.b.b.b.b.4.b.b.b.b.4.c.b.b.c.6.b.b.c.c.b.c.3.v.v.r @.4.4.c.b.b.b.b.b.b.b.b.b.b.b.b.b.b.n.H -.6.5.5.5.5.5.5.5.5.5.5.[ , f.p.p.p.g.9.p.g.p.p.p.p.9.p.p.p.9.,.} F i.1.1.p.g.p.p.g.p.9.p.g.( p.g.p.p.p.s.%.%.p.y.y.y.y.y.y.y.y.r./.w >.).(.(.(.(.(.(.(.(.(.y.(.(.(././.^.d.%.%./.^./.(.(.y.(.(.(.(.y./.(.(./.y.(.(./.d.(.(.y.(.).$.(.H t.}.|.|.|.|.|.|.|.|.|.|.|.|.[.].AX0XlXzXkXkXhX~.dX8X7X8X7XeXJ Z J eX7X8X7X8XBXA.* * 1 f d d -.dXsX< = = b k a g 6XsX8X8X8X8X8X8X8X8X8X8X8X8X8X",
"%XZ.}.:Xx.N }.V.V.V.V.V.V.m.e 4.M.b.b.b.b.4.c.b.b.b.b.b.4.b.b.b.b.4.c.b.b.c.6.b.b.c.c.b.c.3.v.v.r @.4.4.c.b.b.b.b.b.b.b.b.b.b.b.b.b.n.1.H 6.5.5.5.5.5.5.5.5.5.5.7.p., 7.f.p.p.g.9.p.g.p.p.p.p.9.p.p.p.9.,.} F i.1.1.p.g.p.p.g.p.9.p.g.( p.p.p.p.p.p.&.y.y.y.y.y.y.y.y.y.y.y.d.} 0 ).(.(.(.(.(.(.(.(.(.y.(.(.(././.y.d.%.%./.^./.(.(.y.(.(.(.(.y./.(.(./.y.(.(./.d.(.(.y.(.).$.(.;.H  X|.|.|.|.|.|.|.|.|.|.|.-X[.].AX0XlXzXkXkXhX~.dX8X7X8X7XeXJ Z J eX7X8X7X8XBXA.* * 1 f d d -.dXsX< = = b k a g 6XsX7X7X8X7X8X8X7X8X7X7X7X7X7X",
"-XZ.%X*XN m.}.V.V.V.V.V. X .w V.b.b.b.b.M.6.b.b.b.b.b.b.4.M.b.b.M.6.b.b.M.c.c.M.M.c.c.M.c.3.v.v.r @.4.4.c.b.b.b.b.b.b.b.b.b.b.b.b.b.n.H $.6.5.5.5.5.5.5.5.5.5.5.7.p.[ { f.p.g.g.p.p.g.g.g.g.g.9.g.p.p.p.1.} F i.1.1.p.g.p.p.g.p.9.g.f.( p.g.g.g.s.%.%.g.y.d.d.d.d.d.d.d.d.d.d.y.0 1.).(.(.(.(.(.(.(.(.y.(.(.(.(./.^./.%.%./.^./.(.(.y.(.(.(.(.y./.(.(.(.y.(.(././.(.(.y.(.).*././.H |.|.|.|.|.|.|.|.|.|.|.|.-X[.].DXkXcXcXzXkXhX~.dX8X7X8X7XeXJ Z J eX7X8X7X8XBXA.* * 1 f d d -.dXsX< = = b k a g 6XsX7X8X2X8X2X2X8X2X9X7X9X8X8X",
"}.A.%Xv.N Z.N.N.N.N.N.N.V.e @.c.c.c.c.c.c.4.6.c.c.c.c.c.4.c.c.c.c.4.c.c.c.4.4.c.c.4.4.c.c.+.3.v.q ' 3.3.4.c.c.c.c.c.c.c.c.c.c.c.c.c.5.H 7.7.5.5.5.5.5.5.5.5.5.5.,.7.5., 7.p.p.p.1.9.p.p.p.p.p.1.p.p.9.1.,.} F 1.2.2.p.p.9.9.p.p.1.p.p.( 9.p.p.p.p.&.e.r.r.r.r.r.r.r.r.r.r.r.r.r.( w (.d././././././.d.y./././.d.y.t.t.%.%.y.y.y.d./.y././././.y.y././.y.y././.y.y././.y.d.(.$.y.(.H t.|.{.{.{.{.{.{.{.{.{.{.Z.[.'.BXqX0XkXkXkX4X~.dX8X7X8X7XeXJ Z J eX7X8X7X8XBXA.* * 1 f d d -.dXsX< = = b k a g 6XsX9XJ. .8.O.o.q 1Xs./ q.2X1X",
"}.A.%XN x.V.N.N.N.N.N.V.@.e m.6.c.c.c.c.c.3.4.c.c.c.c.6.3.c.c.c.c.3.6.c.c.4.4.c.c.4.4.c.4.+.3.v.q ' 3.3.4.6.c.c.c.c.c.c.c.c.c.c.6.b.H &.7.7.7.7.7.7.7.7.7.7.7.5.,.7.5.{ { g.9.p.1.9.p.p.p.p.p.1.p.p.5.1.,.} F 1.2.2.9.p.5.5.p.p.1.p.p.( 9.p.p.0.%.%.p.r.r.r.r.r.r.r.r.r.r.r.r.2.r.e r./.y.d.d.d.d.d.y.y.d.y.d.y.y.t.t.%.%.y.y.y.y.d.y.d.d.y./.y.y.d.d.y.y./.d.y.y./.y.y.y./.$.y.(.;.&.}.{.{.{.{.{.{.{.{.{.{.Z.[.'.NXqX0XkXqXqX.X~.dX8X7X8X7XeXJ Z J eX7X8X7X8XBXA.* * 1 f d d -.dXuX< = = b k a g 6XsXrX0./ o./ &X..sX/ 8Xw o.8.",
"-X}.m.N }.V.V.V.V.V.V. Xe ` N.b.b.b.b.b.M.6.b.M.b.b.b.b.4.M.b.b.M.6.b.b.b.c.c.M.M.c.c.M.c.3.v.v.r @.4.4.c.b.b.b.b.b.b.b.b.b.b.b.b.6.H 5.7.5.5.5.5.5.5.5.5.5.5.5.7.5.5.5., 9.g.g.p.p.g.g.g.g.g.9.g.p.p.p.1.} F i.1.1.p.g.p.p.g.p.9.g.f.( p.g.g.s.&.t.d.d.d.d.d.d.d.d.d.d.d.d.d.r.d.( / |.(.(.(.(.(.(.(.y.(.(.(.(./.^./.%.%./.^./.(.(.y.(.(.(.(.y./.(.(.(.y.(.(././.(.(.y.(.).*./.).^.H }.|.|.|.|.|.|.|.|.|.|.-X~.'.DXkXcXcXzXkXhX~.dX8X7X8X7XeXJ Z J eX7X8X7X8XBXA.* * 1 f d d -.dXsX< = = b k a g 6XsXrX0.w.w.0.;XO.sX..O... ./ ",
"%X=Xj.x.}.V.V.V.V.V. X4.e c.b.M.b.b.b.b.b.4.c.b.b.b.b.b.4.b.b.b.b.4.c.M.M.c.6.b.b.c.c.b.c.3.v.v.r @.4.4.c.b.b.M.M.b.b.b.b.b.b.b.n.-.&.b.7.5.5.5.5.5.5.5.5.5.5.5.7.5.5.p.{ { f.p.9.p.p.p.p.p.p.p.g.g.p.9.,.} F i.1.1.p.g.p.p.g.p.9.p.g.( p.g.s.t.&.p.y.y.y.y.y.y.y.y.y.y.y.y.d.r.y.d.0 d.(.(.(.(.(.(.(.y.(.(.(././.y.d.%.%./.^./.(.(.y.(.(.(.(.y./.(.(./.y.(.(.d./.(.(.y.(.).*./.(.).H /.}.|.|.|.|.|.|.|.|.|.}.~.'.AX0XlXzXkXkXhX~.dX8X7X8X7XeXJ Z J eX7X8X7X8XBXA.* * 1 f d d -.dXsX< = = b k a g 6XsX8X1X2X1X2X7X<X8X2XB.8X&XP.",
"-Xm.4 Z.V.V.V.V.V.V. Xw  .c.c.4.c.b.b.b.b.6.c.b.b.b.b.b.4.b.b.b.b.6.c.4.4.6.c.b.b.c.c.b.c.3.v.v.r @.4.4.c.b.b.4.4.c.b.b.b.b.b.b.b.H 1.5.7.5.5.5.5.5.5.,.5.5.5.5.7.5.5.5.5., p.g.9.p.g.p.p.p.g.2.9.9.p.9.,.} F i.1.1.p.g.p.p.g.p.9.p.g.( 1.p.p.%.t.d.y.y.y.y.y.y.y.y.y.y.y.y.d.r.<.y.) ( )./.(.(.(.(.(.y.(.(.(././.^.i.%.&.y.y./.(.(.y.(.(.(.(.y./.(.(./.y.(.(./.r.d.d.y.(.).*./.(.{.:.;. X|.|.|.|.|.|.|.|.|.}.~.'.AXkXlXzXkXkXhX~.dX8X7X8X7XeXJ Z J eX7X8X7X8XBXA.* * 1 f d d -.dXsX< = = b k a g 6XsX7X8X7X8X7X7X8X7X7X9X7X8X8X",
":Xj.j.}.V.V.V.V.V. Xb.e M.4.` +.` 3.M.b.b.6.c.b.b.b.b.b.4.b.b.b.b.c.' [ +.` c.b.b.c.c.b.c.3.v.v.r @.4.4.c.M.[ ' [ ` M.b.b.b.b.n.-.H b.5.7.5.5.5.5.a.X.( ,./ 5.5.7.5.5.5.p.{ ' f.9.p.g.p.p.g.1.( ] / p.9.,.} F i.1.1.p.g.p.p.g.p.9.p.g.) >.( *.Q.p.y.y.y.y.y.y.y.y.y.y.y.y.y.d.( $.<.) 0 (.(.(.(.(.(.(.y.(.(.(././.^.^.%.&.$.( /.(.(.y.(.(.(.(.y./.(.(./.y.(.).e.$.*.( r.(.).*./.(.).~.H }.|.|.|.|.|.|.|.|.|.}.~.'.AXkXlXzXkXkXhX~.dX8X7X8X7XeXJ Z J eX7X8X7X8XBXA.* * 1 f d d -.dXsX< = = b k a g 6XsX9X9X9X9X9X9X9X9X9X8X9X9X9X",
"}.4 V.V.V.V.V.V.V. Xw ` V.3.` N.[ 3.M.b.b.6.c.b.b.b.b.b.4.b.b.b.b.c.` b.+.' c.b.b.c.c.b.c.3.v.v.r @.4.4.c.M.` 4.6.` b.b.b.b.b.b.H 2.5.5.7.5.5.5.5.a.] >.] 0 5.5.7.5.5.5.5.7., g.9.p.g.p.p.f.>.( p.) ,.p.,.} F i.1.1.p.g.p.p.g.p.9.p.p.) 9./ &.t.p.y.y.y.y.y.y.y.y.y.y.y.y.y.d.( r.<.<./ } ).(.(.(.(.(.y.(.(.(././.y.^.&.%.$.) /.(.(.y.(.(.(.(.y./.(.(./.y.(.).*.<.y.) e.(.(.*./.(.(.(.H (.|.|.|.|.|.|.|.|.|.}.~.'.AXkXlXzXkXkXhX~.dX8X7X8X7XeXJ Z J eX7X8X7X8XBXA.* * 1 f d d -.dXuX< = = b k a g 6XdXsXsXsXsXsXsXsXsXsXsXsXsXsX",
"x.j.}.V.V.V.V.V.V.N.e b.b.c.+.[ 4.4.M.b.b.6.c.b.b.b.b.b.4.b.b.b.b.c.+.' ` [ c.b.b.c.c.b.c.3.v.v.r @.4.4.c.b.4.' [ [ b.b.b.b.n.-.H b.5.5.7.5.5.5.5.5.7.( 7.X.5.5.7.5.5.5.5.p.{ [ p.p.g.p.p.g.p.( ,.X.9.p.,.} F i.1.1.p.g.p.p.g.p.9.p.f.) X.>.&.d.y.y.y.y.y.y.y.y.y.y.y.y.y.y.d.<.( <.r.2.0 ).(.(.(.(.(.y.(.(.(././.^.i.%.&.*.*./.(.(.y.(.(.(.(.y./.(.(./.y.(.(.y.$.r.<.y.(.).*./.(.(.{.&.;. X|.|.|.|.|.|.|.|.}.~.'.SX0XlXzXkXkXhX~.dX8X7X8X7XeXJ Z J eX7X8X7X8XBXA.* * 1 f d d -.dXsX< = = b k a g 6XsX7X7X7X7X7XeXtXtXeX8X7X7X7X",
"4 v.V.V.V.V.V.V. X .w N.b.4.M.M.b.b.b.b.b.4.c.b.b.b.b.b.4.b.b.b.b.4.b.M.N.b.6.b.b.c.c.b.c.3.v.v.r @.4.4.c.b.b.M.b.M.b.b.b.b.n.H -.6.5.5.7.5.5.5.5.5.5.a.5.u.5.5.7.5.5.5.5.p.+., p.p.p.p.p.p.p.p.g.g.p.9.,.} F i.1.1.p.p.p.p.g.p.9.p.g.( s.%.%.p.y.y.y.y.y.y.y.y.y.y.y.y.y.y.y.r.y.d.y.d.0 2.).(.(.(.(.y.(.(.(././.y.i.%.%./././.(.(.y.(.(.(.(.y./.(.(./.y.(.(././.(.(.y.(.(.*./.(.(.).;.H  X|.|.|.|.|.|.|.|.}.^.`.SX0XlXzXkXkXhX~.dX8X7X8X7XeXJ Z J eX7X8X7X8XBXA.* * 1 f d d -.dXsX< = = b k a g 6XsX7X8X7X8XeX@X:.P !.6XeX7X8X",
"N b.3.3.3.N.c.[ c.e ` +.c.+.+.[ [ c.+.' 4.3.[ +.' 4.4.' +.c.[ [ c.+.+.+.' 6.3.' 3.4.[ +.' +.3.' q ..[ ' 3.3.[ +.' 4.4.' +.c.( G ] ] 5.] ] 7.,.] ,.7.] >.] ,.7.] ] 5.] ] ] ] 5., ` 9.5.X.2.p.>.2.X.,.9.X.O.} G -.} ( 9.1.] 1.p.X.>.p.,.>.>.&.r.<.$.r.e.*.>.$.1.r.$.<.r.>.*.r.<.>.>.$.r.e.) 0 /.<.e.*.r.y.<.e./.e.$.t.t.&.&.*.t.y.*.e.y.e.e.*.e.d.e.<.y.r.*.y.y.<.e.*.r.y.<.e.y.e.e.<.e.y.H <.u.|.|.|.|.|.|.|.}.^.`.SX0XlXzXkXkXhX~.dX8X7X8X7XeXJ Z J eX7X8X7X8XBXA.* * 1 f d d -.dXsX< = = b k a g 6XsX7X7XeX,XK A K K A A @XeX7X",
"v.6.[ +.[ m.6.+.` w [ [ c.[ +.' [ c.+.' 4.3.' [ ' 4.4.' +.c.' ' 6.+.[ [ ' 6.+.` 3.4.' [ ' +.+.' q ' ' ` 3.3.[ +.' 4.4.' +.c.F } ] ] 7.] ] 7.>.( ,.7.] X.( >.7.] ] 7.] ] ] ] 5.' < 9.1.( ,.p.X.2.] >.1.( ] } G ( ( ( 1.2.( 1.9.] >.p.>.,.&.&.9.>.( 1.2.$.*.( 2.1.( >.r.$.$.r.<.*.>.( r.<.$.8 2.<.<.*.r.y.*.<.d.e.$.t.t.&.&.$.t.r.*.e.d.<.<.*.e.d.<.*.y.r.*.r.y.<.e.*.r.y.*.<./.e.<.*.*.d.H $.u.|.}.}.}.}.}.}.%X(.`.HXlXZXZXzXzXhX~.dX8X7X8X7XeXJ Z J eX7X8X7X8XBXA.* * 1 f d d -.dXuX< = = b k a g 6XsX7X8X,XA K 5XdXBXsX!.Z oXeX",
"A.4.+.3.[ m.c.[ e @.' [ c.[ +.' [ c.+.' 4.3.' [ ' 4.4.' +.c.[ ' 6.+.[ [ ' 6.+.' 3.4.' [ ' +.+.' q ' ' ` 3.3.[ +.' 4.4.' +.2.I ] ] ] 7.] ] 7.>.( ,.7.] X.] >.7.] ] 7.] ] ] ] 7.>.< 7.9.] ,.p.X.2.] >.1.( ] } G } ( ( 1.2.( 1.p.] >.p.>.2.&.$.r.>.( 1.2.$.*.( e.1.( <.r.*.$.r.<.>.>.$.r.<.*.) ) e.<.*.r.y.*.<.d.e.$.t.t.&.&.*.t.y.*.e.d.<.<.*.e.d.<.*.y.r.*.r.y.<.e.*.r.y.*.<.d.e.<.*.<.d.&.H u.u.u.u.u.u.u.u.u.t.`.qX=X4X4X=X=X(.~.dX8X7X8X7XeXJ Z J eX7X8X7X8XBXA.* * 1 f d d -.dXuX< = = b k a g 6XsX7XeXP L dXdXsXsXsXFX!.A 1X",
"A.6.+.+.[ m.m.w e c.' [ c.[ +.' [ c.+.' 4.3.' [ ' 4.4.' +.c.' ' c.+.[ [ ' 6.+.' 3.4.' [ ' +.+.' q ' ' ` 3.3.[ +.' 4.4.' l.H F [ ( ] 5.] ] 7.>.( ,.7.] X.( >.7.] ] 7.] ] ] ] 7.>.{ { i.( ,.p.X.2.] >.h.( ] } G } ( ( 1.2.( 1.p.] >.p.o.%.&.>.r.>.( 1.2.$.*.( 2.1.( <.r.*.$.r.<.>.>.$.r.<.( 2.e $.e.*.r.y.*.<./.e.$.t.t.&.&.*.t.y.*.e.d.<.<.*.e.d.<.*.y.r.*.r.y.<.e.*.r.y.*.<.d.e.<.*.<.d.;.H u.u.u.u.u.u.u.u.u.e.Y =X).{.{.).).^.~.dX8X7X8X7XeXJ Z J eX7X8X7X8XBXA.* * 1 f d d -.dXsX< = = b k a g 6XsX8X1XA @XCXsXsXsXAXDXsXA !.",
"m.6.+.+.[ m.m.e  .c.' [ c.[ +.' [ c.+.' 4.3.' [ ' 4.4.' +.6.' ' 6.+.[ [ ' 4.+.' 3.4.' [ ' +.+.' q ' ' ` 3.3.[ +.' 4.4.' ] H ] ] ] ] 7.] ] 7.>.( ,.7.] X.( >.7.] ] 7.] ] ] ] 7.] ] , ,.] ,.p.X.2.] >.1.( ] } G } ( ( 1.2.( 1.9.] >.p.>.m $.>.r.>.( 1.2.$.*.( 2.1.( <.r.$.$.r.<.>.>.$.r.<.( r./ 0 e.*.r.y.*.<.d.e.$.t.t.&.&.*.t.r.*.e.d.<.<.*.e.d.<.*.y.r.*.r.y.<.e.*.r.y.*.<.d.e.<.*.<.y.e.H r.}.}.}.}.}.}.}.%X|.`.LXlXZXZXcXzXhX~.dX8X7X8X7XeXJ Z J eX7X8X7X8XBXA.* * 1 f d d -.dXsX< = = b k a g 6XsXeXOXA 5XdXsXNX8X/  .2XK P ",
"3.[ 3.3.[ v.` e +.[ ' ' +.' +.' ' +.' ' +.' ' [ ' +.[ ' [ [ ' ' +.' +.[ ' +.' ' [ [ ' [ ' ' ' ' q ` ` ` [ ' [ +.' +.' [ F F ' ] ] ] ] ] ] ] ] ] ] ] ] X.] ] ] ] ] ] ] ] ] ] ] ] ] { n X.X.>.] 2.X.X.X.( ( ) G } ( ( >.X.] >.>.] X.,.$.&.>.$.>.$.( >.$.$.*.( >.*.( *.>.( $.>.$.>.>.( >.$.( *.( 8 <.*.<.<.*.*.e.*.$.-.$.&.&.*.*.*.*.<.e.*.<.*.<.e.*.*.e.*.*.<.<.*.e.*.<.<.*.*.e.*.<.*.*.e.<.H %.}.|.|.|.|.|.|.|.|.`.zX9XlXzXkXkXhX~.dX8X7X8X7XeXJ Z J eX7X8X7X8XBXA.* * 1 f d d -.dXsX< = = b k a g 6XsXeX,XA ,XdXsXsX8X_ e P.I H ",
"3.[ +.[ [ 3.e q [ ' ' ' [ ` +.' ' [ ' ' [ ' ' [ ' [ ' ' ' ' ' ' [ ' [ [ ' [ ' ' ' ' ' [ ` ' ' ` q ` ` ` ' ' [ +.` [ ' ' I ( ] ] ( ] ] ( ] ] ( ( ] ] ] ] ( ] ] ( ] ] ( ] ] ] ] ( ] ] < ] X.X.( 2.] X.X.( ( ) G ( ( ( X.( ( X.] ( ] X.m *.] ( *.( ( *.( ( *.( *.( ( $.$.( ( *.( >.*.( *.( ( $.*.0 ) *.*.*.*.*.<.$.$.$.$.&.&.$.*.*.$.*.*.*.<.*.*.<.*.*.<.*.*.<.*.*.e.*.*.*.*.*.<.*.<.*.*.<.*.&.H }.|.|.|.|.|.|.|.}.`.xXrXlXzXkXkXhX~.dX8X7X8X7XeXJ Z J eX7X8X7X8XBXA.* * 1 f d d -.dXuX< = = b k a g 6XsX8X8XA !.FXsXsXsXAXPX,Xo i.",
"c.3.6.6.c.+.e +.+.+.+.+.3.[ 3.+.+.3.+.+.3.+.+.3.+.3.+.+.+.+.+.+.3.[ 3.3.+.+.+.+.3.+.+.3.[ [ [ [ q ` ' ' +.+.3.3.+.3.+.) F +.] >.] X.>.] ] >.] ] >.] X.,.] >.X.] ] X.] >.] ] >.] ] ,.{ { 1.,.,.1.,.,.,.X.X.( G -.-.-.2.,.>.,.,.>.,.*.&.>.<.<.<.<.<.<.<.<.<.<.<.<.<.<.<.<.<.<.<.<.<.>.<.<.<.<.<.( 8 e.r.e.e.e.r.e.<.e.;.&.&.e.e.e.e.r.e.e.r.e.r.e.e.e.r.e.e.r.e.e.r.e.r.e.e.r.*.e.r.e.e.r.e.<.H |.|.|.|.|.|.|.|.}.`.xXrXlXzXkXkXhX~.dX8X7X8X7XeXJ Z J eX7X8X7X8XBXA.* * 1 f d d -.dXuX< = = b k a g 6XsX7XeX!.A +XdXsXsXsX9Xo o 8X",
"Z.N.Z. X Xw  .V.b.M.M.M.M.6.M.N.N.M.M.M.M.c.b.M.M.b.M.b.6.N.N.N.M.c.b.M.M.c.c.M.M.c.c.M.c.3.v.v.r @.c.c.b.M.b.b.M.b.M.H 1.6.5.5.5.5.5.5.7.5.a.a.a.a.5.5.5.5.5.5.7.a.a.a.a.a.5.a.7.5.7., g.g.g.9.f.f.g.p.9.} F i.1.1.g.g.p.p.f.g.0.%.t.( y.d.d.d.d.d.d.d.d.d.d.d.d.d.d.d.d.d.d.r.d.d.d.d.d.d.d./.w 2.).y.).).(.(./.^./.%.%./.^./.(.(.y.).).(.).d./.).(.(.y.(.(././.).(.y.(.).$.(.).).).(.(.).H /.}.|.|.|.|.|.|.}.Q.hXrXcXZXzXzXhX~.dX8X7X8X7XeXJ Z J eX7X8X7X8XBXA.* * 1 f d d -.dXsX< = = b k a g 6XsX7X7XeXP A 8XsX9XBXG o *XeX",
"V.N.c.c.4.e b.b.b.b.b.b.b.4.+.4.+.b.b.b.b.4.c.b.b.b.b.b.4.+.3.+.M.4.c.b.b.c.6.b.b.6.c.b.c.3.v.v.r ` +.+.+.3.M.b.b.n.-.H b.5.5.5.5.5.5.5.7.,.X.>.,.X.5.5.5.5.5.5.7.X.,.X.,.X.5.5.7.7.p.{ [ f.p.9.,.1.,.,.X.-.F i.1.1.p.p.p.p.g.p.e.&.d.$.2.2.y.d.y.y.y.y.y.y.y.y.y.y.y.y.y.y.y.r.>.>.r.d.y.y.y.d.>.w ).y.r.r./.(./.y.i.%.%./.^./.(.(.y.e.r.(.(.y./.(.(./.y.(.(.d.y.(.(.y.(.(.*.r.y.e.y.(./.{.&.;. X|.|.|.|.|.|.}.Q.#XNX4XqX4XqXhX~.dX8X7X8X7XeXJ Z J eX7X8X7X8XBXA.* * 1 f d d -.dXsX< = = b k a g 6XsX7X7X8X8XOX7X7X7X8X=X=XeX7X",
"V.N.M./ + e V.b.b.b.b.b.b.c.` : q +.N.b.b.6.c.b.b.b.b.b.+.0 ` q 4.c.c.b.b.c.6.b.b.c.c.b.c.3.v.v.r 0 q q 0 / b.b.b.n.H <.6.5.5.5.5.5.5.5.7.7.0 0 0 0 X.a.5.5.5.5.5./ : 0 : ) 5.5.7.5.p.3., g.p.1.0 / 0 0 / -.F i.1.1.p.g.p.p.g.s.%.%.p.$.) ) ) r.y.y.y.y.y.y.y.y.y.y.y.y.y.y.y.r.<.0 ) r.d.y.y.y.d.0 2.(.<.: ) y./.y.d.%.%./.^./.(.(.y.) ) ( (.y./.(.(./.y.(.(./.d.(.(.y.(.(.<.( ) ) 0 *.(.{.;.&. X|.|.|.|.|.|.}.Q.#XNX6X( >./ e.~.dX8X7X8X7XeXJ Z J eX7X8X7X8XBXA.* * 1 f d d -.dXsX< = = b k a g 6XsX7X7X7X8XeX8X7X7X7X8X8X7X8X",
"V.N.4./ + q N.b.b.b.b.b.b.c.+.: q ' N.b.b.6.c.b.b.b.b.b.4.` : q 3.c.c.b.b.c.6.b.b.c.c.b.c.3.v.v.r w q q : / b.b.n.2.H 6.5.5.5.5.5.5.5.5.5.X.0 / : 0 ] a.5.5.5.5.7.] O 0 : ) 7.5.7.5.5.p.n 3.f.9.( : 0 0 ) } F i.1.1.p.g.p.p.s.p.&.y.d.$.*.) O r.d.y.y.y.y.y.y.y.y.y.y.y.y.y.y.r.( ) O 2.d.y.y.y.d.} ) (.r.: O y./.y.^.%.%./.^./.(.(.y.*.O O (.y./.(.(./.y.(.(./.d.(.(.y.(.(.*.<.) ( + ) ).(./.H |.|.|.|.|.|.|.}.Q.#XNX=XX.9.0 ) ~.sX8X7X8X7XeXJ Z J eX7X8X7X8XBXA.* * 1 f d d -.dXuX< = = b k a g 6XsX7X7X8X7X7X7X8X8X7X7X7X8X7X",
"V.N.6.e e 6.M.b.b.b.b.b.b.6.' +.' c.b.b.M.6.b.b.b.b.b.b.4.' +.' M.6.b.b.b.c.c.M.M.c.c.b.c.3.v.v.r ` +.` ' +.N.b.n.H -.0.5.5.5.5.5.5.5.5.5.] / ] ] ( 5.5.5.5.5.5.7.] ] ] ] ] a.5.7.5.5.p.[ { f.5.X.>.O.} O.-.F i.1.1.p.g.p.p.s.%.%.g.d.$.2.2.>.r.d.y.d.d.d.d.d.d.d.d.d.d.d.d.d.r.( ( >.2.d.y.d.d.y.d.0 r.<.<.e.y./.^./.%.%./.^./.(.(.y.<.<.<.d././.(.(.(.y.(.(./.d.(.(.y.(.).*.r.y.*.e.e.(.(.).H /.}.|.|.|.|.|.-XQ.#XNXf.{.).=X(.~.dX8X7X8X7XeXJ Z J eX7X8X7X8XBXA.* * 1 f d d -.dXuX< = = b k a g 6XsX7X7X7X7XeXeX6X1X8XeX8X7X8X",
"V.m.V.e 4.M.c.c.c.c.c.c.c.4.b.b.M.c.c.c.c.4.c.c.c.c.c.c.4.M.b.M.c.4.c.c.c.6.4.c.c.4.4.c.c.3.3.v.r +.4.c.c.b.c.c.2.H 6.5.5.5.5.5.5.5.5.5.,.5.u.5.5.5.5.5.5.5.5.5.,.5.5.5.5.5.7.5.7.7.5.7.5., [ 9.g.p.p.p.1.} F 1.2.1.p.p.9.9.p.&.<.r.r.( r.y.y.r.r.r.r.r.r.r.r.r.r.r.r.r.r.r.r.e.y.d.y.r.r.r.r.r.r.y.) ) ).(.(./.y.t.t.%.%.^.y.^././.y.(.(.(.(.y.y./././.y././.y.y././.y./.(.*./.(.(.(.(././.{.H ;.}.{.|.|.|.|.}.Q.].rXZXZXzXzXhX~.sX8X7X8X7XeXK Z K eX7X8X7X8XBXA.* * 1 f d d -.dXsX< = = b k a g 6XsX7X7X7XeXOXK A A K :.8X8X7X",
":X1X;XJ.;X;X;X;X;X;X;X;X;X;X;X;X;X;X;X;X;X;X;X;X;X;X;X;X;X;X;X;X;X;X;X;X;X;X;X;X;X;X;X;X;X;X;X;X;X;X;X;X;X;X;X;X=X=X;X*X;X;X;X;X;X;X;X;X;X&X&X&X&X&X;X;X;X;X;X;X;X&X&X&X&X&X;X;X;X;X*X*X;XP.P.<X*X*X*X*X*X*X*X*X:X*X:X:X:X<X*X=X:X*X*X*X*X*X*X*X*X*X*X*X*X*X*X*X*X*X*X*X*X*X*X*X*X*X*X*X*X*X*X*X*X*X*XK.:X:X:X:X:X:X:X*X:X:X:X:X:X:X:X:X:X:X:X:X:X:X:X:X:X:X:X:X:X:X:X:X:X:X:X:X:X:X:X:X:X:X:X=X=X1X1X1X1X1X1X1X4XqX9X8X8X8X8X8X8XsX8X7X7X7X8X!.P !.8X7X8X7X8XBXA.* * 1 f d + $.dXsX> = = b k a g 6XsX7X7XeX:.Z P @X@X!.A K 6X8X",
"sXsXsXBXsXsXsXsXsXsXsXsXsXsXsXsXsXsXsXsXsXsXsXsXsXsXsXsXsXsXsXsXsXsXsXsXsXsXsXsXsXsXsXsXsXsXsXsXsXsXsXsXsXsXsXsXdXdXsXsXsXsXsXsXsXsXsXsXsXsXsXsXsXsXsXsXsXsXsXsXsXsXsXsXsXsXsXsXsXsXdXsXsXdXdXsXsXsXsXsXsXsXdXsXsXNXsXsXsXsXdXdXsXsXsXdXsXsXsXsXsXsXsXsXsXsXsXsXsXsXsXsXdXdXsXsXsXsXsXsXsXsXsXsXsXsXsXBXsXsXsXsXsXsXdXdXsXsXdXdXdXdXdXdXdXdXdXdXdXdXdXdXdXdXdXdXdXdXdXdXdXdXdXdXdXdXdXdXdXdXsXdXdXsXsXsXsXsXsXsXdXdXsXsXsXsXsXsXsXsX8X7X8X7X2XtXeXeX2X8X8X7X8XBXL.: : < ) f f r.dXsXt 1 ; ) v g z 6XsX7XeX@XZ @XFXCXBXJXuXZ G eX",
"7X7X7X2X7X7X7X7X7X7X7X7X7X7X7X7X7X7X7X7X7X7X7X7X7X7X7X2X7X2X7X2X7X7X7X7X7X7X7X7X7X7X7X7X7X7X7X7X7X7X7X7X7X7X7X7X7X7X7X7X7X7X7X7X7X7X7X7X7X7X7X2X2X2X2X2X2X2X2X2X2X2X2X2X2X2X7X7X7X7X6X6X6X6X6X6X6X6X6X6X6X6X6X7X7XsX8X2X7X2X2X2X2X2X2X2X2X2X2X2X2X2X2X2X2X2X2X2X2X2X7X2X9XsX2X7X7X7X7X7X7X7X7X7X7X7X7X2X7X7X7X7X7X2X9XsX7X2X<X<X<X<X<X<X<X<X<X<X<X<X<X<X<X<X<X<X<X<X<X<X<X<X<X<X<X<X<X<X<X<X<X<X<X<X<X<X<X<X<X<X<X<X1X1X1X1X1X7X8XsX8X7X8XO. .1X/ O./ 8.9X2X8XsX8X9X9X9X9XeXrX8XsX9X8XuX9X9XeXrXeX8XsX8X8XL P FXsXsXBX_ w =X. g.",
"sXsXsXsXsXsXsXsXsXsXsXsXsXsXsXsXsXsXsXsXsXsX8X7X8X7X8X8X8X9X8X8X7X7X2X7X2X7X2X7X7X7X8XsXsXsXsXsXsXsXsXsXsXsXsXsXsXsXsXsXsXrXsXsXsXsXrX7X7X8X;X&X;X&X&X&X&X;X&X&X&X&X&X&X;X&X1X7XeXK C Z C C C C C C C C C Z C L eXsX8X7X&X&X&X;X&X&X&X&X&X&X&X&X&X&X&X&X&X&X&X&X;X&X<X8XrXsX7X8X8X8X8X8X8X8X8X8X8X8X8X8X8X8X8X8X8X7XrXsX8X<X&X<X<X<X<X<X<X<X<X<X<X<X<X<X<X<X<X<X<X<X<X1X<X<X<X<X<X<X<X<X<X<X<X<X<X<X<X<X<X<X<X<X<X<X<X<X<X<X&X2X8XsX8X8X;Xo.o.0.w.q ..o.8X7X8XsX8X6XW.T.E.3XE.3XsXrX6XT.E.W.2XW.E.9XsX8X,XA +XdXsXCXq.+ &XCXo F ",
"sXsXsXBXdXBXBXBXsXsXsXsXsXsXsXsXsXsXBXrXsXsX8X7X7X8X<X&X2XK.7XP.rX8XrX8XrX9XrX9XrX8X8XNXNXsXsXCXsXsXNXsXsXNXsXsXsXsXsXsXsXsXsXsXsXBXrX7X7X8X;X2X8X8X8X8X8X7X8X9X8X8X8X8X8X;X1X7XeXL . . . . . . . . . . . . . A eXsX9X7X&X8X8X2X8X8X8X8X8X8X8X8X8X8X7X8X9X8X8X8X8X1X;X8XrXsX7X8X8X8X8X8X8X8X8X8X8X8X8X8X8X8X8X8X8X7XrXsX8X<X1X8X8X8X8X8X8X8X8X8X8X8X8X8X8X8X8X8X7X8X1X<X7X8X2X8X1X8X8X8X8X8X8X8X8X8X8X8X8X8X8X8X8X8X8X8X8X8X;X1X8XsX8X7X8XO./ w._ _ / o.9X2X8XsX8XT.p E.W.W.p T.sX9X3XE.W.W.E.W.W.9XsXeXOXA 5XdXsXsX8XsXBXCXo G ",
"BXo.P.8X8X1X1X2XNXsXsXsXsXsXsXsXsXsXsXO w.CX8X7X8X8Xw q.O.o.7X/ 8.&X8.<X8.L.0. .o.&XsXJ./ J.8X1XP.q.BX&X_ w./ q.BXsXsXsXsX9XCX .e BXrX7X7X8X&X8XB.#.w.w.#.L.&Xq.B.8.8.q.1X<X1X7XeXL . X X s X X s s X s s X . S eXsX9X7X&X8Xw.B.o.#.w.#.q.#.B.#.&Xw.B.#.w.&Xq...B.8X;X8XrXsX7X8X8X8X8X8X8X8X8X8X8X8X8X8X8X8X8X8X8X7XrXsX8X<X1X8X7X7X7X7X7X7X7X7X7X7X7X7X7X7X2X9XB.J.J..._ J.8...J.8X7X7X7X7X7X7X7X7X7X7X7X7X7X7X7X7X7X7X7X8X;X1X8XsX8X7X8X1X<X2X<X7X<X2X8X7X8XsX8X3XW.T.W.W.W.3XsX9X3X3XT.W.T.W.E.9XsX8X,XA @XCXsXsXsXsXsXsXo } ",
".._ / / w w._ O.sXsXsXsXsXsXsXsXsXsX2X .q.BX8X7X7X8X0./ / BX7X_ _ q o.q o./ _ w s.;XNX8.w 8.O._ ..0 2XP.0 8.8.1XBXsXsXsXsXrXsX8...9XsX7X7X8X&X8X#.o... ...L.B._  .8.8._ 9X;X1X7XeXL . s X s X X X s X C X X . S eXsX9X7X&X8Xw.q.q.#.w._ o.#.8.K.w.B.o. .#.L.B.w.P.8X;X8XrXsX7X8X8X8X8X8X8X8X8X8X8X8X8X8X8X8X8X8X8X7XrXsX8X<X1X8X7X8X8X8X8X8X8X8X8X8X8X8X8X8X7XrXB.J.P.8...` 8.e <X8X7X7X8X8X8X8X8X8X8X8X8X8X8X8X8X8X8X8X7X8X;X1X8XsX8X7X7X8X9X8X2X1X9X8X7X7X8XsX8X8X7X8X8X0X0X7XsXrX7X8X8X6X8X6X8X8XsX7XeXJ K FXsXsXsXsXJX;.o *X",
"O.O./  .O.&X0.8.8XNXsXsXsXsXsXsXsXsXsXO 8.CX8X7X8X8Xw.O.....8X . .8. .w._ q.O._ o.P.BX8.&X;X/ K.O.0 &X&Xq 8.8.1XBXsXsXsXsX9XAX_ e BXrX7X7X8X&X8XB.<XB.w.#.J.L.o.w.w.#.0.1X<X1X7XeXL . X X s s X X s X s X s . S eXsX9X7X&X8XB.w.K.w.w.w.w.8.B.o.P.K...L.&Xo.w.B.&X7X;X8XrXsX7X8X8X8X8X8X8X8X8X8X8X8X8X8X8X8X8X8X8X7XrXsX8X<X1X8X7X7X7X7X7X7X7X7X7X7X7X7X7X7X7X9XK...8.o.P...w.q.8.B.q.P.8X7X7X7X7X7X7X7X7X7X7X7X7X7X7X7X7X8X;X1X8XsX8X7X7X8X2XO._ / 8.9X7X7X8XsX8X8XW.E.W.E.W.3XsX9X8X4XOXOX4X4X@XeXsX7X8X,XA P sXsXsXBXi.. } sX",
"sXP.sX<X8XrX8X8XsXsXsXsXsXsXsXsXsXsXBX2XsXsX8X7X8X8X<X8X9X<X8X8X7X9X2X9X2X8X2X9X1X2X9X9XsXrX8X9X8X9X8XsXL.8X9XsXsXsXsXsXsXrXNX9X7XBXrX7X7X8X;X2X8X8X8X9X2X7X9X8X8X8X8X8X8X<X1X7XeXL . . . . . . . . . . . . . A eXsX9X7X&X8X2X8X8X8X2X9X8X2X8X7X8X1X8X8X8X2X7X8X8X2X;X8XrXsX7X8X8X8X8X8X8X8X8X8X8X8X8X8X8X8X8X8X8X7XrXsX8X<X1X8X8X8X8X8X8X8X8X8X8X8X8X8X8X8X8X8X8X2X2X8X8X9X8X9X8X7X8X8X8X8X8X8X8X8X8X8X8X8X8X8X8X8X8X8X8X8X;X1X8XsX8X7X7X9Xo./ / w O.9X7X7X8XsX7XT.W.T.W.W.p T.NXaX4X4XOX).4XOXOXeXsX8X7XeX@XJ 7X9X8XsX} G eX7X",
"sXBXsXBXdXsXsXsXsXsXsXsXsXsXsXsXsXsXsXNXsXsX8X7X8X8X8X7X7X8X8X8X8X7X8X7X8X7X8X7X8X7X8XsXsXsXdXsXsXsXsXsXCXsXsXsXsXsXsXsXsXrXsXsXsXsXrX7X8X8X;X&X;X;X;X;X;X;X&X;X;X;X;X&X;X&X1X7XeXL C C C C C C C C C C C C C S eXsX9X7X&X&X;X;X;X;X;X&X;X;X;X;X;X;X;X;X;X;X;X;X;X&X;X8XrXsX7X8X8X8X8X8X8X8X8X8X8X8X8X8X8X8X8X8X8X7XrXsX8X<X&X1X<X<X<X<X<X<X<X<X<X<X<X<X<X<X<X<X<X1X1X<X<X<X<X<X<X1X<X<X<X<X<X<X<X<X<X<X<X<X<X<X<X<X<X<X<X1X&X2X8XsX8X7X7X9X8./ _ w ..9X7X7X8XsX8X7XT.7XE.T.T.3XsXrX7X6X4X@X4X@X4XeXsX8X8X7X8XeX8X7X7X7X8XeX8X7X",
"7X2X7X7X7X7X7X7X7X7X7X7X7X7X7X7X7X7X7X7X7X7X7X7X7X7X7X7X7X7X7X7X7X7X7X7X7X7X7X7X7X7X7X7X7X7X7X7X7X7X7X7X2X7X7X7X7X7X7X7X7X7X7X7X7X7X7X7X7X7X2X1X1X1X1X1X1X1X1X1X1X1X1X1X1X2X7X7X7X,X5X5X5X5X5X5X5X5X5X5X5X5X5X,X7XsX8X2X2X1X1X1X1X1X1X1X1X1X1X1X1X1X1X1X1X1X1X1X1X1X2X2XrXsX2X7X7X7X7X7X7X7X7X7X7X7X7X7X7X7X7X7X7X2X9XsX2X1X<X<X<X<X<X<X<X<X<X<X<X<X<X<X<X<X<X<X<X<X<X<X<X<X<X<X<X<X<X<X<X<X<X<X<X<X<X<X<X<X<X<X<X<X<X<X<X<X<X2X8XsX8X2X7X7X2XP.1XL.1X8X7X2X8XsX7X7X6X7X6X6X6X7XsX9X2X7X7X8X7X8X7X8XsX7X7X7X2X7X7X7X7X7X2X2X7X7X",
"sXsXsXsXsXsXsXsXsXsXsXsXsXsXsXsXsXsXsXsXsXsXsXsXsXsXsXsXsXsXsXsXsXsXsXsXsXsXsXsXsXsXsXsXsXsXsXsXsXsXsXsXsXsXsXsXsXsXsXsXsXsXsXsXsXsXsXsXsXsXsXsXsXsXsXsXsXsXsXsXsXsXsXsXsXsXsXsXsXsXdXsXsXsXsXsXsXsXsXsXsXsXdXsXsXdXsXsXsXsXsXsXsXsXsXsXsXsXsXsXsXsXsXsXsXsXsXsXsXsXsXsXsXsXsXsXsXsXsXsXsXsXsXsXsXsXsXsXsXsXsXsXsXsXsXsXsXsXsXsXsXsXsXsXsXsXsXsXsXsXsXsXsXsXsXsXsXsXsXsXsXsXsXsXsXsXsXsXsXsXsXsXsXsXsXsXsXsXsXsXsXsXsXsXsXsXsXsXsXNXsXsXsXsXsXNXsXBXsXsXsXsXsXNXsXsXsXsXsXsXsXsXsXsXsXsXsXsXsXsXsXsXdXsXsXsXsXsXsXsXsXsXsXsXsXsX",
"2X2X2X2X2X2X2X2X2X2X2X2X2X2X2X2X2X2X2X2X2X2X2X2X2X2X2X2X2X2X2X2X2X2X2X2X2X2X2X2X2X2X2X2X2X2X2X2X2X2X2X2X2X2X2X2X2X2X2X2X2X2X2X2X2X2X2X2X2X2X2X2X2X2X2X2X2X2X2X2X2X2X2X2X2X2X2X2X2X2X2X2X2X2X2X2X2X2X2X2X2X2X2X2X2X1X2X2X2X2X2X2X2X2X2X2X2X2X2X2X2X2X2X2X2X2X2X2X2X2X2X2X2X2X2X2X2X2X2X2X2X2X2X2X2X2X2X2X2X2X2X2X2X2X2X2X2X2X2X2X2X2X2X2X2X2X2X2X2X2X2X2X2X2X2X2X2X2X2X2X2X2X2X2X2X2X2X2X2X2X2X2X2X2X2X2X2X2X2X2X2X2X2X2X2X2X2X2X2X1X2X2X2X2X2X2X2X1X2X2X2X2X2X1X2X2X2X2X2X2X2X2X2X2X2X2X2X2X2X2X2X2X1X2X2X2X2X2X2X2X2X2X2X2X2X2X",
"K.K.K.K.K.K.K.K.K.K.K.K.K.K.K.K.K.K.K.K.K.K.K.K.K.K.K.K.K.K.K.K.K.K.K.K.K.K.K.K.K.K.K.K.K.K.K.K.K.K.K.K.K.K.K.K.K.K.K.K.K.K.K.K.K.K.K.K.K.K.K.K.K.K.K.K.K.K.K.K.K.K.K.K.K.K.K.K.K.K.K.K.K.K.K.K.K.K.K.K.K.K.K.K.K.K.K.K.K.K.K.K.K.K.K.K.K.K.K.K.K.K.K.K.K.K.K.K.K.K.K.K.K.K.K.K.K.K.K.K.K.K.K.K.K.K.K.K.K.K.K.K.K.K.K.K.K.K.K.K.K.K.K.K.K.K.K.K.K.K.K.K.K.K.K.K.K.K.K.K.K.K.K.K.K.K.K.K.K.K.K.K.K.K.K.K.K.K.K.K.K.K.K.K.K.K.K.K.K.K.K.K.K.K.K.K.K.K.K.K.K.K.K.K.K.K.K.K.K.K.K.K.K.K.K.K.K.K.K.K.K.K.K.K.K.K.K.K.K.K.K.K.K.K.K.K.",
"L.L.L.L.L.L.L.L.L.L.L.L.L.L.L.L.L.L.L.L.L.L.L.L.L.L.L.L.L.L.L.L.L.L.L.L.L.L.L.L.L.L.L.L.L.L.L.L.L.L.L.L.L.L.L.L.L.L.L.L.L.L.L.L.L.L.L.L.L.L.L.L.L.L.L.L.L.L.L.L.L.L.L.L.L.L.L.L.L.L.L.L.L.L.L.L.L.L.L.L.L.L.L.L.L.L.L.L.L.L.L.L.L.L.L.L.L.L.L.L.L.L.L.L.L.L.L.L.L.L.L.L.L.L.L.L.L.L.L.L.L.L.L.L.L.L.L.L.L.L.L.L.L.L.L.L.L.L.L.L.L.L.L.L.L.L.L.L.L.L.L.L.L.L.L.L.L.L.L.L.L.L.L.L.L.L.L.L.L.L.L.L.L.L.L.L.L.L.L.L.L.L.L.L.L.L.L.L.L.L.L.L.L.L.L.L.L.L.L.L.L.L.L.L.L.L.L.L.L.L.L.L.L.L.L.L.L.L.L.L.L.L.L.L.L.L.L.L.L.L.L.L.L.L.L.L.",
"L.L.L.L.L.L.L.L.L.L.L.L.L.L.L.L.L.L.L.L.L.L.L.L.L.L.L.L.L.L.L.L.L.L.L.L.L.L.L.L.L.L.L.L.L.L.L.L.L.L.L.L.L.L.L.L.L.L.L.L.L.L.L.L.L.L.L.L.L.L.L.L.L.L.L.L.L.L.L.L.L.L.L.L.L.L.L.L.L.L.L.L.L.L.L.L.L.L.L.L.L.L.L.L.L.L.L.L.L.L.L.L.L.L.L.L.L.L.L.L.L.L.L.L.L.L.L.L.L.L.L.L.L.L.L.L.L.L.L.L.L.L.L.L.L.L.L.L.L.L.L.L.L.L.L.L.L.L.L.L.L.L.L.L.L.L.L.L.L.L.L.L.L.L.L.L.L.L.L.L.L.L.L.L.L.L.L.L.L.L.L.L.L.L.L.L.L.L.L.L.L.L.L.L.L.L.L.L.L.L.L.L.L.L.L.L.L.L.L.L.L.L.L.L.L.L.L.L.L.L.L.L.L.L.L.L.L.L.L.L.L.L.L.L.L.L.L.L.L.L.L.L.L.L.L.L.",
"L.L.L.L.L.L.L.L.L.L.L.L.L.L.L.L.L.L.L.L.L.L.L.L.L.L.L.L.L.L.L.L.L.L.L.L.L.L.L.L.L.L.L.L.L.L.L.L.L.L.L.L.L.L.L.L.L.L.L.L.L.L.L.L.L.L.L.L.L.L.L.L.L.L.L.L.L.L.L.L.L.L.L.L.L.L.L.L.L.L.L.L.L.L.L.L.L.L.L.L.L.L.L.L.L.L.L.L.L.L.L.L.L.L.L.L.L.L.L.L.L.L.L.L.L.L.L.L.L.L.L.L.L.L.L.L.L.L.L.L.L.L.L.L.L.L.L.L.L.L.L.L.L.L.L.L.L.L.L.L.L.L.L.L.L.L.L.L.L.L.L.L.L.L.L.L.L.L.L.L.L.L.L.L.L.L.L.L.L.L.L.L.L.L.L.L.L.L.L.L.L.L.L.L.L.L.L.L.L.L.L.L.L.L.L.L.L.L.L.L.L.L.L.L.L.L.L.L.L.L.L.L.L.L.L.L.L.L.L.L.L.L.L.L.L.L.L.L.L.L.L.L.L.L.L.L.",
"K.K.K.K.K.K.K.K.K.K.K.K.K.K.K.K.K.K.K.K.K.K.K.K.K.K.K.K.K.K.K.K.K.K.K.K.K.K.K.K.K.K.K.K.K.K.K.K.K.K.K.K.K.K.K.K.K.K.K.K.K.K.K.K.K.K.K.K.K.K.K.K.K.K.K.K.K.K.K.K.K.K.K.K.K.K.K.K.K.K.K.K.K.K.K.K.K.K.K.K.K.K.K.K.K.K.K.K.K.K.K.K.K.K.K.K.K.K.K.K.K.K.K.K.K.K.K.K.K.K.K.K.K.K.K.K.K.K.K.K.K.K.K.K.K.K.K.K.K.K.K.K.K.K.K.K.K.K.K.K.K.K.K.K.K.K.K.K.K.K.K.K.K.K.K.K.K.K.K.K.K.K.K.K.K.K.K.K.K.K.K.K.K.K.K.K.K.K.K.K.K.K.K.K.K.K.K.K.K.K.K.K.K.K.K.K.K.K.K.K.K.K.K.K.K.K.K.K.K.K.K.K.K.K.K.K.K.K.K.K.K.K.K.K.K.K.K.K.K.K.K.K.K.K.K.K.",
"&X&X&X&X&X&X&X&X&X&X&X&X&X&X&X&X&X&X&X&X&X&X&X&X&X&X&X&X&X&X&X&X&X&X&X&X&X&X&X&X&X&X&X&X&X&X&X&X&X&X&X&X&X&X&X&X&X&X&X&X&X&X&X&X&X&X&X&X&X&X&X&X&X&X&X&X&X&X&X&X&X&X&X&X&X&X&X&X&X&X&X&X&X&X&X&X&X&X&X&X&X&X&X&X&X&X&X&X&X&X&X&X&X&X&X&X&X&X&X&X&X&X&X&X&X&X&X&X&X&X&X&X&X&X&X&X&X&X&X&X&X&X&X&X&X&X&X&X&X&X&X&X&X&X&X&X&X&X&X&X&X&X&X&X&X&X&X&X&X&X&X&X&X&X&X&X&X&X&X&X&X&X&X&X&X&X&X&X&X&X&X&X&X&X&X&X&X&X&X&X&X&X&X&X&X&X&X&X&X&X&X&X&X&X&X&X&X&X&X&X&X&X&X&X&X&X&X&X&X&X&X&X&X&X&X&X&X&X&X&X&X&X&X&X&X&X&X&X&X&X&X&X&X&X&X&X",
"sXsXsXsXsXsXsXsXsXsXsXsXsXsXsXsXsXsXsXsXsXsXsXsXsXsXsXsXsXsXsXsXsXsXsXsXsXsXsXsXsXsXsXsXsXsXsXsXsXsXsXsXsXsXsXsXsXsXsXsXsXsXsXsXsXsXsXsXsXsXsXsXsXsXsXsXsXsXsXsXsXsXsXsXsXsXsXsXsXsXsXsXsXsXsXsXsXsXsXsXsXsXsXsXsXsXsXsXsXsXsXsXsXsXsXsXsXsXsXsXsXsXsXsXsXsXsXsXsXsXsXsXsXsXsXsXsXsXsXsXsXsXsXsXsXsXsXsXsXsXsXsXsXsXsXsXsXsXsXsXsXsXsXsXsXsXsXsXsXsXsXsXsXsXsXsXsXsXsXsXsXsXsXsXsXsXsXsXsXsXsXsXsXsXsXsXsXsXsXsXsXsXsXsXsXsXsXsXsXsXsXsXsXsXsXsXsXsXsXsXsXsXsXsXsXsXsXsXsXsXsXsXsXsXsXsXsXsXsXsXsXsXsXsXsXsXsXsXsXsXsXsXsXsXsXsX",
"P.P.P.P.P.P.P.P.P.P.P.P.P.P.P.P.P.P.P.P.P.P.P.P.P.P.P.P.P.P.P.P.P.P.P.P.P.P.P.P.P.P.P.P.P.P.P.P.P.P.P.P.P.P.P.P.P.P.P.P.P.P.P.P.P.P.P.P.P.P.P.P.P.P.P.P.P.P.P.P.P.P.P.P.P.P.P.P.P.P.P.P.P.P.P.P.P.P.P.P.P.P.P.P.P.P.P.P.P.P.P.P.P.P.P.P.P.P.P.P.P.P.P.P.P.P.P.P.P.P.P.P.P.P.P.P.P.P.P.P.P.P.P.P.P.P.P.P.P.P.P.P.P.P.P.P.8XsX8X8X8X8X8X8X8X8XrXsX8X8X8X8X7X8X9X8X8X8X8X8X8X8X8XsX9X7X8X8X7X7X7X8X2X&X8X7X7X7X7X8X7X7X8X7X7X7X7X8X7X&X8X7X7X7X7X8X7X7X8X7X7X7X7X8X7X&X8X7X7X7X7X7X8X7X7X8X7X7X7X7X8X&X7X8X7X7X7X7X8X,X7X8X,X1X1X8X",
"K.K.K.K.K.K.K.K.K.K.K.K.K.K.K.K.K.K.K.K.K.K.K.K.K.K.K.K.K.K.K.K.K.K.K.K.K.K.K.K.K.K.K.K.K.K.K.K.K.K.K.K.K.K.K.K.K.K.K.K.K.K.K.K.K.K.K.K.K.K.K.K.K.K.K.K.K.K.K.K.K.K.K.K.K.K.K.K.K.K.K.K.K.K.K.K.K.K.K.K.K.K.K.K.K.K.K.K.K.K.K.K.K.K.K.K.K.K.K.K.K.K.K.K.K.K.K.K.K.K.K.K.K.K.K.K.K.K.K.K.K.K.K.K.K.K.K.K.K.K.K.K.K.K.L.J.8XsX2X7X7X7X7X7X7X8XB.8.1X8X9X8XsX&Xs.9X2X7X7X7X7X7X2XrX9XBXAXCXCXCXCXAXsXs.HXCXCXCXCXAXBXsXAXCXCXCXCXAXBXs.DXCXCXCXCXAXCXsXAXCXCXCXCXCXCXa.AXCXCXCXCXCXAXsXCXAXCXCXCXCXAXa.CXCXCXCXCXCXDX+XnXAX+XXXtXUX",
"K.L.L.L.L.L.L.L.L.L.L.L.L.L.L.L.L.L.L.L.L.L.L.L.L.L.L.L.L.L.L.L.L.L.L.L.L.L.L.L.L.L.L.L.L.L.L.L.L.L.L.L.L.L.L.L.L.L.L.L.L.L.L.L.L.L.L.L.L.L.L.L.L.L.L.L.L.L.L.L.L.L.L.L.L.L.L.L.L.L.L.L.L.L.L.L.L.L.L.L.L.L.L.L.L.L.L.L.L.L.L.L.L.L.L.L.L.L.L.L.L.L.L.L.L.L.L.L.L.L.L.L.L.L.L.L.L.L.L.L.L.L.L.L.L.L.L.L.L.L.L.L.L.L.L.K.8XsX7X8X8X8X8X8X2XrX_ q 0.o..._ s.w o.sX2X8X8X8X8X8X7XrX9XCXHXHXHXHXHXHXCXJ.PXDXHXHXHXHXAXdXHXDXHXHXHXHXCXB.HXDXHXHXHXHXAXsXHXDXHXHXHXHXAXs.HXHXHXHXHXHXHXsXAXHXHXHXHXHXHXs.DXHXHXHXHXAXJX+XVXHX+XwXM.G.",
"K.L.L.L.L.L.L.L.L.L.L.L.L.L.L.L.L.L.L.L.L.L.L.L.L.L.L.L.L.L.L.L.L.L.L.L.L.L.L.L.L.L.L.L.L.L.L.L.L.L.L.L.L.L.L.L.L.L.L.L.L.L.L.L.L.L.L.L.L.L.L.L.L.L.L.L.L.L.L.L.L.L.L.L.L.L.L.L.L.L.L.L.L.L.L.L.L.L.L.L.L.L.L.L.L.L.L.L.L.L.L.L.L.L.L.L.L.L.L.L.L.L.L.L.L.L.L.L.L.L.L.L.L.L.L.L.L.L.L.L.L.L.L.L.L.L.L.L.L.L.L.L.L.L.L.K.8XsX7X8X8X8X8X8X2XrX/ w / 0 0 8.0 O.o.sX2X8X8X8X8X8X7XrX9XCXHXDXDXDXAXHXBXB.HXAXDXDXAXHXCXsXHXAXDXDXAXHXCXs.HXAXDXDXDXDXCXsXHXAXDXDXDXDXAXs.HXDXDXDXAXAXHXsXAXDXDXDXDXAXHXs.AXDXDXDXDXAXKX+XVXDX+X0._ o.",
"L.L.L.L.L.L.L.L.L.L.L.L.L.L.L.L.L.L.L.L.L.L.L.L.L.L.L.L.L.L.L.L.L.L.L.L.L.L.L.L.L.L.L.L.L.L.L.L.L.L.L.L.L.L.L.L.L.L.L.L.L.L.L.L.L.L.L.L.L.L.L.L.L.L.L.L.L.L.L.L.L.L.L.L.L.L.L.L.L.L.L.L.L.L.L.L.L.L.L.L.L.L.L.L.L.L.L.L.L.L.L.L.L.L.L.L.L.L.L.L.L.L.L.L.L.L.L.L.L.L.L.L.L.L.L.L.L.L.L.L.L.L.L.L.L.L.L.L.L.L.L.L.L.L.L.K.8XsX7X8X8X8X8X8X7X9Xw.o.8.o.q.P.B...K.9X7X8X8X8X8X8X7XrX9XCXDXAXDXDXHXHXCXB.HXAXDXDXHXHXCXsXHXDXDXHXHXHXCXs.HXAXDXDXHXHXAXsXHXDXDXDXDXHXAXs.HXDXDXDXHXDXHXsXAXDXDXDXHXDXHXs.AXDXDXDXDXHXJX+XVXHX+XM.@.G.",
"1X1X1X1X1X2X2X1X2X2X2X2X2X2X2X2X2X2X2X2X2X2X2X2X2X2X2X2X2X2X1X2X1X2X1X1X2X2X1X2X2X1X1X1X1X1X1X2X2X2X2X2X2X2X1X1X1X1X1X1X1X1X1X1X1X1X1X2X2X2X2X2X2X1X1X1X1X1X1X2X1X1X2X1X2X2X1X2X1X2X2X2X2X2X2X2X2X2X2X2X2X2X2X2X2X1X2X1X2X1X2X2X2X2X2X2X2X2X2X2X2X2X2X2X2X2X2X2X2X2X2X2X2X2X2X2X2X1X1X1X1X1X1X2X2X2X2X2X2X2X2X2X2X2X2X1XrXsX7X8X8X8X8X8X8X7X9X9XrXrX9X8X9XrX8X7X8X8X8X8X8X8X7XrX9XCXPXPXDXAXCXHXsXJ.HXAXDXAXCXHXCXsXHXDXDXBXsXBXCXs.HXAXAXHXCXCXBXdXHXDXAXDXDXCXCXs.HXDXDXAXBXHXCXsXAXDXDXAXdXHXDXs.AXDXDXAXAXBXAX+XVXHX+XwXtXUX",
"8XrX8X9X8X8X2X9X8X8X8X8X8X8X8X8X8X8X8X8X8X8X8X8X8X8X8X8X8X8X9X7X9X8X8X8X1X8X9X8X7X8X8X8X8X8X8X7X8X8X8X8X8X8X8X9X9X8X8X8X9X8X9X9X8X8X9X8X8X8X8X8X8X8X9X8X8X8X8X8XrX9X2X8X7X8XrX8X8X8X8X8X8X8X8X8X8X8X8X8X8X8X8X8X8X9X8X9X8X8X7X8X8X8X8X8X8X8X8X8X8X8X8X8X8X8X8X8X8X8X8X8X8X8X8X8X8X8X8X9X8X8X8X7X8X8X8X8X8X8X8X8X8X8X8X7XsXsX7X7X2X2X2X2X2X2X2X2X2X2X2X2X2X2X2X2X2X2X2X2X2X7X7XrXrXsX&X<XIX&Xo.8.1XK.HXAXPXsX..&Xw.CXHXAXHXdXo.B.B.K.HXAXPXsXw.J.w.dXHXAXHXHX8.o.q.K.DXAXHXDX8.8.P.BXAXDXDXPXJ.L.w.q.DXDXHXHX8.1Xq.+XVXHX+XwXtXIX",
"<X_ &X&XrXo.q.1X7X7X7X7X7X7X7X7X7X7X7X7X7X7X7X7X7X7X7X7X8X<Xw.rXP.2X;X;Xo.<X;X&X .1X1X<X;X1X<X_ 2X8X7X7X7X8Xo._ &X<X<X1X&X1X&XP.1X;X&X8X7X7X7X7X8XO...1X<X<X1X1Xq.q.P.8X;Xs.q.8X1X7X7X7X7X7X7X7X7X7X7X7X7X7X7X8X&X0.8XO.8._ B.8X7X7X7X7X7X7X7X7X7X7X7X7X7X7X7X7X7X7X7X7X7X7X7X8X<Xs.&Xw.O.8._ &X8X7X7X7X7X7X7X7X7X7X8X7XsXsX2X8XiXiXiXiXiXiXiXiXiXiXiXiXiXiXiXiXiXiXiXiXiX9X2XrXsX<Xw o.1X&X/ w s.K.HXAXBXB./ /  .BXAXHXrX7XJ.&XK.K.DXAXCXq._ o.0.8XHXAXdXq.q / #.J.AXDXsX8XB.0 8.9XAXAXCX2XP.o.w 9.AXDXdX8XJ.<XJ.+XVXDX+XwXtXUX",
"..0  . .O./ / 0 q.rX2X8X8X8X8X8X8X8X8X8X8X8X8X8X8X8X8X7X8X&Xo.<X/ O. ...0 ..0.q q  ./ w 8.q  .w 2X8X7X8X7X9Xw / / o.q  ...q / q .._ / &X9X7X7X8X8X0 / / q 8.q .._ / / o._ / / ..o.9X7X8X8X8X8X8X8X8X8X8X8X8X7X9XL.8.J.o.9X0 K.8X7X8X8X8X8X8X8X8X8X8X8X8X8X8X8X8X8X8X8X8X8X8X7X8X<Xq / : <XJ.0 1X8X7X8X8X8X8X8X8X8X8X8X7XsXrX8XS.z.z.z.z.z.z.z.z.z.z.z.z.z.z.z.z.z.z.z.z.z.F.8XrXsXsX<XsXAXBX<X1X<X&XIXIXIXsXL.sX1XHXIXIXPXsXsXJ.2X&XIXIXPXBX&X&X;XHXIXIXPXDX2XP.1X&XIXIXIXBX&X<X<XAXIXIXIXCX0.sX7Xs.IXIXPXHXBXL.;XjXUXIXjXwXFXIX",
"0 / / O./ _ w q K.9X7X8X8X8X8X8X8X8X8X8X8X8X8X8X8X8X8X7X8X;X/ 8._ _ _ ..0 / / : o.o.0 _ q 0 _ / 2X8X7X8X7X8X/ 2Xo.K.q _ 0 0 o.o.o./ / L.9X7X7X8X2X/  .q / w e _ w._ o.q o./ q.q q.rX7X8X8X8X8X8X8X8X8X8X8X8X7X9X&X/ q._ J._ 1X7X7X8X8X8X8X8X8X8X8X8X8X8X8X8X8X8X8X8X8X8X8X8X7X8X;XO.w.w 8.8...8X7X7X8X8X8X8X8X8X8X8X8X7XsXrXiXk.$ $ $ $ $ $ $ $ $ $ $ $ $ $ $ $ $ $ $ $ $ k.iXeXsX&XK.K.K.J.L.L.J.( K.J.J.L.L.L.K.q.J.J.J.K.K.P.J./ K.J.J.K.L.P.K.q.J.J.J.K.P.L.K./ J.J.J.K.K.L.L.q.J.J.J.K.P.K.P.( J.J.J.K.K.L.P.:.s.I.:.v.b.K.",
";X<X&XK.2Xq.1XK.1X8X7X8X8X8X8X8X8X8X8X8X8X8X8X8X8X8X8X8X8X8Xq.L.J.1XP.P.2X&XJ.P.;X<X;XL.L.&XL.K.8X7X8X8X8X8X;X8X;X8X&XP.K.&X<X;X1X/ J.8X7X8X8X8X7X1X1X&XP.L.&XP.K.K.<X&X<X<XJ./ 1X8X8X8X8X8X8X8X8X8X8X8X8X8X8X8X8Xq.&XL.J.1X8X7X8X8X8X8X8X8X8X8X8X8X8X8X8X8X8X8X8X8X8X8X8X8X8X8X2X<X2X1XB.L.2X8X7X8X8X8X8X8X8X8X8X8X8X7XsXrXiXz.$ @ @ @ @ & & & & & & & & @ & & @ @ @ @ @ k.iXeXsXo.q / / / w / w O / / / / w / w q / / / / / / w O / / / / w w w q / / / / w w w O / / / / / w / q w / / / w / / O / / / / / / w G / w F { q / ",
"8X8X8X9X8X9X8X9X8X7X7X7X7X7X7X7X7X7X7X7X7X7X7X7X7X7X7X7X7X7XrX8X9X8X8X8X8X8X9X8X8X8X8X8X9X8X8X9X7X7X7X7X7X7X8X7X8X7X8X8X9X8X8X8X8X1X9X7X7X7X7X7X7X8X8X8X8X8X8X8X9X9X8X8X8X8X1X&X8X2X7X7X7X7X7X7X7X7X7X7X7X7X7X7X7XrX8X9X9X8X7X7X7X7X7X7X7X7X7X7X7X7X7X7X7X7X7X7X7X7X7X7X7X7X7X7X7X8X8X8X9X8X7X7X7X7X7X7X7X7X7X7X7X7X7X2XrXrXiXz.$ @ @ @ & 2 & @ & & - - & & 2 & @ @ @ @ $ k.iXrX9XPXIXIXIXIXIXIXPX&XIXIXIXIXIXIXIXHXIXIXIXIXIXIXIX&XIXIXIXIXIXIXIXHXIXIXIXIXIXIXIX&XIXIXIXIXIXIXIXHXIXIXIXIXIXIXIX&XIXIXIXIXIXIXIXjXUXIXjXyXFXIX",
"8X8X8X8X8X8X8X8X8X9X9X9X9X9X9X9X9X9X9X9X9X9X9X9X9X9X9X9X9X9X8X8X8X8X8X8X8X8X8X8X8X8X8X8X8X8X8X8X9X9X9X9X9X9X8X9X8X9X8X8X8X8X8X8X8X9X8X9X9X9X9X9X9X8X8X8X8X8X8X8X8X8X8X8X8X8X9XrX8X9X9X9X9X9X9X9X9X9X9X9X9X9X9X9X9X8X8X8X8X8X9X9X9X9X9X9X9X9X9X9X9X9X9X9X9X9X9X9X9X9X9X9X9X9X9X9X9X9X9X9X9X9X9X9X9X9X9X9X9X9X9X9X9X9X9X9XsXrXiXz.$ @ @ @ @ @ & @ @ @ @ @ @ @ @ @ @ @ @ @ $ k.iXrX9XBXAXCXAXAXCXAXdXs.HXCXAXAXCXAXBXsXAXCXAXAXCXAXBXs.DXCXAXAXCXAXCXsXAXCXAXAXAXAXCXs.AXCXAXAXAXCXAXsXCXAXCXAXAXCXAXs.CXAXAXAXAXCXDX+XVXDX+X XtX^ ",
"sXsXsXsXsXsXsXsXsXsXsXsXsXsXsXsXsXsXsXsXsXsXsXsXsXsXsXsXsXsXsXsXsXsXsXsXsXsXsXsXsXsXsXsXsXsXsXsXsXsXsXsXsXsXsXsXsXsXsXsXsXsXsXsXsXsXsXsXsXsXsXsXsXsXsXsXsXsXsXsXsXsXsXsXsXsXsXsXsXsXsXsXsXsXsXsXsXsXsXsXsXsXsXsXsXsXsXsXsXsXsXsXsXsXsXsXsXsXsXsXsXsXsXsXrX9X9X9X9X9X9X9X9X9X9X9X9X9X9X9X9X9X9X9X9X9X9X9X9X9X9X9X9X9X9X9XsXeXiXk.$ @ $ $ $ $ @ $ $ $ $ $ $ $ $ $ $ $ $ @ $ k.iXrX9XCXHXDXDXDXDXHXBXB.HXAXDXDXDXHXCXsXHXDXDXDXDXHXCXs.HXAXDXDXDXHXAXsXHXDXDXDXDXDXAXs.HXDXDXDXDXDXHXsXAXDXDXDXDXDXHXs.AXDXDXDXDXAXKX+XVXHX+XwXP D ",
"7X7X7X7X7X7X7X7X7X7X7X7X7X7X7X7X7X7X7X7X7X7X7X7X7X7X7X8X8X8X8X8X8X8X8X8X7X2X7X8X2X2X8X8X8X8X8X8X8X8X8X8X8X8X8X8X8X8X7X2X8X8X2X7X8X8X8X8X8X8X8X8X8X8X8X8X8X8X7X2X8X7X2X7X8X8X8X8X8X8X8X8X8X8X8X8X8X8X8X8X8X8X8X8X8X8X8X8X8X8X8X8X8X8X8X8X8X8X8X8X8X7X7X8X0.,.,.,.,.,.,.,.,.,.,.,.,.,.,.,.,.,.,.,.,.,.,.,.,.,.,.,.,.,.,.X.:XsX8XF.k.k.k.k.k.k.k.k.k.k.k.k.k.k.k.k.k.k.k.k.k.F.0XrX9XCXHXDXDXDXDXHXBXB.HXAXDXDXDXHXCXsXHXDXDXDXDXHXCXs.HXAXDXDXDXHXAXsXHXDXDXDXDXDXAXs.HXDXDXDXDXDXHXsXAXDXDXDXDXDXHXs.AXDXDXDXDXAXKX+XVXDX+Xi.L $X",
"sXsXsXsXsXsXsXsXsXsXsXsXsXsXsXsXsXsXsXsXsX9XsXsXsXsX9X7X8X7X7X7X7X7X8X2X8XVX9X8XuXuX2X8X7X7X7X7X7X7X7X7X7X7X7X7X8X2X9XuX8X8XuX8X2X8X7X7X7X7X7X7X7X7X7X7X8X2XiXuX8X9XuX8X7X8X7X7X7X7X7X7X7X8X7X7X7X7X7X7X7X7X7X7X7X7X7X7X7X7X7X7X7X7X7X7X7X7X7X7X7X7X7X8X0.X.,.,.,.,.,.,.,.,.,.,.,.,.,.,.,.,.,.,.,.,.,.,.,.,.,.,.,.,.,.X.;XsX2X8XiXiXiXiXiXiXiXiXiXiXiXiXiXiXiXiXiXiXiXiXiX0X2XrX9XCXHXDXDXDXDXHXBXB.HXAXDXDXDXHXCXsXHXDXDXDXDXHXCXs.HXAXDXDXDXHXAXsXHXDXDXDXDXDXAXs.HXDXDXDXDXDXHXsXAXDXDXDXDXDXHXs.AXDXDXDXDXAXKX+XVXJX@XI 0X$X",
"sXsXsXsXsXsXsXsXsXsXsXsXsXsXsXsXsXsXsXsXsXsXsXBXNXNXrX7X8X8X8X8X8X8X7X9X2X, = @ - v.uX2X8X8X8X8X8X8X8X8X8X8X8X8X2XiXU.4 5 5 4 >XuX2X8X8X8X8X8X8X8X8X8X8X2XuXD.5 5 5 4 2X9X7X8X8X8X8X8X8X8X7X8XeXeXeXeXeXeXeXeXeXeXeXeXeXeXeXeXeXeXeXeXeXeXeXeXeXeX8X7X8X0.>.,.,.,.,.,.,.,.,.,.,.,.,.,.,.,.,.,.,.,.,.,.,.,.,.,.,.,.,.,.X.;XsX8X8X8X8X8X8X8X8X8X8X8X8X8X8X8X8X8X8X8X8X8X8X8X8X8XsX9XCXHXDXDXDXDXHXBXB.HXAXDXDXDXHXCXsXHXDXDXDXDXHXCXs.HXAXDXDXDXHXAXsXHXDXDXDXDXDXAXs.HXDXDXDXDXDXHXsXAXDXDXDXDXDXHXs.AXDXDXDXDXAXKX+XVXJXoXI FX! ",
"sXsXsXsXsXsXsXsXsXsXsXsXsXsXsXsXsXsXsXsXsX9XCX..e CXrX7X8X8X8X8X8X7X8X;X@ - D.S.j.# { uX2X8X8X8X8X8X8X8X8X8X8X2X9XD.2 k.U.S.k.2 S.9X2X8X8X8X8X8X8X8X8X2XiXz.2 z.U.F.5 2 >X8X7X8X8X8X8X7X9XF.5 5 5 5 5 5 5 5 5 5 5 5 5 5 3 3 5 5 5 5 5 5 5 5 5 5 5 5 F.uX0.X.J.P.P.P.P.P.P.P.P.P.P.P.&X&X&X&X&XP.P.P.P.P.P.P.P.P.P.P.0.X.*XBXsXsXsXsXsXsXsXsXsXsXsXsXsXsXsXsXsXsXsXsXsXsXsXsXsXsX9XCXHXAXDXDXDXHXBXB.HXAXDXDXDXHXCXsXHXAXDXDXDXHXCXs.HXAXDXDXDXDXCXsXHXAXDXDXDXDXAXs.HXAXDXDXDXAXHXsXAXDXDXDXDXAXHXs.AXDXDXDXDXAXKX+XVXyX! I FX! ",
"sXsXsXsXsXsXsXsXsXsXsXsXsXsXsXsXsXsXsXsXsXrXNX8...9XsX7X8X8X8X8X7X2XuX- < UXSXVXUX>X# A.9X7X8X8X8X8X8X8X8X8X7X8X2X2 F.UXVXSX5Xj.@ 8X8X7X8X8X8X8X8X8X7X9XU.2 wXGXVXSXUXk.5 uX2X7X8X8X8X2XiXF.$ # # # # # # # # # # # # # @ @ # # # # # # # # # # # $ z.uX0.X.P.9X8X8X8X8X8X8X8X8X8X2X1X1XK.K.<X9X8X8X8X8X8X8X8X8X8X8Xq.X.:XsX7X8X8X8X7X8X8X8X8X8X8X8X8X8X8X8X8X8X8X8X8X8X8X8X7XsX9XCXHXHXHXHXHXHXCXJ.PXHXHXHXHXHXAXdXHXHXHXHXHXHXAXB.HXHXHXHXHXHXAXdXHXHXHXHXHXHXDXs.HXHXHXHXHXHXHXsXDXHXHXHXHXHXHXs.HXHXHXHXHXHXJX+X,XFX! A FX~ ",
"sXsXsXsXsXsXsXsXsXsXsXsXsXsXsXsXsXsXsXsXsX9XCX_ e dXrX7X8X8X8X8X7X9XY.@ 8XsXsXsXeXUX, < VX2X8X8X8X8X8X8X8X8X2XuXl.5 GXrXCX` + VX= l.uX2X8X8X8X8X8X8X2XuXk.4 GXrXsX8XP.2X5 U.8X7X8X8X8X2X0XF.$ # @ @ @ @ @ @ @ @ @ @ $ $ $ - @ @ @ @ @ @ @ @ @ @ # $ z.uX0.X.L.8X7X7X7X7X7X7X7X7X8X&X....L.o.J.9X7X7X7X7X7X7X7X7X7X2X0.X.:XsX2X8X7X8XrX8X2X2X2X7X2X2X2X7X7X8X8X8X8X2X8X7X7X7X7XrX9XsXsXsXsXsXsXNX9X0.BXsXsXsXsXdXsX9XdXsXsXsXsXdXsX0.BXsXsXsXsXsXsX8XdXsXsXsXsXsXsX0.dXsXsXsXsXsXdX8XsXsXsXsXsXsXdX0.sXsXsXsXsXsXCX@X,XFXR A yX^ ",
"sXsXsXsXsXsXsXsXsXsXsXsXsXsXsXsXsXsXsXsXsXrXBX2X;XBXrX7X8X8X8X8X2XuXv.= NXdXsXsXsXGXj.- sX2X8X8X8X8X8X8X8X8X2XuXk.4 GXsXBXB.1XUX; { VX2X8X8X8X8X8X8X2XuX5 z.GXrXCX .+ L.- v.uX2X8X8X8X2X0XF.$ # @ @ @ @ @ @ @ @ @ @ $ $ $ $ @ @ @ @ @ @ @ @ @ @ # $ z.uX0.X.L.8X7X7X7X7X7X7X7X7X8X;Xq.w.q.B.1X8X7X7X7X7X7X7X7X7X7X2X0.X.:XsX2X7X8X<XB.2X9X9XrX9XrX9X9X9X8X<X;X7X1XsX<X8X7X8X7XrX9XBXAXCXCXCXCXAXsXs.HXCXCXCXCXAXBXsXAXCXCXCXCXAXBXs.DXCXCXCXCXCXCXsXAXCXCXCXCXCXCXs.AXCXCXCXCXCXAXsXCXCXCXCXCXCXAXs.CXCXCXCXCXAXrX@XVXJXR I FX^ ",
"sXsXsXsXsXsXsXsXsXsXsXsXsXsXsXsXsXsXsXsXsXsXsXNXBXsXrX7X8X8X8X8X7X9XZ.@ rX9XO P.NXUX, > VX2X8X8X8X8X8X8X8X8X2XuXj.5 GXsXsXCXsXGX- j.uX2X8X8X8X8X8X8X2XuX4 k.GXrXsX9XsXsX@ N.uX7X8X8X8X2X0XF.$ # # # # # # # # # # # # # # # # # # # # # # # # # # $ z.uX0.X.L.8X8X8X8X8X8X8X8X8X8X8X8X9X1X8X8X8X8X8X8X8X8X8X8X8X8X8X0.X.:XsX2X2XsX8.0 w.q.0.O.K.o.w.0.w.9XO._ 0.O.o./ <X8X7X7XrX9XCXHXHXHXHXHXHXCXB.PXDXHXHXHXHXAXdXHXHXHXHXHXHXCXs.HXDXHXHXHXHXAXsXHXHXHXHXHXHXDXs.HXHXHXHXHXHXHXsXAXHXHXHXHXHXHXs.DXHXHXDXHXBX8X+XVXJXR H FX^ ",
"8X8X8X8X8X8X8X8X8X8X8X8X8X8X8X8X8X8X8X8X8X8X8X8X7X8X8X7X8X8X8X8X7X2XuX= , &Xq dXBX8X# b.uX2X8X8X8X8X8X8X8X8X7X8X>X2 F.VXsXrXGXv.@ 2X8X7X8X8X8X8X8X8X7X9XS.2 wXVXsXsXUX{ = uX7X7X8X8X8X2X0XF.2 2 2 2 2 2 2 2 2 2 2 2 2 2 2 2 2 2 2 2 2 2 2 2 2 2 2 2 z.uX0.X.K.;X&X&X&X&X&X&X&X&X&X&X&X&X;X;X&X&X&X&X&X&X&X&X&X&X&X;X0.X.:XsX2X2XsX8.: 8.w : o.q ../ : / <X../ / _ o.o.J.9X7X7XrX9XCXHXDXDXDXDXHXBXB.HXAXDXDXDXHXCXsXHXDXDXDXDXHXCXs.HXAXDXDXDXHXAXsXHXDXDXDXDXDXAXs.HXDXDXDXDXDXHXsXAXDXDXDXDXDXHXs.AXDXAXHXCX1XHX+XnXJXR :.tX^ ",
"rXrXrXrXrXrXrXrXrXrXrXrXrXrXrXrXrXrXrXrXrX9XrX9X9XrX9X7X8X8X8X8X8X7X9XL.$ F.GXsXsX- < uX2X8X8X8X8X8X8X8X8X8X8X2XuXz.2 2XsXNX>X# v.uX2X8X8X8X8X8X8X8X8X2XuXk.5 sXsXVXn.# Z.9X7X8X8X8X8X7X8X2XwXwXwXwXwXwXwXwXwXwXwXwXwXwXwXwXwXwXwXwXwXwXwXwXwXwXwXwX1X8X0.>.,.,.,.,.,.,.,.,.,.,.,.,.,.,.,.,.,.,.,.,.,.,.,.,.,.,.,.,.,.X.:XsX2X7X9XB.q.O./ O.J.8._ / o.0.8X_ 8.1X/ O.O.&X8X7X7XrX9XCXHXDXDXDXDXHXBXB.HXAXDXDXDXHXCXsXHXDXDXDXDXHXCXs.HXAXDXDXDXHXAXsXHXDXDXDXDXDXAXs.HXDXDXDXDXDXHXsXAXDXDXDXDXDXHXs.AXDXHXAX1XBXJX+XVXJXR ;.rX^ ",
"sXsXsXsXsXsXsXsXsXsXsXsXsXsXsXsXsXsXsXsXsXsXsXCXCXsXsX7X8X8X8X8X8X8X2X9X>X>X8X8X7XN.9X8X7X8X8X8X8X8X8X8X8X8X8X8X7X9XS.1X8X8X;XV.uX2X8X8X8X8X8X8X8X8X8X7X7X8XS.2X8X8XY.Y.uX2X8X8X8X8X8X8X7X8X8X8X8X8X8X8X8X8X8X8X8X8X8X8X8X8X8X8X8X8X8X8X8X8X8X8X8X8X8X8X0.X.,.,.,.,.,.,.,.,.,.,.,.,.,.,.,.,.,.,.,.,.,.,.,.,.,.,.,.,.,.X.;XsX2X8X7X8X8X9X8X9X8X8X..0.sX2X8XP.2X8X9X7XL.8X7X8X7XrX9XCXHXDXDXDXDXHXBXB.HXAXDXDXDXHXCXsXHXDXDXDXDXHXCXs.HXAXDXDXDXHXAXsXHXDXDXDXDXDXAXs.HXDXDXDXDXDXHXsXAXDXDXDXDXDXHXs.AXDXHX2XsXHXKX+XVXJXT /.6X^ ",
"sXsXsXsXsXsXsXsXsXsXsXsXsXsXsXsXsXsXsXsXsXrXCX8./ CX9X7X8X8X8X8X8X7X8X2X8X8X7X7X8XuX7X7X8X8X8X8X8X8X8X8X8X8X8X8X8X7X9X8X7X7X8X9X2X8X8X8X8X8X8X8X8X8X8X8X7X7X9X8X7X7X8X9X2X8X7X8X8X8X8X8X8X7X7X7X7X7X7X7X7X7X7X7X7X7X7X7X7X7X7X7X7X7X7X7X7X7X7X7X7X7X7X8X0.X.,.,.,.,.,.,.,.,.,.,.,.,.,.,.,.,.,.,.,.,.,.,.,.,.,.,.,.,.,.X.;XsX2X8X8X7X7X7X7X7X7X7X8X9X7X8X7X8X8X7X7X8X9X7X8X8X7XrX9XCXHXDXDXDXDXHXBXB.HXAXDXDXDXHXCXsXHXDXDXDXDXHXCXs.HXAXDXDXDXHXAXsXHXDXDXDXDXDXAXs.HXDXDXDXDXDXHXsXAXDXDXDXDXDXHXs.AXHX8XrXHXAXKX+XVXDXT ).4X^ ",
"sXsXsXsXsXsXsXsXsXsXsXsXsXsXsXsXsXsXsXsXsXrXBX#._ 9XsX7X8X8X8X8X8X8X8X7X2X7X7X7X7X2X2X7X8X8X8X8X8X8X8X8X8X8X8X8X8X7X2X7X7X7X7X2X8X8X8X8X8X8X8X8X8X8X8X8X8X7X2X7X2X7X7X2X8X8X8X8X8X8X8X8X8X8X8X8X8X7X2X2X2X7X8X8X8X8X8X8X8X8X8X7X2X7X2X7X7X2X7X8X8X8X7X8X0.X.,.,.,.,.,.,.,.,.,.,.,.,.,.,.,.,.,.,.,.,.,.,.,.,.,.,.,.,.,.X.;XsX2X8X8X8X8X8X8X8X8X8X7X7X7X7X8X7X7X8X8X7X7X8X8X8X7XrX9XCXHXDXDXDXDXHXBXB.HXAXDXDXDXHXCXsXHXDXDXDXDXHXCXs.HXAXDXDXDXHXAXsXHXDXDXDXDXDXAXs.HXDXDXDXDXDXHXsXAXDXDXDXDXDXHXs.HXrX8XHXAXAXKX+XVXAXS  X@X^ ",
"sXsXsXsXsXsXsXsXsXsXsXsXsXsXsXsXsXsXsXsXsXrXCX .e sXsX7X8X8X8X8X8X8X7XrX8X7XrX8XrX8XrX8X7X8X8X8X8X8X8X8X8X8X8X8X7X8XrX8X8XrX8XrX7X8X8X8X8X8X8X8X8X8X8X8X8X8X9X8XrX8X8XrX8X7X8X8X8X8X8X8X8X8X8X7X2XuXVXVXVX9X2X8X8X8X8X8X8X8X7X8XrXrXrX8X8XrX8X7X8X8X7X8X0.X.,.,.,.,.9.9.9.1.,.,.,.,.,.,.,.,.,.,.,.,.1.,.,.1.,.,.,.,.,.X.;XsX2X8X8X8X8X8X8X8X8X8X7X8XrX8X7X8X8X8X8X8X8X8X8X8X7XrX9XCXHXDXDXDXDXHXBXB.HXAXDXDXDXHXCXsXHXAXDXDXDXHXCXs.HXAXDXDXDXDXCXsXHXAXDXDXDXDXAXs.HXAXDXDXDXAXHXsXAXDXDXDXDXDXDXB.sX2XHXDXDXAXKX+XSXVXS wXoX^ ",
"sXsXsXsXsXsXsXsXsXsXsXsXsXsXsXsXsXsXsXsXsXrXBXP.q.CX9X7X8X8X8X8X8X7X8Xs.P.9Xq.;Xq.;Xq.2X8X7X8X8X8X8X8X8X8X8X8X7X8X2X0.7X<Xq.&Xq.8X7X8X8X8X8X8X8X8X8X8X7X8X8XJ.1Xq.2X1X0.8X8X7X8X8X8X8X8X8X8X7X7XuXN.< ; , -XuX2X8X8X8X8X8X7X8X<X8.s.q.1X&Xq.2X8X7X8X7X8X0.X.,.,.,.,.: + O ) 1.,.,.,.,.,.,.,.,.,.X.( / X.,.) X.,.,.,.,.X.;XsX2X8X8X8X8X8X8X8X8X7X8X7X0.1X8X7X8X8X8X8X8X8X8X8X7XrX9XCXHXHXHXHXHXHXCXJ.PXDXHXHXHXHXAXdXHXHXHXHXHXHXAXB.HXDXHXHXHXHXAXdXHXHXHXHXHXHXDXs.HXHXHXHXHXHXHXsXAXHXHXHXHXDXHXs.1XHXHXHXHXDXJX+XCXbXS wX!.~ ",
"sXsXsXsXsXsXsXsXsXsXsXsXsXsXsXsXsXsXsXsXsXsXsXBXCXsXsX7X8X8X8X8X7X8X&X/ o.K._ q  .q _ q.rX2X8X8X8X8X8X8X8X8X8X2XrXq./ B.w./ w _ L.9X7X8X8X8X8X8X8X8X8X7X7X7X/ o./ q.0./ B.9X7X8X8X8X8X8X8X7X2XuX, # < { ; # l.uX2X8X8X8X8X7X8X8Xo.O.o.8.2Xq K.9X7X8X7X8X0.X.,.,.( + : ] / + + ,.,.,.,.,.,.,.,.1.0 + O q / O ) 1.,.,.,.X.;XsX2X8X8X8X8X8X8X8X8X7XrXB./ 8.9X2X8X8X8X8X8X8X8X8X7XrXsX&Xs.s.s.s.s.s.a.( J.s.s.s.s.s.s.0.s.s.s.s.s.s.s.( B.s.s.s.s.s.s.0.s.s.s.s.s.s.s.( s.s.s.s.s.s.s.0.s.s.s.s.s.s.s.s.s.s.s.s.s.s.B.:.s.i.S v.H L ",
"8X8X8X8X8X8X8X8X8X8X8X8X8X8X8X8X8X8X8X8X8X8X8X8X8X8X8X7X8X8X8X8X7X9XL...o.8.8.0 8.0 o.8.rX2X8X8X8X8X8X8X8X8X8X2XrX8...o.8...0 o.B.rX7X8X8X8X8X8X8X8X8X8X2XrX8.O.o.o.8...0.rX2X8X8X8X8X8X8X2XuX{ @ tXUXGXUXD.# Z.9X7X8X8X8X8X2XrX..P...L.2X/ s.rX7X8X7X8X0.X.,.X.+ X.HXAXHXBXO O 9.,.,.,.,.,.,.( + + 0 0 0 0 0 1.,.,.,.X.;XsX2X8X8X8X8X8X8X8X8X2XrX0...o.rX2X8X8X8X8X8X8X8X8X7XrX9XCXDXAXAXAXAXDXBXs.HXAXAXAXAXDXCXsXDXAXAXAXAXDXCXs.HXAXAXAXAXAXCXsXDXAXAXAXAXAXAXs.DXAXAXAXAXAXDXsXCXAXAXAXAXAX1Xs.DXAXAXAXAXAXHX+XAX+XT yXP ! ",
"9X9X9X9X9X9X9X9X9X9X9X9X9X9X9X9X9X9X9X9X9X8X9X8X8X9X8X7X8X8X8X8X7X7X8Xo.8.J...q...q. .;X8X7X8X8X8X8X8X8X8X8X8X7X8X;X .q.q...q.O.7X8X7X8X8X8X8X8X8X8X8X8X7X9XB.L.O.0.q. .<X8X7X8X8X8X8X8X7X7X9X- v.K.<XsXeXUX, > VX2X8X8X8X7X8X1Xq.J./ 0.0.o.&X8X7X8X7X8X0.X.9.: O IXAXsXrXCX1X+ X.,.,.,.,.,.,.,./ 0 0 q / : ] ,.,.,.,.X.;XsX2X8X8X8X8X8X8X8X8X7X8X1X_ L.8X7X8X8X8X8X8X8X8X8X7XrX9XCXHXDXDXDXDXHXBXB.HXAXDXDXDXHXCXsXHXDXDXDXDXHXCXs.HXDXDXDXDXHXAXsXHXDXDXDXDXHXAXs.HXDXDXDXDXDXHXsXAXHXDXDXHX2XsXB.AXHXDXDXDXAXJX+XDX+XT yXJ ! ",
"sXsXsXsXsXsXsXsXsXsXsXsXsXsXsXsXsXsXsXsXsXsXsXCXCXsXsX7X8X8X8X8X8X7X8X9X9X8X9X9X9X9XrX8X7X8X8X8X8X8X8X8X8X8X8X8X7X8X9X9XsXsXsX9X8X7X8X8X8X8X8X8X8X8X8X8X8X7X8X8X9X8X8XrX8X7X8X8X8X8X8X8X7X8X>X5 1XO e BXsXSXD.= uX7X7X8X8X8X7X8X9X9XrX9X8X9X8X7X8X8X7X8X0.X.9.+ X.B.e 1XBXsXBXO ) 5.,.,.,.,.,.,.,.9.1.1.,.1.,.,.,.,.,.X.;XsX2X8X8X8X8X8X8X8X8X7X9X8XsX9X9X8X7X8X8X8X8X8X8X8X7XrX9XCXHXDXDXDXDXHXBXB.HXAXDXDXDXHXCXsXHXDXDXDXDXHXCXs.HXAXDXDXDXHXAXsXHXDXDXDXDXDXAXs.HXDXDXDXDXDXHXsXAXHXAXHX9X9XHXs.AXDXDXDXDXAXKX+XDXoXT yXK oX",
"sXsXsXsXsXsXsXsXsXsXsXsXsXsXsXsXsXsXsXsXsXrXCXJ.#.CX9X7X8X8X8X8X8X8X8X2X8XrX9X8X9X7X2X7X8X8X8X8X8X8X8X8X8X8X8X8X8X2X9X<Xs.q.P.8X7X8X8X8X8X8X8X8X8X8X8X8X8X7X8XrX9X8X9X2X7X8X8X8X8X8X8X8X7X8X>X2 eXCX8XsXsXAXv.= uX2X7X8X8X8X8X8X2X;X1X;XrX7X7X8X8X8X7X8X0.X.h.: 6.8.w 2XNXsXBX+ ) 1.,.,.,.,.,.,.,.O.X.O.1.,.,.,.,.,.,.X.;XsX2X8X8X8X8X8X8X7X7X8XK.1Xq.<Xs.2X8X7X8X8X8X8X8X8X7XrX9XCXHXDXDXDXDXHXBXB.HXAXDXDXDXHXCXsXHXDXDXDXDXHXCXs.HXAXDXDXDXHXAXsXHXDXDXDXDXDXAXs.HXDXDXDXDXDXHXsXAXDXHXsX7XHXHXs.AXDXDXDXDXAXKX+XDXoXT yXL $X",
"sXsXsXsXsXsXsXsXsXsXsXsXsXsXsXsXsXsXsXsXsXrXBX..q sXsX7X8X8X8X8X8X8X7X9XJ./  .s...&X8X7X8X8X8X8X8X8X8X8X8X8X8X8X7X8X&X/ / w _ 8X7X7X8X8X8X8X8X8X8X8X8X8X7X9Xq./ O.B...<X8X7X8X8X8X8X8X8X7X7XuX5 k.GXsXsXsXUX- , sX2X8X8X8X8X7X8X1X_ 8.O. .<X8X7X8X8X7X8X0.X.,.( q AXPXsXsXHXB.+ ,.,.,.,.,.,.,.,.,.O 0 : : ] ,.,.,.,.,.X.;XsX2X8X8X8X8X8X8X7X7X8X/ o. .w / q.rX2X8X8X8X8X8X8X7XrX9XCXHXDXDXDXDXHXBXB.HXAXDXDXDXHXCXsXHXDXDXDXDXHXCXs.HXAXDXDXDXHXAXsXHXDXDXDXDXDXAXs.HXDXDXDXDXDXHXsXAXHXdX1XHXDXHXs.AXDXDXDXDXAXKX+XDXoXT yXS $X",
"sXsXsXsXsXsXsXsXsXsXsXsXsXsXsXsXsXsXsXsXsXrXBX..w rXsX7X8X8X8X8X8X8X2XsX8./ _ ../ 0.9X7X8X8X8X8X8X8X8X8X8X8X8X8X2XrXo. ./ / / 7X7X7X8X8X8X8X8X8X8X8X8X8X2XrXO./ _ o./ J.9X7X8X8X8X8X8X8X8X7X9XS.% F.VXsXSX, @ 7X8X7X8X8X8X8X7X8X2Xw / _ ..8X7X7X8X8X7X8X0.X.,.,.: ` sXsXBX&X+ ) 9.,.,.,.,.,.,.,.,.O O O : ,.,.,.,.,.,.X.;XsX2X8X8X8X8X8X8X8X2XrX8. .8.0 o.8.rX2X8X8X8X8X8X8X7XrX9XCXHXDXDXDXDXHXBXB.HXAXDXDXDXHXCXsXHXDXDXDXDXHXCXs.HXAXDXDXDXHXAXsXHXDXDXDXDXDXAXs.HXDXDXDXDXDXHXsXDXCX1XAXHXAXHXs.AXDXDXDXDXAXKX+XDX! T yXA $X",
"sXsXsXsXsXsXsXsXsXsXsXsXsXsXsXsXsXsXsXsXsXrXCXq. .CX9X7X8X8X8X8X8X8X7X9XJ.B.B.B.o.q.9X7X8X8X8X8X8X8X8X8X8X8X8X8X7X8XP._ 8.O.8.8X7X7X8X8X8X8X8X8X8X8X8X8X7X8XB.B.B.B.o.J.9X7X8X8X8X8X8X8X8X8X2XuXD.D.uX8X9X{ Y.9X7X8X8X8X8X8X7X8X1Xs.1X_ ..8X8X7X8X8X7X8X0.X.,.,.,./ ,.a.s./ 0 9.,.,.,.,.,.,.,.,.,./ X.: : X.,.,.,.,.,.X.;XsX2X8X8X8X8X8X8X8X7X9XB.K. .q._ &X8X7X8X8X8X8X8X8X7XrX9XCXHXDXDXDXDXHXBXB.HXAXDXDXDXHXCXsXHXAXDXDXDXHXCXs.HXAXDXDXDXDXCXsXHXAXDXDXDXDXAXs.HXAXDXDXDXAXHXsXCX1XBXHXAXAXHXs.AXDXDXDXDXAXKX+XFX! T yXA MX",
"sXsXsXsXsXsXsXsXsXsXsXsXsXsXsXsXsXsXsXsXsXsXsXCXCXsXsX7X8X8X8X8X8X8X8X7X8X8X8X8X8X9X7X8X8X8X8X8X8X8X8X8X8X8X8X8X8X7X8X9X9X8X9X8X8X8X8X8X8X8X8X8X8X8X8X8X8X7X8X8X8X8X8X9X7X8X8X8X8X8X8X8X8X8X8X2X9X9X7X7X7XuX8X7X8X8X8X8X8X8X8X8X8X8X8XrX8X7X8X8X8X8X7X8X0.,.,.,.,.1.,.X.X.,.9.,.,.,.,.,.,.,.,.,.,.,.,.1.,.,.,.,.,.,.,.X.:XsX2X8X8X8X8X8X8X8X8X7X8X8X9X9X9X8X7X8X8X8X8X8X8X8X7XrX9XCXHXHXHXHXHXHXCXJ.PXHXHXHXHXHXAXdXHXHXHXHXHXHXAXB.HXHXHXHXHXHXAXdXHXHXHXHXHXHXDXs.HXHXHXHXHXHXHXsX2XBXHXHXHXHXHXs.HXHXHXHXHXHXJX+XHXR R yXA MX",
"9X9X9X9X9X9X9X9X9X9X9X9X9X9X9X9X9X9X9X9X9X8X9X9X8X9X8X7X7X7X7X7X7X7X7X7X7X2X2X2X2X2X7X7X7X7X7X7X7X7X7X7X7X7X7X7X7X7X7X2X2X2X2X7X7X7X7X7X7X7X7X7X7X7X7X7X7X7X2X2X2X7X2X7X7X7X7X7X7X7X7X7X7X7X7X7X2X2X7X7X7X2X2X7X7X7X7X7X7X7X7X7X7X2X7X2X2X7X7X7X7X7X7X8X9.X.X.X.X.X.X.>.>.X.X.X.X.X.X.X.X.X.X.X.X.X.X.X.X.X.X.X.X.X.,.X.*XsX2X7X7X7X7X7X7X7X7X7X2X2X2X2X2X7X7X7X7X7X7X7X7X7X2XrX9XdXBXBXBXBXBXCXsXs.CXBXBXBXBXBXsXrXBXBXBXBXBXBXsXa.CXBXBXBXBXBXdXrXBXBXBXBXBXBXNXa.BXBXBXBXBXBXCX1X2XCXBXBXBXBXBXa.BXBXBXBXBXNXCX@XBXT R  XA MX",
"8X8X8X8X8X8X8X8X8X8X8X8X8X8X8X8X8X8X8X8X8X8X8X8X8X8X8X8X8X8X8X8X8X8X8X8X8X8X8X8X8X8X8X8X8X8X8X8X8X8X8X8X8X8X8X8X8X8X8X8X8X8X8X8X8X8X8X8X8X8X8X8X8X8X8X8X8X8X8X8X8X8X8X8X8X8X8X8X8X8X8X8X8X8X8X8X8X8X8X8X8X8X8X8X8X8X8X8X8X8X8X8X8X8X8X8X8X8X8X8X8X8X8X9XJ.0.a.a.a.a.a.a.a.a.a.a.a.a.a.a.a.a.a.a.a.a.a.a.a.a.a.a.a.a.a.9.1XsX8X8X8X8X8X8X8X8X8X8X8X8X8X8X8X8X8X8X8X8X8X8X8X8X8XsX9XdXBXBXBXBXBXCXsXs.AXBXBXBXBXBXdXrXCXBXBXBXBXCXsXa.CXBXBXBXBXBXdXrXCXBXBXBXBXBXBXa.CXBXBXBXBXCX7X<XCXBXBXBXBXBXCXa.BXBXBXBXBXBXCX@XNXL !  XZ mX",
"sXsXsXsXsXsXsXsXsXsXsXsXsXsXsXsXsXsXsXsXsXsXsXsXsXsXsXsXsXsXsXsXsXsXsXsXsXsXsXsXsXsXsXsXsXsXsXsXsXsXsXsXsXsXsXsXsXsXsXsXsXsXsXsXsXsXsXsXsXsXsXsXsXsXsXsXsXsXsXsXsXsXsXsXsXsXsXsXsXsXsXsXsXsXsXsXsXsXsXsXsXsXsXsXsXsXsXsXsXsXsXsXsXsXsXsXsXsXsXsXsXsXsXsXsXsXsXsXsXsXsXsXsXsXsXsXsXsXsXsXsXsXsXsXsXsXsXsXsXsXsXsXsXsXsXsXsXsXsXsXsXsXsXsXsXsXsXsXsXsXsXsXsXsXsXsXsXsXsXsXsXsXsXsX9XCXHXHXHXHXHXHXCXJ.PXHXHXHXHXHXAXdXHXHXHXHXHXHXAXB.HXHXHXHXHXHXAXdXHXHXHXHXHXHXDXs.HXHXHXHXHXsX8XsXAXHXHXHXHXHXHXs.HXHXHXHXHXHXJX+XSXT oX XA UX",
"P.P.P.P.P.P.P.P.P.P.P.P.P.P.P.P.P.P.P.P.P.P.P.P.P.P.P.P.P.P.P.P.P.P.P.P.P.P.P.P.P.P.P.P.P.P.P.P.P.P.P.P.P.P.P.P.P.P.P.P.P.P.P.P.P.P.P.P.P.P.P.P.P.P.P.P.P.P.P.P.P.P.P.P.P.P.P.P.P.P.P.P.P.P.P.P.P.P.P.P.P.P.P.P.P.P.P.P.P.P.P.P.P.P.P.P.P.P.P.P.P.P.P.P.P.P.P.P.P.P.P.P.P.P.P.P.P.P.P.P.P.P.P.P.P.P.P.P.P.P.P.P.P.P.P.P.P.P.P.P.P.P.P.P.P.P.P.P.P.P.P.P.P.P.P.P.P.P.P.P.P.P.L.7XrXCXHXDXDXDXDXHXBXB.HXAXDXDXDXHXCXsXHXAXDXDXDXHXCXs.HXAXDXDXDXDXCXsXHXAXDXDXDXDXAXs.HXAXAXHXBX1XHXsXAXDXDXDXDXAXHXs.AXDXDXDXDXAXKX+XVXS oX}.S UX",
"L.L.L.L.L.L.L.L.L.L.L.L.L.L.L.L.L.L.L.L.L.L.L.L.L.L.L.L.L.L.L.L.L.L.L.L.L.L.L.L.L.L.L.L.L.L.L.L.L.L.L.L.L.L.L.L.L.L.L.L.L.L.L.L.L.L.L.L.L.L.L.L.L.L.L.L.L.L.L.L.L.L.L.L.L.L.L.L.L.L.L.L.L.L.L.L.L.L.L.L.L.L.L.L.L.L.L.L.L.L.L.L.L.L.L.L.L.L.L.L.L.L.L.L.L.L.L.L.L.L.L.L.L.L.L.L.L.L.L.L.L.L.L.L.L.L.L.L.L.L.L.L.L.L.L.L.L.L.L.L.L.L.L.L.L.L.L.L.L.L.L.L.L.L.L.L.L.L.L.L.L.L.J.2XrXCXHXDXDXDXDXHXBXB.HXAXDXDXDXHXCXsXHXDXDXDXDXHXCXs.HXAXDXDXDXHXAXsXHXDXDXDXDXDXAXs.HXAXHXCX1XCXHXsXAXDXDXDXDXDXHXs.AXDXDXDXDXAXKX+XbXS @X|.L IX",
"L.L.L.L.L.L.L.L.L.L.L.L.L.L.L.L.L.L.L.L.L.L.L.L.L.L.L.L.L.L.L.L.L.L.L.L.L.L.L.L.L.L.L.L.L.L.L.L.L.L.L.L.L.L.L.L.L.L.L.L.L.L.L.L.L.L.L.L.L.L.L.L.L.L.L.L.L.L.L.L.L.L.L.L.L.L.L.L.L.L.L.L.L.L.L.L.L.L.L.L.L.L.L.L.L.L.L.L.L.L.L.L.L.L.L.L.L.L.L.L.L.L.L.L.L.L.L.L.L.L.L.L.L.L.L.L.L.L.L.L.L.L.L.L.L.L.L.L.L.L.L.L.L.L.L.L.L.L.L.L.L.L.L.L.L.L.L.L.L.L.L.L.L.L.L.L.L.L.L.L.L.L.K.7XrXCXHXDXDXDXDXHXBXB.HXAXDXDXDXHXCXsXHXDXDXDXDXHXCXs.HXAXDXDXDXHXAXsXHXDXDXDXDXDXAXs.HXDXDX1XBXHXHXsXAXDXDXDXDXDXHXs.AXDXDXDXDXAXKX+XvXS @X{.K IX",
"L.L.L.L.L.L.L.L.L.L.L.L.L.L.L.L.L.L.L.L.L.L.L.L.L.L.L.L.L.L.L.L.L.L.L.L.L.L.L.L.L.L.L.L.L.L.L.L.L.L.L.L.L.L.L.L.L.L.L.L.L.L.L.L.L.L.L.L.L.L.L.L.L.L.L.L.L.L.L.L.L.L.L.L.L.L.L.L.L.L.L.L.L.L.L.L.L.L.L.L.L.L.L.L.L.L.L.L.L.L.L.L.L.L.L.L.L.L.L.L.L.L.L.L.L.L.L.L.L.L.L.L.L.L.L.L.L.L.L.L.L.L.L.L.L.L.L.L.L.L.L.L.L.L.L.L.L.L.L.L.L.L.L.L.L.L.L.L.L.L.L.L.L.L.L.L.L.L.L.L.L.L.K.2XrXCXHXDXDXDXDXHXBXB.HXAXDXDXDXHXCXsXHXDXDXDXDXHXCXs.HXAXDXDXDXHXAXsXHXDXDXDXDXDXAXs.HXHX2XsXHXAXHXsXAXDXDXDXDXDXHXs.AXDXDXDXDXAXHX5X5XS +X{.J IX",
"L.L.L.L.L.L.L.L.L.L.L.L.L.L.L.L.L.L.L.L.L.L.L.L.L.L.L.L.L.L.L.L.L.L.L.L.L.L.L.L.L.L.L.L.L.L.L.L.L.L.L.L.L.L.L.L.L.L.L.L.L.L.L.L.L.L.L.L.L.L.L.L.L.L.L.L.L.L.L.L.L.L.L.L.L.L.L.L.L.L.L.L.L.L.L.L.L.L.L.L.L.L.L.L.L.L.L.L.L.L.L.L.L.L.L.L.L.L.L.L.L.L.L.L.L.L.L.L.L.L.L.L.L.L.L.L.L.L.L.L.L.L.L.L.L.L.L.L.L.L.L.L.L.L.L.L.L.L.L.L.L.L.L.L.L.L.L.L.L.L.L.L.L.L.L.L.L.L.L.L.L.L.K.7XrXCXHXDXDXDXDXHXBXB.HXAXDXDXDXHXCXsXHXDXDXDXDXHXCXs.HXAXDXDXDXHXAXsXHXDXDXDXDXDXAXs.HX8X9XHXAXDXHXsXAXDXDXDXDXDXHXs.AXDXDXDXDXAXHX5X+XS +X/.E IX",
"2X2X2X2X2X2X2X2X2X2X2X2X2X2X2X2X2X2X2X2X2X2X2X2X2X2X2X2X2X2X2X2X2X2X2X2X2X2X2X2X2X2X2X2X2X2X2X2X2X2X2X2X2X2X2X2X2X2X2X2X2X2X2X2X2X2X2X2X2X2X2X2X2X2X2X2X2X2X2X2X2X2X2X2X2X2X2X2X2X2X2X2X2X2X2X2X2X2X2X2X2X2X2X2X2X2X2X2X2X2X2X2X2X2X2X2X2X2X2X2X2X2X2X2X2X2X2X2X2X2X2X2X2X2X2X2X8X7X8X1X2X2X8X2X2X2X2X2X2X2X2X2X2X2X2X2X2X2X2X2X2X2X2X2X2X2X2X2X2X2X2X2X2X2X2X2X2X2X2X2X2X2X1XrX9XCXHXHXHXHXHXHXCXB.PXDXHXHXHXHXAXdXHXHXHXHXHXHXCXs.HXDXHXHXHXHXAXsXHXHXHXHXHXHXAXB.sX8XHXDXHXHXHXsXAXHXHXHXHXHXHXs.DXHXHXHXHXAXKX5X+XS jXt.E IX",
"8X8X8X8X8X8X8X8X8X8X8X8X8X8X8X8X8X8X8X8X8X8X8X8X8X8X8X8X8X8X8X8X8X8X8X8X8X8X8X8X8X8X8X8X8X8X8X8X8X8X8X8X8X8X8X8X8X8X8X8X8X8X8X8X8X8X8X8X8X8X8X8X8X8X8X8X8X8X8X8X8X8X8X8X8X8X8X8X8X8X8X8X8X8X8X8X8X8X8X7X9X8X8X8X8X9X9X8X8X9X8X8X8X8X8X8X8X8X8X8X8X8X8X8X8X8X8X8X8X8X8X8X8X8X8X2X&X1X;XrX9X2X;X9X9X9X8X9XrX8X;X8X7X8X8X8X8X8X8X8X8X8X8X8X8X8X8X8X8X8X8X8X8X8X8X8X8X8X8X8X8X8X7XsX9XBXAXCXCXCXCXAXsXs.HXCXCXCXCXAXBXsXAXCXCXCXCXAXBXs.DXCXCXCXCXAXCXsXAXCXCXCXCXCXAXa.1XAXCXCXCXCXAXsXCXAXCXCXCXCXAXs.CXCXCXCXCXCXDX5XoXL 5X;.!.IX",
"7X7X7X7X7X7X7X7X8X7X7X7X7X8X7X7X8X7X7X7X7X7X7X7X7X7X7X7X7X8X7X7X7X7X8X7X7X7X7X7X7X7X7X7X7X7X7X7X7X7X7X7X7X7X7X7X7X7X7X7X7X8X7X7X7X7X7X7X7X7X2X7X8X7X7X8X7X7X7X7X7X7X7X7X7X7X7X7X7X7X7X7X7X7X7X7X7X7X7X9XL./ B.1X<XL.&X2X;X&X8X7X7X7X7X7X7X7X7X7X7X7X7X7X7X7X7X7X7X7X7X7X7X7X8X1X/ ..w B./ ..w o._ _ w._ _ ..8._ J.9X7X7X7X7X7X7X7X7X7X7X7X7X7X7X7X7X7X7X7X8X7X7X7X7X8X7X7X8X7XrXsX&Xs.s.s.s.s.B.a.( J.s.s.s.s.s.s.0.B.s.s.s.s.s.s.( J.s.s.s.s.s.s.0.B.s.s.s.s.s.s.B.s.s.s.s.s.s.s.0.s.s.s.s.s.s.s.( s.s.s.s.s.s.B.i.P S i.H :.L.",
"2X7X8X8X8X8X8X8X7X9X9X7X7X2X8X8X7X7X7X8X8X7X7X7X2X7X8X7X8X7X9X8X9X8X2X9X7X7X2X7X7X7X7X7X8X8X8X8X8X8X8X7X8X8X8X8X7X7X2X8X8X7X8X8X8X8X8X8X7X8XrX9X2X7X9X2X7X7X2X7X7X7X7X8X8X8X8X8X8X8X8X8X8X8X8X8X8X8X2XsX_ <XB.8._ / ..O.q 0 ;X8X7X8X8X8X8X8X8X8X8X8X8X8X8X8X8X8X8X8X8X8X8X7X8X1X/  ./ q 8.w  .q q / 0.: O./ / O.o.rX7X8X8X8X8X8X8X8X8X8X8X8X8X8X7X8X8X8X8X2X9X7X8X8X7X8X8X8X7XrX9XAXHXHXHXHXHXHXCXJ.PXHXHXHXHXHXAXBXHXHXHXHXHXHXAXC.PXHXHXHXHXHXDXBXHXHXHXHXHXHX1Xs.PXHXHXHXHXHXHXdXHXHXHXHXHXHXHXB.HXHXHXHXHXHXJX5X! ~ vXH @XIX",
"sX7X7X8X8X8X8X7X8XJ.B.9X9XsXK.<X9X9X9X7X<X7XrX9XrX8X7X8X7X8XL.2XP.1XsXB.8X9XrX9X8X9X9X8X7X8X8X8X8X8X7X8XP.1X7X2X8X9XsX;XK.rX2X8X8X8X8X7X8X7Xq.P.sX7XB.sX9X8XrX9X8XrX8X7X8X8X8X8X8X8X8X8X8X8X8X8X8X8X2XrX8...w./ w s.s.q O./ 1X8X7X8X8X8X8X8X8X8X8X8X8X8X8X8X8X8X8X8X8X8X8X7X8X1XK.1X8._ &Xo.0.q.0.J.1X8.J.o.q.0.q.9X7X8X8X8X8X8X8X8X8X8X8X8X8X7X8X<X1X<X7XsXB.7X&XL.9X7X8X8X7XrX9XCXDXAXAXAXAXHXBXs.HXAXAXAXAXDXCXsXHXAXAXAXAXDXCXs.HXAXAXAXAXDXCXsXHXAXAXAXHX2XsXB.DXAXAXAXAXAXHXsXAXDXAXAXAXAXDXs.AXDXAXAXAXAXHX5X! ! 5XH 4XIX",
"..P.8X7X8X8X8X7X8X/ w 8...q.0 o.P.q.o.q o.q...B./ J.9X7X2XsX0 0.0 0.8./ 0.w.O.B.J.o.O.1X8X7X8X8X8X7X7X8X0 8./ w B.o.q. ./ P.8X7X8X8X8X7X8X;X0 _ 8.O.O.o.0.0.o.o.q.O.2X8X7X8X8X8X8X7X7X7X7X8X7X8X8X8X8X7X8XJ.;XL.;X1X2X<X2XL.8X7X7X8X8X8X8X8X8X8X8X8X8X8X8X8X8X8X7X7X7X7X8X8X7X8X8X9XB.&X9XrX9X9X9X9X8X9X8XrX9X9X9X7X7X7X7X7X7X8X8X8X8X8X8X8X8X7XrXs.....o.8...w.q q.rX2X8X8X7XrX9XCXHXDXDXDXDXHXBXB.HXAXDXDXDXHXCXsXHXDXDXDXDXHXCXs.HXAXDXDXDXHXAXsXHXDXDXHX8XsXHXs.HXDXDXDXDXDXHXsXAXDXDXDXDXDXHXs.AXDXDXDXDXAXHX5XR ! +XJ 0XIX",
"/ 0.9X7X8X8X8X7X8Xw / q 0 w O.w ,.0 q...O.w o.q O...rX2X7X9X_ 0 q  .0 O / q 0 / O./ _ q.rX7X8X8X8X7XrXB.0 w ..O.8.O 0 K.+ K.9X7X8X8X8X7X8X<X0 / 0 q w 0 / q 0 _ : 0 ;X8X7X8X8X8X7X8X9X9X8X2X7X7X2X7X2X8X2X9X8X9X8X8X8X8X8X9X7X9X9X7X7X7X2X7X2X7X8X8X8X8X8X8X8X7X8X9X9X8X2X7X7X2X2X2XrX8X2X7X7X7X7X7X7X2X7X2X2X8X8X8X8X9X7X8X7X8X8X8X8X8X8X8X8X7XrXB.w w w ..w / _ q.rX2X8X8X7XrX9XCXHXDXDXDXDXHXBXB.HXAXDXDXDXHXCXsXHXDXDXDXDXHXCXs.HXAXDXDXDXHXAXsXHXAXHX9X8XHXAXs.HXDXDXDXDXDXHXsXAXDXDXDXDXDXHXs.AXDXDXDXDXAXHX5XT oX+XI tXUX",
"o.q.9X7X8X8X8X7X7Xs.B.o.8.0. .q._ w.o.8.o.q...q.J.B.8X7X7X8XB.o.0.O. .8.w.o.0.o.../ _ 1X8X7X8X8X8X7X9Xq.&X8.o.8. .O.8.o.8.s.8X7X8X8X8X7X8X<Xs.q.o.8.q.8.8._ 8.o.o.8.8X8X7X8X8X7X8X2XK.J.&XsX9X9X9XrX9XL.rX7X7X7X7X7X7X7X7X7X8XL.K.9X9X9XrX8XrX8X7X8X8X8X8X8X7X8X2XK.J.P.sX9X9X9XrXrXK.9X8X7X8X8X8X8X8X7X7X8Xw.w &X;X1XL.8X&X8X7X8X8X8X8X8X8X8X7X9XL.P.L.o.o.s.0._ P.9X7X8X8X7XrX9XCXHXDXDXDXDXHXBXB.HXAXDXDXDXHXCXsXHXDXDXDXDXHXCXs.HXAXDXDXDXHXAXsXHXHXsX2XHXDXAXs.HXDXDXDXDXDXHXsXAXDXDXDXDXDXHXs.AXDXDXDXDXAXHX5XS $X$XI FXUX",
"8X9X7X8X8X8X8X8X8X8X8X9X8X9X9X9X9X9X8X9X9X9X9X9X8X8X7X8X8X7X8XrX9XrX9X9X9X9X8X9XrXq.8X8X7X8X8X8X8X8X7X8X8X9X9X9X9X9X9X8X9X8X7X8X8X8X8X8X7X8X8X9X9X8X9X9X8XrX8X8XrX8X7X8X8X8X8X7X7X8X/ / q B.0.B.w.0.0.w o.7X8X7X8X8X8X8X7X7X8Xq.0 0.q.q.o.&Xo.1X8X7X8X8X8X8X7X7X8X_ / q s.0.B.w.0.0.w o.7X8X7X8X8X8X8X8X7X9XL.O...O./ / _ 0 K.9X7X8X8X8X8X8X8X8X7X8X8X8X9X9X9X9X9X8X7X8X8X8X7XrX9XCXHXDXDXDXDXHXBXB.HXAXDXDXDXHXCXsXHXDXDXDXDXHXCXs.HXAXDXDXDXHXAXsXHXBX1XDXHXDXAXs.HXDXDXDXDXDXHXsXAXDXDXDXDXDXHXs.AXDXDXDXDXAXHX5XS $XJ d cXUX",
"7X7X8X7X8X8X8X8X8X7X7X7X7X7X7X7X7X7X7X7X7X7X7X7X7X7X8X7X8X8X7X7X7X7X7X7X7X7X7X7X2X9X7X7X8X8X8X8X8X7X8X7X7X7X7X7X7X7X7X7X7X7X8X7X8X8X8X8X8X7X7X7X7X7X7X7X7X7X7X7X2X7X8X8X8X8X8X8X2XsX0.8. ./ / 8.: / / / / K.9X7X8X8X8X8X8X7XrXw.8.O._ / O.0 0 K.9X7X8X8X8X8X8X2XsXq.8.O._ / 8.: / / / / J.9X7X8X8X8X8X7X7X9Xw o. . . .0.q / &X8X7X8X8X8X8X8X8X8X8X7X7X7X7X7X7X7X7X7X8X8X8X8X7XrX9XCXHXAXDXDXDXHXBXB.HXAXDXDXDXHXCXsXHXAXDXDXDXHXCXs.HXAXDXDXDXDXCXdXAX1XCXHXAXDXAXs.HXAXDXDXDXAXHXsXAXDXDXDXDXAXHXs.AXDXDXDXDXAXKX+XS P s s i.IX",
"8X8X8X8X8X8X8X8X8X8X8X8X8X8X8X8X8X8X8X8X8X8X8X8X8X8X8X8X8X8X8X8X8X8X8X8X8X8X8X8X8X7X8X8X8X8X8X8X8X8X8X8X8X8X8X8X8X8X8X8X8X8X8X8X8X8X8X8X8X8X8X8X8X8X8X8X8X8X8X8X8X8X8X8X8X8X8X8X7X9Xs.0.s.8.8.;X_ s./ o.q.P.9X7X8X8X8X8X8X8X8Xw o...o.0.B...O.1X8X7X8X8X8X8X8X7X9XB.0.s.w.o.;X_ s._ o.q.L.9X7X8X8X8X8X8X8X8XJ.J.P.P.1X<X1XL.2X8X8X8X8X8X8X8X8X8X8X8X8X8X8X8X8X8X8X8X8X8X8X8X7XrX9XCXHXHXHXHXHXHXCXJ.PXHXHXHXHXHXAXdXHXHXHXHXHXHXAXB.HXHXHXHXHXHXAXsX2XCXHXHXHXHXHXs.HXHXHXHXHXHXHXsXDXHXHXHXHXHXHXs.HXHXHXHXHXDXJX@XS oXZ s OXIX",
"7X7X7X7X7X7X7X7X7X7X7X7X7X7X7X7X7X7X7X7X7X7X7X7X7X7X7X7X7X7X7X7X7X7X7X7X7X7X7X7X7X7X7X7X7X7X7X7X7X7X7X7X7X7X7X7X7X7X7X7X7X7X7X7X7X7X7X7X7X7X7X7X7X7X7X7X7X7X7X7X7X7X7X7X7X7X7X7X7X7X8X8X8X8X8X8X7X1X8X8X8X8X7X7X7X7X7X7X7X7X7X7X1X8X8X8X8X9X2X2X7X7X7X7X7X7X7X7X7X8X8X8X8X8X8X8X1X7X8X8X8X7X7X7X7X7X7X7X7X7X9X9X8X8X8X8X8X9X7X7X7X7X7X7X7X7X7X7X7X7X7X7X7X7X7X7X7X7X7X7X7X7X2XrX9XsXNXdXdXdXdXBXrXa.CXsXdXdXdXBXsX9XBXdXdXdXdXBXsX0.BXsXdXdXdXdXBX;X8XBXdXdXdXNXsX0.BXdXdXdXdXdXBX9XsXNXdXdXdXdXBX0.sXNXdXdXdXsXFXoXS +XS $.tXGX",
"9X9X9X9X9X9X9X9X9X9X9X9X9X9X9X9X9X9X9X9X9X9X9X9X9X9X9X9X9X9X9X9X9X9X9X9X9X9X9X9X9X9X9X9X9X9X9X9X9X9X9X9X9X9X9X9X9X9X9X9X9X9X9X9X9X9X9X9X9X9X9X9X9X9X9X9X9X9X9X9X9X9X9X9X9X9X9X9X9X9X9X9X9X9X9X8X9X9X9X8X9X9X9X9X9X9X9X9X9X9X9X9X9X9X9X8X9X8X9X9X9X9X9X9X9X9X9X9X9X9X9X9X9X8X8X9X9X9X8X9X9X9X9X9X9X9X9X9X9X9X8X8X8X8X9X9X9X8X9X9X9X9X9X9X9X9X9X9X9X9X9X9X9X9X9X9X9X9X9X9X9X9X8XsX9XBXCXCXCXCXCXCXsXs.AXBXCXCXCXCXBXsXCXCXCXCXCXCXNXs.AXCXCXCXCXAX1X7XAXCXCXCXCXCXBXs.CXCXCXCXCXCXCXrXBXCXCXCXCXCXCXs.BXCXCXCXCXBXJXoXD S ! wXeXGX",
"sXsXsXsXsXsXsXsXsXsXsXsXsXsXsXsXsXsXsXsXsXsXsXsXsXsXsXsXsXsXsXsXsXsXsXsXsXsXsXsXsXsXsXsXsXsXsXsXsXsXsXsXsXsXsXsXsXsXsXsXsXsXsXsXsXsXsXsXsXsXsXsXsXsXsXsXsXsXsXsXsXsXsXsXsXsXsXsXsXsXsXsXsXsXsXsXsXsXsXsXsXsXsXsXsXsXsXsXsXsXsXsXsXsXsXsXsXsXsXsXsXsXsXsXsXsXsXsXsXsXsXsXsXsXsXsXsXsXsXsXsXsXsXsXsXsXsXsXsXsXsXsXsXsXsXsXsXsXsXsXsXsXsXsXsXsXsXsXsXsXsXsXsXsXsXsXsXsXsXsXsXsXsXsX9XCXHXHXHXHXHXHXCXJ.PXDXHXHXHXHXAXdXHXHXHXHXHXHXAXB.HXHXHXHXHXsX2XBXHXHXHXHXHXHXDXs.HXHXHXHXHXHXHXsXAXHXHXHXHXHXHXs.DXHXHXHXHXAXJXoXC oX5X>XtXIX",
"8X8X8X8X8X8X8X8X8X8X8X8X8X7X2XuXuX8XuXuX7X7X8X8X8X8X8X8X8X8X8X8X8X2X8XuX9X9XVX9X2X8X8X8X8X8X8X8X8X8X8X8X7X7XiXiX8XiXiX7X7X8X8X8X8X8X8X8X8X8X8X8X7X8XtXeXeXtXeX2X8X8X8X8X8X8X8X8X8X8X8X7X7XiXiX8XiXiX7X7X8X8X8X8X8X8X8X8X8X8X8X7X8XuX9X8XuX9X2X8X8X8X8X8X8X8X8X8X8X8X7X7XiXiX8XiXiX7X7X8X8X8X8X8X8X8X8X8X8X8X7X8XuX9X8XuX9X2X8X8X8X8X8X8X8X8X8X8X8X8X2XuXsX9XuXsX8X7X8X8X8X8X7XrX9XCXHXDXDXDXDXHXBXB.HXAXDXDXDXHXCXsXHXAXDXDXDXHXCXs.HXAXAXHXsX2XAXsXHXAXDXDXDXDXAXs.HXDXDXDXDXDXHXsXAXDXDXDXDXDXHXs.AXDXDXDXAXAXJXL R JX+XwXtXUX",
"7X2X2X2X7X7X8X7X7X7X7X7X7X8XuXj.- @ = { uX8X7X7X7X7X7X7X7X7X7X8X2X9X>X4 5 = 1 Y.uX2X8X7X7X7X7X7X7X7X7X7X7XiXD.N B N x.sX8X7X8X7X7X7X7X7X7X7X8X7XeX,XI 9 9 I G.tX2X8X7X7X7X7X7X7X7X7X7X7XiXD.N B N x.8X8X7X7X7X7X7X7X7X7X7X8X2X9X1Xk.5 5 5 S.uX2X8X7X7X7X7X7X7X7X7X7X7XiXV.N B N x.8X8X7X8X7X7X7X7X7X7X7X8X7X9X1Xk.5 5 5 S.uX2X8X7X7X7X7X7X7X7X7X7X7XuXv.- @ = , 8X8X7X8X7X8X7XrX9XCXHXDXDXDXDXHXBXB.HXAXDXDXDXHXCXsXHXDXDXDXDXHXCXs.HXAXHXCX1XAXAXsXHXDXDXDXDXDXAXs.HXDXDXDXDXDXHXsXAXDXDXDXDXDXHXs.AXDXDXDXAXJX! S DXDX+XwXtXIX",
"&X;X<X<X&X&X7X8X8X8X8X7X7XuX> @ l.S.l.@ ; 9X7X7X8X8X8X8X8X8X8X7X9XS.2 N F.D.< # c.uX2X8X8X8X8X8X8X8X7X7X9Xx.B D.>X XN n 8X8X7X8X8X8X8X8X8X8X7XeXOX9 I G.G.I 9 G.eX7X8X8X8X8X8X8X8X8X7XiXx.B D.>XS.B N 8X8X7X8X8X8X8X8X8X8X7X8X>X2 4 F.F.k.2 D.iX2X8X8X8X8X8X8X8X8X7XiXx.B D.>XS.N N 8X8X7X8X8X8X8X8X8X8X7X8X>X2 4 F.S.k.2 D.iX2X8X8X8X8X8X8X8X8X2XuXt # j.S.v.- = 7X8X7X8X8X7XrX9XCXHXDXDXDXDXHXBXB.HXAXDXDXDXHXCXsXHXDXDXDXDXHXCXs.HXDXAX1XCXHXCXsXHXDXDXDXDXDXAXs.HXDXDXDXDXDXHXsXAXDXDXDXDXDXHXs.AXDXDXAXJXoXS @XSXDX+XwXtXIX",
"<X1X&X&X7X&X7X8X7X8X8X2XuX{ @ sXGXVXGXVX@ { uX2X8X8X8X8X8X8X7X8X8X2 z.IX.. .IXl.@ 2X8X7X8X8X8X8X8X8X7XiXD.B sXVXAXP.P.1 { sX2X8X8X8X8X8X8X7X7XeX9 :.JXCXCXJXG.9 1X8X7X8X8X8X8X8X8X7XiXD.B rXGXVXVXVXN x.iX7X8X8X8X8X8X8X7X7X9X5 k.UXVXVXGXF.2 1X8X7X8X8X8X8X8X8X7XiXS.B eXGXVXVXGXN x.iX7X8X8X8X8X8X8X7X7XiX5 k.UXVXVXGXF.2 >X8X7X8X8X8X8X8X8X2XuXv.# 2XUXVXGXUX- < sX2X8X8X7XrX9XCXHXDXDXDXDXHXBXB.HXAXDXDXDXHXCXsXHXDXDXDXDXHXCXs.HXDX1XdXHXDXAXsXHXDXDXDXDXDXAXs.HXDXDXDXDXDXHXsXAXDXDXDXDXDXHXs.AXDXAXJX+XD bX5XnXHX+XwXtXIX",
"<X&X ...8X&X7X8X7X8X7X7XuX= v.IXCXsXrXGXv.= uX7X7X8X8X8X8X8X2XuXD.5 VXAX .w CXGX- j.uX2X8X8X8X8X8X7X7XiXN D.VXsX<X  J. X* 9X7X7X8X8X8X8X8X7XtXG.9 BXsXsX9XP.tXI :.tX2X8X8X8X8X8X7X7XiXN D.GXrXsXsXVX>XB 8X8X7X8X8X8X8X8X7XiXS.5 sXsXsXBXBXGX5 k.uX2X8X8X8X8X8X8X7XiXN D.GXrXsXsXVX>XB 7X8X7X8X8X8X8X8X7X9XS.2 sXsXsXBXBXGX4 k.uX2X8X8X8X8X8X8X2XsX1 { UXeXsXrXVX>X@ 1X8X7X8X7XrX9XCXHXDXDXDXDXHXBXB.HXAXDXDXDXHXCXsXHXAXDXDXDXHXCXs.PX2XsXHXAXHXCXsXHXAXDXDXDXDXAXs.HXAXDXDXDXDXHXsXAXDXDXDXDXDXHXs.AXAXJXvXD +XJX+XVXHX+XwXtXUX",
"<X1X..8.8X&X7X8X7X8X7X8X2X@ Y.q.w rXsXNX>X@ 1X8X7X8X8X8X8X8X2XuXk.5 GXsXsXsXsXGX< , VX2X8X8X8X8X8X7X8X8XB >XNXdX7XI.AX2X* :X8X7X8X8X8X8X8X2XtX:.9 FXuXCXJ.  @.F 8 dX2X8X8X8X8X8X7X7X8XB >XVXsXrXsXBXeXB >X8X7X8X8X8X8X8X2XuXz.5 VXsXBXP.B.GXk.4 uX2X8X8X8X8X8X7X7X9XB  XVXsX9X1XCXrXB >X8X7X8X8X8X8X8X2XuXD.5 VXsXBX&XB.GXk.4 uX2X8X8X8X8X8X7X2XuX= v.AXsXsXsXsXsX@ A.9X7X8X7XrX9XCXHXHXHXHXHXHXCXJ.PXHXHXHXHXHXAXBXHXHXHXHXHXHXAXJ.sX9XPXHXHXHXDXNXHXHXHXHXHXHXHXB.HXHXHXHXHXHXHXdXDXHXHXHXHXHXHXB.DXHXSXS oXJXHX+XSXJX+XwXtXIX",
";X8X8X8X8X;X7X8X7X8X7X7X9X- D.w  .sXsXSXS.@ 8X8X7X8X8X8X8X8X2XuXz.5 GXsXsXsXrXUX- { sX2X8X8X8X8X8X7X7X9XN  XVXsXNXBXCX-X* 7X8X7X8X8X8X8X8X7XtXH.9 CXsXsXsX8XJX8 G dX2X8X8X8X8X8X7X7XiXN S.VXCXJ.O sXwXB 2X8X7X8X8X8X8X8X7XiXD.5 VXsXCXJ.+ G.k.k.uX2X8X8X8X8X8X7X7XiXN D.GXsX2X+ G.tXB 1X8X7X8X8X8X8X8X7XiXS.5 NXsXBXI.+ G.k.4 uX2X8X8X8X8X8X8X2XsX- { IX` w CXNX2X@ >X8X7X8X7XrX9XsXBXNXNXNXNXBXrXa.CXsXNXNXNXBXsX8XBXNXNXNXNXNXNX0.<XBXNXNXNXBXsX8XBXNXNXNXNXNXsX0.BXNXNXNXNXNXBX8XsXNXNXNXNXNXBX0.sXFXS R FXsXCX@XuXBX@X XeXGX",
"P.;X;X;X;XP.7X8X7X8X8X2XuXk.5 GXAXsXsXGX- , sX2X8X8X8X8X8X8X7X8X2X2 F.SXsXsXSXS.# ;X8X7X8X8X8X8X8X8X7XiXx.B NXsXsXsXGX1 n sX2X8X8X8X8X8X8X7X8X7X9 H.FXsXsXAXOXo &X9X7X8X8X8X8X8X8X7XiXx.B sXsXNXq &Xx.j.iX7X8X8X8X8X8X8X7X8X8X2 z.GXsXCXsXA.& U.8X7X8X8X8X8X8X8X7XiXD.B sXsXCXq.G.x.N iX7X8X8X8X8X8X8X7X7X8X2 z.GXsXCXsXI.& S.9X7X8X8X8X8X8X8X2XuXl.@ sXe J.BXGX< - uX2X7X8X7XrXsX&Xs.J.J.J.J.J.s.( K.B.J.J.J.J.s.a.J.J.J.J.B.K.s.s.K.J.J.J.J.J.s.a.J.J.J.J.J.J.B.( J.J.J.J.J.J.J.q.B.J.J.J.J.J.J.( Y.L L P.B.s.K.:.f.J.:.v.M.G.",
"0X0X0X0X0X0X8X8X8X8X8X7X8X8X5 N VXrXSX, = 8X8X7X8X8X8X8X8X8X8X2XuXD.2 wXsXsX2X@ j.uX2X8X8X8X8X8X8X8X7X7X8XN x.VXrXCX{ * 7X8X7X8X8X8X8X8X8X8X7XtXG.9 ,XdXsX8Xo | sX2X8X8X8X8X8X8X8X7X7X9XN N VXsXGXx.B 7X8X7X8X8X8X8X8X8X8X2XiXD.% U.VXsXrX@ { uX2X8X8X8X8X8X8X8X7X7XiXN N sXrXHX3.1 7X8X7X8X8X8X8X8X8X8X7X9XS.% S.VXsXsX= , uX2X8X8X8X8X8X8X8X7X7XuX; 3 CXsXSXl.@ ;X8X7X8X8X7XrX9XAXPXPXPXPXPXPXAXK.IXHXPXPXPXPXHXCXPXHXPXHXPXHX1XB.IXHXPXPXPXPXHXCXPXHXPXPXPXPXHXJ.PXPXPXPXPXPXPXBXHXPXPXPXPXPXPXY.oXS HXPXHXHXIX+XSXJX+XwXBXIX",
"i k.k.k.i k.8X8X7X8X8X8X7X8X1XS.8X7X9XN.;X9X2X8X7X8X8X8X8X8X8X8X7XiXS.>X8X8X;Xn.uX2X8X8X8X8X8X8X8X8X8X7X8X2X X8X7X8XA.:X9X7X8X8X8X8X8X8X8X8X8X7XeXG.,X8X8X<Xp.rX7X8X8X8X8X8X8X8X8X8X7X8X2X X8X7X8XZ.;X8X7X7X8X8X8X8X8X8X8X8X2XiXS.>X8X8X1Xn.uX7X7X7X8X8X8X8X8X8X8X7X8X7X X8X8X8XA.&X9X7X7X8X8X8X8X8X8X8X8X2XiXU.>X8X8X1Xn.9X7X7X7X8X8X8X8X8X8X8X7X8X8XS.7X7X9XA.-XuX2X8X8X8X7XrX9XCXDXAXAXAXAXDXBXs.HXAXAXAXAXDXCXsXDXAXAXAXAX1XsXB.HXAXAXAXAXAXCXsXDXAXAXAXAXAXAXs.DXAXAXAXAXAXDXsXCXAXAXAXAXCXJXP D nXKXAXAXAXHX+XVXDX+XwXtXUX",
"$ # # # # 5 8X7X7X8X7X7X8X7X8X9X8X8X7X9X8X2X8X8X8X7X8X8X8X8X7X7X8X2X9X8X7X7X8X9X7X8X8X7X8X8X8X8X8X8X7X7X7X8X9X7X7X7X9X8X2X7X7X8X8X8X8X8X8X8X7X7X7XeX8X7X7X8XeX2X7X7X8X8X8X8X8X8X8X8X7X7X8X9X8X7X2X9X8X8X8X8X7X8X8X8X8X8X8X7X8X7X8X8X2X8X8XuX7X8X8X7X7X8X8X8X8X8X8X7X7X8X9X8X8X7X9X8X8X8X8X7X8X8X8X8X8X8X7X8X7X8X8X2X8X8XuX7X8X8X7X7X8X8X8X8X8X8X7X7X7X9X7X7X2X9X8X2X7X7X8X8X7XrX9XCXHXDXDXDXDXHXBXB.HXAXDXDXDXHXCXsXHXDXDXHX2XsXAXs.HXAXDXDXDXHXAXsXHXDXDXDXDXDXAXs.HXDXDXDXDXDXHXsXAXDXDXDXAXJXjXD jXJXAXDXDXAXKX+XVXHX+XwXtXIX",
"$ # @ @ # 5 eX7X7X7X7X8X1X8X8X7X<X7X8X8X7X9X1X2X7X8X7X8X8X7X8X8X7X8X2X8X8X8X8X8X1X2X7X8X7X8X8X8X8X7X8X9X8X8X2X8X8X7X9X9X9X8X9X7X8X8X8X8X8X7X8X8X8X8X8X8X8X9X9X8X8X9X7X8X8X8X8X8X8X2X8X8X7X8X1X8X8X2X9X1X2X2X8X7X8X8X8X8X7X8X8X1X8X2X9X7X8X8X8X1X1X8X8X8X8X8X8X8X7X8X9X8X1X7X1X2X7X9X1X2X2X8X7X8X8X8X8X7X8X8X1X8X2X9X7X8X8X8X1X1X8X8X7X8X8X8X8X7X8X7X8X8X7X8X9X9X9X8X9X8X7X8X7XrX9XCXHXDXDXDXDXHXBXB.HXAXDXDXDXHXCXsXHXAXHX8X9XHXCXs.HXAXDXDXDXHXAXsXHXDXDXDXDXDXAXs.HXDXDXDXDXDXHXsXAXDXDXAXKXnXD P JXAXDXDXDXAXKX+XVXHX+XwXtXIX",
"$ @ @ @ # 5 8X7X7X2XNXO.o.0.o.rXo./ / 8.rXq./ _ _ 1X8X7X7X7X9X.. .8X_ ../ 8.sX0./ _  .2X8X7X8X8X7X8X8X/ 1Xo.o.L._ rXJ.B.P.&XK.8X7X7X8X8X7XrX8.o.o.O._ o.8XB.B.&X&XL.8X7X8X8X8X7X7XsXB._ sX/ w.&X_ sXJ./  ./ ;X8X7X8X8X7X8X9X_ L.;X/ o./ L.9X.._ / 8.9X7X8X8X7X7X9X9X/ 1Xq._ 8.w 7XL./  ./ &X8X7X8X8X7X8XrX_ J.<X/ o./ K.9Xo._ / 8.9X7X8X8X8X7X9Xq./ 1X8./ 7XL.B.K.<XJ.7X8X8X7XrX9XCXHXDXDXDXDXHXBXB.HXAXDXDXDXHXCXsXHXHXrX8XHXDXCXs.HXAXDXDXDXHXAXsXHXDXDXDXDXDXAXs.HXDXDXDXDXDXHXsXAXHXAXHXHXS ! Y.CXDXDXDXDXAXKX+XVXHX+XwXtXIX",
"@ # # # # 5 eX7X8X2XJ.q.O.0.o.BX&Xw 8.o.B./ / / w ;X8X7X7X8X<Xo.o.q.w.q O.8.B./ / / / 1X8X7X8X8X7X9X8.0 <Xo.q 0 / <Xq w _ _ ..9X7X7X8X8X7X9XJ./ 0./ _ o.J.q w O./ o.9X7X8X8X7X8X2XJ.P._ sXw. ./ / ;X/ / / q L.9X7X8X7X8X;X8.0 q.q.8.0 8.8.w./ / w O.9X7X8X7X8X2XK.8.0 1X<X/ P.o.<X/ / / q K.9X7X8X7X8X;X8.0 0.q.8.0 8.8.w./ / w  .9X7X7X8X8X7X9Xo.o.0.8.o.J./ q / O._ 8X8X8X7XrX9XCXHXDXDXDXDXHXBXB.HXAXDXDXDXHXCXsXHXsX2XHXDXHXCXs.HXAXDXDXDXHXAXsXHXDXDXDXDXDXAXs.HXDXDXDXDXDXHXsXAXDXAXJXT R JXs.AXDXDXDXDXAXKX+XVXHX+XwXtXIX",
"$ $ $ $ $ 5 8X7X8X2XL.L._ s.o.P.o.B._ o.P./ _ / / ;X8X7X7X7X8XO./ w._ / / 8.L./ _ / / <X8X7X8X8X7X8Xw.0 8.q.w O.q &Xo.8.o.8./ 7X8X7X8X8X7X9X&Xo.../ / o.P.o.8.8.8./ 8X7X7X8X7X8X7XL.;Xo.J.B./ / w &X/ _ / w L.9X7X8X7X8X<XB._ _ 8./ _ / J.0./ _ / O.8X7X8X7X8X7XP.8.0 o.q._ ..J.1X/ _ / w K.9X7X8X7X8X<XJ._ _ 8./ _ / B.q./ _ / O.8X7X7X8X8X7X9Xw./ 8.../ &Xo.8.o.w./ ;X8X7X7XrX9XCXHXDXDXDXDXHXBXB.HXAXDXDXDXHXCXBXCX1XAXHXAXHXCXs.HXAXDXDXDXDXCXsXHXAXDXDXDXDXAXs.HXAXDXDXDXAXHXsXAXAXJX! S JXHXs.AXDXDXDXDXAXKX+XVXHX+XwXtXUX",
"F.F.F.F.z.F.8X8X8X8XrX&X&X8X1X<X1X8X&X1X9XP.<X&X&X8X7X8X8X7X8X<X&X1X&X1X;X1X9XP.1X&X&X8X7X8X8X8X8X7XrX8X<X&X1XsX7X7X1X1X2X&X;X8X7X8X8X8X8X8X2X7X<X1X<X1X8X1X1X2X&X<X8X7X8X8X8X8X8X9X7X1X<XL.<XsX2X9X&X;X;X&X8X7X8X8X8X7X8XrX&X;X1X&X7X&X8X7XP.1XL.1X8X7X8X8X8X8X9XrX8X<XP.;X2X7X8X&X;X;XP.8X7X8X8X8X7X8XrX&X;X1X&X7X&X8X7XP.1XL.1X8X7X8X8X8X8X8X2X&X1X<X&X8X1X1X1X;X&X8X8X8X7XrX9XCXHXHXHXHXHXHXCXJ.PXDXHXHXHXHXAXsX2XCXHXHXHXHXAXB.HXHXHXHXHXHXAXsXHXHXHXHXHXHXDXs.HXHXHXHXHXHXHXsXAXJXoXS AXHXHXs.DXHXHXHXHXHXJX+XVXHX+XwXtXIX",
"0X0X0X0XiX0X7X7X7X7X2X8X8X7X8X8X8X2X8X8X2X8X8X8X8X2X7X7X7X7X2X8X8X8X8X8X8X8X2X8X8X8X8X2X7X7X7X7X7X7X2X7X8X8X8X2X7X7X8X8X7X8X8X7X7X7X7X7X7X7X7X7X8X8X8X8X7X8X8X7X8X8X7X7X7X7X7X7X7X2X7X8X8X8X8X2X7X2X8X8X8X8X2X7X7X7X7X7X7X2X8X8X8X8X7X8X7X7X8X8X9X8X7X7X7X7X7X7X2X2X7X8X8X8X8X7X2X8X8X8X8X7X7X7X7X7X7X7X2X8X8X8X8X7X8X7X7X8X8X9X8X7X7X7X7X7X7X7X7X8X8X8X8X2X8X8X7X8X8X7X7X7X2XrX9XBXCXBXCXCXBXCXsXs.AXBXCXCXBXCXCX&XsXCXBXCXCXCXdXs.CXBXCXCXCXCXBXrXCXBXCXCXCXCXBXa.CXBXCXCXCXBXCX9XFX+XD 5XFXNXCXa.BXCXCXCXCXBXFX@XuXCX+X XtXGX",
"9X9X9X9X9X9X9X9X9X9X9X9X9X9X9X9X9X9X9X9X9X9X9X9X9X9X9X9X9X9X9X9X9X9X9X9X9X9X9X9X9X9X9X9X9X9X9X9X9X9X9X9X9X9X9X9X9X9X9X9X9X9X9X9X9X9X9X9X9X9X9X9X9X9X9X9X9X9X9X9X9X9X9X9X9X9X9X9X9X9X9X9X9X9X9X9X9X9X9X9X9X9X9X9X9X9X9X9X9X9X9X9X9X9X9X9X9X9X9X9X9X9X9X9X9X9X9X9X9X9X9X9X9X9X9X9X9X9X9X9X9X9X9X9X9X9X9X9X9X9X9X9X9X9X9X9X9X9X9X9X9X9X9X9X9X9X9X9X9X9X9X9X9X9X9X9X9X9X9X9X9X9X9XsX9XsXBXBXBXBXBXBXrXa.CXdXBXBXBXBX<X8XCXdXBXBXBXBXsXa.CXdXBXBXBXBXsX9XBXNXBXBXBXBXdX0.BXNXBXBXBXBXNXdX5XD +XFXsXBXBX0.dXBXBXBXBXNXCX@XuXBX@X XeXGX",
"sXsXsXsXsXsXsXsXsXsXsXsXsXsXsXsXsXsXsXsXsXsXsXsXsXsXsXsXsXsXsXsXsXsXsXsXsXsXsXsXsXsXsXsXsXsXsXsXsXsXsXsXsXsXsXsXsXsXsXsXsXsXsXsXsXsXsXsXsXsXsXsXsXsXsXsXsXsXsXsXsXsXsXsXsXsXsXsXsXsXsXsXsXsXsXsXsXsXsXsXsXsXsXsXsXsXsXsXsXsXsXsXsXsXsXsXsXsXsXsXsXsXsXsXsXsXsXsXsXsXsXsXsXsXsXsXsXsXsXsXsXsXsXsXsXsXsXsXsXsXsXsXsXsXsXsXsXsXsXsXsXsXsXsXsXsXsXsXsXsXsXsXsXsXsXsXsXsXsXsXsXsXsXsX9XCXHXHXHXHXHXHXCXJ.PXHXHXHXHXrX8XBXHXHXHXHXHXHXAXB.HXHXHXHXHXHXAXdXHXHXHXHXHXHXDXs.HXHXHXHXHXDXJXuXS oXJXAXHXHXHXs.HXHXHXHXHXHXJX+XVXHX+XwXtXIX",
"7X7X7X7X7X7X7X7X7X7X7X7X7X7X7X7X7X7X7X7X7X7X7X7X7X7X7X7X7X7X7X7X7X7X7X7X7X7X7X7X7X7X7X7X7X7X7X7X7X7X7X7X7X7X7X7X7X7X7X7X7X7X7X7X7X7X7X7X7X7X7X7X7X7X7X7X7X7X7X7X7X7X7X7X7X7X7X7X7X7X7X7X7X7X7X7X7X7X7X7X7X7X7X7X7X7X7X7X7X7X7X7X7X7X7X7X7X7X7X7X7X7X7X7X7X7X7X7X7X7X7X7X7X7X7X7X7X7X7X7X7X7X7X7X7X7X7X7X7X7X7X7X7X7X7X7X7X7X7X7X7X7X7X7X7X7X7X7X7X7X7X7X7X7X7X7X7X7X7X7X7X7X2XrX9XCXHXAXDXDXDXHXBXB.HXAXAXHXsX7XAXsXHXAXDXDXDXHXCXs.HXAXDXDXDXDXCXsXHXAXDXDXDXDXAXs.HXAXDXDXAXDXKXS ! JXAXDXDXAXHXs.AXDXDXDXDXAXKX+XVXHX+XwXtXUX",
"8X8X8X8X8X8X8X8X8X8X8X8X8X8X8X8X8X8X8X8X8X8X8X8X8X8X8X8X8X8X8X8X8X8X8X8X8X8X8X8X8X8X8X8X8X8X8X8X8X8X8X8X8X8X8X8X8X8X8X8X8X8X8X8X8X8X8X8X8X8X8X8X8X8X8X8X8X8X8X8X8X8X8X8X8X8X8X8X8X8X8X8X8X8X8X8X8X8X8X8X8X8X8X8X8X8X8X8X8X8X8X8X8X8X8X8X8X8X8X8X8X8X8X8X8X8X8X8X8X8X8X8X8X8X8X8X8X8X8X8X8X8X8X8X8X8X8X8X8X8X8X8X8X8X8X8X8X8X8X8X8X8X8X8X8X8X8X8X8X8X8X8X8X8X8X8X8X8X8X8X8X8X7XrX9XCXHXDXDXDXDXHXBXB.HXAXHXBX1XHXCXsXHXDXDXDXDXHXCXs.HXAXDXDXDXHXAXsXHXDXDXDXDXDXAXs.HXDXDXDXAXJXR L JXAXAXDXDXDXHXs.AXDXDXDXDXAXKX+XVXHX+XwXtXIX",
"8X8X8X8X8X8X8X8X8X8X8X8X8X8X8X8X8X8X8X8X8X8X8X8X8X8X8X8X8X8X8X8X8X8X8X8X8X8X8X8X8X8X8X8X8X8X8X8X8X8X8X8X8X8X8X8X8X8X8X8X8X8X8X8X8X8X8X8X8X8X8X8X8X8X8X8X8X8X8X8X8X8X8X8X8X8X8X8X8X8X8X8X8X8X8X8X8X8X8X8X8X8X8X8X8X8X8X8X8X8X8X8X8X8X8X8X8X8X8X8X8X8X8X8X8X8X8X8X8X8X8X8X8X8X8X8X8X8X8X8X8X8X8X8X8X8X8X8X8X8X8X8X8X8X8X8X8X8X8X8X8X8X8X8X8X8X8X8X8X8X8X8X8X8X8X8X8X8X8X8X8X8X7XrX9XCXHXDXDXDXDXHXBXB.HXHXCX1XAXHXCXsXHXDXDXDXDXHXCXs.HXAXDXDXDXHXAXsXHXDXDXDXDXDXAXs.HXDXDXAXJX! S dXDXAXDXDXDXDXHXs.AXDXDXDXDXAXKX+XVXHX+XwXtXIX",
"8X8X8X8X8X8X8X8X8X8X8X8X8X8X8X8X8X8X8X8X8X8X8X8X8X8X8X8X8X8X8X8X8X8X8X8X8X8X8X8X8X8X8X8X8X8X8X8X8X8X8X8X8X8X8X8X8X8X8X8X8X8X8X8X8X8X8X8X8X8X8X8X8X8X8X8X8X8X8X8X8X8X8X8X8X8X8X8X8X8X8X8X8X8X8X8X8X8X8X8X8X8X8X8X8X8X8X8X8X8X8X8X8X8X8X8X8X8X8X8X8X8X8X8X8X8X8X8X8X8X8X8X8X8X8X8X8X8X8X8X8X8X8X8X8X8X8X8X8X8X8X8X8X8X8X8X8X8X8X8X8X8X8X8X8X8X8X8X8X8X8X8X8X8X8X8X8X8X8X8X8X8X7XrX9XCXHXDXDXDXDXHXBXB.PXAX1XBXHXDXCXsXHXDXDXDXDXHXCXs.HXAXDXDXDXHXAXsXHXDXDXDXDXDXAXs.HXDXAXJXoXD SXdXCXHXDXDXDXDXHXs.AXDXDXDXDXAXKX+XVXHX+XwXtXIX",
"8X8X8X8X8X8X8X8X8X8X8X8X8X8X8X8X8X8X8X8X8X8X8X8X8X8X8X8X8X8X8X8X8X8X8X8X8X8X8X8X8X8X8X8X8X8X8X8X8X8X8X8X8X8X8X8X8X8X8X8X8X8X8X8X8X8X8X8X8X8X8X8X8X8X8X8X8X8X8X8X8X8X8X8X8X8X8X8X8X8X8X8X8X8X8X8X8X8X8X8X8X8X8X8X8X8X8X8X8X8X8X8X8X8X8X8X8X8X8X8X8X8X8X8X8X8X8X8X8X8X8X8X8X8X8X8X8X8X8X8X8X8X8X8X8X8X8X8X8X8X8X8X8X8X8X8X8X8X8X8X8X8X8X8X8X8X8X8X8X8X8X8X8X8X8X8X8X8X8X8X8X8X7XrX9XCXHXDXDXDXDXHXBXB.PX1XsXHXAXHXCXsXHXDXDXDXDXHXCXs.HXAXDXDXDXHXAXsXHXDXDXDXDXDXAXs.HXAXJXjXD jXJXsXAXDXDXDXDXDXHXs.AXDXDXDXDXAXKX+XVXHX+XwXtXIX",
"8X8X8X8X8X8X8X8X8X8X8X8X8X8X8X8X8X8X8X8X8X8X8X8X8X8X8X8X8X8X8X8X8X8X8X8X8X8X8X8X8X8X8X8X8X8X8X8X8X8X8X8X8X8X8X8X8X8X8X8X8X8X8X8X8X8X8X8X8X8X8X8X8X8X8X8X8X8X8X8X8X8X8X8X8X8X8X8X8X8X8X8X8X8X8X8X8X8X8X8X8X8X8X8X8X8X8X8X8X8X8X8X8X8X8X8X8X8X8X8X8X8X8X8X8X8X8X8X8X8X8X8X8X8X8X8X8X8X8X8X8X8X8X8X8X8X8X8X8X8X8X8X8X8X8X8X8X8X8X8X8X8X8X8X8X8X8X8X8X8X8X8X8X8X8X8X8X8X8X8X8X8X7XrX9XCXHXDXDXDXDXHXBXJ.rX9XHXAXDXHXCXsXHXAXDXDXDXHXCXs.HXAXDXDXDXDXCXsXHXAXDXDXDXDXAXs.AXJXnXD $XJXAXsXAXDXDXDXDXDXHXs.AXDXDXDXDXAXKX+XVXHX+XwXtXUX",
"8X8X8X8X8X8X8X8X8X8X8X8X8X8X8X8X8X8X8X8X8X8X8X8X8X8X8X8X8X8X8X8X8X8X8X8X8X8X8X8X8X8X8X8X8X8X8X8X8X8X8X8X8X8X8X8X8X8X8X8X8X8X8X8X8X8X8X8X8X8X8X8X8X8X8X8X8X8X8X8X8X8X8X8X8X8X8X8X8X8X8X8X8X8X8X8X8X8X8X8X8X8X8X8X8X8X8X8X8X8X8X8X8X8X8X8X8X8X8X8X8X8X8X8X8X8X8X8X8X8X8X8X8X8X8X8X8X8X8X8X8X8X8X8X8X8X8X8X8X8X8X8X8X8X8X8X8X8X8X8X8X8X8X8X8X8X8X8X8X8X8X8X8X8X8X8X8X8X8X8X8X8X7XrX9XCXHXHXHXHXHXHXAXa.rXHXDXHXHXHXAXdXHXHXHXHXHXHXCXs.HXDXHXHXHXHXAXsXHXHXHXHXHXHXDXs.HXDXS ! JXAXHXsXAXHXHXHXHXHXHXs.DXHXHXHXHXAXJX+XVXHX+XwXtXIX",
"8X8X8X8X8X8X8X8X8X8X8X8X8X8X8X8X8X8X8X8X8X8X8X8X8X8X8X8X8X8X8X8X8X8X8X8X8X8X8X8X8X8X8X8X8X8X8X8X8X8X8X8X8X8X8X8X8X8X8X8X8X8X8X8X8X8X8X8X8X8X8X8X8X8X8X8X8X8X8X8X8X8X8X8X8X8X8X8X8X8X8X8X8X8X8X8X8X8X8X8X8X8X8X8X8X8X8X8X8X8X8X8X8X8X8X8X8X8X8X8X8X8X8X8X8X8X8X8X8X8X8X8X8X8X8X8X8X8X8X8X8X8X8X8X8X8X8X8X8X8X8X8X8X8X8X8X8X8X8X8X8X8X8X8X8X8X8X8X8X8X8X8X8X8X8X8X8X8X8X8X8X8X7XrXsX&Xs.s.s.s.s.s.B.s.s.s.s.s.s.s.s.0.s.s.s.s.s.s.s.( B.s.s.s.s.s.s.0.s.s.s.s.s.s.s.( I.S L Z.s.s.s.0.s.s.s.s.s.s.s.( s.s.s.s.s.s.B.:.p.B.:.3.6.G.",
"8X8X8X8X8X8X8X8X8X8X8X8X8X8X8X8X8X8X8X8X8X8X8X8X8X8X8X8X8X8X8X8X8X8X8X8X8X8X8X8X8X8X8X8X8X8X8X8X8X8X8X8X8X8X8X8X8X8X8X8X8X8X8X8X8X8X8X8X8X8X8X8X8X8X8X8X8X8X8X8X8X8X8X8X8X8X8X8X8X8X8X8X8X8X8X8X8X8X8X8X8X8X8X8X8X8X8X8X8X8X8X8X8X8X8X8X8X8X8X8X8X8X8X8X8X8X8X8X8X8X8X8X8X8X8X8X8X8X8X8X8X8X8X8X8X8X8X8X8X8X8X8X8X8X8X8X8X8X8X8X8X8X8X8X8X8X8X8X8X8X8X8X8X8X8X8X8X8X8X8X8X8X7XrX9XCXDXAXAXAXHXBX&Xs.HXAXAXAXAXDXCXsXHXAXAXAXAXDXCXs.HXAXAXAXAXDXCXsXHXAXAXAXAXAXCXY.! S JXAXAXAXDXsXAXAXAXAXAXAXDXs.AXAXAXAXAXAXKX+XVXDX+XwXtXUX",
"8X8X8X8X8X8X8X8X8X8X8X8X8X8X8X8X8X8X8X8X8X8X8X8X8X8X8X8X8X8X8X8X8X8X8X8X8X8X8X8X8X8X8X8X8X8X8X8X8X8X8X8X8X8X8X8X8X8X8X8X8X8X8X8X8X8X8X8X8X8X8X8X8X8X8X8X8X8X8X8X8X8X8X8X8X8X8X8X8X8X8X8X8X8X8X8X8X8X8X8X8X8X8X8X8X8X8X8X8X8X8X8X8X8X8X8X8X8X8X8X8X8X8X8X8X8X8X8X8X8X8X8X8X8X8X8X8X8X8X8X8X8X8X8X8X8X8X8X8X8X8X8X8X8X8X8X8X8X8X8X8X8X8X8X8X8X8X8X8X8X8X8X8X8X8X8X8X8X8X8X8X8X7XrX9XCXHXDXDXHXAX2XsXJ.HXAXDXDXDXHXCXsXHXDXDXDXDXHXCXs.HXAXDXDXDXHXAXsXHXDXDXDXDXAXJXJ S AXHXAXDXDXHXsXAXHXDXDXDXDXHXs.AXHXDXDXDXAXJX+XVXHX+XwXtXIX",
"8X8X8X8X8X8X8X8X8X8X8X8X8X8X8X8X8X8X8X8X8X8X8X8X8X8X8X8X8X8X8X8X8X8X8X8X8X8X8X8X8X8X8X8X8X8X8X8X8X8X8X8X8X8X8X8X8X8X8X8X8X8X8X8X8X8X8X8X8X8X8X8X8X8X8X8X8X8X8X8X8X8X8X8X8X8X8X8X8X8X8X8X8X8X8X8X8X8X8X8X8X8X8X8X8X8X8X8X8X8X8X8X8X8X8X8X8X8X8X8X8X8X8X8X8X8X8X8X8X8X8X8X8X8X8X8X8X8X8X8X8X8X8X8X8X8X8X8X8X8X8X8X8X8X8X8X8X8X8X8X8X8X8X8X8X8X8X8X8X8X8X8X8X8X8X8X8X8X8X8X8X8X7XrX9XCXHXDXDXDX1XBXCXs.HXAXDXDXDXHXCXsXHXDXDXDXDXHXCXs.HXAXDXDXDXHXAXsXHXDXDXDXAXJX+XD bXJXAXDXDXDXHXsXAXDXDXDXDXDXHXs.AXDXDXDXDXAXKX+XVXHX+XwXtXIX",
"8X8X8X8X8X8X8X8X8X8X8X8X8X8X8X8X8X8X8X8X8X8X8X8X8X8X8X8X8X8X8X8X8X8X8X8X8X8X8X8X8X8X8X8X8X8X8X8X8X8X8X8X8X8X8X8X8X8X8X8X8X8X8X8X8X8X8X8X8X8X8X8X8X8X8X8X8X8X8X8X8X8X8X8X8X8X8X8X8X8X8X8X8X8X8X8X8X8X8X8X8X8X8X8X8X8X8X8X8X8X8X8X8X8X8X8X8X8X8X8X8X8X8X8X8X8X8X8X8X8X8X8X8X8X8X8X8X8X8X8X8X8X8X8X8X8X8X8X8X8X8X8X8X8X8X8X8X8X8X8X8X8X8X8X8X8X8X8X8X8X8X8X8X8X8X8X8X8X8X8X8X8X7XrX9XCXHXDXHX7XsXHXBXB.HXAXDXDXDXHXCXsXHXDXDXDXDXHXCXs.HXAXDXDXDXHXAXsXHXDXDXAXJXMXD :.JXAXDXDXDXDXHXsXAXDXDXDXDXDXHXs.AXDXDXDXDXAXKX+XVXHX+XwXtXIX",
"8X8X8X8X8X8X8X8X8X8X8X8X8X8X8X8X8X8X8X8X8X8X8X8X8X8X8X8X8X8X8X8X8X8X8X8X8X8X8X8X8X8X8X8X8X8X8X8X8X8X8X8X8X8X8X8X8X8X8X8X8X8X8X8X8X8X8X8X8X8X8X8X8X8X8X8X8X8X8X8X8X8X8X8X8X8X8X8X8X8X8X8X8X8X8X8X8X8X8X8X8X8X8X8X8X8X8X8X8X8X8X8X8X8X8X8X8X8X8X8X8X8X8X8X8X8X8X8X8X8X8X8X8X8X8X8X8X8X8X8X8X8X8X8X8X8X8X8X8X8X8X8X8X8X8X8X8X8X8X8X8X8X8X8X8X8X8X8X8X8X8X8X8X8X8X8X8X8X8X8X8X8X7XrX9XCXHXHX8X9XHXHXBXB.HXAXDXDXDXHXCXsXHXDXDXDXDXHXCXs.HXAXDXDXDXHXAXsXHXDXAXHXSXD oXI.AXDXDXDXDXDXHXsXAXDXDXDXDXDXHXs.AXDXDXDXDXAXKX+XVXHX+XwXtXIX",
"8X8X8X8X8X8X8X8X8X8X8X8X8X8X8X8X8X8X8X8X8X8X8X8X8X8X8X8X8X8X8X8X8X8X8X8X8X8X8X8X8X8X8X8X8X8X8X8X8X8X8X8X8X8X8X8X8X8X8X8X8X8X8X8X8X8X8X8X8X8X8X8X8X8X8X8X8X8X8X8X8X8X8X8X8X8X8X8X8X8X8X8X8X8X8X8X8X8X8X8X8X8X8X8X8X8X8X8X8X8X8X8X8X8X8X8X8X8X8X8X8X8X8X8X8X8X8X8X8X8X8X8X8X8X8X8X8X8X8X8X8X8X8X8X8X8X8X8X8X8X8X8X8X8X8X8X8X8X8X8X8X8X8X8X8X8X8X8X8X8X8X8X8X8X8X8X8X8X8X8X8X8X7XrX9XCXHXsX7XHXDXHXBXB.HXAXDXDXDXHXCXsXHXDXDXDXDXHXCXs.HXAXDXDXDXHXAXsXHXAXDXKXS ! JXs.HXDXDXDXDXDXHXsXAXDXDXDXDXDXHXs.AXDXDXDXDXAXKX+XVXHX+XwXtXIX",
"8X8X8X8X8X8X8X8X8X8X8X8X8X8X8X8X8X8X8X8X8X8X8X8X8X8X8X8X8X8X8X8X8X8X8X8X8X8X8X8X8X8X8X8X8X8X8X8X8X8X8X8X8X8X8X8X8X8X8X8X8X8X8X8X8X8X8X8X8X8X8X8X8X8X8X8X8X8X8X8X8X8X8X8X8X8X8X8X8X8X8X8X8X8X8X8X8X8X8X8X8X8X8X8X8X8X8X8X8X8X8X8X8X8X8X8X8X8X8X8X8X8X8X8X8X8X8X8X8X8X8X8X8X8X8X8X8X8X8X8X8X8X8X8X8X8X8X8X8X8X8X8X8X8X8X8X8X8X8X8X8X8X8X8X8X8X8X8X8X8X8X8X8X8X8X8X8X8X8X8X8X8X7XrX9XAXBX1XHXDXDXHXBXB.HXAXDXDXDXHXCXsXHXDXDXDXDXHXCXs.HXAXDXDXDXHXAXsXHXAXJXR T JXAXs.HXDXDXDXDXDXHXsXAXDXDXDXDXDXHXs.AXDXDXDXDXAXKX+XVXHX+XwXtXIX",
"8X8X8X8X8X8X8X8X8X8X8X8X8X8X8X8X8X8X8X8X8X8X8X8X8X8X8X8X8X8X8X8X8X8X8X8X8X8X8X8X8X8X8X8X8X8X8X8X8X8X8X8X8X8X8X8X8X8X8X8X8X8X8X8X8X8X8X8X8X8X8X8X8X8X8X8X8X8X8X8X8X8X8X8X8X8X8X8X8X8X8X8X8X8X8X8X8X8X8X8X8X8X8X8X8X8X8X8X8X8X8X8X8X8X8X8X8X8X8X8X8X8X8X8X8X8X8X8X8X8X8X8X8X8X8X8X8X8X8X8X8X8X8X8X8X8X8X8X8X8X8X8X8X8X8X8X8X8X8X8X8X8X8X8X8X8X8X8X8X8X8X8X8X8X8X8X8X8X8X8X8X8X7XrXrXsX2XAXHXDXDXHXBXs.PXAXHXHXDXHXCXsXHXDXHXHXDXHXCXs.HXDXHXHXDXHXAXsXHXJX! S KXHXAXs.HXDXHXHXHXDXHXsXAXHXDXHXHXDXHXs.AXHXHXHXHXAXJX+XVXHX+XwXtXIX",
"7X7X7X7X7X7X7X7X7X7X7X7X7X7X7X7X7X7X7X7X7X7X7X7X7X7X7X7X7X7X7X7X7X7X7X7X7X7X7X7X7X7X7X7X7X7X7X7X7X7X7X7X7X7X7X7X7X7X7X7X7X7X7X7X7X7X7X7X7X7X7X7X7X7X7X7X7X7X7X7X7X7X7X7X7X7X7X7X7X7X7X7X7X7X7X7X7X7X7X7X7X7X7X7X7X7X7X7X7X7X7X7X7X7X7X7X7X7X7X7X7X7X7X7X7X7X7X7X7X7X7X7X7X7X7X7X7X7X7X7X7X7X7X7X7X7X7X7X7X7X7X7X7X7X7X7X7X7X7X7X7X7X7X7X7X7X7X7X7X7X7X7X7X7X7X7X7X7X7X7X7X7X2XrX9X1XBXDXAXAXAXAXBXL.HXCXAXAXAXAXCXsXAXAXAXAXAXAXCXL.DXAXAXAXAXAXCXsXJXoXD VXDXCXCXL.AXAXAXAXAXAXAXsXCXAXAXAXAXAXAXL.CXAXAXAXAXAXHX5XVXDX5XwXtXUX",
"rXrX9X9X9X9XrXrXrXrXrXrXrXrXrXrXrXrXrXrXrX9X9X9X9XrXrXrXrXrXrXrXrXrXrXrXrXrXrXrXrXrXrXrXrXrXrXrXrXrXrXrXrXrXrXrXrXrXrXrXrXrXrXrXrXrXrXrXrXrXrXrXrXrXrXrXrXrXrXrXrXrXrXrXrXrXrXrXrXrXrXrXrXrXrXrXrXrXrXrXrXrXrXrXrXrXrXrXrXrXrXrXrXrXrXrXrXrXrXrXrXrXrXrXrXrXrXrXrXrXrXrXrXrXrXrXrXrXrXrXrXrXrXrXrXrXrXrXrXrXrXrXrXrXrXrXrXrXrXrXrXrXrXrXrXrXrXrXrXrXrXrXrXrXrXrXrXrXrXrXrXrXrXsXsX8XrX9X9X9X9X9X9XrX9X9X9X9X9X9X9X9X9X9X9X9X9X9X9XrX9X9X9X9X9X9X9X9XrXOX5XsX9X9X9XrX9X9X9X9X9X9X9X9X9X9X9X9X9X9X9XrX9X9X9X9X9X9X9XrX9X9XrX9X9X9X",
"sXsXsXBXBXBXsXsXsXsXsXsXsXsXsXsXsXsXsXsXsXsXsXsXsXsXsXsXsXsXsXsXsXsXsXsXsXsXsXsXsXsXsXsXsXsXsXsXsXsXsXsXsXsXsXsXsXsXsXsXsXsXsXsXsXsXsXsXsXsXsXsXsXsXsXsXsXsXsXsXsXsXsXsXsXsXsXsXsXsXsXsXsXsXsXsXsXsXsXsXsXsXsXsXsXsXsXsXsXsXsXsXsXsXsXsXsXsXsXsXsXsXsXsXsXsXsXsXsXsXsXsXsXsXsXsXsXsXsXsXsXsXsXsXsXsXsXsXsXsXsXsXsXsXsXsXsXsXsXsXsXsXsXsXsXsXsXsXsXsXsXsXsXsXsXsXsXsXsXsXsXsXsXsXsXsXsXsXsXsXsXsXsXsXsXsXsXsXsXsXsXsXsXsXsXsXsXsXsXsXsXsXsXsXsXsXsXsXsXdXsXuXsXsXsXsXsXsXsXsXsXsXsXsXsXsXsXsXsXsXsXsXsXsXsXsXsXsXsXsXsXsXsXsXsXsX",
"7X8XK.1.p.p.<X8X7X2X8X2X7X7X2X2X7X7X7X7X1X=X&X=X&X7X7X2X7X8X2X7X2X2X2X7X7X7X7X7X7X7X7X7X7X7X7X7X7X7X7X7X7X7X7X7X7X7X7X7X7X7X7X7X7X7X7X7X7X7X7X7X7X7X7X7X7X7X7X7X7X7X7X7X7X7X7X7X7X7X7X7X7X7X7X7X7X7X7X7X7X7X7X7X7X7X7X7X7X7X7X7X7X7X7X7X7X7X7X7X7X7X7X7X7X7X7X7X7X7X7X7X7X7X7X7X7X7X7X7X7X7X7X7X7X7X7X7X7X7X7X7X7X7X7X7X7X7X7X7X7X7X7X7X7X7X7X7X7X7X7X7X7X7X7X7X7X7X7X7X7X7X7X7X7X7X7X7X7X7X7X7X7X7X7X7X7X7X7X7X7X7X7X7X7X7X7X7X7X7X7X7X7X7X7X7X7X7X7X7X7X7X7X7X7X7X7X7X7X7X7X7X7X7X7X7X7X7X7X7X7X7X7X7X7X8X8X8X8X2X8X8X8X8X2X8X",
"2XsX) ) ) f K.eX7XrX=X8X8X8XsXsX8X7X7X8X1X( f f ) 8X7X8X1X&XrX2XeXsXrX7X8X8X8X8X8X8X8X8X8X8X8X8X8X8X8X8X8X8X8X8X8X8X8X8X8X8X8X8X8X8X8X8X8X8X8X8X8X8X8X8X8X8X8X8X8X8X8X8X8X8X8X8X8X8X8X8X8X8X8X8X8X8X8X8X8X8X8X8X8X8X8X8X8X8X8X8X8X8X8X8X8X8X8X8X8X8X8X8X8X8X8X8X8X8X8X8X8X8X8X8X8X8X8X8X8X8X8X8X8X8X8X8X8X8X8X8X8X8X8X8X8X8X8X8X8X8X8X8X8X8X8X8X8X8X8X8X8X8X8X8X8X8X8X8X8X8X8X8X8X8X8X8X8X8X8X8X8X8X8X8X8X8X8X8X8X8X8X8X8X8X8X8X8X8X8X8X8X8X8X8X8X8X8X8X8X8X8X8X8X8X8X8X8X8X8X8X8X8X8X8X8X8X8X8X8X8X8X8X1XC.f.=Xf.1.f.g.K.2XeXG.",
"7XrX( ( ) ) K.9X8Xp.+ -.eX*X-.-.*X8X7X8X<Xp.2.O p.2X8X7X) O =XeXi.} 1.8X7X7X8X8X8X8X8X8X8X8X8X8X8X8X8X8X8X8X8X8X8X8X8X8X8X8X8X8X8X8X8X8X8X8X8X8X8X8X8X8X8X8X8X8X8X8X8X8X8X8X8X8X8X8X8X8X8X8X8X8X8X8X8X8X8X8X8X8X8X8X8X8X8X8X8X8X8X8X8X8X8X8X8X8X8X8X8X8X8X8X8X8X8X8X8X8X8X8X8X8X8X8X8X8X8X8X8X8X8X8X8X8X8X8X8X8X8X8X8X8X8X8X8X8X8X8X8X8X8X8X8X8X8X8X8X8X8X8X8X8X8X8X8X8X8X8X8X8X8X8X8X8X8X8X8X8X8X8X8X8X8X8X8X8X8X8X8X8X8X8X8X8X8X8X8X8X8X8X8X8X8X8X8X8X8X8X8X8X8X8X8X8X8X8X8X8X8X8X8X8X8X8X8X8X8X8X7X8X:X1.( $.2.dX$.( <X*XrX| ",
"2XrX) f 1.1XK.8X8X=XG g.8X<Xg.g.<X8X7X8X&X&X=XO K.1X8X8X-.G 1X8X=Xp.G.8X7X7X8X8X8X8X8X8X8X8X8X8X8X8X8X8X8X8X8X8X8X8X8X8X8X8X8X8X8X8X8X8X8X8X8X8X8X8X8X8X8X8X8X8X8X8X8X8X8X8X8X8X8X8X8X8X8X8X8X8X8X8X8X8X8X8X8X8X8X8X8X8X8X8X8X8X8X8X8X8X8X8X8X8X8X8X8X8X8X8X8X8X8X8X8X8X8X8X8X8X8X8X8X8X8X8X8X8X8X8X8X8X8X8X8X8X8X8X8X8X8X8X8X8X8X8X8X8X8X8X8X8X8X8X8X8X8X8X8X8X8X8X8X8X8X8X8X8X8X8X8X8X8X8X8X8X8X8X8X8X8X8X8X8X8X8X8X8X8X8X8X8X8X8X8X8X8X8X8X8X8X8X8X8X8X8X8X8X8X8X8X8X8X8X8X8X8X8X8X8X8X8X8X8X8X8X7X8X2X( 1.2.$.K.1.2.g.1XrXH.",
"7X9Xp.$.r.g.*X8X7XeX1X9X7X8XrXrX8X7X7X8X1Xg.p.( f.8X7X8X8X2X9X7X9XrXeX7X8X8X8X8X8X8X8X8X8X8X8X8X8X8X8X8X8X8X8X8X8X8X8X8X8X8X8X8X8X8X8X8X8X8X8X8X8X8X8X8X8X8X8X8X8X8X8X8X8X8X8X8X8X8X8X8X8X8X8X8X8X8X8X8X8X8X8X8X8X8X8X8X8X8X8X8X8X8X8X8X8X8X8X8X8X8X8X8X8X8X8X8X8X8X8X8X8X8X8X8X8X8X8X8X8X8X8X8X8X8X8X8X8X8X8X8X8X8X8X8X8X8X8X8X8X8X8X8X8X8X8X8X8X8X8X8X8X8X8X8X8X8X8X8X8X8X8X8X8X8X8X8X8X8X8X8X8X8X8X8X8X8X8X8X8X8X8X8X8X8X8X8X8X8X8X8X8X8X8X8X8X8X8X8X8X8X8X8X8X8X8X8X8X8X8X8X8X8X8X8X8X8X8X8X8X8X7X8X=X1.rX7X:X=X1X7X&X1X8X8X",
"8X7X9XeX8X8X8X7X8X7X8X7X8X7X7X7X7X8X8X7X8X8X8XrX8X8X8X7X8X8X7X8X7X7X7X8X8X8X8X8X8X8X8X8X8X8X8X8X8X8X8X8X8X8X8X8X8X8X8X8X8X8X8X8X8X8X8X8X8X8X8X8X8X8X8X8X8X8X8X8X8X8X8X8X8X8X8X8X8X8X8X8X8X8X8X8X8X8X8X8X8X8X8X8X8X8X8X8X8X8X8X8X8X8X8X8X8X8X8X8X8X8X8X8X8X8X8X8X8X8X8X8X8X8X8X8X8X8X8X8X8X8X8X8X8X8X8X8X8X8X8X8X8X8X8X8X8X8X8X8X8X8X8X8X8X8X8X8X8X8X8X8X8X8X8X8X8X8X8X8X8X8X8X8X8X8X8X8X8X8X8X8X8X8X8X8X8X8X8X8X8X8X8X8X8X8X8X8X8X8X8X8X8X8X8X8X8X8X8X8X8X8X8X8X8X8X8X8X8X8X8X8X8X8X8X8X8X8X8X8X8X8X7X8X:X2X8X8X8X9X8X8X8X8X7X8X"
};
