/* XPM */
static char *sc_mb_gate_mono[] = {
/* columns rows colors chars-per-pixel */
"256 256 256 2 ",
"   c #5C3802",
".  c #653800",
"X  c #473D39",
"o  c #3D5809",
"O  c #016E01",
"+  c #005F3D",
"@  c #00653D",
"#  c #105710",
"$  c #465B0C",
"%  c #5D5D24",
"&  c #026741",
"*  c #087348",
"=  c #035473",
"-  c #016577",
";  c #086C78",
":  c #1F5C5C",
">  c #504E4F",
",  c #716C54",
"<  c #566A72",
"1  c #7B7766",
"2  c #706F6F",
"3  c #605B59",
"4  c #3D383A",
"5  c #923337",
"6  c #A73130",
"7  c #8E326A",
"8  c #A43262",
"9  c #955A51",
"0  c #966156",
"q  c #86795A",
"w  c #AD695B",
"e  c #867B70",
"r  c #AC6E62",
"t  c #AF766B",
"y  c #9C5067",
"u  c #D65253",
"i  c #CA786A",
"p  c #C97D73",
"a  c #D2736B",
"s  c #D76961",
"d  c #94561C",
"f  c #6A901D",
"g  c #1A9D69",
"h  c #33A573",
"j  c #149461",
"k  c #6D9774",
"l  c #629968",
"z  c #34AA32",
"x  c #919653",
"c  c #A48554",
"v  c #8A8777",
"b  c #918E74",
"n  c #AC906F",
"m  c #94A86F",
"M  c #AAAA75",
"N  c #8DA856",
"B  c #C88477",
"V  c #D3877B",
"C  c #C78975",
"Z  c #EC847F",
"A  c #B6D64C",
"S  c #004C91",
"D  c #0F728B",
"F  c #524A91",
"G  c #4F7A83",
"H  c #564DAA",
"J  c #6D6BA4",
"K  c #746BD3",
"L  c #2F46B7",
"P  c #A6689C",
"I  c #CA7095",
"U  c #D473AF",
"Y  c #CD5497",
"T  c #8A79DB",
"R  c #CA69D4",
"E  c #AE3997",
"W  c #1296AE",
"Q  c #228FA7",
"!  c #2F97AE",
"~  c #2198A4",
"^  c #71948D",
"/  c #6EA991",
"(  c #5FA7B5",
")  c #58A9B9",
"_  c #51ADB9",
"`  c #6EACB2",
"'  c #5F9D9C",
"]  c #72C3A3",
"[  c #318FC8",
"{  c #5694C4",
"}  c #6FB5C8",
"|  c #58AEC9",
" . c #6FC2D1",
".. c #99968D",
"X. c #999787",
"o. c #9E9C94",
"O. c #979895",
"+. c #8D8D87",
"@. c #A59D89",
"#. c #A19E97",
"$. c #B7988D",
"%. c #94A792",
"&. c #A6A28B",
"*. c #B8A48C",
"=. c #A5A49D",
"-. c #ACAA9B",
";. c #A7A695",
":. c #B6AB99",
">. c #B6B49C",
",. c #ACB395",
"<. c #9395AF",
"1. c #B59BA6",
"2. c #B191B0",
"3. c #92ADAE",
"4. c #A6A6A1",
"5. c #A9A7A1",
"6. c #ABAAA3",
"7. c #ABACA9",
"8. c #B1AEAA",
"9. c #B4AAA6",
"0. c #ACB7A7",
"q. c #B4B3A4",
"w. c #B3B2AB",
"e. c #B4BCAB",
"r. c #BBBCAD",
"t. c #B9B9A6",
"y. c #BAA9B4",
"u. c #ACB9B6",
"i. c #B8B9B6",
"p. c #A8A9B9",
"a. c #C69788",
"s. c #D59589",
"d. c #D0928D",
"f. c #EC9793",
"g. c #C2AA8E",
"h. c #C7A899",
"j. c #D6A69A",
"k. c #C6B29C",
"l. c #CCB19A",
"z. c #CA9AB3",
"x. c #CD92AF",
"c. c #CBA9A5",
"v. c #C6B9A5",
"b. c #C7B8A5",
"n. c #D3B5A4",
"m. c #D5BBAA",
"M. c #D9BEAE",
"N. c #D4B6A9",
"B. c #C6ACBA",
"V. c #C4BAB8",
"C. c #DCBCB5",
"Z. c #D9BBB8",
"A. c #D6AAAD",
"S. c #E3B7B1",
"D. c #E492B0",
"F. c #BDC2BA",
"G. c #B7C2B5",
"H. c #B2C6AF",
"J. c #9BC6A3",
"K. c #C6C4AD",
"L. c #C4C2B5",
"P. c #C5C5BA",
"I. c #C8C6BB",
"U. c #CBC9BE",
"Y. c #C8C8B4",
"T. c #DEC3BC",
"R. c #D9CBBA",
"E. c #D5C4B6",
"W. c #DAD9BC",
"Q. c #CECDB2",
"!. c #E3C4BE",
"~. c #E3C3B5",
"^. c #E4D9B2",
"/. c #E5E48F",
"(. c #978DCE",
"). c #A894D3",
"_. c #93B3CD",
"`. c #BABBC3",
"'. c #B1AFCF",
"]. c #AB97E1",
"[. c #B3ACE7",
"{. c #9493E4",
"}. c #D293CF",
"|. c #E693C3",
" X c #CCB5C3",
".X c #C4BCC3",
"XX c #C8B9C6",
"oX c #D9B8C5",
"OX c #D1B0CE",
"+X c #E2BACD",
"@X c #E5B5D1",
"#X c #C9B6E1",
"$X c #93C6CC",
"%X c #BAC9C6",
"&X c #B3CED2",
"*X c #BAD0E3",
"=X c #CDCBC2",
"-X c #CBC2C9",
";X c #C7C7C6",
":X c #D3CDC4",
">X c #DACCC5",
",X c #D3CDC9",
"<X c #D8C9CA",
"1X c #C8D4CA",
"2X c #D2D0C7",
"3X c #D5D3CC",
"4X c #D9D6CE",
"5X c #DAD8C9",
"6X c #DAC7D8",
"7X c #CAD9D7",
"8X c #D6D6D1",
"9X c #D9D7D0",
"0X c #D5DBD4",
"qX c #DBD9D2",
"wX c #DEDDD9",
"eX c #D6D8DC",
"rX c #C9C9D5",
"tX c #E5C6C0",
"yX c #E7CBC6",
"uX c #E4D4CC",
"iX c #E5CCD9",
"pX c #E2DCD4",
"aX c #EAD4DD",
"sX c #E1DED9",
"dX c #EDDDD9",
"fX c #E7D6D6",
"gX c #F1D7D7",
"hX c #DCE2D4",
"jX c #DAE2DB",
"kX c #D3E1D4",
"lX c #E3E3DC",
"zX c #E7E5DB",
"xX c #EBEBDB",
"cX c #C9D7E4",
"vX c #DADBE5",
"bX c #D4C9E3",
"nX c #E1CEE2",
"mX c #EDDCE2",
"MX c #E4D6E4",
"NX c #F0DDE3",
"BX c #D8E7E5",
"VX c #D9E8E6",
"CX c #D7E6E5",
"ZX c #D6ECEB",
"AX c #E6E5E1",
"SX c #EAE5E2",
"DX c #E6EAE3",
"FX c #EBE9E4",
"GX c #EEEDE9",
"HX c #E4E3EB",
"JX c #F0EFEA",
"KX c #F4E6E4",
"LX c #F2F1EC",
"PX c #F7F7EA",
"IX c #F6F7F3",
"UX c #E9F1EC",
/* pixels */
"8X8X8X8X9XqXqXqX9XqXpXpXpXpXqX9XqXqXqXqXqXqXqXqXqXqXqXqXqXqXqXqXqXqXqXqXqXqXqXqXqXqXqXqXqXqXqXqXqXqXqXqXqXqXqXqXqXqXqXqXqXqXqXqXqXqXqXqXqXqXqXqXqXqXqXqXqXqXqXqXqXqXqXqXqXqXqXqXqXqXqXqXqXqXqXqXqXqXqXqXqXqXqXqXqXqXqXqXqXqXqXqXqXqXqXqXqXqXqXqXqXqXqXqXqXqXqXqXqXqXqXqXqXqXqXqXqXqXqXqXqXqXqXqXqXqXqX9XqXwXqXqXqXwXwX9XqXpXqXqXpXqXqXqXqXqXqXqXwXqXqXqXqX9XqXqX9XqXqXqXqXqXqX9XqXpXwXqXqXqXwXqXqXqX9XqXqXqXqXpXqX9X9XqXwXqX9XqXqXqXpXqXqXwXqXqXqX9XqXqXqXpXqXqXqXqXqXqXpXqX9XqXqXqXqXwXqX9XqXqX9X9XqXpXqXqXpXqXqX9XpXqXpXpX9XqX",
"pXpXpXpXqX9XqX9XpX7X&X&X&X&XqXqX9XqXqXqXqXqXqXqXqXqXqXqXqXqXqXqXqXqXqXqXqXqXqXqXqXqXqXqXqXqXqXqXqXqXqXqXqXqXqXqXqXqXqXqXqXqXqXqXqXqXqXqXqXqXqXqXqXqXqXqXqXqXqXqXqXqXqXqXqXqXqXqXqXqXqXqXqXqXqXqXqXqXqXqXqXqXqXqXqXqXqXqXqXqXqXqXqXqXqXqXqXqXqXqXqXqXqXqXqXqXqXqXqXqXqXqXqXqXqXqXqXqXqXqXqXqXqXqXqXqX9XqX4X;X,X;X3X;X;XqX,X`.3X3X;X,X3X4X3X9X,X8X;X3X,X9X,XqX3X,XqX;X3X3X3X3X,XqX;X`.;X;X3X;X;X9X9X,XqX;X9X,X3X`.,XqXqX9X;X;XqX,X3X;X`.;X;X;X9X4X;XqX;X4X3X`.9X,X3X3X8X,X%X9XqX;X9X,X3X;X4XqX=XV.qXqX1X%X9X1X%X1X;XqX%X1X%X%XpX1X",
"_._._._.8XqX9XpX&XJ.J.A A J.$X1XqX9XqXqXqXqXqXqXqXqXqXqXqXqXqXqXqXqXqXqXqXqXqXqXqXqXqXqXqXqXqXqXqXqXqXqXqXqXqXqXqXqXqXqXqXqXqXqXqXqXqXqXqXqXqXqXqXqXqXqXqXqXqXqXqXqXqXqXqXqXqXqXqXqXqXqXqXqXqXqXqXqXqXqXqXqXqXqXqXqXqXqXqXqXqXqXqXqXqXqXqXqXqXqXqXqXqXqXqXqXqXqXqXqXqXqXqXqXqXqXqXqXqXqXqXqXqXqXqXqX9XpXp.p.,Xp.;Xp.p.`.p.p.;Xp.;X`.`.`.`.;X<.3Xp.;X<.;Xp.lX`.<.3X<.`.`.;X`.p.4X,X<.;Xp.;Xp.p.;X,X<.9X<.`.`.i.p.p.,XpXu.p.`.pXp.`.,X<.;Xp.i.qX,X<.9X<.`.p.i.i.p.p.`.`.p.i.p.pX;Xp.`.`.<.;XlX;Xw.wXpX` 3.;X` %X3.' 3X' u.( ` %X` ",
"W W W W _ 8XpX&XJ.A /.W.Q.A A $X1XqX9XqXqXqXqXqXqXqXqXqXqXqXqXqXqXqXqXqXqXqXqXqXqXqXqXqXqXqXqXqXqXqXqXqXqXqXqXqXqXqXqXqXqXqXqXqXqXqXqXqXqXqXqXqXqXqXqXqXqXqXqXqXqXqXqXqXqXqXqXqXqXqXqXqXqXqXqXqXqXqXqXqXqXqXqXqXqXqXqXqXqXqXqXqXqXqXqXqXqXqXqXqXqXqXqXqXqXqXqXqXqXqXqXqXqXqXqXqXqXqXqXqXqXqXqXqXqXqX9XqX,Xp.;X`.;X`.3Xp.u.`.`.u.xX;Xp.p.;Xp.<.;X`.,Xp.p.p.pX`.p.u.p.`.;X;X`.u.qXpXp.9Xi.,Xp.p.`.i.<.`.u.p.p.i.3X`.`.wXp.3Xp.;X<.p.qXp.9Xp.;XqX,Xp.i.p.i.u.zXp.u.p.p.u.`.zXp.qXqX<.,X`.<.%XsX=Xi.wXqX%X3.3.3.KX%X' 3.` u.` ` 3.3.",
"$X$X_.! W &XeXJ.A U.sXwXwXwXH._ $XqX9XqXqXqXqXqXqXqXqXqXqXqXqXqXqXqXqXqXqXqXqXqXqXqXqXqXqXqXqXqXqXqXqXqXqXqXqXqXqXqXqXqXqXqXqXqXqXqXqXqXqXqXqXqXqXqXqXqXqXqXqXqXqXqXqXqXqXqXqXqXqXqXqXqXqXqXqXqXqXqXqXqXqXqXqXqXqXqXqXqXqXqXqXqXqXqXqXqXqXqXqXqXqXqXqXqXqXqXqXqXqXqXqXqXqXqXqXqXqXqXqXqXqXqXqXqXqXqX9XqX;Xp.i.p.;Xp.p.;Xi.p.,Xp.`.`.;X;Xu.u.;Xp.p.;X`.`.p.zX;Xu.p.i.;Xp.p.,Xp.p.4Xp.3Xp.;Xp.p.`.p.;Xp.`.;Xp.`.p.p.3XwX`.p.p.u.`.u.;Xu.3Xp.`.qX,Xu.p.u.;Xu.p.`.`.;X<.;Xp.p.`.lX`.`.i.i.p.`.lX;Xw.sX9X%X` `.` 3.u.3.` 3.u.` ` %X3.",
"dXdXdX} W %X&X/ H.wX4XpX%X$XpX( _.1XqX9XqXqXqXqXqXqXqXqXqXqXqXqXqXqXqXqXqXqXqXqXqXqXqXqXqXqXqXqXqXqXqXqXqXqXqXqXqXqXqXqXqXqXqXqXqXqXqXqXqXqXqXqXqXqXqXqXqXqXqXqXqXqXqXqXqXqXqXqXqXqXqXqXqXqXqXqXqXqXqXqXqXqXqXqXqXqXqXqXqXqXqXqXqXqXqXqXqXqX9X9X9X9X9X9X9X9X9X9X9X9X9X9X9X9X9X9X9X9X9X9X9X9X9X9X9X9X9XqX3X,X9X,X4X,X,XqX3X;X4X4X;X3X4X4X3X9XqX3X,X4X4XqX3XqX4X4X9X3XqX3X2XqX3X;X4X4X9X,X3X3X,X9X4XqX3X3XqX3X4X;X4XqX9XqX,X3X3XqX9X3X4X9X3X;X9X9X4X9X4X9X9X,XqX4X9X4X9X4X,XqX9X3XqX3X4X,XqXqX3X=XqX9X;X1XpX3X%X3X3X4X3X4X;X1XpX3X",
"1X1X1X_ W &XqX_.! } pX9X1X8XpX_.) 1XqX9XqXqXqXqXqXqXqXqXqXqXqXqXqXqXqXqXqXqXqXqXqXqXqXqXqXqXqXqXqXqXqXqXqXqXqXqXqXqXqXqXqXqXqXqXqXqXqXqXqXqXqXqXqXqXqXqXqXqXqXqXqXqXqXqXqXqXqXqXqXqXqXqXqXqXqXqXqXqXqXqXqXqXqXqXqXqXqXqXqXqXqXqXqXqXqXqXqX9XwXlXlXlXlXlXlXlXlXlXlXlXlXlXlXlXlXlXlXlXlXlXlXlXlXlXlXlXlXsXlXlXlXlXlXlXlXsXlXlXlXlXlXlXlXlXlXlXsXlXlXlXlXlXlXsXlXlXlXlXsXlXlXsXlXlXlXlXlXlXlXlXlXlXlXsXlXlXsXlXlXlXlXsXlXsXlXlXsXwXwXwXwXwXsXlXwXwXwXwXwXwXwXlXwXwXwXwXwXwXlXwXwXsXwXwXsXlXsXsXlXlXsXsXlXlXwXlXzXlXlXlXlXlXzXlXwXlX",
"W W W W ! 1X1X( W _ pXqXqX9XpX_.} 1XqX9XqXqXqXqXqXqXqXqXqXqXqXqXqXqXqXqXqXqXqXqXqXqXqXqXqXqXqXqXqXqXqXqXqXqXqXqXqXqXqXqXqXqXqXqXqXqXqXqXqXqXqXqXqXqXqXqXqXqXqXqXqXqXqXqXqXqXqXqXqXqXqXqXqXqXqXqXqXqXqXqXqXqXqXqXqXqXqXqXqXqXqXqXqXqXqXqX9XwXlXlXlXlXlXlXlXlXlXlXlXlXlXlXlXlXlXlXlXlXlXlXlXlXlXlXlXlXlXAXFXlXlXAXlXlXlXlXlXlXlXlXlXlXlXlXlXlXlXlXlXlXlXlXlXlXlXlXlXlXlXlXlXlXlXlXlXlXlXlXlXlXlXlXlXlXlXlXlXlXlXlXlXlXlXlXlXlXsXsXlXSXsXsXsXsXsXwXwXwXsXsXsXsXlXlXzXwXsXsXsXsXsXsXsXlXlXlXzXzXzXlXSXlXlXAXFXFXAXlXAXAXlXAXlXlXlXzX",
"_ _ _ _ &XdX$X_ _ W _.qX9XqX8X_ $X1XqX9XqXqXqXqXqXqXqXqXqXqXqXqXqXqXqXqXqXqXqXqXqXqXqXqXqXqXqXqXqXqXqXqXqXqXqXqXqXqXqXqXqXqXqXqXqXqXqXqXqXqXqXqXqXqXqXqXqXqXqXqXqXqXqXqXqXqXqXqXqXqXqXqXqXqXqXqXqXqXqXqXqXqXqXqXqXqXqXqXqXqXqXqXqXqXqX9XwXlXlXlXlXzXlXlXlXlXlXlXlXlXlXlXlXlXlXlXlXlXlXlXlXlXlXlXlXlXlX4XU.lXGX:X9XGXAXFXlXlXlXFXFXSXFXAXFXFXAXAXFXlXlXlXlXlXlXlXlXlXlXlXlXlXlXlXlXlXlXlXlXlXlXlXlXlXlXzXlXlXlXlXlXlXlXlXlXsXsXlX0Xm sXsXsXwXlXzXzXzXsXwXwXlX$X` &XlXwXsXsXsXsXsXlXlXlXjX7X7X7XlX3XsXwX4X2XU.3XlXqX4XlXqXlXlXlXeX",
"pXpXqXpXpX9XqXpX) W ! ! _.pX} ) &XqX9XqXqXqXqXqXqXqXqXqXqXqXqXqXqXqXqXqXqXqXqXqXqXqXqXqXqXqXqXqXqXqXqXqXqXqXqXqXqXqXqXqXqXqXqXqXqXqXqXqXqXqXqXqXqXqXqXqXqXqXqXqXqXqXqXqXqXqXqXqXqXqXqXqXqXqXqXqXqXqXqXqXqXqXqXqXqXqXqXqXqXqXqXqXqXqX9XwXlXlXlXlXzX7X&XzXlXlXlXlXlXlXlXlXlXlXlXlXlXlXlXlXlXlXlXlXlXlXlXX.U.:Xt.>.V.q.=Xr.&.-.FXt.t.=Xt.L.t.r.L.=Xt.&.q.FXlXlXlXlXlXlXlXlXlXlXlXlXlXlXlXlXlXlXlXlXlXzX&X&XzXlXlXlXlXlXlXlXsXsXwXSXH.z U.SXwXlX7X&X&X$XwXsXsXsX( _ $XzXwXsXsXsXsXlXlXlXzX7X} } _.GXX.r.r.@.;.L.X.>.L.;.3Xq.3XAXzX7X",
"9X9X9X9X9X9XpX%X! $X_ ! ) } ) &X8XqX9XqXqXqXqXqXqXqXqXqXqXqXqXqXqXqXqXqXqXqXqXqXqXqXqXqXqXqXqXqXqXqXqXqXqXqXqXqXqXqXqXqXqXqXqXqXqXqXqXqXqXqXqXqXqXqXqXqXqXqXqXqXqXqXqXqXqXqXqXqXqXqXqXqXqXqXqXqXqXqXqXqXqXqXqXqXqXqXqXqXqXqXqXqXqX9XwXlXlXlXlXlXzX$X7XzXlXlXlXlXlXlXlXlXlXlXlXlXlXlXlXlXlXlXlXlXlXlXAXI.q.X.@.;.b &.b =XV.L.lX;.V.b r.X.&.;.t.X.&.@.2XSXlXlXlXlXlXlXlXlXlXlXlXlXlXlXlXlXlXlXlXlXlXzXjX$XjXlXlXlXlXlXlXsXsXsXwXAXl z k SXwXzX$X` ` _ 7XlXwXwX` ` ` zXwXsXsXsXlXlXlXlXzX7X} } $XFXq.&.;.q.;.U.t.&.;.-.qXq.3XAXlX7X",
"qXqX9XqXqXqXqXqXqX9X! $X} } $X8XqX9XqXqXqXqXqXqXqXqXqXqXqXqXqXqXqXqXqXqXqXqXqXqXqXqXqXqXqXqXqXqXqXqXqXqXqXqXqXqXqXqXqXqXqXqXqXqXqXqXqXqXqXqXqXqXqXqXqXqXqXqXqXqXqXqXqXqXqXqXqXqXqXqXqXqXqXqXqXqXqXqXqXqXqXqXqXqXqXqXqXqXqXqXqXqX9XwXlXlXlXlXlXlXzX0X&XzXlXlXlXlXlXlXlXlXlXlXlXlXlXlXlXlXlXlXlXlXlXlXlXL.;.-.t.r.;.q.L.>.r.q.AX@.-.q.2Xq.t.U.&.-.r.r.t.FXlXlXlXlXlXlXlXlXlXlXlXlXlXlXlXlXlXlXlXlXlXzX&X7XzXlXlXlXlXlXsXsXsXsXlX3XJ.wXJ.wXsXwXlXzXzXsXlXwXsXlX_.` &XzXwXsXsXlXlXlXlXlXzX7X} } $XAXL.-.-.V.;.L.r.2XX.L.-.>.lXlXzX7X",
"9X9X9X9X9X9X9X9XqX9X%X9X1X1XqXqX9X9X9X9X9X9X9X9X9X9X9X9X9X9X9X9X9X9X9X9X9X9X9X9X9X9X9X9X9X9X9X9X9X9X9X9X9X9X9X9X9X9X9X9X9X9X9X9X9X9X9X9X9X9X9X9X9X9X9X9X9X9X9X9X9X9X9X9X9X9X9X9X9X9X9X9X9X9X9X9X9X9X9X9X9X9X9X9X9X9X9X9X9X9X9X9XwXlXlXlXlXlXlXlXlXzXzXlXlXlXlXlXlXlXlXlXlXlXlXlXlXlXlXlXlXlXlXlXlXlXlX3XwXAX3XsXlX4XlXqXwXwXsX;.qXlXlXlX4XqXwXAX3XlXqXlXlXlXlXlXlXlXlXlXlXlXlXlXlXlXlXlXlXlXlXlXlXlXzXzXlXlXlXlXlXsXsXsXsXsXsXsXAXsXSXsXsXsXwXwXwXsXwXsXsXsXzXzXlXwXsXsXlXlXlXlXlXlXlXlXjXlXjXlXlXlXlXlXqX3XlXlXlXlX9XlXlXlXlXjX",
"qXqXqXqXqXqXqXqXqXqXpXqXqXpXqXqXqXqXqXqXqXqXqXqXqXqXqXqXqXqXqXqXqXqXqXqXqXqXqXqXqXqXqXqXqXqXqXqXqXqXqXqXqXqXqXqXqXqXqXqXqXqXqXqXqXqXqXqXqXqXqXqXqXqXqXqXqXqXqXqXqXqXqXqXqXqXqXqXqXqXqXqXqXqXqXqXqXqXqXqXqXqXqXqXqXqXqXqXqXqXqXwXlXlXlXlXlXlXlXlXlXlXlXlXlXlXlXlXlXlXlXlXlXlXlXlXlXlXlXlXlXlXlXlXlXlXlXAXlXlXAXlXlXAXlXAXlXAXlX4XAXlXlXlXAXAXlXlXAXlXAXlXlXlXlXlXlXlXlXlXlXlXlXlXlXlXlXlXlXlXlXlXlXlXlXlXlXlXlXlXsXlXlXlXlXlXlXlXwXlXwXlXlXlXlXlXlXlXlXlXlXlXwXwXwXlXlXlXlXlXlXlXlXlXlXlXlXlXlXlXlXlXlXlXAXAXlXlXlXlXAXlXlXlXlXlX",
"lXlXlXlXlXlXlXlXlXlXlXlXlXlXlXlXlXlXlXlXlXlXlXlXlXlXlXlXlXlXlXlXlXlXlXlXlXlXlXlXlXlXlXlXlXlXlXlXlXlXlXlXlXlXlXlXlXlXlXlXlXlXlXlXlXlXlXlXlXlXlXlXlXlXlXlXlXlXlXlXlXlXlXlXlXlXlXlXlXlXlXlXlXlXlXlXlXlXlXlXlXlXlXlXlXlXlXlXlXlXlXlXlXlXlXlXlXlXlXlXlXlXlXlXlXlXlXlXlXlXlXlXlXlXlXlXlXlXlXlXlXlXlXlXlXlXlXlXlXlXlXlXlXlXlXlXlXlXlXAXlXlXlXlXlXlXlXlXlXlXlXlXlXlXlXlXlXlXlXlXlXlXlXlXlXlXlXlXlXlXlXlXlXlXlXlXlXlXlXlXlXlXlXlXlXlXlXlXlXlXlXlXlXlXlXlXlXlXlXlXlXlXlXlXlXlXlXlXlXlXlXlXlXlXlXlXlXlXlXlXlXlXlXlXlXlXlXlXlXlXlXlXlXlXlXlX",
"=XU.=X=X=X=XU.=X=X=X=X=X=X=X=X=X=X=X=X=X=X=X=X=X=X=X=X=X=X=X=X=X=X=X=X=X=X=X=X=X=X=X=X=X=X=X=X=X=X=X=X=X=X=X=X=X=X=X=X=X=X=X=X=X=X=X=X=X=X=X=X=X=X=X=X=X=X=X=X=X=X=X=X=X=X=X=X=X=X=X=X=X=X=X=X=X=X=X=X=X=X=X=X=X=X=X=X=X=X=X=X=X=X=X=X=X=X=X=X=X=X=X=X=X=X=X=X=X=X=X=X=X=X=X=X=X=X=X=X=X=X=X=X=X=X=X=X=X=X=X=X=X=X=X=X=X=X=X=XU.=X=X=X=X=X=X=X=X=X=X=X=X=X=X=X=X=X=X=X=X=X=X=X=X=X=X=X=X=X=X=X=X=X=X=X=X=X=X=X=X=X=X=X=X=X=X=XU.=XlXwXqXqXqXqXwXwXqXqXqXqXqXwXlXqXqXwXqX9XqXqXqXlXsX9XwXwXqXqXqX9XwXlX=XU.=X=X=XU.U.U.U.U.U.=X=X",
"L.I.L.r.L.r.I.L.P.r.L.P.P.P.I.P.P.P.P.P.P.P.P.P.P.P.P.P.P.P.P.P.P.P.P.P.P.P.P.P.P.P.P.P.P.P.P.P.P.P.P.P.P.P.P.P.P.P.P.P.P.P.P.P.P.P.P.P.P.P.P.P.P.P.P.P.P.P.P.P.P.P.P.P.P.P.P.P.P.P.P.P.P.P.P.P.P.P.P.P.P.P.P.P.P.P.P.P.P.P.P.P.P.P.P.P.P.P.P.P.P.P.P.P.P.P.P.P.P.P.P.P.P.P.P.P.P.P.P.P.P.P.P.P.P.P.P.P.P.P.P.P.P.P.P.P.P.P.P.P.P.P.P.P.P.P.P.P.P.P.P.P.P.P.P.P.P.P.P.P.P.P.P.P.P.P.P.P.P.P.P.P.P.P.P.P.P.P.P.P.P.P.P.P.P.P.I.P.U.lXqX9X9XqX:XL.r.P.:XqX9X9XqXlXqXqX:X3XlXqX9X9XlXwXqX=X2XwXqXwXqXwXlXI.I.L.r.L.=XU.U.U.I.I.r.I.",
"b U.@.>.-.b t.@.q.b @.-.q.>.=XI.I.I.I.I.I.I.I.I.I.I.I.I.I.I.I.I.I.I.I.I.I.I.I.I.I.I.I.I.I.I.I.I.I.I.I.I.I.I.I.I.I.I.I.I.I.I.I.I.I.I.I.I.I.I.I.I.I.I.I.I.I.I.I.I.I.I.I.I.I.I.I.I.I.I.I.I.I.I.I.I.I.I.I.I.I.I.I.I.I.I.I.I.I.I.I.I.I.I.I.I.I.I.I.I.I.I.I.I.I.I.I.I.I.I.I.I.I.I.I.I.I.I.I.I.I.I.I.I.I.I.I.I.I.I.I.I.I.I.I.I.I.I.I.I.I.I.I.I.I.I.I.I.I.I.I.I.I.I.I.I.I.I.I.I.I.I.I.I.I.I.I.I.I.I.I.I.I.I.I.I.I.I.I.I.I.I.I.I.I.I.I.I.U.lXqX9X9XwXI.>.r.t.U.qX9X9XqXlX9XsX;.q.q.=XqX9XlXlXV.@.;.L.2X-.-.lXlXU.L.b t.r.:.q.>.q.V.>.&.U.",
"@.r.&.q.b b -.b @.b q.X.b -.=XP.I.I.I.I.I.I.I.I.I.I.I.I.I.I.I.I.I.I.I.I.I.I.I.I.I.I.I.I.I.I.I.I.I.I.I.I.I.I.I.I.I.I.I.I.I.I.I.I.I.I.I.I.I.I.I.I.I.I.I.I.I.I.I.I.I.I.I.I.I.I.I.I.I.I.I.I.I.I.I.I.I.I.I.I.I.I.I.I.I.I.I.I.I.I.I.I.I.I.I.I.I.I.I.I.I.I.I.I.I.I.I.I.I.I.I.I.I.I.I.I.I.I.I.I.I.I.I.I.I.I.I.I.I.I.I.I.I.I.I.I.I.I.I.I.I.I.I.I.I.I.I.I.I.I.I.I.I.I.I.I.I.I.I.I.I.I.I.I.I.I.I.I.I.I.I.I.I.I.I.I.I.I.I.I.I.I.I.I.I.I.I.I.U.lXqX9X9XwXL.q.wX-.U.qX9X9XqXlX9XwXt.@.X.-.sX4XsXSX&.=Xq.b t.v t.lXsXI.I.-.&.b &.X.@.&.;.b &.U.",
"-.I.;.@.&.>.@.r.&.>.=X-.r.q.=XI.I.I.I.I.I.I.I.I.I.I.I.I.I.I.I.I.I.I.I.I.I.I.I.I.I.I.I.I.I.I.I.I.I.I.I.I.I.I.I.I.I.I.I.I.I.I.I.I.I.I.I.I.I.I.I.I.I.I.I.I.I.I.I.I.I.I.I.I.I.I.I.I.I.I.I.I.I.I.I.I.I.I.I.I.I.I.I.I.I.I.I.I.I.I.I.I.I.I.I.I.I.I.I.I.I.I.I.I.I.I.I.I.I.I.I.I.I.I.I.I.I.I.I.I.I.I.I.I.I.I.I.I.I.I.I.I.I.I.I.I.I.I.I.I.I.I.I.I.I.I.I.I.I.I.I.I.I.I.I.I.I.I.I.I.I.I.I.I.I.I.I.I.I.I.I.I.I.I.I.I.I.I.I.I.I.I.I.I.I.I.I.I.U.lXqX9X9XqXU.t.-.b r.wX9X9XqXlX9XsX-.&.V.q.wX4XlXlXI.X.-.t.b -.q.lXlXI.P.-.@.-.&.b q.:.X.X.;.U.",
"P.P.P.V.P.P.L.I.P.L.L.P.L.P.L.L.L.L.L.L.L.P.P.L.L.L.P.P.P.P.P.P.P.P.P.P.L.P.P.L.L.P.P.L.P.P.P.P.I.P.P.P.P.L.L.L.L.L.L.L.L.L.L.L.L.L.L.L.P.P.L.P.P.P.P.U.P.P.P.P.P.L.L.L.L.L.L.L.P.P.L.L.L.L.L.P.L.L.P.P.P.I.I.P.P.P.P.L.P.P.L.L.P.L.L.I.P.L.L.L.L.L.L.L.L.L.L.L.L.L.L.L.L.L.L.P.P.L.L.L.L.L.L.L.L.L.L.P.L.L.L.L.P.P.P.I.I.P.P.P.L.L.P.L.L.L.L.P.P.L.L.P.P.L.L.P.P.L.P.P.P.P.I.P.P.P.P.L.L.L.L.L.L.L.L.L.L.L.L.L.L.L.P.P.P.P.P.P.U.lXqX9X9XqX2X=X:XP.=XqX9X9XqXlXqX9X4X9XqXqXqX9XlXwXqX3X9XqX3XqX3XwXlXI.P.V.I.I.&.-.U.P.P.P.I.P.",
"sXqXwXsXwXwXsXwXwXsXsXwXsXqXwXsXsXsXsXwXsXqXwXsXwXsX4X>X>X>X>X>X>X>X>X4XsXwXqXsXsXqXwXsXwXqXqXqXU.3XqXqXwXwXsXsXsXsXsXsXsXsXsXsXsXsXwXsXqXwXsXwXqXqX4XF.0X0XqXwXqXwXsXsXsXsXwXsXqXwXsXsXsXsXwXqXsXwXwXqX9X1X%X0X0XqXwXsXwXwXsXwXqXwXsX2XwXsXsXsXsXsXsXsXsXsXsXsXsXsXsXsXsXwXsXqXwXsXsXsXsXsXsXsXsXsXwXqXsXwXsXwXwX0X0X1X,XwXqXwXwXsXqXsXsXwXsXqXwXsXsXwXqXsXsXwXwXsXwXqXqXwX<X4XwXqXwXwXsXsXsXsXsXsXsXsXsXsXsXsXwXsXqXwXwXqXqX9X:XlXqX9XqX9XqX8X3XqXqX9XqX9XqXlXqX9XqXqX9X9XqX9XlXsX4XqXqX9XqX9XqXwXlX2X2X3X2X2X:X3X2X2X2X2X2X2X",
"LXzXLXLXLXLXLXLXLXLXLXLXLXzXLXLXLXLXLXLXLXAXGXLXLXLXzXuX>XuXuXuXuX>XuXdXIXGXSXLXLXFXFXLXGXpXzXNXM U.zXzXFXLXLXLXLXLXLXLXLXLXLXLXLXLXLXLXAXLXLXGXxXzX5X/ 7XjXVXGXlXLXLXLXLXLXLXIXSXGXLXLXLXLXLXzXLXLXDXVXkX$X) VXCXjXUXLXFXFXIXLXzXLXIXi.GXLXLXLXLXLXLXLXLXLXLXLXLXLXLXLXLXLXLXAXJXLXLXLXLXLXLXLXLXLXLXzXLXLXLXJXDXBXVX'.'.FXHXGXJXLXlXLXLXLXIXSXGXLXLXJXAXLXLXFXFXIXGXwXHXHXz.oXSXSXJXLXLXLXLXLXLXLXLXLXLXLXLXLXLXLXSXGXJXSXSXiXz.lXqX9XqX9XpX^ : ^ pX9XqX9XqXlXqX9X9X9X9X9X9X9XlXsX4X9X9X9X9X9X9XwXlXqXqXqXqXqXqXqXqXqXqXqXqXqX",
"JXlXGXJXGXGXGXGXGXGXGXGXJXlXGXJXGXGXGXGXLXlXFXJXGXLXdXuX>XuXuXuXuX>XyXfXLXFXlXLXLXzXFXLXFXpXdXdX&.Q.lXlXFXGXJXGXGXGXGXGXGXGXGXGXGXGXGXLXlXGXGXFXzXlX5X/ 7XkXjXDXlXGXJXGXGXGXGXLXlXFXJXGXGXGXGXlXJXGXDXBX0X$X` BX7X0XFXJXAXSXLXGXlXGXLXi.FXJXGXGXGXGXGXGXGXGXGXGXGXGXGXGXGXGXLXlXFXJXGXGXGXGXGXGXGXJXGXlXJXGXJXGXDXCXCX'.'.SXAXFXGXGXlXGXGXGXLXlXFXJXJXFXlXLXLXSXAXLXFXwXMXHXz.oXSXSXFXGXGXGXGXGXGXGXGXGXGXGXGXGXGXLXlXFXFXSXmXiXz.lXqX9XqX9XpXG = G pX9XqX9XqXlX4XT.T.T.T.T.T.>XlXwX>XT.T.T.T.T.T.wXlX9X9X9X9X9X9XqXqXqX8X9X9X9X",
"LXlXGXJXJXJXJXJXJXJXJXJXLXlXGXJXJXJXJXJXLXlXFXLXJXLXdXuX>XuXuXuXuX>XyXfXLXFXzXLXLXAXFXLXFXpXdXdX&.Q.lXzXFXGXJXJXJXJXJXJXJXJXJXJXJXJXJXLXlXGXJXFXzXlX5X/ 7XkXjXDXlXGXJXJXJXJXJXLXzXFXLXJXJXJXGXlXLXGXDXVX0X$X` BX7X0XGXLXSXSXLXGXlXJXLXi.FXLXJXJXJXJXJXJXJXJXJXJXJXJXJXJXJXJXLXlXGXLXJXJXJXJXJXJXJXJXGXlXLXJXJXGXDXCXCX'.'.SXHXFXGXJXlXJXJXJXLXzXFXLXLXGXlXLXLXFXAXLXGXwXAXHXz.oXSXSXFXGXJXJXJXJXJXJXJXJXJXJXJXJXJXLXlXFXFXSXSXiXz.lXqX9XqX9XpXG : G pX9XqX9XqXlX4XT.T.T.T.T.T.>XlXwX>XT.T.T.T.T.T.wXlXqXqX9X9XpXqX1X1X8XpXqX9XqX",
"LXlXGXJXJXJXJXJXJXJXJXJXLXlXGXJXJXJXJXJXLXlXFXLXJXLXdXuX>XuXuXuXuX>XuXuXfXuXpXLXLXAXFXLXFXpXdXdX&.Q.lXzXFXGXJXJXJXJXJXJXJXJXJXJXJXJXJXLXlXGXJXFXzXlX5X/ 7XkXjXDXlXGXJXJXJXJXJXLXzXFXLXJXJXJXGXlXLXGXDXVX0X$X` BX7X0XGXLXSXSXLXGXlXJXLXi.FXLXJXJXJXJXJXJXJXJXJXJXJXJXJXJXJXJXLXlXGXLXJXJXJXJXJXJXJXJXGXlXLXJXJXGXDXCXCX'.'.SXHXFXGXJXlXJXJXJXLXzXFXLXLXGXlXLXLXFXAXLXGXwXAXHXz.oXSXSXFXGXJXJXJXJXJXJXJXJXJXJXJXJXJXLXlXFXFXSXSXiXz.lXqX9XqX9XpXG = G pX9XqX9XqXlX4XT.T.T.T.T.T.>XlXwX>XT.T.T.T.T.T.wXlXqX9XqXpX$X_ ! ! ! ` 8XqX9X",
"LXlXGXJXJXJXJXJXJXJXJXJXLXlXGXJXJXJXJXJXLXlXFXGXGXGXfXuX>XuXuXuXuX>XuXuXuXyXpXLXLXAXFXLXFXpXdXdX&.Q.lXzXFXGXJXJXJXJXJXJXJXJXJXJXJXJXJXLXlXGXJXFXzXlX5X/ 7XkXjXDXlXGXJXJXJXJXJXLXzXFXLXJXJXJXGXlXLXGXDXVX0X$X` BX7X0XGXLXSXSXLXGXlXJXLXi.FXLXJXJXJXJXJXJXJXJXJXJXJXJXJXJXJXJXLXlXGXLXJXJXJXJXJXJXJXJXGXlXLXJXJXGXDXCXCX'.'.SXHXFXGXJXlXJXJXJXLXzXFXLXLXGXlXLXLXFXAXLXGXwXAXHXz.oXSXSXFXGXJXJXJXJXJXJXJXJXJXJXJXJXJXLXlXFXFXSXSXiXz.lXqX9XqX9XpXG = G pX9XqX9XqXlX4XT.T.T.T.T.T.>XlXwX>XT.T.T.T.T.T.wXlXqX9XpX` Q } &X7X$X! ! 1XqX",
"LXlXGXJXJXJXJXJXJXJXJXJXLXlXGXJXJXJXJXJXLXzXzXuXuXuXuXuX>XuXuXuXuX>XuXuXuXyXuXLXLXSXFXLXFXpXdXdX&.Q.lXzXFXGXJXJXJXJXJXJXJXJXJXJXJXJXJXLXlXGXJXFXzXlX5X/ 7XkXjXDXlXGXJXJXJXJXJXLXzXFXLXJXJXJXGXlXLXGXDXVX0X$X` BX7X0XGXLXSXSXLXGXlXJXLXi.FXLXJXJXJXJXJXJXJXJXJXJXJXJXJXJXJXJXLXlXGXLXJXJXJXJXJXJXJXJXGXlXLXJXJXGXDXCXCX'.'.SXHXFXGXJXlXJXJXJXLXzXFXLXLXGXlXLXLXFXAXLXGXwXAXHXz.oXSXSXFXGXJXJXJXJXJXJXJXJXJXJXJXJXJXLXlXFXFXSXSXiXz.lXqX9XqX9XpXG = G pX9XqX9XqXlX4XT.T.T.T.T.T.>XlXwX>XT.T.T.T.T.T.wXlX9XpX_.Q &XKXxXzXKXlX_ ) pX",
"LXlXGXJXJXJXJXJXJXJXJXJXLXlXGXJXJXJXJXJXLXAXzXuXuXuXuXuX>XuXuXuXuX>XuXuXuXyX>XuXdXsXzXLXFXpXdXdX&.Q.lXzXFXGXJXJXJXJXJXJXJXJXJXJXJXJXJXLXlXGXJXFXzXlX5X/ 7XkXjXDXlXGXJXJXJXJXJXLXzXFXLXJXJXJXGXlXLXGXDXVX0X$X` BX7X0XGXLXSXSXLXGXlXJXLXi.FXLXJXJXJXJXJXJXJXJXJXJXJXJXJXJXJXJXLXlXGXLXJXJXJXJXJXJXJXJXGXlXLXJXJXGXDXCXCX'.'.SXHXFXGXJXlXJXJXJXLXzXFXLXLXGXlXLXLXFXAXLXGXwXAXHXz.oXSXSXFXGXJXJXJXJXJXJXJXJXJXJXJXJXJXLXlXFXFXSXSXiXz.lXqX9XqX9XpXG = G pX9XqX9XqXlX4XT.T.T.T.T.T.>XlXwX>XT.T.T.T.T.T.wXlXqXqX! _.KXjXlXlXDXLX7X! %X",
"LXlXGXJXJXJXJXJXJXJXJXJXLXlXGXJXJXJXJXJXLXAXzXuXuXuXuXuX>XuXuXuXuX>XuXuXuXyX>XuXuX>XuXSXzXpXdXdX&.Q.lXzXFXGXJXJXJXJXJXJXJXJXJXJXJXJXJXLXlXGXJXFXzXlX5X/ 7XkXjXDXlXGXJXJXJXJXJXLXzXFXLXJXJXJXGXlXLXGXDXVX0X$X` BX7X0XGXLXSXSXLXGXlXJXLXi.FXLXJXJXJXJXJXJXJXJXJXJXJXJXJXJXJXJXLXlXGXLXJXJXJXJXJXJXJXJXGXlXLXJXJXGXDXCXCX'.'.SXHXFXGXJXlXJXJXJXLXzXFXLXLXGXlXLXLXFXAXLXGXwXAXHXz.oXSXSXFXGXJXJXJXJXJXJXJXJXJXJXJXJXJXLXlXFXFXSXSXiXz.lXqX9XqX9XpXG = G pX9XqX9XqXlX4XT.T.T.T.T.T.>XlXwX>XT.T.T.T.T.T.wXlXpX1X! 1XzXlXlXsXr.q.5X_ 3.",
"JXlXGXJXJXJXJXJXJXJXJXJXJXlXGXJXJXJXJXGXJXlXzXuXuXuXuXuX>XuXuXuXuX>XuXuXuXyX>XuXuX>XyXuXyXuXdXdXM Q.lXlXzXGXJXGXGXGXGXGXGXGXGXGXGXGXGXJXlXFXGXFXzXlX5X/ 7XkXjXDXlXGXGXGXGXGXGXJXlXFXJXGXGXGXGXlXGXGXDXjX0X$X( CX7X0XFXGXAXAXJXGXlXGXLXi.FXGXGXGXGXGXGXGXGXGXGXGXGXJXJXJXJXGXJXlXFXJXJXJXJXJXJXGXGXJXGXlXJXGXJXFXDXCXCX'.'.SXAXSXFXGXlXGXJXGXJXlXFXGXGXFXlXJXGXAXzXJXFXwXMXHXz.oXSXSXSXGXGXGXGXJXJXJXJXJXJXJXJXJXGXJXlXSXFXmXdXiXz.lXqX9XqX9XpXG = G pX9XqX9XqXlX4XT.T.T.T.T.T.>XlXwX>XT.T.T.T.T.T.wXlXpX%X! 7XzXlXAXqXb , U.' ^ ",
"IXDXLXIXIXIXIXIXIXIXIXIXIXDXLXIXIXIXIXIXIXFXSXfXfXfXfXuX>XfXfXfXfX>XuXfXfXuX5XfXfXuXuXfXuXT.uXKX&.1XDXDXUXIXIXIXLXIXIXIXIXIXIXIXIXIXPXIXFXLXIXLXFXxXhX/ kXVXDXLXFXIXIXIXIXIXIXIXGXLXIXIXIXIXIXFXIXIXUXDXjX&X` UXCXBXLXIXGXGXIXIXFXIXIXL.PXPXPXPXPXIXIXIXIXIXIXIXIXIXIXIXIXIXIXDXLXIXIXIXIXIXIXIXIXIXLXDXIXLXIXUXUXZXZX&X'.UXHXUXIXIXDXIXIXIXIXFXJXPXPXPXxXIXIXJXGXIXLXAXHXUX XiXKXKXJXIXIXIXIXIXIXIXIXIXIXIXIXIXIXIXDXUXLXGXFXfXB.lXqX9XqX9XpXG = G pX9XqX9XqXlX4XT.T.T.T.T.T.>XlXwX>XT.T.T.T.T.T.wXlXqX3X! &XKXlXlXlXFXGXlX: 3.",
"s.s.s.s.s.s.s.s.s.s.s.s.s.s.s.s.s.s.s.s.s.s.s.V V V V V V V V V V V V V V V V s.s.s.V V V V V s.B s.s.s.j.N.!.yXN.U.1XP.G.G.G.G.L.I.,X8X;X=X=XU.P.L.e./ H.G.F.;XL.=X=X=X=X=X=X=XP.;X=X=X=X=X=XL.=X=XP.F.e.3.) %XG.i.;X;XP.:X5X=Xu.&X&X3.$X$X$X$X$X_.u.w.c.j.j.j.s.s.s.s.s.s.s.s.s.s.s.s.s.s.s.d.s.s.s.s.f.s.s.s.s.d.d.a.a.s.s.s.s.j.j.S.~.T.:XrXcXbXrXrX'.rX;XI.U.2X;Xi.;X;X2.B.I.I.;X2X1X.XoX@X|.|.|.|.|.|.|.|.|.|.D.|.|.|.D.U x.zXqX9XqX9XpXG = G pX9XqX9XqXlX4XT.T.T.T.T.T.>XlXwX>XT.T.T.T.T.T.wXlX9XpX` _ zXzXlXlXlXLX3.: 2X",
"S.A.S.S.S.S.S.S.S.S.S.S.S.A.S.S.S.S.S.S.S.N.A.j.j.j.j.j.j.j.j.j.j.j.j.s.s.p s u s V j.C.A.j.j.j.n a.j.s.s.s.s.w w i w % l N N l f f l m ,.qXMX2X2X=XL./ %X%X1X3X=X4X9X9X9X9X9XqX,X3X9X9X9X9X9X=X9X8X1X1XF.3.) 1X%X%X8XdX2X3.( _ ! ) } ( $X$X3.+.e t B d.d.j.c.n.N.N.m.Z.Z.Z.Z.N.Z.Z.Z.Z.Z.Z.V.i.7.3.' ' ` V.!.!.Z.Z.E.9.1.C.C.N.S.S.$.P I B t r P ).[.[.).(.(.(.(.rXqX;XrXrX2.B.,X,X0XoXI Y U |.|.@X@X@X@X@X@X@X@X@X@X@X@X@X@X|.x.zXqX9XqX9XpXG = G pX9XqX9XqXlX4XT.T.T.T.T.T.>XlXwX>XT.T.T.T.T.T.wXlX9XqX1X! ( lXlXlXFX3.: 3.sX",
"KXfXSXKXKXKXKXKXKXKXKXKXKXfXSXKXKXKXKXKXKXfXuXyXyXyXyXyXT.yXyXyXyXT.yXyXyXtXT.!.A.s.a j.fX>XyXyXM K.>X5XdXK.m m >.N.j.V V S.UXFXxXzXW.t.m N Q.IXGXzXhX/ kXjXDXUXAXLXIXIXIXIXLXIXSXGXIXIXIXIXLXSXIXLXGXDXjX&X` VXCXAXIX&X| } *XCXjXUXUXF.~.V V A.uXjXVXZXZXZXZXZXZXZXZXZXZXZXZXCXZXZXZXZXZXZXZXZXZXZXZX*X$X|  .ZXIXZXZX&X'.UXHXIXvX[.].cXvXHXmXT.s.V j.FXAXGXUXvX[.].[.sXGXHXB.6XKXJX|.U @XKXJXGXFXFXFXSXSXSXSXSXSXKXsXmXmXaXaXiXz.lXqX9XqX9XpXG = G pX9XqX9XqXlX4XT.T.T.T.T.T.>XlXwX>XT.T.T.T.T.T.wXlXqX9XpX%X` 9XwXqXlX3.O.sX9X",
"dXuXdXdXdXdXdXdXdXdXdXdXdXuXdXdXdXdXdXdXdXuXyX!.!.!.!.!.C.!.!.!.!.C.!.!.!.~.C.tXyXT.C.s.a N.yX!.n v.>XyXM x k.>X>XR.5X>Xj.i s.hXhXlXzXFXwXW.m N hXSX2X/ 7XkXjXDXlXGXGXGXGXGXGXLXpXzXLXGXGXGXGXlXJXGXDXjX0X$X` CXjX&X|  .7XAXDXVX7XZXCXC B E.ZXZXZXCXCXBXCXCXCXCXCXBXBXBXBXCXBX7XCXBXBXBXBXBXCXCXCXBXBX0XFXDX&X_ $XDXCX'.'.SXSX[.{.bXwXFXHXHXHXvXHXMXd.p 6XHXHXvXAXGX[.{.vXDXz.oXFXU |.SXSXmXmXmXmXmXmXmXmXmXmXmXmXmXiXaXaXiXiX+Xz.lXqX9XqX9XpXG = G pX9XqX9XqXlX4XT.T.T.T.T.T.>XlXwX>XT.T.T.T.T.T.wXlXqXqX9XqXpXqX9X9X9XpXsX9X9X",
"dXuXdXdXdXdXdXdXdXdXdXdXdXuXdXdXdXdXdXdXdXfXyX!.!.!.!.!.C.tX!.!.tXC.!.!.tX!.C.tX!.C.!.uXA.s A.yXn b.R.x M >X>XR.R.R.R.R.>XR.s.V hXzXhXlX5XlXFXt.f Q.hX/ 7XkXjXDXlXGXJXJXJXJXJXLXuXdXLXJXJXJXGXlXLXGXDXVX0X$X) DX&X_ &XUXjX7XVXCX7XeXB n CXZXBXCXBXCXCXVXBXBXBXBXBXBXBXBXBXBXVX7XCXVXBXBXBXBXBXBXBXBXCX7XCXCXDXBX| } DX'.'.GX{.].FXFXeXHXHXHXHXeXvXHXUXA.i sXHXvXvXHXFX[.{.VXz.6X|.|.SXmXmXmXmXmXmXmXmXmXmXmXmXmXmXmXfXaXaXaXiX+Xz.lXqX9XqX9XpXG = G pX9XqX9XqXlX4XT.T.T.T.T.T.>XlXwX>XT.T.T.T.T.T.wXlXqX9XqX9X9X9X9X9XqX9X9X9XqX",
"dXuXdXdXdXdXdXdXdXdXdXdXdXuXdXdXdXdXgXfXgXyXyX!.!.!.!.!.C.tX!.!.tXC.!.!.tX!.C.tXtXC.~.!.tXA.s A.*.b.x M yXR.R.R.R.R.R.R.R.R.zXs.B lXlXzX5XhXhXzXQ.f Y./ 7XjXjXDXlXGXJXJXJXJXJXLXuXfXLXJXJXJXGXlXLXGXDXVX0X$X` *X! &XVXCXeXjXVXVX7Xp A.%XCXBXBXBXVXCXjXVXBXBXBXBXBXBXBXBXBXBXVX7XCXVXBXBXBXBXBXBXBXBXCX7XVXBXCXCXVX|  .&X'.].].FXMXHXeXHXHXHXHXvXvXHXHXUXj.p HXvXvXHXvXwX[.{.B.x.U aXaXmXmXmXmXmXmXmXmXmXmXmXmXmXmXmXfXaXaXaXiX+Xz.lXqX9XqX9XpXG = G pX9XqX9XqXlX4XT.T.T.T.T.T.>XlXwX>XT.T.T.T.T.T.wXlXqX9XqXqX9X9XqXqX9X9X9XqXqX",
"dXuXdXdXdXdXdXdXdXdXdXdXdXuXdXdXdXdXuX!.tXC.!.tX!.!.!.!.C.tX!.!.tXC.!.!.tX!.C.tXtXC.~.tXC.C.A.s n x M R.E.R.R.R.R.R.R.R.R.R.hXDXs.s.zXzX5X5XzX5XhXK.f k 1XjXjXDXlXGXJXJXJXJXJXLXyXfXLXJXJXJXGXlXLXGXDXVX0X$X_ | &X7XCXVXkXjXVXZXV j.ZXu.CXVXBXBXVXCXeXVXBXBXBXBXBXBXBXBXBXBXVX7XCXVXBXBXBXBXBXBXBXBXCX7XVXBXBXCXcXCX| | (.].MXvXMXHXeXHXHXHXHXvXvXHXHXMXBXs.j.VXeXHXMXrXMX].T Y @XaXaXmXmXmXmXmXmXmXmXmXmXmXmXmXmXmXfXaXaXaXiX+Xz.lXqX9XqX9XpXG = G pX9XqX9XqXlX4XT.T.T.T.T.Z.>XlXwX>XZ.T.T.T.T.T.wXlXqX9XqX9XpXpX9X9XpXpX9X9XqX",
"dXuXdXdXdXdXdXdXdXdXdXdXdXuXdXdXdXdXuX!.tXC.!.tX!.!.!.!.C.tX!.!.tXC.!.!.tX!.C.tXtXC.~.tX~.N.~.f.d N E.K.E.R.R.R.R.R.R.R.R.R.5XhX5Xp j.lXE.R.zXhX5XhX,.f =X0XBXDXlXGXJXJXJXJXLXGX>XfXLXJXJXJXGXlXLXGXDXVX0X&XW $X7X&XCXVXkXeXZXj.V ZXVXu.CXVXBXBXVXjXeXVXBXBXBXBXBXBXBXBXBXBXVX7XCXVXBXBXBXBXBXBXBXBXCX7XVXBXBXCXcXcX*X{ {.vXvXvXHXHXeXHXHXHXHXvXvXHXHXMXvXHXp Z.BXHXMXeXvXcXP D.aXiXaXmXmXmXmXmXmXmXmXmXmXmXmXmXmXmXfXaXaXaXiX+Xz.lXqX9XqX9XpXG = G pX9XqX9XqXlX9XW.W.W.W.W.W.5XlXwX>XW.W.W.W.W.W.wXlXqX9X9XpX%X( ! ! ) _.qXqX9X",
"dXuXdXdXdXdXdXdXdXdXdXdXdXuXdXdXdXdXyX!.tXC.!.tX!.!.!.!.C.tX!.!.tXC.!.!.tX!.C.tXtXC.~.tX~.N.S.n.d C Q.E.E.R.R.R.R.R.R.R.R.R.R.R.R.E.a m.E.R.hXhX5XW.2Xf M eXjXDXlXGXJXJXJXJXLXSX>XuXJXJXJXJXGXlXLXGXDXBXhX} _ 7X*X7XCXVXeXCX,Xi 7XVXVXu.CXVXBXBXVXjX0XVXBXBXBXBXBXBXBXBXBXBXVX7XCXVXBXBXBXBXBXBXBXBXCX7XVXBXBXCXcX7X7X{ { vXvXvXHXHXeXHXHXHXHXvXvXHXHXMXeXUXZ.p vXHXMXeXvXbXY }.aXiXaXmXmXmXmXmXmXmXmXmXmXmXmXmXmXmXfXaXaXaXiX+Xz.lXqX9XqX9XpXG = G pX9XqX9XqXlXqXW.W.W.W.W.W.5XlXwX5XW.W.W.W.W.W.wXlXqX9XpX_.Q ( $X&X} ! ( 9XqX",
"dXuXdXdXdXdXdXdXdXdXdXdXdXuXdXdXdXdXyX!.tXC.!.tX!.!.!.!.C.tX!.!.tXC.!.!.tX!.C.tXtXC.~.tX~.N.S.x c s l.Q.E.R.R.R.R.R.R.R.R.R.R.R.R.>Xj.V E.E.5XhX5X5XY.k x Y.VXDXlXGXJXJXJXJXLXzX>XyXFXLXJXJXGXlXLXGXDXDX&XW ) cX*X7XCXVXkXCXV Z.CXCXVXu.CXVXBXBXVXjX0XVXBXBXBXBXBXBXBXBXBXBXVX7XCXVXBXBXBXBXBXBXBXBXCX7XVXBXBXCXcX7X[.{ ! $XMXvXHXHXeXHXHXHXHXvXvXHXHXMXeXHXHXV C.UXMX6XCX}.Y T iXaXaXmXmXmXmXmXmXmXmXmXmXmXmXmXmXmXfXaXaXaXiX+Xz.lXqX9XqX9XpXG = G pX9XqX9XqXlXqXW.W.W.W.W.W.5XlXwX5XW.W.W.W.W.W.wXlX9XpX%XQ $XKXKXSXKX0X! ` pX",
"dXuXdXdXdXdXdXdXdXdXdXdXdXuXdXdXdXdXyX!.tXC.!.tX!.!.!.!.C.tX!.!.tXC.!.!.tX!.C.tXtXC.~.tXC.S.M x n C i Q.E.R.R.R.R.R.R.R.R.R.R.R.R.R.R.V a.R.5XhXW.Q.Y.^ M m AXDXlXGXLXJXJXJXLXzX>XyXFXLXJXJXGXlXLXGXDXDX| ` ` cX*X7XCXBXCXh.s.ZX7XBXVXu.CXVXBXBXVXjX0XVXBXBXBXBXBXBXBXBXBXBXVX7XCXVXBXBXBXBXBXBXBXBXCX7XVXBXBXCXCX*X{._._.| vXvXMXHXeXHXHXHXHXvXvXHXHXMXeXHXHXoXV HXMXeXvXU x.T #XgXaXmXmXmXmXmXmXmXmXmXmXmXmXmXmXmXfXaXaXaXiX+Xz.lXqX9XqX9XpXG = G pX9XqX9XqXlXqX5X5X5X5X5X5X5XlXwX5XW.W.W.W.W.W.wXlX9XpX_ ` KXlXlXlXAXJX&XQ %X",
"dXuXdXdXdXdXdXdXdXdXdXdXdXuXdXdXdXdXyX!.tXC.!.tX!.!.!.!.C.tX!.!.tXC.!.!.tX!.C.tXtXC.~.tX!.N.x l.n k.a j.R.R.R.R.R.R.R.R.R.R.R.R.R.R.R.n.i R.5XR.E.K.K.k L.x K.GXlXGXJXJXJXJXLXzX>XyXSXLXJXJXGXlXJXGXGX&X_ $X_ cX*X7XCXVX0Xi 4XZX7XBXVXu.CXVXBXBXVXeX0XVXBXBXBXBXBXBXBXBXBXBXVX7XCXVXBXBXBXBXBXBXBXBXCX7XVXBXBXCXCX{.[._.'.} _.HXvXHXeXHXHXHXHXvXvXHXHXMXeXHXHXVXp Z.HXeXOXU }.}.].aXaXmXmXmXmXmXmXmXmXmXmXmXmXmXmXmXfXaXaXaXiX+Xz.lXqX9XqX9XpXG = G pX9XqX9XqXAX^.A A A A A A /.MXsX5XW.W.W.W.W.W.wXlXqX1X! &XxXlXlXlX:XU.wX_ _.",
"dXuXdXdXdXdXdXdXdXdXdXdXdXuXdXdXdXdXyX!.tXC.!.tX!.!.!.!.C.tX!.!.tXC.!.!.tX!.C.tXtXC.~.!.yXn n S.n g.j.a R.R.R.R.R.R.R.R.R.R.R.R.R.R.R.>XV s.5XE.E.K.v.k L.,.x SXlXzXFXGXGXGXJXdX>XyXzXJXGXGXGXlXFXGXGX| $X$X_ 7X*X7XCXZXj.s.ZXCX7XBXVXu.CXVXBXBXVXeX8XVXBXBXBXBXBXBXBXBXBXBXVX7XCXVXBXBXBXBXBXBXBXBXCX7XVXBXBXCXcX{.*X_._.*X| vXHXHXeXHXHXHXHXvXvXHXHXMXeXHXHXVXA.s.HXeXU OX).OX].6XaXmXmXmXmXmXmXmXmXmXmXmXmXmXmXmXfXaXaXaXiX+Xz.lXqX9XqX9XpXG = G pX9XqX9XqXAX5X/./././././.^.AXsX5XW.W.W.W.W.W.wXlXpX%X! 7XzXlXAX9Xq , Y.' ' ",
"dXuXdXdXdXdXdXdXdXdXdXdXdXuXdXdXdXdXyX!.tXC.!.tX!.!.tX!.C.tX!.!.tXC.!.tXtX!.C.tXtXC.~.tXC.x l.N.n g.K.i j.>XR.R.R.R.R.R.R.R.R.R.R.R.R.R.n.i R.E.E.K.v.k r.I.x K.AXuXKXIXIXIXIXdX>X>XzXLXIXIXIXlXzXPX&X| 7X$X_ 7X*X7XCXeXi 8XZXCX7XBXVXu.CXVXBXBXVXeX8XVXBXBXBXBXBXBXBXBXBXBXVX7XCXVXBXBXBXBXBXBXBXVXCX7XVXBXCXVX].].*X_._.vX} $XKXHXeXHXHXHXHXvXvXHXHXMXeXHXHXvXeXV 4X6XU bX2.OX[.[.NXmXmXmXmXmXmXmXmXmXmXmXmXmXmXmXfXaXaXaXiX+Xz.lXqX9XqX9XpXG = G pX9XqX9XqXlXqX5X5X5X5X5X5X5XlXwX5XW.W.W.W.W.W.wXlXqX1X! &XSXlXlXlXlXsXlX: O.",
"dXuXdXdXdXdXdXdXdXdXdXdXdXuXdXdXdXdXyX!.tXC.!.!.!.!.!.!.C.!.!.!.!.C.!.!.!.~.C.!.!.C.C.yXM n M.n.n g.n.j.a R.R.R.R.R.R.R.R.R.R.R.R.R.R.R.E.V s.R.E.K.v.k r.Y.,.N fXgXlX&XJ./ / / k / / / / J.%XwXKXPX| $X7X$X_ 1X&X&XZXj.a.ZXBXCX7XCXVXu.CXBXCXCXBX0X3XVXCXjXCXCXCXCXCXCXCXCXBX7XCXBXCXCXCXCXCXCXCXCXCX7XBXCXBXcX{.*X*X_._.cX*X| MXHXeXHXHXHXHXeXvXHXHXvXeXHXHXvXVXj.j.}.x.bX2.OX#X).aXmXmXmXmXmXmXmXmXmXmXmXmXmXmXmXfXaXaXiXiX+Xz.lXqX9XqX9XpXG = G pX9XqX9XqXlXqXW.W.W.W.W.W.5XlXwX5XW.W.W.W.W.W.wXlX9XpX( ( KXlXlXlXlXPX3.: ;X",
"uX>XuXuXuXuXuXuXuXuXuXuXuX>XuXuXuXuXT.C.C.N.C.C.C.C.C.C.N.C.C.T.T.N.C.C.C.C.m.C.C.m.C.C.x g.l.l.n *.l.b.i j.E.E.E.E.E.E.E.E.E.E.E.E.E.E.K.l.i m.b.v.>.k t.t.V.x :.%.k / 3.H.%XL.r.V.V.G.H.3./ / %.$X| 7X%X$X_ %X&X&X1Xp ;X7X7X7X1X7XeX7.7X7X7X7X7X1X=X7X7X1X7X7X7X7X7X7X7X7X7X1X7X7X7X7X7X7X7X7X7X7X7X1X7X7XkX[.{.&X&X_._.&XrX| $XMXrXeXeXeXeX8XeXeXeXeX8XeXeXeXeX<Xp U OXrX2.}.6X).OXfXiXiXiXiXiXiXiXiXiXiXiXiXiXfX<XiXiX<X<XoXz.lXqX9XqX9XpXG = G pX9XqX9XqXlX4X>X>X>X>X>X>X3XlXwX>X>X>X>X>X>X>XwXlX9XpX%X! ` lXlXlXSXu.: ^ lX",
"dXuXdXdXdXdXdXdXdXdXdXdXdXtXyXyXyXyXtX!.tXC.!.tXtXtXtX!.C.tXS.S.S.C.!.tXtX!.C.tXtXC.yX*.x N.n.n.n g.n.m.j.V 5XR.R.R.R.R.R.R.R.R.R.R.R.R.E.R.V j.R.K.v.k G.K.R.k l 0.U.DXsX4XqX3XI.U.>X5XDXFXDX1X0.~ ` VX&X$X_ ;X%XcXc.s.CXeXVXBX7XVXVXu.CXVXVXVXVXeX8XVXjXeXVXVXVXVXVXVXVXBXVX7XCXVXVXVXVXVXVXVXVXVXBX7XVXVXVX{.*X*X*X_._.cXcX&X| GXeXHXHXHXHXvXvXHXHXHXeXHXHXvXvXUXV I bXbX2.OXiX].#XKXmXmXmXmXmXmXmXmXmXmXmXmXmXmXfXaXmXaXiX+Xz.lXqX9XqX9XpXG = G pX9XqX9XqXlXqX4X4X4X4X4X4X4XlXwX>X>X>X>X>X>X>XwXlXqX9XpX%X( 8XsXqXzX^ ^ pXqX",
"dXuXdXdXdXdXdXdXdXdXdXdXdXC.!.!.!.!.!.!.tXC.!.tX!.!.!.!.T.S.V j.V s.tX!.tX!.C.tXtXC.tXx l.n.n.n.n g.n.n.E.a N.R.R.R.R.R.R.R.R.R.R.R.R.R.E.R.n.i E.K.v.k K.Y.k / x R.:X2XU.U.U.:XI.U.R.2XjXjXkX8X;X| / / 7X$X_ ;X%X%Xp :XeX0XjXBX7XBXVXu.CXVXBXBXVX0X3XBXeX0XVXBXBXBXBXBXBXBXVX7XCXBXBXBXBXBXBXBXBXBXCX7XBXVX*X{.cX*X*X_._.cXcXvX| cXsXHXHXHXHXvXvXHXHXMXeXHXHXvXeXUXj.d.bXbX2.OXiX#X].KXmXmXmXmXmXmXmXmXmXmXmXmXmXmXfXaXaXiXiX+Xz.lXqX9XqX9XpXG = G pX9XqX9XqXAX>Xh.h.h.h.h.d.M.lXwX>X>X>X>X>X>X>XwXlXqXqX9XpXqXqX9X9X9XqXpXqX9X",
"dXuXdXdXdXdXdXdXdXdXdXdXdXC.!.tX!.!.!.!.tXC.!.tX!.!.!.C.C.j.j.fXS.s.yXtXtX!.C.tX!.tXg.x C.l.n.n.n g.n.n.E.s.V 5XR.R.R.R.R.R.R.R.R.R.R.R.E.R.R.B j.Q.v.k K.k / R.m M 4XU.:X:X:X:XI.U.:X:XkXjXjX5X` $XjX/ / $X) ;X%Xc.V 0X8X0XeXVX7XBXVXu.CXVXBXBXVX0X3XCX0X0XVXBXBXBXBXBXBXBXVX7XCXVXBXBXBXBXBXBXBXBXCX7XBXVX{.*XcX*X*X_._.cXcXvX$X} mXHXHXHXHXvXvXHXHXMXeXHXHXvXvXHXU a 6XbX2.OX6X6X].nXmXmXmXmXmXmXmXmXmXmXmXmXmXmXfXaXaXaXiX+Xz.lXqX9XqX9XpXG = G pX9XqX9XqXAXE.i i i i p i l.AXwX>X>X>X>X>X>X>XwXlXqX9XqX9X9X9XqXqXqX9X9X9XqX",
"dXuXdXdXdXdXdXdXdXdXdXdXdXC.!.!.!.!.!.!.tXC.!.tX!.yXs.s.s.s.S.yXS.V S.C.tX!.C.tX!.tXx *.C.l.n.n.n g.n.n.m.m.a E.R.R.R.R.R.R.R.R.R.R.R.R.E.E.>Xj.B Q.v.k k / Y.K.>.x U.:X:X:X:X:XI.U.:XU.3X0XjXP.( &X&X7X/ ~ ) ;X%XB c.3X8X0X0XCX7XCXVXu.CXVXBXBXVX0X3XCX0X8XVXBXBXBXBXBXBXBXVX7XCXVXBXBXBXBXBXBXBXBXCX7XVXcX{.cXcX*X*X_._.cXcXcXcX| eXHXHXHXHXvXvXHXHXMXeXHXHXvXBX@XU s.A.bX2.OX6XiX].#XKXmXmXmXmXmXmXmXmXmXmXmXmXmXfXaXaXaXiX+Xz.lXqX9XqX9XpXG = G pX9XqX9XqXAXE.B B B B B p c.AXwX>X>X>X>X>X>X>XwXlXqX9XqXqX9X4X4X4X4X4X9XqXqX",
"dXuXdXdXdXdXdXdXdXdXdXdXdXC.!.!.!.!.!.!.tXC.!.tX!.tXs.C.C.tXtX!.!.s.s.s.!.!.C.tXyXm.x E.m.l.n.n.n g.n.n.N.E.V s.5XR.R.R.R.R.R.R.R.R.R.R.E.R.R.E.i l.K.l k K.t.K.L.N ,.3XU.:X:X:XI.U.:X:X2X0XlX3.` 2X&X&X&X~ ' 1Xt.p =X,X8X0X,XCX7X8XBXu.CXVXBXBXVX0X3XjX8X8XVXBXBXBXCXBXBXBXVX7XCXVXBXBXBXBXBXBXBXBXCX7XDX[.[.CXcX*X*X_._.cXcXcXvX} _.GXHXHXHXvXvXHXHXMXeXHXHXvXVX|.}.c.d.bX2.OX6XiX#X[.KXmXmXmXmXmXmXmXmXmXmXmXmXmXfXaXaXaXiX+Xz.lXqX9XqX9XpXG = G pX9XqX9XqXAXE.p B B B B p c.AXwX>X>X>X>X>X>X>XwXlXqX9XqX4XwXAXlXlXAXsX4X9XqX",
"dXuXdXdXdXdXdXdXdXdXdXdXdXC.!.!.!.!.!.!.tXC.!.tX!.tXs.C.C.!.!.!.tXT.tXs.C.!.C.!.yXM M ~.m.l.n.n.n g.n.n.m.E.n.a R.R.R.R.R.R.R.R.R.R.R.R.E.R.R.R.s.s.t.l 0.t.r.K.v.,.N 3XU.:X:X:XI.U.:X:X:X8XhX` u.I.%X&X&X$Xg %Xa.a.1X,X,X,X,XeX=X3XwXu.CXBXCXBXBX8X,XjX3X3XVXBXBXBXjXBXBXBXVX7XCXVXBXBXBXBXBXBXBXBXCX7XCX{.cXcXcX*X*X_._.cXcXcXvX&X} GXHXHXHXvXvXHXHXMXeXHXHXvXvXU 6X Xi 6X2.OX6XiX#X].mXmXmXmXmXmXmXmXmXmXmXmXmXmXfXaXaXaXiX+Xz.lXqX9XqX9XpXG : G pX9XqX9XqXAXE.p B B B B i c.AXwX>X>X>X>X>X>X>XwXlXqXqX4XsX:Xx % % x t.lXqX9X",
"dXuXdXdXdXdXdXdXdXdXdXdXdXC.!.!.!.!.!.!.tXC.!.tX!.!.s.C.C.tX!.!.tXC.!.s.S.!.C.tXtXx l.E.m.l.n.n.n g.n.n.m.m.E.a n.>XR.R.R.R.R.R.R.R.R.R.E.R.R.R.n.a l l t.t.r.K.t.Y.x K.>XU.:X:XI.U.:X:XU.qX&X` =XF.%X&X&X3.~ ^ i V.,X,X=X=X,X8XI.,X0Xu.CXBX8XVXjX,X3XeX,X3XBXBXBXBXeXBXBXBXVX7XCXVXBXBXBXBXBXBXBXBXCXkX*X].CXcXcX*X*X_._.cXcXcXcXvX| cXHXHXHXvXvXHXHXMXeXHXHXVX+XU MX6XV A.).OX6X6XiX].nXKXmXmXmXmXmXmXmXmXmXmXmXmXfXaXaXaXiX+Xz.lXqX9XqX9XpX< + < pX9XqX9XqXAXE.p B B B B i c.AXwX>X>X>X>X>X>X>XwXlXqX4XsX,.$ % x b , $ x wX9X",
"dXuXdXdXdXdXdXdXdXdXdXdXdXC.!.!.!.!.!.!.tXC.!.tXtX!.s.!.C.tX!.!.tXC.tXs.S.!.C.yXk.x C.M.m.l.n.n.n g.n.n.m.m.E.s.V 5XR.R.R.R.R.R.R.R.R.R.E.R.R.E.Q.V b k 0.t.r.K.t.U.M M 4XU.:X:XI.U.:X:XU.uX` 3.=XF.F.&X&X3.( n a.%X=X,X=X=X,X3XI.:X8Xu.jXBX,XBX0X:X3X0X:X3XBXBXBXBX0XBXBXBXVX7XCXVXBXBXBXBXBXBXBXBXCXkX{.*XvXcXcX*X*X_._.cXcXcXcXBX} $XJXHXHXvXvXHXHXMXeXHXHXVXx.|.MX6Xj.d.}.OX6X6XaX].#XKXmXmXmXmXmXmXmXmXmXmXmXmXfXaXaXaXiX+Xz.lXqX9XqX9XqXu.3.u.qX9XqX9XqXAXE.p B B B B i c.AXwX>X>X>X>X>X>X>XwXlX4XsXt.$ x AXGXGXGXt.$ x lX",
"dXuXdXdXdXdXdXdXdXdXdXdXdXC.!.!.!.!.!.!.tXC.!.tXtX~.s.!.C.tX!.!.tXC.tXs.S.yXC.yXm *.C.M.m.l.n.n.n g.n.n.m.M.M.M.a E.R.R.R.R.R.R.R.R.R.R.E.R.R.E.Y.v i k 0.t.r.K.t.K.K.x U.:XU.:XI.U.:X:X:XU.( i.P.P.F.&XG.3.' p k %X=X,X=X=X,X,XI.:X8Xw.8XCX,XeX3X:X,X0X:X,XCXCXBXBX0XBXBXBXVX7XCXVXBXBXBXBXBXBXBXBXVXrX{.vXcXcXcX*X*X_._.cXcXcXcXvX&X| HXHXHXvXvXHXHXMXeXHXHXvXU iXnX6XoXV 2.OX6X6XaX#X].KXmXmXmXmXmXmXmXmXmXmXmXmXfXaXaXaXiX+Xz.lXqX9XqXqX9XSXJXSX9XqXqX9XqXAXE.p B B B B p c.AXwX>X>X>X>X>X>X>XwXlX9XsX% , LXlXlXlXlXIX,.$ Y.",
"dXuXdXdXdXdXdXdXdXdXdXdXdXC.!.!.!.!.!.!.tXC.!.!.!.C.s.!.C.tX!.!.tXC.yXs.j.N.C.E.x N.m.M.m.l.n.n.n g.n.n.m.M.M.E.V s.5XR.R.R.R.R.R.R.R.R.E.R.R.!.%.k i k 0.t.r.K.t.K.U.m >.3XU.:XI.U.:X:X>X3.` L.P.P.F.%XG.3.^ V / 3.3X,X=X=X,X,XI.,X3Xw.8X8X:X0X,X,X,X8X,X,XCXjXBXBX8XBXBXBXVX7XCXVXBXBXBXBXBXBXBXCXVX].[.CXcXcXcX*X*X_._.cXcXcXcXcXeX| *XHXHXvXvXHXHXMXeXHXHX6XU MXnXOXbXV I OX6X6XiXbX].mXmXmXmXmXmXmXmXmXmXmXmXmXfXaXaXaXiX+Xz.lXqX9XqXqX9XlXzXlX9XqXqX9XqXAXE.p B B B B p c.AXwX>X>X>X>X>X>X>XwXlXwXU.$ t.GXlXlXlXlXlXlX% M ",
"dXuXdXdXdXdXdXgXgXgXgXdXfXC.!.!.!.!.!.!.tXC.!.yXyX!.s.tXC.tX!.!.tXC.!.S.s.s.s.*.M C.N.M.m.l.n.n.n g.n.n.m.M.M.E.j.p >XR.R.R.R.R.R.R.R.R.E.R.R.E.k H.a.t 0.t.r.K.t.K.Y.,.m 3XU.:XI.U.:X:X>X` u.L.P.P.F.G.e.3.e h.u.k ,X,X=X=X,X,XI.,X3X6.,X3X,X3X,X,X,X3X,X,XeXeXBXCX8XBXBXBXVX7XCXVXBXBXBXBXBXBXBXBXVX{.cXcXcXcXcX*X*X_._.cXcXcXcXcXeX$X} JXHXvXvXHXHXMXeXHXUX|.|.MXnXOXbXd.t OX6X6XiXnX].nXNXmXmXmXmXmXmXmXmXmXmXmXfXaXaXaXiX+Xz.lXqX9XqXqXqX7X7X7XqXqXqX9XqXAXE.p B B B B i c.AXwX>X>X>X>X>X>X>XwXlXsXv.$ U.SXlXAXlXlXlXGX% x ",
"dXuXdXdXdXdXyX!.!.!.!.!.!.C.!.!.!.!.!.!.!.C.C.j.j.s.s.tXC.!.!.!.!.C.!.tXyX!.s.x b.m.N.M.m.l.n.n.n g.n.n.m.m.M.m.E.a n.R.R.R.R.R.R.R.R.R.E.E.yX%./ K.:.i >.e.t.K.t.K.K.K.x Y.:X:XI.U.:X>XF.` I.i.P.F.F.G.u.6.i u.F.^ 3.4XU.=X,X:XI.:X,X6.=X,X:X,X,X:X,X,X,X:X8X0XeXeX3XCXCXCXBX7XjXCXCXCXCXjXeXCXCXVXcX{.CXcXcXcXcX*X*X_._.cXcXcXcXcXrX*X| HXHXeXvXHXHXvXeXHXHXU +XMX6XOXbXB.a OX6X6X6XMX].#XKXmXmXmXmXmXmXmXmXmXmXmXiXaXaXiXiX+Xz.lXqX9XqX9XpX( Q ( pX9XqX9XqXAXE.p B B B B i c.AXwX>X>X>X>X>X>X>XwXlXwXI.$ t.GXqXv 3XAXlXAX% b ",
"KXfXKXKXKXKXuXyXyXyXyXyXyX~.yXyXyXyXyXyXyXtXs.j.S.j.S.yX~.yXyXyXyX!.tXyXyXyXB c N.m.M.E.M.n.N.N.n g.m.m.M.E.E.E.R.s.s.5XR.>X>X>X>X>XR.>XE.R.R.k t.K.H.t a.H.K.Y.K.Y.Y.:XM &.pX>XU.:X2XuX3.3.:XF.;X;XP.F.H.n $.%XF.0./ 9X:X,X4X3X=X3X9X9.,X4X4X4X4X4X4X4X4X3XqXwXqXjXqXVXZXVXVXCXwXVXUXBXVXwXjXUXZXUX[.[.ZXvXCXcXcX*X*X_._.cXcXcXvXCXcXHX} *XIXvXHXUXUXHXvXUXnXU MXMXMX6XnXbXp oXnXnXnXmX#X[.KXKXKXKXKXKXKXKXKXKXKXKXaXNXNXmXaX+Xz.lXqX9XqX9XpX( Q ( pX9XqX9XqXAXE.p B B B B i c.AXwX>X>X>X>X>X>X>XwXlX9XsX% x IXb v FXlXLXt.$ K.",
"V.b.V.V.V.V.c.c.c.c.c.c.c.h.c.c.c.c.c.c.c.h.B h.b.c.c.c.h.c.c.c.c.h.c.c.c.c.c c p V s.h.:.$.$.a.c n *.*.*.*.*.*.h.$.i k.>.>.>.>.>.>.>.>.:.b.%.l :.&.&.k i ;.;.;.&.-.-.:.&.x t.q.:.q.q.q.' 4.6.=.6.6.4.4.#.t ^ 3.%.4.k %.9.9.w.w.9.w.w...8.w.w.w.w.w.w.w.w.w.w.w.w.i.w.i.F.i.F.u.i.F.%Xi.F.w.i.%XF.%X(.p.`.`.`.`.'._._.<.(.'.'.'.`.`.p.`.} } -Xi.`.;X;X`.i.;Xx.U i. X Xy.`.'.p d.`.B.B. X'.(.V.V.V.V.V.V.V.V.V.V.V.V.B.V.V.B.B.z.z.zXqX9XqX9XpX( Q ( pX9XqX9XqXAXE.p B B B B p c.AXwX>X>X>X>X>X>X>XwXlX4XsX>.$ &.K.3XSXAXY.$ x sX",
">XE.>X>X>X>XZ.N.N.N.N.N.N.c.N.N.N.N.N.N.N.N.d.c.N.N.N.N.c.N.N.N.N.c.N.N.N.n.x k.N.n.s.i B g.h.h.n *.h.h.h.l.l.k.l.b.i a.K.b.b.b.b.b.b.b.v.m.k ,.>.,.;.k i $.0.>.:.>.t.>.v.x ,.L.t.r.K.3.` r.w.7.e.e.0.0.$.t ' 0.7.7.3.^ V.r.V.V.r.V.V.#.V.V.V.V.V.V.V.V.V.V.P.P.V.V.V.P.1X;X;Xi.P.P.1XP.;XP.P.1X7X'.{.%X&X&X&X&X&X&X&X_._.&X`.&X&X&X`.&X&X| rX-XrXrXrXrX-X7XU OXXXXXXX XXX#Xd.p OXOXOXXXXX(.-X<X<X<X<X<X<X<X<X<X<X<X-X<X<XoXoXB.z.zXqX9XqX9XpX( Q ( pX9XqX9XqXAXE.p B B B B p c.AXwX>X>X>X>X>X>X>XwXlXqX4XlXM f lXlXqXSXx % 9XqX",
"uXtXyXuXuXuXyXyXyXyXyXyXyXC.tXyXyXyXyXyXyX!.s.C.yXyXyXtXC.yXyXyXyX~.tXtXyXk.m !.E.m.m.m.s.V j.m.n g.m.m.m.E.E.E.E.R.j.V 5XR.R.R.R.R.R.R.R.e.k Q.K.K.>.k $.C G.Y.v.Y.Y.Y.R.M M pXI.:XuX` 3.=X;XF.;X;XF.F.V X.` F.u.i.;X/ G.<X3X3X=X3X4X9.,X3X3X3X3X3X3X3X3X3X4X3X3X3X3X3XBXwXwX:X3X3XjX3X9X3X3X0XUX].[.7XvXvXvXcXcX*X*X_._.cXcXcXcXvX7XcXVX} *XSXHXHXHXHXBXMXU nXiXMXnX6X6XbXx.a iXnXnXMXmX].bXKXKXKXKXKXKXKXKXKXKXKXaXmXNXaXaX+Xz.lXqX9XqX9XpX( Q ( pX9XqX9XqXAXE.p B B B B i c.AXwX>X>X>X>X>X>X>XwXlXqX9X9XwX5X9X4X9XqX3X9XqX9X",
"!.C.!.!.!.!.!.!.!.!.!.!.!.C.!.!.!.!.!.!.!.C.s.C.tX!.!.!.C.!.!.!.tXC.!.!.yXx *.T.M.N.m.E.N.s.B s.n g.l.n.m.M.M.M.E.M.M.a E.R.R.R.R.R.R.R.R./ ,.Y.t.t.>.k q.i >.K.t.K.K.K.Y.K.x U.I.U.U.( F.P.P.i.P.P.F.q.i 3.' G.u.u.;X3./ <X,X:XI.,X,X6.=X,X,X,X,X,X,X,X,X,X,X,X,X,X,X,X0X3X8XI.:X,X,X,X,X,X,X:XrX{.cXrXcXcXcXcXcX&X*X_._.cXcXrXcXcXrXcXvX$X} mXvXHXHXvXBX@X|.vX6XnXnXOX6XbX).a A.nX6XnXmX[.[.KXmXmXmXmXmXmXmXmXmXmXfXaXaXiXiX+Xz.lXqX9XqX9XpX( Q ( pX9XqX9XqXAXE.p B B B B i c.AXwX>X>X>X>X>X>X>XwXlXqX9X9X9XqX9XqXqX9XqXqX9XqX",
"tXC.!.tX!.!.!.!.!.!.!.!.tXC.!.!.!.!.!.!.tXC.s.~.tX!.!.!.C.tX!.!.tXC.!.tXE.x N.M.M.N.m.M.m.n.j.V i g.V V j.M.E.E.n.m.E.V s.5XR.R.R.R.R.R.t.k Y.K.v.t.>.k H.C C Y.v.K.K.K.K.U.m >.:XR.u.` =XP.P.i.P.P.%Xa.$.3.' G.u.u.F.F.k I.,X,XI.,X,X6.:X,X,X,X,X,X,X,X,X,X,X,X,X,X,X,X0X,X8XU.:X,X,X,X,X,X,X5X'.).vXrX7XcXcXcXcX%X*X_._.cXcXrXcXcXrXcXcXcX| eXMXHXHXMXBXU @XeX6XnXnXOX6XbX}.d.d.nXiXnXMX#X].KXmXmXmXmXmXmXmXmXmXmXfXaXaXaXiX+Xz.lXqX9XqX9XpX( Q ( pX9XqX9XqXAXE.p B B B B i c.AXwX>X>X>X>X>X>X>XwXlXqX9XqX9X9X9X9X9X9X9X9XqXqX",
"tXC.!.!.!.!.!.!.!.!.!.!.tXC.!.!.!.!.!.!.tXC.s.!.tX!.!.!.C.tX!.!.tXC.!.yX*.M C.M.M.N.m.M.m.l.n.N.C i j.j.V V j.s.V s.R.j.p >XR.R.R.R.R.yX%.%.E.K.v.t.>.k 0.>.i v.r.K.K.K.K.Q.,.m :XR.` u.U.P.P.i.P.P.r.i q.3.' G.u.u.F.=X/ 3.9X:XI.,X,X6.:X,X,X,X,X,X,X,X,X,X,X,X,X,X,X,X3X,X3XU.:X,X,X,X,X,X,X3X).`.7X.X-XrX7XcXrX`.&X_._.cXcXrXcXcXrXcXcXvX} &XSXHXHXHX6XU nX6X6XnXnXOX6XbX}.x.V 6XiXnXnXnX].mXmXmXmXmXmXmXmXmXmXmXfXaXaXaXiX+Xz.lXqX9XqX9XpX( Q ( pX9XqX9XqXAXE.p B B B B p c.AXwX>X>X>X>X>X>X>XwXlXqX9XqX9XqXpXpXpXpXqX9XqXqX",
"tXC.!.!.!.!.!.!.!.!.!.!.tXC.!.!.!.!.!.!.tXC.s.!.tX!.!.!.C.tX!.!.tXC.!.yXx g.m.M.M.N.m.M.m.l.n.n.n g.n.n.M.j.s.j.M.V s.E.a M.R.R.R.R.R.R.k H.Y.K.v.t.>.k 0.H.B a.G.K.K.K.K.K.K.x K.P.( P.P.P.P.i.P.%Xa.C H.3.' G.u.u.F.;X0./ 3X:XI.,X,X6.:X,X,X,X,X,X3X,X,X,X,X,X,X,X,X,X,X,X,XU.:X,X,X,X,X,X2XXX(.-X-X.X-XrX-XrXrX`.%X_._.cXcXrXcXcXrXcXcXvX$X} SXHXHXHXOX|.MX6X6XnXnXOX6XbX2.OXV oXnXnXnXMX].nXNXmXmXmXmXmXmXmXmXmXfXaXaXaXiX+Xz.lXqX9XqX9XpX( Q ( pX9XqX9XqXAXE.p B B B B p c.AXwX>X>X>X>X>X>X>XwXlXqXqX9XpXqX_.} } _.1XpX9X9X",
"tXC.!.!.!.!.!.!.!.!.!.!.tXC.!.!.!.!.!.!.tXC.s.!.tX!.!.!.C.tX!.!.tXC.tXm.x C.n.M.M.N.m.M.m.l.n.n.n g.n.n.m.E.E.E.M.m.V M.s.s.5XR.R.R.!.0.k E.K.K.v.t.>.k 0.H.g.p r.K.K.K.K.K.U.m *.3.3.=XP.P.P.i.P.P.i q.u.3.' G.u.u.F.P.P.^ G.3XI.,X,X6.:X,X,X,X3XZ.m.3X,X,X,X,X,X,X,X,X,X,X,XU.:X,X,X,X,X,X5X'.).,X-X.X-XrX-X-X;X`.%Xp._.cXcX-XcX7XrXcXcXcXcX| vXHXHXHXU @XMX6X6XnXnXOX6XbX2.OXd.j.nXiXnXmX].#XKXmXmXmXmXmXmXmXmXmXfXaXaXaXiX+Xz.lXqX9XqX9XpX( Q ( pX9XqX9XqXAXE.p B B B B i c.AXwX>X>X>X>X>X>X>XwXlXqX9XpX%X{ [ | | { [ _.pX9X",
"tXC.!.!.!.!.!.!.!.!.!.!.tXC.!.!.!.!.yXyXyXC.s.!.!.!.!.!.C.tX!.!.tXC.yXM M C.n.M.M.N.m.M.m.l.n.n.n g.n.n.m.m.M.M.M.E.s.j.s.a R.R.R.R.yX/ %.Q.K.K.v.t.>.k 0.t.G.p g.Y.K.K.K.K.Y.>.x ` u.I.P.P.P.i.;Xh.B G.e.3.' G.u.u.F.P.I.%./ 4XI.,X,X6.:X,X,X:X8Xc.d.8X:X,X,X,X,X,X,X,X,X,X,XU.:X,X,X,X,X,X2X(.XX-X-X.X-X-X-X-X.X`.`.<._.cXcX-X7X-X;XcXcXcXvX} *XGXHXMXU iXMX6X6XnXnXOX6XbX2.OXA.d.nXnXnXmX[.[.KXmXmXmXmXmXmXmXmXmXfXaXaXaXiX+Xz.lXqX9XqX9XpX( Q ( pX9XqX9XqXAXE.p B B B B i c.AXwX>X>X>X>X>X>X>XwXlX9XqX1X[ | eXxXxXzX_.[ _.pX",
"tXC.!.!.!.!.!.!.!.!.!.!.tXC.!.!.!.tXj.s.s.s.s.tX!.!.!.!.C.tX!.!.tXC.tXx n.M.n.M.M.N.m.M.m.l.n.n.n g.n.n.m.M.M.M.M.E.j.i s.a M.R.R.R.Y.k v.K.K.K.v.t.>.k 0.t.G.g.p Y.K.K.K.K.K.Q.k ' =XP.P.P.P.i.;Xp h.G.e.3.' G.u.u.F.P.F.G./ =XU.,X,X6.:X,X,X:X8Xc.d.8X:X,X,X,X,X,X,X,X,X,X,XU.:X,X,X,X,X2XXX(.-X-X-X.X-X-X-X-X.X`.`.p._.cXrX-XrX-X.X7XcX7XvX_.} JXHX@XU MXnX6X6XnXnXOX6XbX2.OX+Xp 6XnXnXMX#X].KXmXmXmXmXmXmXmXmXmXfXaXaXaXiX+Xz.lXqX9XqX9XpX( Q ( pX9XqX9XqXAXE.p B B B B i c.AXwX>X>X>X>X>X>X>XwXlX9XpX| { xXzXlXlXlXKX_.[ 1X",
"tXC.!.!.!.!.!.!.!.!.!.!.tXC.!.!.tX!.V N.S.A.C.tX!.!.!.!.C.tX!.!.!.Z.l.x T.m.N.M.M.N.m.M.m.l.n.n.n g.n.n.m.M.M.M.M.M.m.n.R.s.s.>XE.yX%.%.K.K.K.K.v.t.>.k 0.t.r.K.i h.Y.K.K.K.K.E./ ` =XP.P.P.P.F.h.p F.G.e.3.' G.u.u.F.P.G.=X/ 3.<X:X,X6.:X,X,X:X8Xj.d.8X:X,X,X,X,X,X,X,X,X,X,XU.:X,X,X,X,X5X'.'.,X-X-X.X-X-X-X-X.X`.`.p.p.rX-X-XrX-XV.rXrX-XeX*X| HXUX|.}.MXnX6X6XnXnXOX6XbX2.OXnXV A.MXnXnXnX].mXmXmXmXmXmXmXmXmXmXfXaXaXaXiX+Xz.lXqX9XqX9XpX( Q ( pX9XqX9XqXAXE.B B B B B p c.AXwX>X>X>X>X>X>X>XwXlXqX8X[ &XxXlXlXlXDXFXlX[ _.",
"tXC.!.!.!.!.!.!.!.!.!.!.tXC.!.!.tX~.s.yXyXT.!.!.!.!.!.!.C.tX!.!.!.tXM M ~.m.N.M.M.N.m.M.m.l.n.n.n g.n.n.m.M.M.M.M.M.M.E.E.s.s R.R.R.k t.v.K.K.K.v.t.>.k 0.t.t.Y.a.B Y.K.K.K.K.Y.' k ;XP.P.P.P.G.p h.%XG.e.3.' G.u.u.F.P.F.P.u./ :X:X,X6.:X,X,X:X8Xj.V 8X:X,X,X,X,X,X,X,X,X,X,XU.:X,X,X,X,X,X(.XX-X-X-X.X-X-X-X-X.X`.`.p.p.-X.X.XrX-XV.-X-XXXrXeX| *XGXU +XMXnX6X6XnXnXOX6XbX2.OXnXj.d.MXnXnXMX].nXNXmXmXmXmXmXmXmXmXfXaXaXaXiX+Xz.lXqX9XqX9XpX( Q ( pX9XqX9XqXDXE.r r r r r w h.DXwX>X>X>X>X>X>X:XwXlXpX%X[ 7XzXlXAXqXv , Y.{ ` ",
"tXC.!.!.!.!.!.!.!.!.!.!.!.C.!.!.tXC.s.!.!.C.!.tX!.!.!.!.C.tX!.!.tXC.x m.C.m.n.M.M.N.m.M.m.l.n.n.n g.n.n.m.M.M.M.M.M.M.m.E.j.u n.uXt.k Q.t.K.K.K.v.t.>.k 0.t.r.K.r.i h.Y.K.K.Q.0.' N e.;XP.P.;X*.B ;XF.G.e.3.' G.u.u.F.P.F.F.=X/ e.3X,X6.:X,X,X:X8Xj.V 3X:X,X,X,X,X,X,X,X,X,X,XI.:X,X,X,X3X.X(.,X-X-X-X.X-X-X-X-X.X`.`.p.p.XX.X.X-X-XV.-X-X-X-XeX_.$XaXU 6XnXnX6X6XnXnXOX6XbX2.OX6XoXp iXnXnXmX].#XKXmXmXmXmXmXmXmXmXfXaXaXiXiX+Xz.lXqX9XqX9XpX( Q ( pX9XqX9XqXDXE.w r r r r w h.DXwX>X:X:X:X:X:X:XwXlXpXrX[ *XzXlXlXsXV.t.qXG ^ ",
"tXC.!.tXtXtXtXtXtXtXtXtXtXC.!.tXtXC.s.tXtXC.!.tXtXtXtX!.C.tXtX!.yXg.x !.M.m.N.E.E.N.m.E.m.l.n.n.n g.n.n.m.M.M.M.M.M.M.M.E.j.V V uX%.%.R.v.K.Y.K.K.v.>.k 0.t.r.K.K.h.i Y.Y.Y.Q.` 3.M m ;XP.;XP.i c.;XF.G.e.3.' G.u.u.F.;XF.F.,X%.%.uX2X9.:X,X,X,X8Xj.B 3X,X,X,X,X,X,X,X,X,X,X,X=X:X,X,X,X5X).'.,X-X-X-X.X-X-X-X-X-X`.`.p.p.XX.XXX-X-X.X-X-X-X-X-X&X} |.|.eXnXMX6X6XMXnX6X6XbX2.OX6XnXV Z.MXnXmX[.[.KXmXmXmXmXmXmXmXNXfXaXmXaXaX+Xz.lXqX9XqX9XpX( Q ( pX9XqX9XqXDXE.w r r r r w h.DXwX>X:X:X:X:X:X:XwXlXqXqX{ _.KXlXlXlXFXPXrX= u.",
"~.C.C.~.T.T.T.T.T.T.T.T.~.C.C.T.!.C.s.!.~.C.C.~.T.T.~.C.C.~.T.C.yXM *.C.m.n.n.m.m.n.n.m.n.l.l.n.n *.l.l.n.N.m.m.m.m.m.N.M.j.s.p E.k t.K.t.v.K.v.t.>.>.k 0.q.t.r.t.K.B a.Y.v.v.' 0.,.k F.i.%Xa.B %XF.i.e.0.3.' u.u.u.G.F.i.i.P.e./ :X:X-.U.=X=X=X2Xd.p =X=X=X=X=X=X=X=X=X=X=X=XP.=X=X=X=X=X(..X.X.X.X.XV..X.X.X.X`.i.i.<.<..X`..X.X.XV..X.X.X.X`.-X| P @X6X6X6X6X6X6X6XOX#X6X2.OX+XbXd.d.vX6XiX#X].dXaXaXaXaXaXaXaXaXiXiXiXiXiXoXz.lXqX9XqX9XpX( Q ( pX9XqX9XqXDXE.r r r r r w h.DXwX>X:X>X:X:X:X:XwXlX9XpX_.[ &XzXlXlXlX0XG G pX",
"C.M.C.C.C.C.C.C.C.C.C.C.C.M.C.C.T.N.s.T.C.C.C.C.C.C.C.C.M.C.C.~.C.x n.N.N.n.n.m.m.n.n.m.n.l.l.l.n *.l.l.n.N.N.N.N.N.N.N.m.l.B a b / K.v.t.v.v.v.t.>.,.k ,.q.t.t.t.K.v.i v.K.3.` t.e.x ,.;Xt.i q.F.i.i.e.0.3.' u.u.u.i.F.i.i.F.P.^ 0.<X=.I.=X=X=X,Xd.p =X=X=X=X=X=X=X=X=X=X=X=XP.U.=X=X:X`.(.;X.X.X.X.XV..X.X.X.X`.i.i.<.<..X`..X.X.Xi..X.X.X.Xi.-X_.U iX6X6X6X6X6X6X+XXX#X6X2.OX+X6XZ.p 6X6X6X6X).fXfXfXfXfXfXfXfXaX6XiXiXiXiXoXz.lXqX9XqX9XpX( Q ( pX9XqX9XqXDXE.r r r r r w h.DXwX>X:X>X:X>X>X:XwXlXqX9XpX} [ 0XlXwXxX^ D ,XqX",
"tXC.!.tXtXtXtXtXtXtXtXtXtXC.tXtXyXS.s.yXtXC.!.tXtXtXtX!.C.tX!.yX*.x ~.M.E.m.N.E.E.N.m.E.m.l.n.N.n g.n.n.m.M.M.M.M.M.M.M.M.E.j.s.1 J.Q.Y.v.K.Y.K.K.v.>.k 0.t.G.K.v.K.Y.a.p Q.` 3.t.G.&.m 1Xi h.F.P.P.F.G.e.3.' G.u.u.F.;XF.F.;X=X%./ fX6.:X,X,X,X8Xd.B ,X,X,X,X,X,X,X,X,X,X,X3X=X:X,X,X5X).'.,X-X-X-X-X.X-X-X-X-X-X`.`.p.p.XX.XXX-X-X.X-X-X-X-X.X;Xz.P eX6XMXMX6X6XnX6X6X6XbXz.OX6X6XnXp oXMXnXMX].MXKXmXmXmXmXmXmXNXfXaXmXaXaX+Xz.lXqX9XqX9XpX( Q ( pX9XqX9XqXDXE.r r r r r w h.DXwX>X:X>X:X:X:X:XwXlXqX9XqXqXrX9X9X9XqX;X1XpX9X",
"tXC.!.!.!.!.!.!.!.!.!.!.!.C.!.!.tXN.s.yX!.C.!.!.!.!.!.!.C.tX!.yXx *.C.M.M.m.n.M.M.N.m.M.m.l.n.n.n g.n.n.m.M.M.M.M.M.M.M.M.E.j.V t k.Y.K.v.K.K.K.v.t.>.k 0.t.r.K.t.K.K.Y.C B ( G.q.e.H.N B a.;Xi.P.P.F.G.e.3.' G.u.u.F.P.F.F.P.P.i./ ,X9.=X,X,X:X3Xd.V :X,X:X,X,X,X,X,X,X,X,X,XI.:X,X,X,X(.XX-X-X-X-X-X.X-X-X-X-X.X`.`.p.p..X.X.X-X-XV.-X-X-X-X.X;XU ^ -X6XiXiX6X6XiX6X6X6XbX2.OX6X6XMXj.d.MXnXMX].bXKXmXmXmXmXmXmXmXfXaXaXiXiX+Xz.lXqX9XqX9XpX( Q ( pX9XqX9XqXDXE.w r r r r w h.DXwX>X:X:X:X:X:X:XwXlXqX9X9X9XqXqXqXqX9XqXqX9XqX",
"tXC.!.!.!.!.!.!.!.!.!.!.tXT.yXyXuXS.s.yX!.C.!.tX!.!.!.!.C.!.tXC.x N.m.M.M.m.N.M.M.N.m.M.m.l.n.n.n g.n.n.m.M.M.M.M.M.M.M.M.M.S.n q s.Y.Y.v.K.K.K.v.t.>.k 0.t.r.K.t.K.K.K.Y.B t t.e.H.t.r C ;XP.i.P.P.F.G.e.3.' G.u.u.F.P.F.F.P.F.P./ 0.9.=X,X,X:X3Xd.V ,Xm.d.3X,X,X,X,X,X,X,X,XU.:X,X3X'.).,X-X-X-X-X-X.X-X-X-X-X.X`.`.p.p.XX.X.X-X-X.X-X-X-X-X.XB.U 3.'.iX6XiX6X6X6XoX6X6XbX2.OX6X6XnXoXp iXnXmX[.#XKXmXmXmXmXmXmXmXfXaXaXaXiX+Xz.lXqX9XqX9XpX( Q ( pX9XqX9XqXDXE.w r r r r w h.DXwX>X:X:X:X:X:X:XwXlXqX9XqX9X9X4X4X4X4X4X9XqXqX",
"tXC.!.!.!.!.!.!.!.!.!.!.!.j.j.j.j.s.s.yX!.C.!.tX!.!.!.!.C.!.yX*.M C.m.M.M.m.N.M.M.N.m.M.m.l.n.n.n g.n.n.m.M.M.M.M.M.M.M.M.M.~./ &.a C K.K.K.K.K.v.t.>.k 0.t.r.K.t.K.K.K.Q.` $.i B B i n m ;XP.i.P.P.F.G.e.3.' G.u.u.F.P.F.F.P.P.L.0./ 9.=X,X,X,X3Xd.V 3Xj.V 3X,X,X,X,X,X,X,X,XU.:X,X5X).'.-X-X-X-X-X-X.X-X-X-X-X.X`.`.p.p.XX.X.X-X-X.X-X-X-X-X;Xx.U `.` yX6XiX6XoX<XoXOX6XbX2.OX6X6XiXMXV Z.MXMX#X].KXmXmXmXmXmXmXmXfXaXaXaXiX+Xz.lXqX9XqX9XpX( Q ( pX9XqX9XqXDXE.r r r r r w h.DXwX>X:X>X:X:X:X:XwXlXqX9XqX4XqXsXsXsXMXwX4X9XqX",
"tXC.!.!.!.!.!.!.!.!.!.yXN.V j.j.j.j.S.tXtXC.!.tX!.!.!.!.C.!.yXx k.m.m.M.M.m.N.M.M.N.m.M.m.l.n.n.n g.n.n.m.M.M.M.M.M.M.M.M.E.t.k m.n a.V k.v.Y.K.v.t.>.k 0.t.r.K.t.K.K.Y.r.' G.r.*.:.r.H.l F.;Xi.P.P.F.G.e.3.' G.u.u.F.P.F.F.P.P.i.P./ =.,X,X,X,X,Xd.d.n.d.V 3X,X,X,X,X,X,X,X,XU.:X,X-X(.-X-X-X-X-X-X-X.X-X-X-X-X.X`.`.p.p.XX.X.X-X-X.X-X-X-X-X;XU z.XX'  XyXiX6XoXoXoX X6XbX2.OX6X6XiXMXA.s.MXMXbX].KXmXmXmXmXmXmXmXfXaXaXaXiX+Xz.lXqX9XqX9XpX( Q ( pX9XqX9XqXDXE.r r r r r w h.DXwX>X:X>X:X>X>X:XwXlXqXqX4XsX2XM x f N K.sX9X9X",
"tXC.!.!.!.!.!.!.!.!.!.yXA.s.uXyXyXyXtX!.tXC.!.tX!.!.!.!.C.yXm.x E.n.m.M.M.m.N.M.M.N.m.M.m.l.n.n.n g.n.n.m.M.M.M.M.M.M.M.m.~.%.%.E.C a.l.B C K.K.v.t.>.k 0.t.r.K.t.K.K.Q.3.` K.G.e.G.G.F.m ,.;Xi.P.P.F.G.e.3.' G.u.u.F.P.F.F.P.P.i.=X%.k <X,X,X,X,Xd.d.d.p V 3X,X,X,X,X,X,X,X,XU.:X5X'.).,X-X-X-X-X-X-X.X-X-X-X-X.X`.`.p.p.XX.X.X-X-X.X-X-X-X-XV.I  XoX<.p.+X6X6XoXoXoXB.6XbX2.OX6X6XiXnXiXp <XMXnX].MXmXmXmXmXmXmXmXfXaXaXaXiX+Xz.lXqX9XqX9XpX( Q ( pX9XqX9XqXDXE.r r r r r w h.DXwX>X:X>X:X:X:X:XwXlXqX4XsXt.f f N m N f m wX9X",
"tXC.!.!.!.!.!.!.!.!.!.yXA.s.yX!.!.!.!.!.tXC.!.tX!.!.!.!.C.yXM M !.n.m.M.M.m.N.M.M.N.m.M.m.l.n.n.n g.n.n.m.M.M.M.M.M.M.M.M.M.k >.b.h.i Y.K.a.b.K.v.t.>.v >.e.r.K.t.K.K.Q.` 0.G.G.e.e.r.G.,.m ;Xi.P.P.F.G.e.3.' G.u.u.F.P.F.F.P.P.i.;Xu.k 3X,X,X,X:Xd.d.d.p V ,X,X,X,X,X,X,X,X,XU.:X3X).`.-X-X-X-X-X-X-X.X-X-X-X-X.X`.`.p.p.XX.X.X-X-X.X-X-X-XrXz.U XXoXp.<.+X6XoXoXoXoXB.+XbX2.OX6X6XiXiXMXj.d.MXMX].nXKXmXmXmXmXmXmXfXaXaXaXiX+Xz.lXqX9XqX9XpX( Q ( pX9XqX9XqXDXE.w r r r r w h.DXwX>X:X:X:X:X:X:XwXlX4XwXK.f m lXGXGXGXK.f M sX",
"tXC.!.!.!.!.!.!.!.!.!.yXj.s.yX!.!.!.!.!.tXC.!.tX!.!.!.!.C.yXx l.E.n.m.M.M.m.N.M.M.N.m.M.m.l.n.n.n g.n.n.m.M.M.M.M.M.M.M.~.>.k m.v.v.i k.L.g.a.Y.v.t.>.i a.H.t.K.t.K.Y.e.' G.r.G.C *.G.r.r.N G.i.P.P.F.G.e.3.' G.u.u.F.P.F.F.P.P.i.P.;X/ F.3X,X,X:Xd.j.V i d.:X,X,X,XE.:X,X,X,XI.:X-X(.-X-X-X-X-X-X-X-X.X-X-X-X-X.X`.`.p.p.XX.X.X-X-X.X-X-X-XrXU z.XX X X` oXiXoXZ.oXoXB.oXbX2.OX6X6XiXnXnXiXa oXmX].#XKXmXmXmXmXmXmXfXaXaXaXiX+Xz.lXqX9XqX9XpX( Q ( pX9XqX9XqXDXE.w r r r r w h.DXwX>X:X:X:X:X:X:XwXlX9XsXx N GXlXlXlXlXLX>.f U.",
"tXC.!.!.!.!.!.!.!.!.!.yXj.s.yX!.!.!.!.!.tXC.!.tX!.!.!.!.C.m.x T.M.n.m.M.M.m.N.M.M.N.m.M.m.l.n.n.n g.n.n.m.M.M.M.M.M.M.m.~.%.%.m.v.K.a.a.K.v.a.K.v.t.>.C B t.G.K.t.K.Q.3.` L.e.G.p C G.e.F.m &.P.P.P.F.G.e.3.' G.u.u.F.P.F.F.P.P.i.P.=Xk %.uX:X,X:Xd.j.i i d.E.,X,X,Xd.U.,X,X,XI.2X'.).,X-X-X-X-X-X-X-X.X-X-X-X-X.X`.`.p.p.XX.X.X-X-X.X-X-X-XXXI B. X XoX` y.iXoXZ.oXoXB.oXbXz.OX6X6XiXnXnXMXA.V NX[.[.KXmXmXmXmXmXmXfXaXaXaXiX+Xz.lXqX9XqX9XpX( Q ( pX9XqX9XqXDXE.r r r r r w h.DXwX>X:X>X:X:X:X:XwXlXqX2Xf K.FXlXlXlXlXlXlXf M ",
"tXC.!.!.!.!.!.!.!.!.!.yXj.s.yX!.!.!.!.!.tXC.!.tX!.!.!.!.tXM M ~.M.n.m.M.M.m.N.M.M.N.m.M.m.l.n.n.n g.n.n.m.M.M.M.M.M.M.M.m.k t.b.b.v.k.i K.v.C Y.K.H.g.n $.a.H.K.t.K.Y.' 0.G.G.r.B a.G.r.G.,.N F.P.P.F.G.e.3.' G.u.u.F.P.F.F.P.P.i.P.;XO./ ,X,X,X:Xd.c.a B d.Z.3X,X:XV E.,X,X,XI.2X).`.-X-X-X-X-X-X-X-X.X-X-X-X-X.X`.`.p.p.XX.X.X-X-X.X-X-X;Xz.I XX X XoX<.<.yXoXoXoXoXB. XbXx.OX6X6XiXnXnXnXMXV s.bX].KXmXmXmXmXmXmXfXaXaXiXiX+Xz.lXqX9XqX9XpX( Q ( pX9XqX9XqXDXE.r r r r r w h.DXwX>X:X>X:X>X>X:XwXlXwXY.f 2XSXlXlXAXAXlXFXN m ",
"tXC.!.!.!.!.!.!.!.!.!.yXj.j.yX!.!.!.!.!.tXC.!.tX!.!.!.!.C.x l.C.M.n.m.M.M.m.N.M.M.N.m.M.m.l.n.n.n g.n.n.m.M.M.M.M.M.M.~.,.k m.v.b.b.v.p :.Y.C g.k.g.C v >.C G.K.t.Y.e.' G.r.G.h.n a.r.G.r.G.k 0.;XP.F.G.e.3.' G.u.u.F.P.F.F.P.P.i.P.P.6./ G.3X2XZ.d.N.s d.j.N.3X,X:XB E.3X,X,XU..X(.-X-X-X-X-X-X-X-X-X.X-X-X-X-X.X`.`.p.p.XX.X.X-X-X.X-X-XrXx.x.XX X X Xy.` oXoXoXoXoXB.oX6X2.OX6X6XiXnXnXnXnXiXV d.).GXGXKXKXKXKXKXaXmXmXMXMX+Xz.lXqX9XqX9XpX( Q ( pX9XqX9XqXDXE.r r r r r w h.DXwX>X:X:X:X:X:X:XwXlXwXU.f K.FXlXFXb t.GXAXf M ",
"tXC.!.!.!.!.!.!.!.!.!.yXj.j.yX!.!.!.!.!.tXC.!.tX!.!.!.yXg.x T.m.M.n.m.M.M.m.n.M.M.N.m.M.m.l.n.n.n g.n.n.m.M.M.M.M.M.m.~.k ;.m.v.b.b.v.a.n U.B s B C i k H.C g.L.t.Q.3.3.L.e.G.C :.a.t.G.e.F.m m ;XF.F.G.e.3.' G.u.u.F.P.F.F.P.P.i.P.P.6.%.%.uX3Xj.c.N.s N.j.c.,X,XU.i E.3X:X,XU.'.).,X-X-X-X-X-X-X-X-X.X-X-X-X-X.X`.`.p.p.XX.X.X-X-XV.-X-X-XU B. X X X XB.`  XoXoXoXoXB.oXOX2.OX6X+XiXnXnXnXnXMXnXd.i s.j.S.S.C.C.+XC.C.C.S.S.A.x.lXqX9XqX9XpX( Q ( pX9XqX9XqXDXE.w r r r r w h.DXwX>X:X:X:X:X:X:XwXlX9XwXf N LXlXFX>., GXQ.f Y.",
"tXC.!.tXtXtX!.!.!.!.!.yXj.j.yX!.tXtXtXtXtXC.!.tXtXtX!.yXn M ~.M.E.n.M.M.E.m.N.E.E.N.m.E.m.l.n.n.n g.n.n.m.M.M.M.M.M.E.m.k b.b.b.b.b.b.k.i Y.h.k.v.v.C k e.:.a.Y.v.K.' u.G.G.r.a.e.a.t.G.r.G.0.N ;XP.F.G.e.3.' 9.u.u.F.;XF.F.P.P.i.;X;X=.G.k d.8Xd.:XN.a 8Xc.j.d.3XE.a Z.3X,X,X=X(.XX-X-X-X-X-X-X-X-X-X.X-X-X-X-X.X`.`.p.p.XX.XXX-X-X.X-X-XB.U .XB. X X XB.<.p.+XoXoXoXB.oXOX2.B.oX+XnXnXnXnXnXnXnXMX).A.j.s.s.s.V V V V V V V p x.DXqX9XqX9XpX( Q ( pX9XqX9XqXDXE.r r r r r w h.DXwX>X:X:X:X:X:X:XwXlX4XsXt.f ,.AXlXAXt.Q.f N sX",
"h.$.h.h.h.h.h.h.h.h.h.c.a.$.:.h.h.h.h.h.h.$.*.h.h.h.h.h.x $.*.$.*.$.$.$.*.$.$.*.*.$.$.*.$.$.$.$.c n $.$.$.$.$.$.$.$.a.b k $.@.@.@.@.@.@.r n ;.&.&.&.X.l X.X.n &.@.%.' &.o.%.o.n %.n @.%.o.o.#.l X.=.#.%.O.^ ' i o.%.=.=.#.=.=.=.o.@.$.+.=.b i a.B 6.$.i 6.$.a.B 6.:.s $.6.6.9.=.T 5.5.5.5.5.7.5.5.5.5.=.5.5.5.4.4.4.4.<.<.4.4.4.5.5.=.5.7.I I =.1.1.1.1.#.<.^ 1.1.1.1.1.1.1.P 2.1.1.y.y.y.y.y.y.y.y.(.'.V.V.V.V.V.V.y.B.B.B.B.1.x.zXqX9XqX9XpX( Q ( pX9XqX9XqXDXE.r r r r r w h.DXwX>X:X>X:X:X>X:XwXlXqX4XsXM f 9XlXwXGXm f 4XqX",
"!.C.!.!.!.!.C.j.j.j.j.A.s.j.tX!.!.!.!.!.!.C.!.!.!.!.yXk.x T.m.M.M.n.m.M.M.m.n.M.M.n.m.M.m.l.n.n.n g.n.n.m.m.M.M.M.m.~.k ;.b.v.b.b.b.b.v.$.C Y.v.v.t.>.k 0.H.C h.K.` 3.K.e.G.t.a.e.:.a.G.r.e.F.m m ;XG.G.e.3.' a :.u.F.P.F.h.c.;Xr.a p =.%Xh.n a V 8XZ.B ,XZ.p p E.j.i m.3X,X5X'.'.,X-XXX-XXXc.-X-X-X-XV.-X-X-X-X.X`.`.p.p..X.X.X-X-XV.-X-XU  XB.B. X X XB. X` B.oXoXoXB. XOX2.z.oXoXoX6XnXiXnXnXnXMX[.[.KXaXaXaXaXmXiXaXaXiXiX+Xz.lXqX9XqX9XpX( Q ( pX9XqX9XqXDXE.r r r r r w h.DXwX:X:X:X:X:X:X:XwXlXqX9X9XwX2XqX9X9X9X3X4XqX9X",
"tXC.!.!.tX!.V j.j.j.j.j.j.C.!.!.!.!.!.!.tXC.!.tX!.!.yXM M T.M.M.M.n.m.M.M.m.N.M.M.N.m.M.m.l.n.n.n g.n.n.m.M.M.M.M.C.b.l b.b.b.b.b.b.b.b.h.i K.K.v.t.>.k 0.e.t.B t.+.g.G.r.G.q.a.H.:.a.G.r.r.G.,.b ;XF.G.e.3.^ V B u.%XV.i.a.B P.:.s i ;.%Xh.1 i m.3XE.V ,XU.a s V i V j.:XN.E.).x.V.rXd.V.d.B rX-X-X-X.X-X-X-X-X.X`.`.p.p.XX.X.X-X-XV.-XB.U XXB. X X X XB.oX<.p.oXoXoXB. XOX2.z.oXoXoXiX6XiXnXnXnXMX#X].KXmXmXmXmXmXfXaXaXaXiX+Xz.lXqX9XqX9XpX( Q ( pX9XqX9XqXDXE.r r r r r w h.DXwX4X3X3X3X3X3X3XwXlXqX9X9X9XqX9XqXqX9XqXqX9XqX",
"!.C.!.!.tXS.s.yXyXyXyXyXyXC.!.!.!.!.!.!.tXC.!.tX!.tX~.x l.C.M.M.M.n.m.M.M.m.N.M.M.N.m.M.m.l.n.n.n g.n.n.m.M.M.M.M.~.%.^ m.v.b.b.b.b.b.b.v.B h.Y.v.t.>.k 0.t.G.g.X.t a.G.r.G.:.a.H.>.a.G.r.r.r.q.B t.F.G.e.3.^ h.$.:.c.B a.h.u h.a.C i n a.d.+.t >X,X:XN.:X3Xd.s s s d.p N.s.d.(.i c.rXV c.V d.-X-X-X-X.X-X-X-X-X.X`.`.p.p.XX.X.X-X-XV.1Xx.x.XXB. X X X XB.oXp.<.+XoXoXB. XOX2.z.oXoXoX6X<X6XiXnXnXMXbX].KXmXmXmXmXmXfXaXaXaXiX+Xz.lXqX9XqX9XpX( Q ( pX9XqX9XqXDXE.w r r r r w h.DXwXh.a.a.a.a.a.h.qXlXqXqXqXqX9XqXqXqXqX9X9XqXqX",
"yXT.yXyXyXS.s.yX!.!.!.!.!.C.!.!.!.!.!.!.tXC.!.tX!.yXg.x C.M.M.M.M.n.m.M.M.m.N.M.M.N.m.M.m.l.n.n.n g.n.n.m.M.M.M.M.~.k ,.b.v.b.b.b.b.b.b.v.a.B Y.v.t.>.k 0.t.G.k.t B a.G.r.G.g.a.H.q.a.G.r.r.G.q.w M ;Xi.e.3.^ h.$.i i B a.h.V B a.b.B B i d.J.b >X,X,X3X:X8Xj.i d.i d.s c.s.P 2.p d.-XB d.h.d.-X-X-X-X.X-X-X-X-X.X`.`.p.p.XX.X.X-X-XV.-XI B.XXB. X X X XB. X X' Z.oXoXB. XoX2.z.oXoXoX<XoXoX6XiXnXnXnX].mXmXmXmXmXmXfXaXaXaXiX+Xz.lXqX9XqX9XpX( Q ( pX9XqX9XqXDXE.r r r r r w h.DXsXa.i i i i i B qXlX9X9X9X9X9X9X9X9X9X9X9X9X9X",
"A.j.A.A.N.s.s.yX!.!.!.!.tXC.!.!.!.!.!.!.tXC.!.tX!.yXx *.m.M.M.M.M.n.m.M.M.m.N.M.M.N.m.M.m.l.n.n.n g.n.n.m.M.M.M.E.v.k b.v.b.b.b.b.b.b.b.k.b.i v.K.t.>.k 0.t.r.r.+.:.a.G.r.r.B t.e.t.a.G.r.r.G.:.s x F.G.e.3.k :.$.B %XP.B B b.i :.1Xa.B a.h.%X/ ;X,X,X,X:X8Xj.d.0Xj.c.s j.V i p B a d.d.i c.d.d.-X-X-X.X-X-X-X-X.Xy.`.p.p.XX.X.X-X-X;X XU XX XB. X X X XB. XoX<.y.+XoXB. X X2.z.oXoXoXoXoXoX6X6XnXnXMX].nXKXmXmXmXmXfXaXaXaXiX+Xz.lXqX9XqX9XpX( Q ( pX9XqX9XqXDXE.r r r r r w h.DXwX3X3X3X3X3X3X3XwXlXwXwXwXwXwXwXwXwXwXwXwXwXwX",
"j.s.j.j.j.s.S.tX!.!.!.!.tXC.!.!.!.!.!.!.tXC.!.!.tXE.x m.n.M.M.M.M.n.m.M.M.m.N.M.M.N.m.M.m.l.n.n.n g.n.n.m.M.M.m.~.%.%.m.v.b.b.b.b.b.b.b.k.v.B a.K.t.>.k 0.t.K.3.' v.C r.G.a.a.G.q.e.C C r.r.G.:.a x ,.F.e.3.k 9.w.9.%X;Xa.i b.B r.;Xb.$.V.V.=X/ 0.4X:X,X:X8Xj.j.8X3XU.B B i i a.d.V.s B.d.c.A.u c.d.XX.X-X-X-X-X.XB i.p.p.XX.Xd.V.XXV.x.x.XX XB. X X X XB. XoX<.<.+XoXB. X X2.z.oXoXoXoXoXoX6X<XiXnXMX].bXKXmXmXmXmXfXaXaXaXiX+Xz.lXqX9XqX9XpX( Q ( pX9XqX9XqXDXE.r r r r r w h.DXwX:X:X:X:X:X:X:XqXlXlXlXlXlXlXlXlXlXlXlXlXlXlX",
"yXT.yXyXyXyXtX!.!.!.!.!.tXC.!.!.!.!.!.!.tXC.!.!.yX*.M ~.n.M.M.M.M.n.m.M.M.m.N.M.M.N.m.M.m.l.n.n.n g.n.n.m.M.M.M.C.k >.b.v.b.b.b.b.b.b.b.k.v.g.B K.t.>.k 0.e.K.` 3.G.a.:.F.a.q.G.e.e.t.p t.G.G.*.V n m %X0.3.e q.G.u.F.P.F.t.V.a.i.P.;X=.F.P.;X0./ 4X:X,X:X8Xj.j.8X:X3XZ.a i i B..X-Xd.V.V.V.-Xc.V i V..XXX-X-X-X.Xi i.p.p..X.XB V.c.a.U B.XX XB. X X X XB. X Xy.<.+XoXB. X X2.z.oXoXoXoXoXoX6XoX6XnXmX[.#XKXmXmXmXmXfXaXaXaXiX+Xz.lXqX9XqX9XpX( Q ( pX9XqX9XqXDXE.w r r r r w h.DXwX:X:X:X:X:X:X:XwXlXU.I.U.U.I.I.I.I.=XI.I.I.I.",
"!.C.!.!.!.!.!.!.!.!.!.!.tXC.!.!.!.!.!.!.tXC.!.!.yXm g.E.n.M.M.M.M.n.m.M.M.m.N.M.M.N.m.M.m.l.n.n.n g.n.n.m.M.M.T.>.k m.v.b.b.b.b.b.b.b.b.k.v.v.i k.G.>.k 0.t.e.' 0.G.:.C g.C r.G.e.e.G.a.q.G.G.$.C C x G.e.3.v e.u.u.F.P.F.F.;XP.i.P.;X=.F.P.P.P./ P.,X,X,X,X:XU.,X,X3XE.i P p V.-X-X-X-X-X-X-XrXd.s d.B i c.-X-Xc.s 9.n 1..X.Xp V.c.p U  X X XB. X X X XB. X XB.'  XoXB. X X2.z.oXoXoXoXoXoX<XoXoXnXMX#X[.KXmXmXmXmXfXaXaXaXiX+Xz.lXqX9XqX9XpX( Q ( pX9XqX9XqXDXE.w r r r r w h.DXwX3X>X>X>X>X>X>XwXlXI.I.L.L.=X=XI.=Xt.I.U.=XL.",
"tXC.!.!.!.!.!.!.!.!.!.!.tXC.!.!.!.!.!.!.tXC.!.tXC.x C.M.n.M.M.M.M.n.m.M.M.m.N.M.M.N.m.M.m.l.n.n.n g.n.n.m.M.M.~.%.%.m.v.b.b.b.b.b.b.b.b.k.b.K.C $.G.>.k 0.K.3.` t.e.G.:.C r.G.G.e.e.G.a.:.G.G.C a.a q %.i.3.n u.u.u.F.P.F.F.P.P.i.P.;X=.F.P.P.=X%.3.4X:X,X,X,X,X,X,X,XE.t (.V V.-X-X-X-X-X-X-X-XB.d.s a d.B a d.p B p i 1..X.Xi B.c.s x.XX X XB. X X X XB. X X X<.p.+XB. X X2.z.oXoXoXoXoXoXoXoXoXnXMX#X].KXmXmXmXmXfXaXaXaXiX+Xz.lXqX9XqX9XpX( Q ( pX9XqX9XqXDXE.r r r r r w h.DXwXE.m.M.m.m.m.M.qXlXI.=X&.;.q.-.V.:.@.q.t.;.q.",
"tXC.!.!.!.!.!.!.!.!.!.!.tXC.!.!.!.!.!.!.tXC.~.yXM M !.m.n.M.M.M.M.n.m.M.M.m.N.M.M.N.m.M.m.l.n.n.n g.n.n.m.M.M.M.k >.b.b.b.b.b.b.b.b.b.b.k.v.v.g.t G.>.k 0.G.' 3.t.e.r.G.G.G.r.G.e.e.G.a.a.G.q.C q.a n m G.n B G.u.u.F.P.F.F.P.P.i.P.;X=.F.P.P.;X0./ 4X,X,X,X,X,X,X,X,XR.I '.s.V.-X-X-X-X-X-X-X-X-X-Xd.B.rXp i s B %Xa.s 1..X.Xa c.c.s  X X X XB.B. X X XB. X X Xp.<.+XB. X X2.z.oXoXoXoXoXoXoXoXoX6XMXbX].NXmXmXmXmXfXaXaXaXiX+Xz.lXqX9XqX9XpX( Q ( pX9XqX9XqXDXE.r r r r r w h.DXlXB w w w w w i qXlXI.P.b b @.&.&.b X.@.@.&.X.",
"tXC.!.!.!.!.!.!.!.!.!.!.tXC.!.!.!.!.!.!.tXC.!.yXx g.T.m.n.M.M.M.M.n.m.M.M.m.N.M.M.N.m.M.m.l.n.n.n g.n.n.m.m.~.>.k m.v.b.b.b.b.b.b.b.b.b.k.v.b.v.t >.>.k t.0.' e.q.r.r.r.r.r.r.G.e.e.G.t.i a.a.$.G.:.C k -.a a.H.u.u.F.P.F.F.P.P.i.P.;X=.F.P.P.P.;X/ F.3X,X,X,X,X,X,X,X,X(.XX-X.X-X-X-X-X-X-X-X-X-X-X-X.X-XB c.c.c.&X1.i 1..XB.i c.B p XX X XXXB. X X X XB. X XB.B.` oXB. X X2.z.oXoXoXoXoXoXoXoXoXoXnXnX].MXmXmXmXmXfXaXaXaXiX+Xz.lXqX9XqX9XpX( Q ( pX9XqX9XqXDXE.r r r r r w h.DXsXB w i i i w i qXlXU.r.q.q.;.t.@.@.:.;.-.q.@.",
"tXC.!.!.!.!.!.!.!.!.!.!.!.C.!.!.!.!.!.!.tXC.tXm.x C.M.M.n.M.M.M.M.n.m.M.M.m.n.M.M.N.m.M.m.l.n.n.n g.n.n.m.m.~.%.%.m.v.b.b.b.b.b.b.b.b.b.k.v.b.v.n n t.k t.3.` G.0.r.r.r.r.r.r.G.e.e.r.G.i B a.:.G.H.a.m r n %.G.u.u.F.P.F.F.P.P.i.P.;X=.F.P.P.P.=X%.%.uX:X,X,X,X,X,X3X`.).,X-X.X-X-X-X-X-X-X-X-X-X-X-XV.-XV c.rX;X`.`.$.h.%XB.B i s a B. Xc.c. XB. X X XB. X XB.B.<.y.Z. X X2.z.oXoXoXoXoXoXoXoXoXoXiXMX].nXKXmXmXmXfXaXaXiXiX+Xz.lXqX9XqX9XpX( Q ( pX9XqX9XqXDXE.r r r r r w h.DXwXB w i i i i i qXlXI.I.I.I.I.I.U.I.I.;.V.P.I.",
"tXC.!.tXtXtXtXtXtXtXtXtXtXC.tXtXtXtXtXtXtXC.yXM M !.M.M.n.E.M.M.E.n.M.E.E.m.N.E.E.N.m.E.m.l.n.N.n g.n.n.m.M.M.k t.b.b.b.b.b.b.b.b.b.b.b.k.b.b.v.g.t >.k t.' 3.G.0.r.G.G.G.G.G.G.e.e.G.G.p B a.q.G.G.a.M c 3.' G.u.u.F.;XF.F.;XP.i.P.;X=.P.;XP.P.;XG./ 3X,X,X,X,X,X,X5X).'.,X-X.X-X-X-X-X-X-X-X-X-X-X-XV.rXd.B.-X.X`.%X9.p B.p d.i Y d.B d.V d.XXB. X X XB. X XB. Xp.<.Z. XoX2.z.oXoXoXoXoXoXoXoXoXoXiXmX].bXKXmXmXNXfXaXmXaXaX+Xz.lXqX9XqX9XpX( Q ( pX9XqX9XqXDXV.0 w w w r 0 *.DXsXn w w w w w t 9XlX3X3X3X3X3X3X3X3X3X3X0X0X0X",
"~.C.C.T.C.C.C.C.C.C.C.C.T.C.C.T.C.C.C.C.~.C.!.x k.m.N.N.n.m.N.N.m.n.n.m.m.n.n.m.m.n.n.m.n.l.l.l.n *.l.l.n.M.;.k n.k.v.v.v.v.v.v.v.v.v.v.:.k.v.k.>.t *.k 4.' 0.0.0.e.e.e.e.e.e.e.0.0.e.e.C B B 0.e.e.*.C n %.' u.u.u.G.F.i.i.F.F.r.F.F.#.i.F.F.F.F.P./ i.:X=X=X=X=X=X;X(..X.X.XV..X.X.X.X.X.X.X.X.X.X.XV..XV..X.X`.i.`.5.t d.s a.a I B.p s p p B.B.B.B.B.B.B.B.B.B.y.` B.B. X2.z.B.B.Z.oXoXoXoXoXoXoX6XaX].#XdXaXaXaX6XiXiXiXiXoXz.lXqX9XqX9XpX( Q ( pX9XqX9XqXDXV.9 0 0 0 0 9 $.DXlXt 9 0 0 0 9 r 4XlXqXqXqXqXqXqX9XqXqX0XS.f.f.",
"T.C.C.C.C.C.C.C.C.C.C.C.T.C.C.C.C.C.C.C.T.C.l.x M.N.N.N.n.m.N.N.m.n.n.m.m.n.n.m.m.n.n.m.n.l.l.l.n *.l.l.n.M.k %.b.k.v.v.v.v.v.v.v.v.v.v.:.k.v.k.>.n n k / ` q.0.0.e.e.e.e.e.e.e.0.0.e.e.e.C a.0.e.e.0.a.c k ' u.u.u.i.F.i.i.F.F.r.F.F.#.i.F.F.F.F.I.%.%.<X=X=X=X=X:X'.(.;X.X.XV..X.X.X.X.X.X.X.X.X.X.XV..X.X.X.X`.i.i.<.p.B d.c.s U .Xd.d.XXB c. XB.B.B.B.B.B.B.B.B.` y.B. X2.x.B.B.Z.Z.oXoXoXoXoXZ.6XiX[.].dXfXfXaX6XiXiXiXiXoXz.lXqX9XqX9XpX( Q ( pX9XqX9XqXDXV.9 0 0 0 0 9 $.DXlXt 9 0 0 0 0 r 4XlX9XqXwXqXqXqXsXqX4XjXa 6 6 ",
"tXC.!.tXtXtXtXtXtXtXtXtXtXC.tXtXtXtXtXtX!.tXM M !.M.C.M.n.E.M.M.E.n.M.E.E.m.N.E.E.N.m.E.m.l.n.N.n g.n.n.m.m.k v.b.b.b.b.b.b.b.b.b.b.b.b.k.b.b.v.v.g.t k ' 3.e.e.0.r.G.G.G.G.G.G.e.e.G.G.G.r.G.e.G.G.e.H.%.l ` G.u.u.F.;XF.F.;XP.i.P.;X=.P.;XP.P.P.;XG./ 3X,X,X,X,X5X).'.,X-X-X.X-X-X-X-X-X-X-X-X-X-X-X.X-X-X-X-X-X`.`.p.p.c.B..Xa B.XXj.c.XXj.d. X X X XB. X XB.B.oX<.p.oX X2.z.oXoXoXoXoXoXoXoXoXoXiXMX#X].KXmXmXNXfXaXmXaXaX+Xz.lXqX9XqX9XpX( Q ( pX9XqX9XqXDXV.9 0 0 0 0 9 $.DXlXt 9 0 0 0 9 r 4XlXwXI.;.t.-.-.X.2XqXjXa 5 5 ",
"tXC.!.!.!.!.!.!.!.!.!.!.!.C.!.!.!.!.!.!.tXC.x l.C.M.M.M.n.M.M.M.M.n.m.M.M.m.n.M.M.N.m.M.m.l.n.n.n g.n.n.M.,.k m.v.b.b.b.b.b.b.b.b.b.b.b.k.v.b.v.k.>.t l ' 0.0.e.q.r.r.r.r.r.r.G.e.e.G.r.r.r.r.q.r.e.e.0.0.l ' G.u.u.F.P.F.F.P.P.i.P.;X=.F.P.P.P.P.P.=X/ e.4X,X,X,X-X(.-X-X-X-X.X-X-X-X-X-X-X-X-X-X-X-X.X-X-X-X-X.X`.`.p.p.XX.XB.d. XB. X X XB.p p B. X XB. X XB. XoXP <.oX X2.z.oXoXoXoXoXoXoXoXoXoX6XMXbX].NXmXmXmXfXaXaXiXiX+Xz.lXqX9XqX9XpX( Q ( pX9XqX9XqXDXV.9 0 0 0 0 9 $.DXlXt 9 0 0 0 9 r 4XlXsXt.X.-.X.I.&.wX4XjXa 6 5 ",
"tXC.!.!.!.!.!.!.!.!.!.!.tXC.!.!.!.!.!.!.yXk.x T.M.M.M.M.n.M.M.M.M.n.m.M.M.m.N.M.M.N.m.M.m.l.n.n.n g.n.n.M.k ;.m.v.b.b.b.b.b.b.b.b.b.b.b.k.v.b.v.k.>.C 2 ` 0.0.e.q.r.r.r.r.r.r.G.e.e.G.r.r.r.r.q.r.r.e.0.0.m k %Xu.u.F.P.F.F.P.P.i.P.;X=.F.P.P.P.P.P.=X%.%.uX:X,X3X'.).,X-X-X-X.X-X-X-X-X-X-X-X-X-X-X-X.X-X-X-X-X.X`.`.p.p.XX;Xx.U XXB. X X XXXd.s c.XX XB. X XB.B.B.p `  X X2.z.oXoXoXoXoXoXoXoXoXoX6XMXnX].mXmXmXmXfXaXaXaXiX+Xz.lXqX9XqX9XpX( Q ( pX9XqX9XqXDXV.9 0 0 0 0 9 $.DXlXt 9 0 0 0 9 r 4XlXsXt.-.q.q.:X;.sX4XjXa 5 5 ",
"tXC.!.!.!.!.!.!.!.!.!.!.tXC.!.!.!.!.!.!.yXM M T.M.M.M.M.n.M.M.M.M.n.m.M.M.m.N.M.M.N.m.M.m.l.n.n.n g.n.n.b.l v.b.b.b.b.b.b.b.b.b.b.b.b.b.k.v.b.v.k.>.*.^ 3.0.0.e.q.r.r.r.r.r.r.G.e.e.G.r.r.r.r.q.r.r.e.0.0.%.l G.u.u.F.P.F.F.P.P.i.P.;X=.F.P.P.P.P.P.;XG./ ,X,X,X3X).'.-X-X-X-X.X-X-X-X-X-X-X-X-X-X-X-X.X-X-X-X-X.X`.`.p.p.XX;XU z.XXB. X X X XB.d.d.B.B. XXX X Xd.d.V ^ y.oX2.z.oXoXoXoXoXoXoXoXoXoX6XnXMX].nXNXmXmXfXaXaXaXiX+Xz.lXqX9XqX9XpX( Q ( pX9XqX9XqXDXV.9 0 0 0 0 9 $.DXlXt 9 0 0 0 9 r 4XlXqX,X3X2X4X9X=XqX4XjXa 6 6 ",
"tXC.!.!.!.!.!.!.!.!.!.!.tXC.!.!.!.!.!.!.!.x n.C.M.M.M.M.n.M.M.M.M.n.m.M.M.m.N.M.M.N.m.M.m.l.n.n.n g.n.m.%.k m.v.b.b.b.b.b.b.b.b.b.b.b.b.k.v.b.v.k.k.=.< &.0.0.e.q.r.r.r.r.r.r.G.e.e.G.r.r.r.r.q.r.r.e.0.0.%.l 0.u.u.F.P.F.F.P.P.i.P.;X=.F.P.P.P.P.P.P.=X/ u.4X,X-X(.-X-X-X-X-X.X-X-X-X-X-X-X-X-X-X-X-X.X-X-X-X-X.X`.`.p.p..X XI  X XB. X X X XB.B.V i p c.c.A.XXd.V p <.<.oX2.z.oXoXoXoXoXoXoXoXoXoX<XnXMX].bXKXmXmXfXaXaXaXiX+Xz.lXqX9XqX9XpX( Q ( pX9XqX9XqXDXV.9 0 0 0 0 9 $.DXlXt 9 0 0 0 0 r 4XlX9XqXqXqXqX9XqX9X4X0XA.f.f.",
"tXC.!.!.!.!.!.!.!.!.!.!.tXC.!.!.!.!.!.yXk.x T.M.M.M.M.M.n.M.M.M.M.n.m.M.M.m.N.M.M.N.m.M.m.l.n.n.n g.n.m.k ,.m.v.b.b.b.b.b.b.b.b.b.b.b.b.k.v.b.v.>.l./ < n 0.0.e.q.r.r.r.r.r.r.G.e.e.G.r.r.r.r.q.r.e.e.0.0.3.l %.G.u.F.P.F.F.P.P.i.P.;X=.F.P.P.P.P.P.P.=X3./ 9X2X'.).,X-X-X-X-X.X-X-X-X-X-X-X-X-X-X-X-X.X-X-X-X-X.X`.`.p.p.;Xx.U XX XB. X X X XB.XXd.d.s d.V j.XXd.a p 2.<.oX2.z.oXoXoXoXoXoXoXoXoXoXoXnXmX].#XKXmXmXfXaXaXaXiX+Xz.lXqX9XqX9XpX( Q ( pX9XqX9XqXDXV.9 0 0 0 0 9 $.DXlXt 9 0 0 0 9 r 4XlXqXqXqXqXqXqXqXqXqXqXjXjXjX",
"tXC.!.!.!.!.!.!.!.!.!.!.tXC.!.tXtX!.!.yXM M C.M.M.M.M.M.n.M.M.M.M.n.m.E.E.m.n.M.M.N.m.M.m.l.n.n.n g.n.>.k b.v.b.b.b.b.b.b.b.b.b.b.b.b.b.k.v.b.v.k.>.' k t 0.0.e.q.r.r.r.r.r.r.G.e.e.G.r.r.r.r.e.G.G.e.0.0.%.^ x u.u.F.P.F.F.P.P.i.P.;X=.P.;XP.P.P.P.P.P.F./ =X3X(.`.-X-X-X-X-X.X-X-X-X-X-X-X-X-X-X-X-X.X-X-X-X-X.X`.`.p.p.-XU z.XX XB. X X X XB.B.XXA.a d.i j. Xi a d.1.`  Xx.z.oXoXoXoXoXoXoXoXoXoXoXiXmX[.#XKXmXmXfXaXaXaXiX+Xz.lXqX9XqX9XpX( Q ( pX9XqX9XqXDXV.9 0 0 0 0 9 $.DXlXt 9 0 0 0 9 r 4XlXlXlXlXlXlXlXlXlXlXlXlXlXlX",
"tXC.!.!.!.!.!.!.!.!.!.!.!.C.!.C.!.!.tX~.x n.M.M.M.M.M.M.n.M.M.M.M.n.m.n.n.n.N.M.M.N.m.M.m.l.n.n.n g.m.%.%.m.v.:.k.v.b.b.b.b.b.b.b.b.b.b.k.v.b.v.k.=.' k t @.e.e.q.r.r.r.r.r.r.G.e.e.G.r.r.r.G.-.e.0.e.0.0.%.' x =.i.F.P.F.F.P.P.i.P.;X=.e.P.F.P.P.P.P.P.=X/ e.<X(.-X-X-X-X-X-X.Xi.V..X-X-X-X-X-X-X-X-X.X-X-X-X-X.X`.`.p.<.B.I  X X XB. X X X XB.B.XXB.p B a c.B.i p d.a +.'.x.z.oXoXoXoXoXoXoXoXoXoXoX6XMX#X].KXmXmXfXaXaXaXiX+Xz.lXqX9XqX9XpX( Q ( pX9XqX9XqXDXV.9 0 0 0 0 9 $.DXlXt 9 0 0 0 9 r 4XlXqXqXqXqXqX9X9XqX9XqXqXqXqX",
"tXC.!.!.!.!.!.!.!.!.!.!.!.C.*.N.$.N.yXg.x C.m.M.M.M.M.M.n.M.M.M.M.m.*.g.h.$.m.M.M.N.m.M.m.l.n.n.n g.m.k ,.m.*.@.*.n b.b.b.b.b.b.b.b.b.b.k.v.b.v.l./ ^ l b r 0.e.q.r.r.r.r.r.r.G.e.e.G.r.r.G.0.X.&.X.e.0.0.%.' m m i.F.P.F.F.P.P.i.P.;XX.6.o.e.;XP.P.P.P.=X3./ '.).,X-X-X-X-X-X5.9.y.#.-X-X-X-X-X-X-X-X.X-X-X-X-X.X`.`.<.<.2.P XX X XB. X X X XB.B.XXB.d.a.p d.d.a.p $.a O.3.x.z.oXoXoXoXoXoXoXoXoXoXoX6XMX#X].KXmXmXfXaXaXaXiX+Xz.lXqX9XqX9XpX( Q ( pX9XqX9XqXDXV.9 0 0 0 0 9 $.DXlXt 9 0 0 0 9 r 4XlX9X9X9X9XqXpXpXpXpXpX9X9X9X",
"tXC.!.!.!.!.!.!.!.!.!.!.tXC.$.yXh.N.gXm *.M.m.M.M.M.M.M.n.M.M.M.M.N.n m.h.*.m.M.M.N.m.M.m.l.n.n.n g.>.k b.b.n :.k.n b.b.b.b.b.b.b.b.b.b.k.v.b.v.>.' b l X.0 0.e.q.r.r.r.r.r.r.G.e.e.G.r.r.G.;.X.r.X.-.e.0.%.' 0.l u.F.P.F.F.P.P.i.P.P.X.i.X.;.;XP.P.P.P.P.F.k (.XX-X-X-X-X-X-X#..Xi.8.-X-X-X-X-X-X-X-X.X-X-X-X-X.X`.`.<.p.U P  X X XB. X X X XB.B. XB.c.B.c.V s d.a.O.$.$.` x.z.oXoXoXoXoXoXoXoXoXoXoX6XMXbX].mXmXmXfXaXaXaXiX+Xz.lXqX9XqX9XpX( Q ( pX9XqX9XqXDXV.9 0 0 0 0 9 $.DXlXt 9 0 0 0 9 r 4XlX9XqX9XpX3X3.( ) ` %XpX9X9X",
"tXC.!.tX!.!.!.!.!.!.!.!.!.C.c.c.C.C.T.x M.n.m.M.M.M.M.M.n.M.M.M.M.m.h.*.$.g.m.M.M.N.m.M.m.l.n.n.n l.%.m n.v.>.@.*.*.b.b.b.b.b.b.b.b.b.b.k.v.v.b.=.' :.l %.t @.H.q.r.r.r.r.r.r.G.e.e.G.r.r.G.e.X.-.;.0.0.0.%.' u.k ;.;XP.F.F.P.P.i.P.;X..-.7.w.;XP.P.P.P.P.=X/ <.<X-X-X-X-X-X-Xy.6.i..X-X-X-X-X-X-X-X-X.X-X-X-X-X.X`.`.p.<.I 1. X X XB. X X X XB. X X X XB. Xp s $.y.y.h.p ` 2.z.oXoXoXoXoXoXoXoXoXoXoX6XMXnX].mXmXmXfXaXaXaXiX+Xz.lXqX9XqX9XpX( Q ( pX9XqX9XqXDXV.9 0 0 0 0 9 $.DXlXt 9 0 0 0 9 r 4XlX9X9XpX%X! ! ` } ) Q ` pX9X",
"tXC.!.!.!.!.!.!.!.!.!.!.tXC.tXtX!.yX*.M !.n.m.M.M.M.M.m.n.M.M.M.M.n.M.E.E.m.n.M.M.N.m.M.m.l.n.n.n g.k ,.b.v.b.b.b.b.b.b.b.b.b.b.b.b.b.b.k.v.v.l.' %.:.k 6.@.n H.q.r.r.r.r.r.r.G.e.e.G.r.r.r.r.e.G.G.e.0.0.%.' u.%.m ;XP.F.F.P.P.i.P.P.=.P.;X;XP.P.P.P.P.P.U.p.<.,X-X-X-X-X-X-X.X-X-X-X-X-X-X-X-X-X-X-X.X-X-X-X-X.X`.`.p.P U XX X X XB. X X X XB.B. X XB.B. Xi d.XX XXXz.s <.P z.oXoXoXoXoXoXoXoXoXoXoX<XnXMX].nXmXmXfXaXaXaXiX+Xz.lXqX9XqX9XpX( Q ( pX9XqX9XqXDXV.9 0 0 0 0 9 $.DXlXt 9 0 0 0 9 r 4XlX9XpX%X! ` lXKXKXxX&XQ 3.pX",
"C.N.c.c.h.C.N.h.m.C.h.c.~.c.N.c.c.tXx n N.l.g.h.*.n.n.*.h.m.g.g.N.h.h.h.*.n.l.*.n.n.g.h.*.h.l.a.c &.l *.:.:.*.:.@.>.>.&.:.v.*.*.*.:.v.*.*.k.:.@.' ;.X.k X.;.t o.;.e.-.;.;.;.e.-.;.0.q.;.-.e.;.-.;.-.0.%.%.%.' %.%.l i.e.=.e.F.-.7.F.8.8.6.6.F.w.-.i.i.6.7.-.<.^ 5.y..X8.8..Xi.y.y.8..Xi.9.i..X8.y.9.i..X8.y..Xy.7.i.u.<.P 2.y.B.1.y.B.y.y.1.y.B.y.1.B.B.1.B.p $.y.1.y.c.s O.e d.z.z.c.oXB.c.B.oXoXoXoXoXnXMX].bXKXmXfXaXaXaXiX+Xz.lXqX9XqX9XpX( Q ( pX9XqX9XqXDXV.9 0 0 0 0 9 $.DXlXt 9 0 0 0 9 r 4XlX9XpX( ( KXlXlXlXFXIX&X! 1X",
"C.N.h.h.h.C.N.h.N.C.h.c.C.c.n.h.c.m.x *.n.l.*.g.*.n.n.*.h.N.*.*.N.h.g.g.*.n.l.$.l.n.*.g.$.h.l.$.n k k $.:.:.*.*.@.:.:.@.*.k.*.*.@.*.v.*.@.>.g.^ ' :.b k +.%.n b =.e.;.;.&.;.e.-.&.0.0.&.-.e.;.-.&.;.0.%.%.%.^ %.%.l ,.i.;.e.i.=.6.F.6.w.-.-.F.8.;.i.e.=.-.O.(./ +.B..X8.9..Xy.8.8.6..Xi.5.i.V.9.8.5.i..X6.8..X8.4.u.u.<.Y 1.y.y.1.y.B.1.1.1.y.B.1.1.B.y.#.y.d.$.y.1.y.y.$.$.t p z.1.z.Z.c.1.c.1.1.1.1.1.y.y.(.2.V.B.9.y.B.B.B.1.x.zXqX9XqX9XpX( Q ( pX9XqX9XqXDXV.9 0 0 0 0 9 $.DXlXt 9 0 0 0 9 r 4XlXqX1X! &XSXlXlXlXr.b =XQ 3.",
"C.N.h.h.h.C.N.h.N.C.h.c.C.c.n.h.A.M x h.n.l.*.g.*.n.n.*.h.N.*.*.N.h.h.h.*.n.l.*.l.n.*.g.*.h.l.a.c l @.M :.:.*.*.@.:.:.@.*.k.*.*.@.*.v.*.@.>.g.' %.;.X.k +.%.@.r ;.e.-.;.;.;.e.-.&.0.0.&.-.e.;.-.&.-.0.%.%.%.' %.%.b m i.;.e.i.=.6.F.6.w.-.6.F.w.=.i.e.=.>.<.).0.^ B..X8.9..Xy.8.y.9..Xi.5.i..X9.8.5.i..X9.8..Xy.4.i.u.P I 1.y.y.1.y.B.1.1.1.y.B.1.1.B.y.1.y.B.1.y.1.y.`.$.a t I d.B c.Z.B.1.c.oXoXoXoXoXiXmX[.#XKXmXfXaXaXaXiX+Xz.lXqX9XqX9XpX( Q ( pX9XqX9XqXDXV.9 0 0 0 0 9 $.DXlXt 9 0 0 0 9 r 4XlXpX%X! 7XzXlXAX3Xq b qX< ^ ",
"C.N.h.h.h.C.N.h.N.C.h.c.C.c.n.h.c.x M *.n.l.*.g.*.n.n.*.h.N.*.*.N.h.g.h.*.n.l.*.l.n.*.g.$.h.l.a.x l *.n :.:.*.*.@.>.:.@.*.k.*.*.@.*.v.*.@.k.-.' ;.;.b k +.o.-.r &.e.;.;.;.;.e.-.&.0.0.&.-.e.;.-.&.-.0.%.%.%.^ %.%.%.k 0.=.e.i.=.6.F.6.w.-.6.F.w.;.i.e.-.6.T p.i.k 7.XX8.9..Xy.8.y.9..Xi.5.i..X9.8.5.i..X9.8..Xy.4.i.u.P P 1.y.y.1.y.B.1.1.1.y.B.1.1.B.y.1.y.B.1.y.1.y.`.$.a <.t p p c.Z.B.1.c.oXoXoXoXoX6XMX#X[.KXmXfXaXaXaXiX+Xz.lXqX9XqX9XpX( Q ( pX9XqX9XqXDXV.9 0 0 0 0 9 $.DXlXt 9 0 0 0 9 r 4XlXqX1X! &XxXlXlXlXFXGXFX< O.",
"C.N.h.h.h.C.N.h.N.C.h.c.C.c.n.c.*.x h.*.n.l.*.g.*.n.n.*.h.N.*.*.n.h.g.h.*.n.l.*.l.n.*.g.$.h.l.a.l m *.n :.:.*.*.@.:.:.@.*.k.*.*.@.*.k.*.@.k.%.^ *.;.b k +.o.-.t n H.;.;.;.;.e.-.&.0.0.&.-.e.;.-.&.-.0.%.%.%.^ %.%.#.m X.6.w.i.=.6.F.6.w.-.6.F.8.;.i.e.-.4.<.w.i.^ %.XX8.9..Xy.8.y.9..Xi.5.i.V.9.8.5.i..X9.8..Xy.4.u.p.P <.1.y.y.1.y.B.1.1.1.y.B.1.1.B.y.1.y.B.1.y.1.y.y.$.a <.t s p B.oXc.1.c.oXoXoXoXoXiXMX#X].KXmXfXaXaXaXiX+Xz.lXqX9XqX9XpX( Q ( pX9XqX9XqXDXV.9 0 0 0 0 9 $.DXlXt 9 0 0 0 9 r 4XlX9XpX_ ` KXlXlXlXlXJX%X: F.",
"c.h.h.h.h.c.h.h.c.c.h.h.c.h.n.c.n n h.*.h.*.*.g.*.h.g.*.g.g.*.*.h.*.h.h.*.h.*.*.g.g.*.g.*.g.a.$.l M @.@.*.&.*.*.@.*.*.@.*.*.@.*.@.*.*.@.@.*.' +.&.X.b k X.X.o.b t -.&.;.;.;.;.;.&.;.;.&.;.;.&.-.;.;.;.%.%.^ ^ %.%.%.m k 6.6.6.=.-.8.=.w.6.-.8.-.=.7.-.-.<.<.6.6.O.^ y.6.9.y.9.y.y.6.y.9.6.8.8.9.8.6.8.8.6.9.y.7.4.7.2.P <.1.1.1.1.1.y.1.9.1.1.y.1.1.y.1.1.9.1.1.y.1.1.1.$.i <.e V p B c.y.1.c.oXoXoXoXoXiXMXbX].KXmXfXaXaXaXiX+Xz.lXqX9XqX9XpX( Q ( pX9XqX9XqXDXV.9 0 0 0 0 9 $.DXlXt 9 0 0 0 9 r 4XlX9XpX%XQ $XzXlXlXAX1X: ^ sX",
"h.h.h.h.h.h.h.h.h.h.h.h.h.h.n.c.x M *.*.g.*.*.g.$.g.*.$.*.*.$.*.g.$.h.g.$.g.*.$.g.*.*.g.$.*.a.b l n n n &.@.*.*.@.*.@.@.&.&.@.*.@.@.&.@.@.&.' X.X.X.b k +.X.X.X.r @.%.;.&.&.;.&.&.;.&.&.;.;.&.-.&.;.%.X.%.^ ^ %.%.%.;.l ;.6.=.;.=.-.;.w.-.=.-.;.;.6.;.=.<.o.4.=.=.k 4.9.5.8.5.y.8.5.8.5.5.9.6.5.8.5.9.9.5.6.9.4.4.7.I P <.1.1.1.1.1.1.1.1.1.1.1.1.1.1.1.1.1.1.1.y.1.1.1.$.p 2.J 1.d.p a.a.a.B.oXoXoXoXoXiXMXbX].mXmXfXaXaXaXiX+Xz.lXqX9XqX9XpX( Q ( pX9XqX9XqXDXV.9 0 0 0 0 9 $.DXlXt 9 0 0 0 9 r 4XlX9X9XpX3.! 0XlXwXzX^ < 9XqX",
"N.c.N.N.n.N.n.n.N.N.n.N.N.c.C.g.x n.h.h.l.h.h.l.h.l.h.h.h.l.h.h.l.g.l.l.h.l.h.h.l.h.h.l.h.g.j.k l M &.*.*.*.:.:.*.:.:.*.:.:.*.:.*.:.:.*.*.^ ^ *.&.&.X.k ..o.&.;.n n 0.-.-.-.-.-.;.-.-.-.-.-.-.0.-.-.-.%.%.%.' =.%.%.0.m m i.w.8.8.e.w.7.w.w.w.w.w.w.t.7.<.8.8.7.w.^ %.B.y.i.y.i.i.y.i.y.y.i.i.y.i.y.i.y.y.y.i.y.w.8.I <.<.1.y.y.y.y.y.y.y.y.y.y.y.y.y.y.y.y.y.y.B.y.y.y.1.p 2.^ <.A.c.d.i d.c.oXoXoXoXoXiXnXnX].MXNXfXaXaXiXiX+Xz.lXqX9XqX9XpX( Q ( pX9XqX9XqXDXV.9 0 0 0 0 9 $.DXlXt 9 0 0 0 9 r 4XlX9X9X9XqX3XqX9X9XqX3X9XqX9X",
"tXC.tXyXyXyXtXtXtXtXtXtXtXC.gXM M !.M.E.E.N.M.E.E.E.E.M.n.T.E.E.E.N.M.E.E.m.m.E.E.m.m.E.m.n.n.k b *.k.v.v.b.b.b.b.b.b.b.b.b.b.b.b.b.b.b.k.' 7.t.q.>.;.k -.-.q.t.;.n F.G.G.G.G.G.e.e.G.G.G.G.G.0.F.G.G.e.0.%.' 0.0.0.G.,.x ;X;X;Xi.;X;X=.P.;X;X;X;X;X=X).'.;X`.`.;Xu./ <X-X-X-X.X-XrX-X-X-X-X-X-X-X-X-X.X-X-X-X-X;Xz.U p.2. X X X X XB.oX X X XB. X X X XB. X X XB. X XB.c.d.2.<.<.+XoXp d.d.p A.oXoXoXoXiXnXMX].nXKXiXmXNXaXaX+Xz.lXqX9XqX9XpX( Q ( pX9XqX9XqXDXV.9 0 0 0 0 9 $.DXlXt 9 0 0 0 9 r 4XlX9X9X9X9XqX9XqXqX9XqXqX9XqX",
"!.C.M.m.m.C.tX!.!.!.!.!.!.C.M.x *.C.M.M.M.n.m.M.M.M.M.M.n.k.n.k.E.n.m.M.M.m.n.M.M.N.m.M.m.n.&.k n M :.*.:.:.b.b.b.b.b.b.b.b.b.b.b.b.v.b.-.' :.;.;.&.;.k ;.-.-.q.q.t -.0.0.0.G.r.e.e.r.r.r.r.r.0.-.0.-.-.;.%.' 0.0.0.e.G.l e.;XP.i.P.P.=.r.i.P.P.P.P.P.(.i.i.i.i.i..X^ i.-X-X-X.Xi.i.-X-X-X-X-X-X-X-X-X.XV.i.-X-X%XU z.p.2. XB. X X XB.y.B. X XB.B. X X XB. X XB.B. X XB.c.d.2.2.^ c. XV d.d.s a Z.oXoXoXiXnXMX].bXKXfX<X<X<X<X+Xz.lXqX9XqX9XpX( Q ( pX9XqX9XqXDXV.9 0 0 0 0 9 $.DXlXt 9 0 0 0 9 r 4XlX9X9XqX9X9XqXqXqXqX9X9XqXqX",
"!.C.C.@.@.:.yX!.!.!.!.!.!.!.*., n k.E.M.M.n.m.M.M.M.M.M.k.b @.n n.N.m.M.M.m.N.M.M.N.m.M.m.n.k &.n b b b b n b.b.b.b.b.b.b.b.b.b.b.b.v.m.3./ b v v v X.k ;.-.-.q.q.b , X.v X.e.G.e.e.G.r.r.r.r.0.v X.v v b %.' 0.0.0.e.F.m &.;XP.i.P.P.6.o.X.o.P.P.U.'.(.P.i.i.i.i.-X%.3.<X-X-X.Xi.+....X-X-X-X-X-X-X-X.X8.v #..X.XI i.<.2. X X X X XB.+.#.#. XB.B. X X XB. X XB.B. X XB.B.d.2.P < ..b $.A.j.s s A.oXoXoXiXnXmX].#XKXfX<X@.-.@.1.z.lXqX9XqX9XpX( Q ( pX9XqX9XqXDXV.9 0 0 0 0 9 $.DXlXt 9 0 0 0 9 r 4XlX9X9XqXqX9X9X9X9X9X9XqXqXqX",
"!.C.N.@.$.*.tX!.!.!.!.!.!.tXn , @.:.E.M.M.n.m.M.M.M.M.M.n.*.b n b.m.m.M.M.m.N.M.M.N.m.M.m.h.l h.n n b b v n v.b.b.b.b.b.b.b.b.b.b.b.v.b.' #.b b q v X.k ;.-.-.q.>.&., b v X.e.G.e.e.G.r.r.r.r.0.&.v b k b %.' 0.0.0.e.G.,.N ;XP.i.P.P.4.8.X.1 F.P.U.(.'.F.i.i.i.i..Xu.^ -X-X-X.X6...1 V.-X-X-X-X-X-X-X.Xi.v 1 %Xz.U `.<.2. X X X X XB.1.e e  XB.B. X X XB. X XB.B. X XB.B.B.2.1.G ..q @.iXj.s s j.oXoXoXiXnXmX[.#XKXaXV.#.9.v e z.lXqX9XqX9XpX( Q ( pX9XqX9XqXDXV.9 0 0 0 0 9 $.DXlXt 9 0 0 0 9 r 4XlX9X9XqX9XqXpXpXpXpXqX9X9XqX",
"tXC.c.h.c.m.tX!.tXtXtX!.tXC.x *.*.m.M.M.E.n.m.M.M.M.M.M.n.:.k.*.E.n.m.M.C.m.N.E.E.N.m.M.S.X.k n.b &.*.@.*.*.b.b.b.b.b.b.b.b.b.b.b.v.b.0.' ;.X.@.&.X.;.k =.-.6.q.-.;.r @.-.;.G.G.e.e.G.r.G.G.r.q.;.-.;.%.%.%.' 0.0.0.e.G.e.k G.;Xi.P.;X=.i.e.w.F.;XF.(.`.`.`.`.`.`.i.;X^ u.<X-X.X5.9.i.V.-X-X-X-X-X-X-X.X8.8.y.%XU z.`.<.2. X X X X XB.9.9.y.B.B. X X X XB. X XB.B. X XB. X X2.x.<.^ A.c.oXj.s V d.oXoXoXiXnXMX#X[.KXaXV.V.V. XB.x.zXqX9XqX9XpX( Q ( pX9XqX9XqXDXV.9 0 0 0 0 9 $.DXlXt 9 0 0 0 9 r 4XlX9XqX9XpXqX_.` ` 3.1XpX9X9X",
"!.C.tXyXtXtX!.!.!.!.!.!.yX*.x ~.M.m.m.m.m.n.m.m.m.m.m.m.n.E.M.E.m.n.m.m.m.N.n.m.m.n.N.m.M.k &.l.n *.k.k.v.b.v.v.v.v.v.v.v.v.v.v.v.v.n./ ^ v.q.q.>.>.;.k ;.-.-.-.-.e.$.n G.r.e.e.q.e.e.e.e.e.e.0.G.r.e.e.0.%./ 0.0.0.e.e.r.m m ;Xr.F.P.=.F.P.;XP.P.p.(.F.i.i.i.i.i.i..X%./ <X-XV.-X-X-X-XXX-X-X-X-X-XXXV.-X-X-X XI y.y.2.2.B.B.B. X XB. X X X XB.B. X XB.B. X XB.B. X XB.B. X2.z.y.` oXoXoXA.s d.d.A.oXoX6XnXMX#X].KXiXmXNXmXaXiXz.lXqX9XqX9XpX) Q ) pX9XqX9XqXDXV.9 0 0 0 0 9 $.DXlXt 9 0 0 0 9 r 4XlX9X9XpX%X! ! ( ` _ ! _.pX9X",
"4X4X4X3X3X4X4X4X4X4X4X4X4XU.Y.3X2X>X>X>X>X>X>X>X>X>X>X>X>X>X>X>X>X>X>X>X>X>X>X>X>X>X>X>X2XF.:X:X:X:X:X:X:X:X2X:X:X:X:X:X:X:X:X:X:X:X2X%X=X:X=X=X=X=X:X=X:X:X:X:X:X=X=XV.2X2X2X2X2X2X2X2X2X2X2X2X2X2X2X2X2X2X2X2X2X2X2X2X2X=XY.3X3X3X3X3X3X3X3X3X3X-X,X3X2X2X2X2X2X2X3X2XF.4X3X3X3X3X3X3X3X3X3X3X3X3X3X3X3X3X3X<XoX3X,X,X,X,X,X,X,X,X,X,X,X,X,X,X,X,X,X,X,X,X,X,X,X,X,X,X,X,X,X,X,X;X,X3X4X>XZ.>X>X>X4X3X9XqXqX8XrXqXqXqXqXqXqXqX9XlXqX9XqX9XpX_.` _.qXqXqX9XqXDXV.9 0 0 0 0 9 $.DXlXt 9 0 0 0 9 r 4XlX9XqX1X! ( wXSXxXFX&XQ 3.sX",
"lXlXlXlXlXlXlXlXlXlXlXlXlXAXAXlXlXlXlXlXlXlXlXlXlXlXlXlXlXlXlXlXlXlXlXlXlXlXlXlXlXlXlXlXlXSXlXlXlXlXlXlXlXlXlXlXlXlXlXlXlXlXlXlXlXlXlXzXzXlXlXlXlXlXlXlXlXlXlXlXlXlXlXAXlXlXlXlXlXlXlXlXlXlXlXlXlXlXlXlXlXlXlXlXlXlXlXlXlXlXAXlXlXlXlXlXlXlXlXlXlXzXzXlXlXlXlXlXlXlXlXlXSXlXlXlXlXlXlXlXlXlXlXlXlXlXlXlXlXlXlXlXzXlXlXzXlXlXlXlXlXlXlXlXlXlXlXlXlXlXlXlXlXlXlXlXlXlXlXlXlXlXzXlXlXzXlXlXlXAXDXAXAXAXlXlXlXlXlXlXzXlXlXlXlXlXlXlXlXlXqX9X9XqX3X4XzXpX4X3X4X9XqXDXV.9 0 0 0 0 9 $.DXlXt 9 0 0 0 9 r 4XlX9XpX( ) SXzXlXFXU.k.3.: ;X",
"9X9X9X9X9X9X9X9X9X9X9X9X9X9X4X9X9X9X9X9X9X9X9X9X9X9X9X4X9X4X9X4X9X9X9X9X9X9X9X9X9X9X9X9X9X4X9X9X9X9X9X9X9X9X9X9X9X9X9X9X9X9X9X9X9X9X9X9X9X9X9X4X4X4X4X4X4X4X4X4X4X4X4X4X4X4X9X8X0X0X0X0X0X0X0X0X0X0X0X0X0X8X9X9X9X9X9X9X9X9X4X9X9X9X9X9X9X9X9X9X9X9X9X9X9X9X9X9X9X9X9X9X9X9X9X9X9X9X9X9X9X9X9X9X9X9X9X9X9X9X9X9X9X4XwXlX9X4X2X2X2X2X2X2X2X2X2X2X2X2X2X2X2X2X2X2X2X2X2X2X2X2X2X2X2X2X3X3X3X2X2X2X2X2X3X3X3X3X3X3X2X3X3X3X3X3X3X9XqXlXqX4XlX=Xv 2X=X@.-.X.qX9XqXDXV.9 0 0 0 0 9 $.DXlXt 9 0 0 0 0 r 4XlXqX3X! &XKXjXFXU.% ;.AX: 3.",
"lXlXlXlXlXlXlXlXlXlXlXlXlXlXlXlXlXlXlXlXlXlXqX9XqX9XqXwXqXwXqXqX9X9X4X9X4X9X4X9X9X9XqXlXlXlXlXlXlXlXlXlXlXlXlXlXlXlXlXlXlXsXlXlXlXlXsX9X9XqX:X=X:X=X=X=X=X:X=X=X=X=X=X=X:X=XuX} W ~ ~ ~ ~ ~ ~ ~ ~ ~ ~ ~ ~ ! qXqX9XqXqXqXqXqXqXqXqXqXqXqXqXqXqXqXqXqXqXqXqXqXqXqXqXqXqXqXqXqXqXqXqXqXqXqXqXqXqXqXqXqXqXqXqXqXqXqXqX9XsXlXqX2X=X2X2X2X2X2X2X2X2X2X2X2X2X2X2X2X2X2X2X2X2X3X2X2X2X2X2X2X2X2X2X2X2X2X2X2X2X2X2X2X2X2X2X2X2X2X2X2X=X4XqXlXqXqXI.L.;.r.q.b -.;.L.wXqXDXV.0 0 0 0 0 9 $.DXlXt 9 0 0 0 0 r 4XlXpX%X! 7XzXlXFXU.r.GXFX< ^ ",
"lXlXlXSXlXAXSXAXlXlXlXlXlXlXlXlXlXlXAXsXlXlXqX9X9XqX2X=X4XP.9XU.sXqXsXqXsXwXsXwXsXqXqXAXAXlXlXFXlXlXAXlXlXAXlXlXlXlXlXlXlXlXlXlXlXAXsX9X9XqX:X4XqXqXqXqXqX9XqXwXwXqXqXwXqX=XuX) - = = = = = = = = = = = = ~ 0X9X9XqXqXqXqXqXqXqXqXqXqXqXqXqXqXqXqXqXqXqXqXqXqXqXqXqXqXqXqXqXqXqXqXqXqXqXqXqXqXqXqXqXqXqXqXqXqXqXqX9XsXlXqX2X3XqXqXqXqXqXqXqXqXqXqXqXqXqXqXqXqXqX9XqX3X2X9XqX4XqX3XqXqXqXqXqXqXqXqXqXqXqXqXqXqXqXqXqXqXqXqXqX:X3XqXlXqXqX:X=X-.&.q.X.-.;.L.wXqXDXV.9 9 9 9 9 9 $.DXlXt 9 9 9 9 9 0 4XlXpX1X! &XzXlXlXSXFXlXSX< ^ ",
"FX-.U.wXqX3X3X4XAXlXlXlXlXlXlXlXlXlXlX1 q.FXqX9XqXqXb r.;.-.9XX.q.=Xq.2Xq.I.r.&.-.=XlXL.X.L.qX3XU.r.AX=X@.t.X.r.FXlXlXlXlXwXGX&.b FXsX9X9XqX=XqXV.>.t.t.:.I.=Xr.v.>.q.r.3X=XuX_ - ; ; D ; ; D D ; D ; ; = ~ 0X9X9XqXqXqXqXqXqXqXqXqXqXqXqXqXqXqXqXqXqXqXqXqXqXqXqXqXqXqXqXqXqXqXqXqXqXqXqXqXqXqXqXqXqXqXqXqXqXqXqX9XsXlXqX2X3XqX9X9X9X9X9X9X9X9X9X9X9X9X9X9X4XwXV.L.L.;.@.L.q.;.L.qX9X9X9X9X9X9X9X9X9X9X9X9X9X9X9X9X9X9X9XqX:X3XqXlXqX9XwX9XU.4X4X2X2X=XwX9XqXAX:X$.$.$.$.$.@.b.AXsX*.$.$.$.$.$.$.qXlX9XqX! } KXlXlXlXlXJX;X: i.",
";.@.X.X.b t.@.;.lXlXlXlXlXlXlXlXlXlX4X&.r.AXqX9X9XqXr.X.X.SX9X@.@.b -.b -.X.@.b r.,XAXq.b q.;.@.;.v 4XI.b q.q.3XAXlXlXlXlXsXlXq.;.wXlX9X9XqX=XqX>.-.;.&.;.I.v.@.&.q.q.@.wX=XuX_ - D ; D ; - ; D ; W ; D = ~ 0X9X9XqXqXqXqXqXqXqXqXqXqXqXqXqXqXqXqXqXqXqXqXqXqXqXqXqXqXqXqXqXqXqXqXqXqXqXqXqXqXqXqXqXqXqXqXqXqXqXqX9XsXlXqX2X3XqX9XqXqXqXqXqXqXqXqXqXqXqXqXqX9XsXV.L.U.>.;.@.>.b 2XqX9X9XqXqXqXqXqXqXqXqXqXqXqXqXqXqXqXqX9XqX:X3XqXlXqX9X9X9XsXqX3X4XwXwX9X9XqXlXqXlXlXlXlXlXlXwXlXwXwXlXlXlXlXjXjXwXlX9XpX$XQ &XzXlXlXzX8X< G pX",
";.;.X.&.;.=Xt.q.qXAXlXlXlXlXlXlXlXlXlX, >.FXqX9XqXqXq.;.;.;.qX&.&.q.&.q.@.r.;.@.-.U.AXq.=X,XX.P.;.v =X=Xb q.q.3XAXlXlXlXlXwXGX@.v SXsX9X9XqX=XqXV.2XV.t.:.L.I.-.t.t.>.t.3X2XuX_ - ; ; D D ; ; D ; D ; D - ~ 0X9X9XqXqXqXqXqXqXqXqXqXqXqXqXqXqXqXqXqXqXqXqXqXqXqXqXqXqXqXqXqXqXqXqXqXqXqXqXqXqXqXqXqXqXqXqXqXqXqXqX9XsXlXqX2X3XqX9X9X9X9X9X9X9X9X9X9X9X9X9X9X9XwXP.;.q.:.U.-.t.r.q.V.r.U.qX9X9X9X9X9X9X9X9X9X9X9X9X9X9X9X9XqX:X3XqXlXqX9X9XqX4X;.@.X.q.wX9X9XqXlXqX8X/.^.^././.9XlXwXqX>XN.m.E.Z.c.jXlXqX9XpX` ! 0XlXwXxX^ : 2XqX",
"lXU.lX2XqXsXqXqXlXlXlXlXlXlXlXlXlXlXAX4XlXlXqX9XqXqX2XqXwX3XqXqX9XwX4XwX4XqX4XwX3X4XwXwXlXsXqXwXqXwXqXlXI.qXwXlXlXlXlXlXlXsXAXwX9XSXsX9X9XqX:X4XwXqXqXwX4X9XwXwXwXqXqXwXqX=XuX_ - = = = = = = = = = = = = ~ 0X9X9XqXqXqXqXqXqXqXqXqXqXqXqXqXqXqXqXqXqXqXqXqXqXqXqXqXqXqXqXqXqXqXqXqXqXqXqXqXqXqXqXqXqXqXqXqXqXqXqX9XsXlXqX2X3XqXqXqXqXqXqXqXqXqXqXqXqXqXqXqXqXqXqX4X4XqXqXwXqXwXqX9XqXqXqXqXqXqXqXqXqXqXqXqXqXqXqXqXqXqXqXqX:X3XqXlXqX9X9XwX-.X.X.b ;.wX9X9XqXlX5XW.^.5X^././.4XlXsX>Xc.a.a.M.R.Z.jXlXqX9XqXqX1X9X9X9XqX;X2XpX9X",
"lXFXlXAXlXlXlXlXlXlXlXlXlXlXlXlXlXlXlXAXlXlXqX9XqXqXqX9X9XqXqXqXqX9XqX9XqXqXqX9XqX9XqXlXlXlXlXlXlXlXlXlXFXlXlXlXlXlXlXlXlXsXlXlXlXlXsX9XqXqX:X=X:X:X:X:X:X:X=X:X:X:X:X=X:X=XuX} W ~ W W W W W W W W W W W ! qXqX9XqXqXqXqXqXqXqXqXqXqXqXqXqXqXqXqXqXqXqXqXqXqXqXqXqXqXqXqXqXqXqXqXqXqXqXqXqXqXqXqXqXqXqXqXqXqXqXqX9XsXlXqX2X=X3X2X2X2X2X2X2X2X2X2X2X2X2X2X2X2X2X2X3X3X2X2X2X2X2X2X3X3X2X2X2X2X2X2X2X2X2X2X2X2X2X2X2X2X2X2X3X=X4XqXlXqX9X9XwXq.X.@.b ;.wX9X9XqXlXqX4XW.5X^.W.5X9XlXsX9X>XE.R.:X>X4XwXlXqXqX9X9XqXqXqXqX9XqXqX9XqX",
"9X4X9X9X9X9X9X9X9X9X9X9X9X9X9X9X9X9X9X9X9X9X9X9X9X9X9X9X9X9X9X9X9X9X9X9X9X9X9X9X9X9X9X9X9X9X9X9X9X9X9X9X4X9X9X9X9X9X9X9X9X9X9X9X9X9X9X9X9X9X4X3X3X3X3X3X3X3X3X3X3X3X3X3X3X4X9X3X7X7X7X7X7X7X7X7X7X7X7X7X7X1X4X9X9X9X9X9X9X9X9X9X9X9X9X9X9X9X9X9X9X9X9X9X9X9X9X9X9X9X9X9X9X9X9X9X9X9X9X9X9X9X9X9X9X9X9X9X9X9X9X9X9X4XwXlX4X4X2X2X2X2X2X2X2X2X2X2X2X2X2X2X2X2X2X2X2X2X2X2X2X2X2X2X2X2X2X2X2X2X2X2X2X2X2X2X2X2X2X2X2X2X2X2X2X2X2X4XqXlXqX4X9X9X4XU.3XI.3XqX9X4XqXlX9X9X9X9XqX9X9X4XlXwX4XqXqXqXqXqX9XqXlX9X9X9X9X9X9X9X9X9X4X4X9X9X",
"lXlXlXlXlXlXlXlXlXlXlXlXlXlXlXlXlXlXlXlXlXlXlXlXlXlXlXlXlXlXlXlXlXlXlXlXlXlXlXlXlXlXlXlXlXlXlXlXlXlXlXlXlXlXlXlXlXlXlXlXlXlXlXlXlXlXlXlXlXlXlXlXlXlXlXlXlXlXlXlXlXlXlXlXlXlXlXlXzXzXzXzXzXzXzXzXzXzXzXzXzXzXlXlXlXlXlXlXlXlXlXlXlXlXlXlXlXlXlXlXlXlXlXlXlXlXlXlXlXlXlXlXlXlXlXlXlXlXlXlXlXlXlXlXlXlXlXlXlXlXlXlXlXlXlXlXlXlXlXlXlXlXlXlXlXlXlXlXlXlXlXlXlXlXlXlXlXlXlXlXlXlXlXlXlXlXlXlXlXlXlXlXlXlXlXlXlXlXlXlXlXlXlXlXlXlXlXlXlXAXlXlXlXlXlXAXlXAXlXlXlXlXlXAXlXlXlXlXlXlXlXlXlXlXlXlXlXlXlXlXlXlXlXlXlXlXlXlXlXlXlXlXlXlXlXlX",
"4X4X4X4X4X4X4X4X4X4X4X4X4X4X4X4X4X4X4X4X4X4X4X4X4X4X4X4X4X4X4X4X4X4X4X4X4X4X4X4X4X4X4X4X4X4X4X4X4X4X4X4X4X4X4X4X4X4X4X4X4X4X4X4X4X4X4X4X4X4X4X4X4X4X4X4X4X4X4X4X4X4X4X4X4X4X4X4X4X4X4X4X4X4X4X4X4X4X4X4X4X4X4X4X4X4X4X4X4X4X4X4X4X4X4X4X4X4X4X4X4X4X4X4X4X4X4X4X4X4X4X4X4X4X4X4X4X4X4X4X4X4X4X4X4X4X4X4X4X4X4X4X4X4X4X4X4X4X4X4X4X4X4X4X4X4X4X4X4X4X4X4X4X4X4X4X4X4X4X4X4X4X4X4X4X4X4X4X4X4X4X4X4X4X4X4X4X4X4X4X4X4X4X4X4X4X4X4X4X4X4X4X4X4X4X4X4X4X4X4X4X4X4X4X4X4X4X4X4X4X4X4X4X4X4X4X4X4X4X4X4X4X4X4X4X4X4X4X4X4X4X4X4X4X4X4X",
"P.P.P.P.P.P.P.P.P.P.P.P.P.P.P.P.P.P.P.P.P.P.P.P.P.P.P.P.P.P.P.P.P.P.P.P.P.P.P.P.P.P.P.P.P.P.P.P.P.P.P.P.P.P.P.P.P.P.P.P.P.P.P.P.P.P.P.P.P.P.P.P.P.P.P.P.P.P.P.P.P.P.P.P.P.P.P.P.P.P.P.P.P.P.P.P.P.P.P.P.P.P.P.P.P.P.P.P.P.P.P.P.P.P.P.P.P.P.P.P.P.P.P.P.P.P.P.P.P.P.P.P.P.P.P.P.P.P.P.P.P.P.P.P.P.P.P.P.P.P.P.P.P.P.P.P.P.P.P.P.P.P.P.P.P.P.P.P.P.P.P.P.P.P.P.P.P.P.P.P.P.P.P.P.P.P.P.P.P.P.P.P.P.P.P.P.P.P.P.P.P.P.P.P.P.P.P.P.P.P.P.P.P.P.P.P.P.P.P.P.P.P.P.P.P.P.P.P.P.P.P.P.P.P.P.P.P.P.P.P.P.P.P.P.P.P.P.P.P.P.P.P.P.P.P.P.",
"I.I.I.I.I.I.I.I.I.I.I.I.I.I.I.I.I.I.I.I.I.I.I.I.I.I.I.I.I.I.I.I.I.I.I.I.I.I.I.I.I.I.I.I.I.I.I.I.I.I.I.I.I.I.I.I.I.I.I.I.I.I.I.I.I.I.I.I.I.I.I.I.I.I.I.I.I.I.I.I.I.I.I.I.I.I.I.I.I.I.I.I.I.I.I.I.I.I.I.I.I.I.I.I.I.I.I.I.I.I.I.I.I.I.I.I.I.I.I.I.I.I.I.I.I.I.I.I.I.I.I.I.I.I.I.I.I.I.I.I.I.I.I.I.I.I.I.I.I.I.I.I.I.I.I.I.I.I.I.I.I.I.I.I.I.I.I.I.I.I.I.I.I.I.I.I.I.I.I.I.I.I.I.I.I.I.I.I.I.I.I.I.I.I.I.I.I.I.I.I.I.I.I.I.I.I.I.I.I.I.I.I.I.I.I.I.I.I.I.I.I.I.I.I.I.I.I.I.I.I.I.I.I.I.I.I.I.I.I.I.I.I.I.I.I.I.I.I.I.I.I.I.I.I.I.I.",
"I.I.I.I.I.I.I.I.I.I.I.I.I.I.I.I.I.I.I.I.I.I.I.I.I.I.I.I.I.I.I.I.I.I.I.I.I.I.I.I.I.I.I.I.I.I.I.I.I.I.I.I.I.I.I.I.I.I.I.I.I.I.I.I.I.I.I.I.I.I.I.I.I.I.I.I.I.I.I.I.I.I.I.I.I.I.I.I.I.I.I.I.I.I.I.I.I.I.I.I.I.I.I.I.I.I.I.I.I.I.I.I.I.I.I.I.I.I.I.I.I.I.I.I.I.I.I.I.I.I.I.I.I.I.I.I.I.I.I.I.I.I.I.I.I.I.I.I.I.I.I.I.I.I.I.I.I.I.I.I.I.I.I.I.I.I.I.I.I.I.I.I.I.I.I.I.I.I.I.I.I.I.I.I.I.I.I.I.I.I.I.I.I.I.I.I.I.I.I.I.I.I.I.I.I.I.I.I.I.I.I.I.I.I.I.I.I.I.I.I.I.I.I.I.I.I.I.I.I.I.I.I.I.I.I.I.I.I.I.I.I.I.I.I.I.I.I.I.I.I.I.I.I.I.I.I.",
"I.I.I.I.I.I.I.I.I.I.I.I.I.I.I.I.I.I.I.I.I.I.I.I.I.I.I.I.I.I.I.I.I.I.I.I.I.I.I.I.I.I.I.I.I.I.I.I.I.I.I.I.I.I.I.I.I.I.I.I.I.I.I.I.I.I.I.I.I.I.I.I.I.I.I.I.I.I.I.I.I.I.I.I.I.I.I.I.I.I.I.I.I.I.I.I.I.I.I.I.I.I.I.I.I.I.I.I.I.I.I.I.I.I.I.I.I.I.I.I.I.I.I.I.I.I.I.I.I.I.I.I.I.I.I.I.I.I.I.I.I.I.I.I.I.I.I.I.I.I.I.I.I.I.I.I.I.I.I.I.I.I.I.I.I.I.I.I.I.I.I.I.I.I.I.I.I.I.I.I.I.I.I.I.I.I.I.I.I.I.I.I.I.I.I.I.I.I.I.I.I.I.I.I.I.I.I.I.I.I.I.I.I.I.I.I.I.I.I.I.I.I.I.I.I.I.I.I.I.I.I.I.I.I.I.I.I.I.I.I.I.I.I.I.I.I.I.I.I.I.I.I.I.I.I.I.",
"I.I.I.I.P.P.I.P.P.P.P.P.P.P.P.P.P.P.P.P.P.P.P.P.P.P.P.P.P.P.P.P.P.P.P.P.I.P.I.I.I.I.I.I.I.I.I.I.I.I.I.I.I.I.I.I.I.I.I.I.I.I.I.I.I.I.I.I.I.I.I.I.I.P.P.I.P.P.P.P.P.P.P.P.P.P.P.P.P.P.P.P.P.P.P.P.P.P.P.P.P.P.P.P.P.P.I.P.P.I.P.P.P.P.P.P.P.P.P.P.P.P.P.P.P.P.P.P.P.P.P.P.P.P.P.P.P.P.P.P.I.P.P.I.P.P.P.P.P.P.P.P.P.P.P.P.P.P.P.P.P.P.P.P.P.P.P.P.P.P.P.P.P.I.I.I.I.I.I.I.I.I.I.I.I.I.I.I.I.I.I.I.I.I.I.I.I.I.I.I.I.I.I.I.I.I.I.I.I.P.I.I.P.P.P.P.P.P.P.P.P.P.P.P.P.P.P.P.P.P.P.P.P.P.P.P.P.P.P.P.I.I.P.P.I.I.I.I.I.I.I.I.I.I.I.I.",
"U.U.U.U.=X=XU.=XU.U.U.U.U.U.U.U.U.U.U.U.U.U.U.U.U.U.U.U.U.U.U.U.U.U.U.=XU.=XI.L.L.L.L.L.L.L.L.L.L.L.L.L.L.L.L.L.L.L.L.L.L.L.L.L.L.L.L.L.L.L.L.L.L.=X=XU.=X=X=X=X=X=X=X=X=X=X=X=X=X=X=X=X=X=X=X=X=X=X=X=X=X=X=X=X=X=XU.=X=XU.U.U.U.U.U.U.U.U.U.U.U.U.U.U.U.U.U.U.U.U.U.U.U.U.U.U.U.U.U.U.U.=X=XU.U.U.U.U.U.U.U.U.U.U.U.U.U.U.U.U.U.U.U.U.U.U.U.U.U.U.U.U.U.U.U.L.L.L.L.L.L.L.L.L.L.L.L.L.L.L.L.L.L.L.L.L.L.L.L.L.L.L.L.L.L.L.L.L.P.=XU.U.U.U.U.U.U.U.U.U.U.U.U.U.U.U.U.U.U.U.U.U.U.U.U.U.U.U.U.U.U.U.=X=XU.U.U.U.U.U.U.U.U.U.U.U.",
"qXqXqXqXlXwX9XqXpXpXpXpXpXpXpXpXpXpXpXpXpXpXpXpXpXpXpXpXpXpXpXpXpXpXpXpX9XqX=X7.6.5.5.5.5.5.5.5.5.5.5.5.5.5.5.5.5.=.5.5.5.5.5.5.5.5.5.5.5.5.5.5.8.lXqX9X9XqXqXqXqXqXqXqXqXqXqXqXqXqXqXqXqXqXqXqXqXqXqXqXqXqXqXqXqX9X9XlXsX9X9X0X0X0X0X0X0X0X0X0X0X0X0X0X0X0X0X0X0X0X0X0X0X0X0X0X0X0X0X9X9XlXsX9XqX0X0X0X0X0X0X0X0X0X0X0X0X0X0X0X0X0X0X0X0X0X0X0X0X0X0X0X0XqX3Xw.6.5.5.5.5.5.5.5.5.5.5.5.5.5.5.5.5.5.5.5.5.5.5.5.5.5.5.5.5.5.6.=.V.AX9X9XqXwXwXwXwXwXwXwXwXwXwXwXwXwXwXwXwXwXwXwXwXwXwXwXwXwXwXwXqX9XlXlX9XqXpXpXpXpXpXpXpXpXpXpX",
"9XqX9XqXlXqXqXa u s u u u u u u u u u u u u u u u u u u u u u u u u s u Z jX=X7.6.=...........................O.O.o...........................=.w.lXqX4Xf f f f f f f f f f f f f f f f f f f f f f f f f f f f f >.sXlXwXfX] j g g g g g g g g g g g g g g g g g g g g g g g g g g g J.fXjXwXfX .W W W W W W W W W W W W W W W W W W W W W W W W W W W [ 7X4Xw.6.5...........................O.O.O.........................o.=.V.AXqXrXT T T T T T T T T T T T T T T T T T T T T T T T T T T T [.5XsXsXhX|.Y Y Y Y Y Y Y Y Y Y ",
"qXqX9XqXlXqXqXs 5 5 5 5 5 5 5 5 5 5 5 5 5 5 5 5 5 5 5 5 5 5 5 5 5 5 5 5 a jX=X7.6.=...#.o.o.o.o.o.o.o.o.o.o.#...X.+.#.o.o.o.o.o.o.o.o.o.o.#...=.w.lXqX5Xf o o o o o o o o o o o o o $ $ o o o o o o o o o o o o $ ,.sXlXwXdX/ @ + + + + + + + + + + + @ @ @ @ + + + + + + + + + + + & J.fXjXwXfX| - - - - - - - - - - - - - - D - - - - - - - - - - - = W 7X4Xw.6.5...o.o.o.o.o.o.o.o.o.o.o.#.....X.#.o.o.o.o.o.o.o.o.o.o.o.o.=.V.AX5XbXH F F F F F F F F F F F F F H H F F F F F F F F F F F H [.5XsXsXhX|.7 7 7 7 7 7 7 7 7 7 ",
"qXqX9XqXlXqXqXs 5 5 5 5 5 5 5 5 5 5 5 5 6 u 6 5 5 5 5 5 5 5 5 5 5 5 5 5 a jX=X7.6.=...#.o.o.o.o.o.o.o.o.o.o.#., v v o.o.o.o.o.o.o.o.o.o.o.#...=.w.lXqX5Xf o $ $ $ $ $ $ $ $ $ $ $ $ $ $ $ $ $ $ $ $ $ $ $ $ $ $ $ ,.sXlXwXdX/ @ & & & & & & & & & & & * j * & & & & & & & & & & & & * J.fXjXwXfX| D - - - - - - - - - - - D W D - - - - - - - - - - - - W 7X4Xw.6.5...o.o.o.o.o.o.o.o.o.o.o.#.1 , v #.o.o.o.o.o.o.o.o.o.o.o.o.=.V.AX5XbXK F F F F F F F F F F F H K H H F F F F F F F F F F F H [.5XsXsXhX|.7 7 7 7 7 7 7 7 7 7 ",
"qXqX9XqXlXqXqXs 5 5 5 5 5 5 5 5 5 5 5 5 6 6 6 5 5 5 5 5 5 5 5 5 5 5 5 5 a jX=X7.6.=...#.o.o.o.o.o.o.o.o.o.o.o.e v v #.o.o.o.o.o.o.o.o.o.o.#...=.w.lXqX5Xf o $ $ $ $ $ $ $ $ $ $ $ $ $ $ $ $ $ $ $ $ $ $ $ $ $ $ $ ,.sXlXwXdX/ @ & & & & & & & & & & & * * * & & & & & & & & & & & & * J.fXjXwXfX| D - - - - - - - - - - - D D D D - - - - - - - - - - - W 7X4Xw.6.5...o.o.o.o.o.o.o.o.o.o.o.o.e v v o.o.o.o.o.o.o.o.o.o.o.o.o.=.V.AX5XbXK F F F F F F F F F F F H J H H F F F F F F F F F F F H [.5XsXsXhX|.8 7 7 7 7 7 7 7 7 7 ",
"qXqX9XqXlXqXqXs 5 5 5 5 5 5 5 5 5 5 5 5 5 5 5 5 5 5 5 5 5 5 5 5 5 5 5 5 a jX=X7.6.=...#.#.#.#.#.#.#.#.#.#.#.#.=.o.o.#.#.#.#.#.#.#.#.#.#.#.#...=.w.lXqX5Xf o o o o o o o o o o o o o o o o o o o o o o o o o o o $ ,.sXlXwXdX/ @ + + + + + + + + + + + + + + + + + + + + + + + + + + * J.fXjXwXfX| - - - - - - - - - - - - - - - - - - - - - - - - - - = W 7X4Xw.6.5...#.#.#.#.#.#.#.#.#.#.#.#.=.#.o.#.#.#.#.#.#.#.#.#.#.#.o.o.=.V.AX5XbXH F F F F F F F F F F F F F F F F F F F F F F F F F F H [.5XsXsXhX|.7 7 7 7 7 7 7 7 7 7 ",
"qXqX9XqXlXqXqXs u u u u u u u u u u u u u u u u u u u u u u u u u u u u a jX=X7.6.=.X.........................................................=.w.lXwX4Xf f f f f f f f f f f f f f f f f f f f f f f f f f f f f ,.sXlXwXfX/ j j j j j j j j j j j j j j j j j j j j j j j j j j j j J.fXjXwXfX| W W W W W W W W W W W W W W W W W W W W W W W W W W W W 7X4Xw.6.5.........................................................o.=.V.AX5XrXK K K K K K K K K K K K K K K K K K K K K K K K K K K K [.5XsXsXhX|.Y Y Y Y Y Y Y Y Y Y ",
"qXqX9XqXlXqX9X>XyXyXyXyXyXyXyXyXyXyXyXyXyXyXyXyXyXyXyXyXyXyXyXyXyXyXyXyX>XqX=X7.6.5.=.=.=.=.=.=.=.=.=.=.=.=.=.=.=.=.=.=.=.=.=.=.=.=.=.=.=.=.=.5.8.lXqX9XW.W.W.W.W.W.W.W.W.W.W.W.W.W.W.W.W.W.W.W.W.W.W.W.W.W.W.W.Q.3XqXlXwX9X1X1X1X1X1X1X1X1X1X1X1X1X1X1X1X1X1X1X1X1X1X1X1X1X1X1X1X1X1X3XqXlXwX9X7X7X7X7X7X7X7X7X7X7X7X7X7X7X7X7X7X7X7X7X7X7X7X7X7X7X7X7X7X9X3Xw.6.6.=.=.=.=.=.=.=.=.=.=.=.=.=.=.=.=.=.=.=.=.=.=.=.=.=.=.=.=.5.=.V.AX9X8XeXeXeXeXeXeXeXeXeXeXeXeXeXeXeXeXeXeXeXeXeXeXeXeXeXeXeXeX8X9XlXsX9X9XiXiXiXiXiXiXiXiXiXiX",
"qXqX9XqXlXqX9X0X0X0X0X0X0X0X0X0X0X0X0X0X0X0X0X0X0X0X0X0X0X0X0X0X0X0X0X0XqXqX=X7.6.6.6.6.6.6.5.5.6.6.6.6.6.6.6.6.6.6.6.6.6.6.6.6.6.6.6.6.6.6.6.5.8.lXqX9XwXwXwXqXqX9XqXqXwXwXwXwXwXwXwXwXwXwXwXqXqXqXqXqXqXwXwXwXwXqX9XlXsX9XqXpXpXqXqX9XqXqXpXpXpXpXpXpXpXpXpXpXpXqXqXqXqXqXqXpXpXpXpXqX9XlXsX9XqXpXpXqX4X4X4X4XpXpXpXpXpXpXpXpXpXpXpX4X4X4X4X4X4XpXpXpXqXqX3Xw.6.6.6.6.6.6.6.6.6.6.6.6.6.6.6.6.6.6.6.6.6.6.6.6.6.6.6.6.6.6.6.=.V.zX9XqXqX9X9X9X9X4X9X9XqX9X9X9X9X9X9X9XqX9X5X5X5X5X5X9X5XqX9XqXqX9XlXsX9XqX0X0XqX9X9X9X9X0X0X0X",
"qXqX9XqXlXqX9X9X9X9X9X9X9X9X9X9X9X9X9X9X9XsXwX9X9X9X9X9X9X9X9X9X9X9X9X9X9XqX=X7.6.6.6.6.5.7.w.w.w.6.5.6.6.6.6.6.6.6.6.6.5.7.7.8.5.7.7.6.6.6.6.5.8.lXqX9X9X9X4XqXAXSXlXqX4X9X9X9X9X9X9X9X9X9X4XqXwXqXwXwXwX4X9X9X9X9X9XlXsX9X9X9X4X9XsXzXzXpX4X9X9X9X9X9X9X9X9X9X9XqXwXwXqXwXwX9X9X9X9X9X9XlXsX9X9X9X8X9XpXdXdXpX8X9X9X9X9X9X9X9X9X9X9XwXqXwXwXwXwX9X9X9X9XqX3Xw.6.6.6.6.5.6.8.q.8.6.5.6.6.6.6.6.6.6.6.6.8.6.7.6.8.7.8.6.5.6.6.=.V.zX9X9X9X9X9XqXzXzXpX9X9X9X9X9X9X9X9X9X9XqXwXwXwXwXwXqXwX9X9X9XqX9XlXsX9XqX9X9X9XhXhXhXqX9X9X9X",
"qXqX9XqXlXqX9XqXqXqXqXqXqXqXqXqXqXqXqX9XwXq.t.wX9XqXqXqXqXqXqXqXqXqXqXqX9XqX=X7.6.6.6.6.w...1 2 +.7.6.5.6.6.6.6.6.6.6.5.7.+.X.v 7.+.v 7.5.6.6.5.8.lXqX9XqX4XlX=Xm k X.2XsX4XqXqXqXqXqXqXqX9XwXU.r.L.q.r.q.wX9XqXqXqX9XlXsX9XqX9XpXqX%.k ^ F.zX9X9XqXqXqXqXqXqX9XwXL.q.q.r.r.q.qX9X9XqXqX9XlXsX9XqX9XpXqX$X} ` %XzX9X9XqXqXqXqXqXqX9XwXL.r.t.r.q.L.wX9XqX9XqX3Xw.6.6.6.5.8.=.+.G +.=.7.5.6.6.6.6.6.6.6.6.v ..v ..v +.e ..7.5.6.=.V.zX9XqX9XqXpXrX].].'.qXqX9XqXqXqXqXqX9XqXU.q.V.q.V.q.3Xq.qX9XqXqX9XlXsX9XqX9XqXqXoXU x.oXhX9X9X",
"qXqX9XqXlXqX9XqXqXqXqXqXqXqXqXqXqXqX9XqX,X;.;.2XqX9XqXqXqXqXqXqXqXqXqXqX9XqX=X7.6.6.6.7.3 X 3 3 X > =.6.5.6.6.6.6.6.5.6.o., 1 v ..v e ;.6.6.6.5.8.lXqX9X4XsX&.$ , k , $ q.sX4XqXqXqXqXqXqX9XwXP.X.-.X.b ;.=XqX9XqXqX9XlXsX9X9XpX;Xg h ^ l & ^ sX9X9XqXqXqXqXqX9X9X9X;.b ;.2XX.3XqX9XqXqX9XlXsX9X9XpX1X! ! } ) ; ' pX9X9XqXqXqXqX9XqX4Xb q.q.@.L.;.sX4XqX9XqX3Xw.6.6.5.8.+.< 2 2 < < O.7.5.6.6.6.6.6.5.6.1 v 1 v , ..v ..7.5.6.=.V.zX9X9X9XqX{.K {.].T {.8XqX9XqXqXqXqX9XqX3XX.b @.v b -.b wX9XqXqX9XlXsX9X9XqX<XY Y U U Y U 0X9X",
"qXqX9XqXlXqX9XqXqXqXqXqXqXqXqXqXqXqX9XqX3X;.&.2XqX9XqXqXqXqXqXqXqXqXqXqX9XqX=X7.6.5.w., > =.8.8.7.3 > 7.6.6.6.6.6.6.5.7.v 3 1 v v v 1 =.6.6.6.5.8.lXqX4XsX>.$ U.IXJXLX,.o Y.wX4XqXqXqXqXqXqXqX3X;.-.X.X.;.=XqX9XqXqX9XlXsX4XqX3Xg J.R.5XIX8X: %.zX4XqXqXqXqXqX9XwXr.X.3X@.X.-.wX9X9XqXqX9XlXsX9XqX8X! } KXuXv.eX; 3.zX8XqXqXqXqX9XqX2XX.X.q.X.X.L.wX9XqX9XqX3Xw.6.5.7.O.< O.6.7.w.+.> O.7.5.6.6.6.6.5.w.v ..X., 1 v v 6.5.6.6.=.V.zX9X9XlX].{.lXxXxXxX{.T qX9X9XqXqXqX9XqX2XX.;.b b b v v 4XqX9XqX9XlXsX9XqXqXY D.DXDXDXsXY x.hX",
"qXqX9XqXlXqX9XqXqXqXqXqXqXqXqXqXqXqXqX9XwXr.r.wX9XqXqXqXqXqXqXqXqXqXqXqX9XqX=X7.6.6.o.X #.w.4.=.4.7.> v w.5.6.6.6.6.6.6.6.o...v o.X.+.7.5.6.6.5.8.lXqX4XsXf ,.:.t.lXwXIXb l SX4XqXqXqXqXqX9XqX4XU.I.t.L.t.wX9XqXqXqX9XlXsX4XdX/ h IX&., DXJXF.: 9XqX9XqXqXqXqX9XwXr.-.r.r.q.q.9XqX9XqXqX9XlXsX8XdX} _ KXGXX.1 IX%X; 9XqX9XqXqXqXqX9XwXV.r.r.r.;.L.qX9XqX9XqX3Xw.6.5.7.< ^ 9.=.=., v 2 3 w.5.6.6.6.6.6.6.o.o.v o.+...o.6.5.6.6.=.V.zX9XqXrXK eXxXsXAXGXJX{.'.pX9XqXqXqX9XqXI.t.P.V.P.t.4XL.9XqXqXqX9XlXsX4XhXz.Y UXlXlXlXxXiXY 4X",
"qXqX9XqXlXqX9XqXqXqXqXqXqXqXqXqXqXqXqX9X9XwXwX9XqX9XqXqXqXqXqXqXqXqXqXqX9XqX=X7.5.w.v > o., +.6.=.8., , w.5.6.6.6.6.6.6.6.6.7.7.7.8.8.5.6.6.6.5.8.lXqXqX2Xf 5X-.q sXlXFXG.% wX9X9XqXqXqXqXqX9XqXwXqXsXwXsX9XqXqXqXqX9XlXsX4XdXh J.JXqXt.lXlXlX: e.sX9XqXqXqXqXqX9XwXlXsXwXlXsX9XqXqXqXqX9XlXsX8XdX_ $XKXAXI.U.AXlXG u.pX9XqXqXqXqXqXqXwXsXwXwXlXqX9XqXqX9XqX3Xw.6.6.=.< o.=.6.X., =.+.> 6.6.6.6.6.6.6.6.6.6.8.6.w.8.7.5.6.6.6.=.V.zX9XlX'.{.xXlXSX:Xq ,.].(.zX9XqXqXqXqX9XqXsXwXwXwXwXqXwXqX9XqXqX9XlXsX4XhXU D.DXlXlXsXFXDXY oX",
"qXqX9XqXlXqX9XqXqXqXqXqXqXqXqXqXqXqX9XqXqX9XqXqXqXqX9XqXqXqXqXqXqXqXqXqX9XqX=X7.5.8.+., +.% v 6.=.8., , w.5.6.6.6.6.6.6.6.6.=.7.=.#.=.6.6.6.6.5.8.lXqXqX3Xf 5XJXlXlXlXFXG.% wX9X9XqXqXqXqX9XqX4X4XwX3X3X9XqX9XqXqXqX9XlXsX4XdXh J.KXlXFXlXlXlX: e.sX9XqXqXqXqXqX9XqX3X3X9X4X4XqX9XqXqXqX9XlXsX8XdX_ $XKXlXFXSXlXlXD u.pX9XqXqXqX9XqX3XqX9XqX9X4XqXqX9XqX9XqX3Xw.6.6.4.< o.5.=.4.6.7.+.> 6.6.6.6.6.6.6.6.6.6.=.7.=.#.=.6.6.6.6.=.V.zX9XpX'.{.xXlXAX3X&.W.K J xX8XqXqXqX9XqXqXqX9XqX9XqXqXqXqXqX9XqX9XlXsX4XhXU D.DXsXFXb b DXY oX",
"qXqX9XqXlXqX9XqXqXqXqXqXqXqXqXqXqX9XsXq.-.-.;.@.-.wX9XqXqXqXqXqXqXqXqXqX9XqX=X7.6.6.=.3 o.w.6.=.5.6.X +.8.5.6.6.6.6.6.5.6.v 1 +.1 , X.7.5.6.6.5.8.lXqX4XsXf M LXlXlXlXIXk l AX4XqXqXqXqXqX9XwXL.&.X.-.r.@.9XqX9XqXqX9XlXsX4XdX3.h KXlXlXlXLXH.: qXqX9XqXqXqXqX9XwXV.;.r.@.q.&.9XqX9XqXqX9XlXsX8XdX_.! KXlXlXjXPX%X; qXqX9XqXqX9X9XqXq.&.;.-.X.r.t.q.lX4X9XqX3Xw.6.5.8.< ^ 8.=.=.=.w.< < w.5.6.6.6.6.6.5.6.v 1 +.1 , X.7.5.6.6.=.V.zX9XqX8XK eXxXlXAXLXJXL '.zX9XqXqX9XqX=X@.r.X.-.@.;.&.;.;.qX9XqX9XlXsX4XhXz.Y DXlXAX:X&.oXY 4X",
"qXqX9XqXlXqX9XqXqXqXqXqXqXqXqXqXqX9XwXL.X.t.b @.-.3XqX9XqXqXqXqXqXqXqXqX9XqX=X7.6.5.8.e 3 #.=.=.5.3 3 8.5.6.6.6.6.6.6.6.=.1 6., 1 1 #.6.6.6.6.5.8.lXqX4XsXK.f t.FXlXFX&.$ =XwX9XqXqXqXqXqXqX9XwX-.-.;.=X;.9XqX9XqXqX9XlXsX9XqXqXg / SXlXSX1X* %.lX4XqXqXqXqXqX4XsXX.X.L.X.=X;.9XqX9XqXqX9XlXsX9XqXqX! | xXlXSX1X; 3.zX8XqXqXqXqX9XwXU.v @.b v X.b -.lX4X9XqX3Xw.6.5.6.O.< +.6.=.6.2 4 =.6.5.6.6.6.6.6.6.=.1 6., 1 1 #.6.6.6.6.=.V.zX9X9XlX].K eXzXlXzXJ H lX9X9XqXqX9XqX4X&.;.-.v -.b ;.X.-.=XwX9X9XlXsX9XqXqXY U zXlXFXsX7 x.jX",
"qXqX9XqXlXqX9XqXqXqXqXqXqXqXqXqXqX9XwX=X-.-.X.X.;.qX9XqXqXqXqXqXqXqXqXqX9XqX=X7.6.6.6.7.v o.6.6.=.2 =.6.6.6.6.6.6.6.6.6.6.v e v v v =.6.6.6.6.5.8.lXqX9X4XsX,.,.sXqXlXb t.sX4XqXqXqXqXqXqX4XsX-.X.I.&.b -.wX9X9XqXqX9XlXsX9X9XpX1X/ qXqXzX0.%.zX4XqXqXqXqXqXqX9XwXq.X.-.@.b ;.wX9X9XqXqX9XlXsX9X9XpX1X} qXqXzXu.3.zX9XqXqXqXqX9X9XqXt.@.-.X.@.X.X.;.lX4X9XqX3Xw.6.6.5.8.+.+.6.=.7.2 +.8.5.6.6.6.6.6.6.6.6.v e v v v =.6.6.6.6.=.V.zX9X9X9XqX].rXpXwX8XK 8XqX9XqXqXqXqX9XqX-.q.X.X.X.X.X.X.@.4XqXqX9XlXsX9X9XqX<XU 9XwXlXB.2.hX9X",
"qXqX9XqXlXqX9XqXqXqXqXqXqXqXqXqXqX9XqX4X4X:X2X,X2XqX9XqXqXqXqXqXqXqXqXqX9XqX=X7.6.6.6.6.8.6.6.6.6.w.6.6.6.6.6.6.6.6.6.6.6.=...6.=.=.5.6.6.6.6.5.8.lXqX9XqX4XsXsX4X9X9XlXwX4XqXqXqXqXqXqXqX9XqX=XI.I.=X=XI.9XqX9XqXqX9XlXsX9XqX9XqXdX9X9X4XpXsX9XqXqXqXqXqXqXqX9XqX4X=X=X=X=XI.9XqX9XqXqX9XlXsX9XqX9XqXpX9X9X9XpXsX9XqXqXqXqXqXqX9XqXI.2X=X9X=X4XsX4XqX9X9XqX3Xw.6.6.6.5.7.7.6.6.6.8.7.5.6.6.6.6.6.6.6.6.6.=...6.=.=.5.6.6.6.6.=.V.zX9XqX9X9XlXqX9X9XqXzXqX9XqXqXqXqXqXqXqX3X4X=X4X=X3X:X3X:XqX9XqX9XlXsX9XqX9XqXhX9X9X9XwXhX9XqX",
"qXqX9XqXlXqX9X4X4X4X4X4X4X4X4X4X4X4X4X4X4XqXqXqXqX4X4X4X4X4X4X4X4X4X4X4X4XqX=X7.6.6.-.-.=.-.-.-.-.=.=.-.-.-.-.-.-.-.-.-.-.5.6.-.5.5.-.-.-.-.5.5.8.lXqX9X9X9X4X4XqX9X9X4X4X9X9X9X9X9X9X9X9X9X9XqXwXwXqXqXwX9X9X9X9XqX9XlXsX9X9X4X4X3X4X4X4X4X3X4X4X4X4X4X4X4X4X4X4X8XqXqXqXqXqX4X4X4X4X9X9XlXsX9XqX9X9X8X9X9XqX9X8X9X9X9X9X9X9X9X9X9XwXqXqXqXqXqX4XqX9X9X9XqX3Xw.6.6.5.4.4.4.4.4.4.4.4.5.4.4.4.4.4.4.4.4.4.6.7.4.6.6.5.4.4.4.6.=.V.zX9X9X9X9X8X9X9X9X9X8X9X9X9X9X9X9X9X9X9XqX9XqX9XqXqXqXqXqX9X9X9X9XlXsX9X9X9X9X9X9X9X9X9X4X9X9X",
"qXqX9XqXlXqX9XjXjXjXjXjXjXjXjXjXjXjXjXjXjXjXjXjXjXjXjXjXjXjXjXjXjXjXjXjX0XqX=X7.6.6.7.7.7.7.7.7.7.7.7.7.7.7.7.7.7.7.7.7.7.7.7.7.7.7.7.7.7.7.7.5.8.lXqX9XqXqXqXqXqXqXqXqXqXqXqXqXqXqXqXqXqXqXqXqXqXqXqXqXqXqXqXqXqXqX9XlXsX4XpXdXdXdXdXdXdXdXdXdXdXdXdXdXdXdXdXdXdXdXdXdXdXdXdXdXdXdXdXpX9XlXsX9XqXqXqXqXqXqXqXqXqXqXqXqXqXqXqXqXqXqXqXqXqXqXqXqXqXqXqXqXqXqX3Xw.6.6.:.:.:.:.:.:.:.:.:.:.:.:.:.:.:.:.:.:.:.:.:.:.:.:.:.:.:.:.:.=.V.zX9XqXpXpXpXpXpXpXpXpXpXpXpXpXpXpXpXpXpXpXpXpXpXpXpXpXpXpXpXpXqX9XlXsX9X0XhXhXhXhXhXhXhXhXhXhX",
"qXqX9XqXlXqX9Xf.f.f.f.f.f.f.f.f.f.f.f.f.f.f.f.f.f.f.f.f.f.f.f.f.f.f.f.f.j.wX=X7.7.&.c c c c c c c c c c c c c c c c c c c c c c c c c c c c c ;.w.lXqX9X2X:X:X:X:X:X:X:X:X:X:X:X:X2X:X:X:X:X:X:X:X:X:X:X:X:X:X:X:X4X9XlXwXpXJ.] ] ] ] ] ] ] ] ] ] ] ] ] ] ] ] ] ] ] ] ] ] ] ] ] ] ] ] F.pXlXwX9X3X:X:X:X:X:X:X:X:X:X:X:X:X2X:X:X:X:X:X:X:X:X:X:X:X:X:X:X:XqX3Xw.6.5.{ { { { { { { { { { { { { { { { { { { { { { { { { { { { ` -.i.AXqXrX[.[.[.[.[.[.[.[.[.[.[.[.[.[.[.[.[.[.[.[.[.[.[.[.[.[.[.[.rXqXlXsX0X+X|.|.|.|.|.|.|.|.|.|.",
"qXqX9XqXlXqXqXu 6 6 6 6 6 6 6 6 6 6 6 6 6 6 6 6 6 6 6 6 6 6 6 6 6 6 6 6 s jX=X6.7.n . . . . . . . . . . . . . . . . . . . . . . . . . . . . d ;.w.lXqX4X=X3X3X3X3X3X3X3X3X3X3X3X4X:X3X4X3X3X3X3X3X3X3X3X3X3X3X4X:X2XqXlXwXdX/ @ & & & & & & & & & & & & & @ & & & & & & & & & & & & * J.fXjXwXqX=X2X3X3X3X3X3X3X3X3X3X3X4X:X3X4X3X3X3X3X3X3X3X3X3X3X3X3X=X4X4Xw.6.7.[ S S S S S S S S S S S S S S S S S S S S S S S S S S S [ -.i.AX5XbXK H H H H H H H H H H H H H H H H H H H H H H H H H H H [.5XsXsXhX|.8 7 8 8 8 8 8 8 8 8 ",
"qXqX9XqXlXqXqXs 5 5 5 5 5 5 5 5 5 5 5 5 6 6 6 6 5 5 5 5 5 5 5 5 5 5 5 5 a jX=X6.7.n .                       . . . .                         d ;.w.lXqX4X:XqXqXqXqXqXqXqXqXqXqXwX:Xt.>.;.2XqXqXqXqXqXqXqXqXqXqXqX3X2XqXlXwXdX/ @ & & & & & & & & & & & * * j * & & & & & & & & & & & * J.fXjXwXqX:X4XqXqXqXqXqXqXqXqXqXwX:Xt.>.;.2XqXqXqXqXqXqXqXqXqXqXqX:X4X4Xw.6.7.D = = = = = = = = = = = S S S S = = = = = = = = = = = S [ -.i.AX5XbXK F F F F F F F F F F F H H J H F F F F F F F F F F F H [.5XsXsXhX|.7 7 7 7 7 7 7 7 7 7 ",
"qXqX9XqXlXqXqXs 5 5 5 5 5 5 5 5 5 5 5 5 6 6 u u 5 5 5 5 5 5 5 5 5 5 5 5 a jX=X6.7.n .                       . . . .                         d ;.w.lXqX4X=XqX9X9X9X9X9X9X9X9X9XwXI.t.q.b L.wX4X9X9X9X9X9X9X9X9XqX2X2XqXlXwXdX/ @ & & & & & & & & & & & * * j j @ & & & & & & & & & & * J.fXjXwXqX:X4XqX9X9X9X9X9X9X9X9XwXI.t.q.b L.wX4X9X9X9X9X9X9X9X9XqX:X4X4Xw.6.7.W S S S S S S S S S S S S S S S S S S S S S S S S S S S [ -.i.AX5XbXK F F F F F F F F F F F H H K K F F F F F F F F F F F H [.5XsXsXhX|.8 7 7 7 7 7 7 7 7 7 ",
"9XqX9XqXlXqXqXs 5 5 5 5 5 5 5 5 5 5 5 5 5 5 5 5 5 5 5 5 5 5 5 5 5 5 5 5 a jX=X6.7.n .                         .   .                         d ;.w.lXqX4X:XqXqXqXqXqXqXqXqXqXqXqXqXL.2X:X2XqXqXqXqXqXqXqXqXqXqXqX3X2XqXlXwXdX/ @ & & & & & & & & & & & * & & & & & & & & & & & & & & * J.fXjXwXqX:X4XqXqXqXqXqXqXqXqXqXqXqXL.2X:X2XqXqXqXqXqXqXqXqXqXqXqX:X4X4Xw.6.7.D = = = = = = = = = = = S S S S S = = = = = = = = = = S [ -.i.AX5XbXK F F F F F F F F F F F H H F F F F F F F F F F F F F H [.5XsXsXhX|.7 7 7 7 7 7 7 7 7 7 ",
"qX9X9XqXlXqXqXu 6 6 6 6 6 6 6 6 6 6 6 6 6 6 6 6 6 6 6 6 6 6 6 6 6 6 6 6 s jX=X6.7.n . . . . . . . . . . . . . . . . . . . . . . . . . . . . d ;.w.lXqX4X=X3X3X3X3X3X3X3X3X3X3X3X3X9X4X4X4X3X3X3X3X3X3X3X3X3X3X3X:X2XqXlXwXdX/ @ @ @ @ @ @ @ @ @ @ @ @ @ & & & & & & & & & & & & & & * J.fXjXwXqX=X2X3X3X3X3X3X3X3X3X3X3X3X9X4X4X4X3X3X3X3X3X3X3X3X3X3X3X=X4X4Xw.6.7.[ S S S S S S S S S S S S S S S S S S S S S S S S S S S [ -.i.AX5XbXK H H H H H H H H H H H H H H H H H H H H H H H H H H H [.5XsXsXhX|.8 7 8 8 8 8 8 8 8 8 ",
"wX9X9XqXlXqX9Xf.f.f.f.f.f.f.f.f.f.f.f.f.f.f.f.f.f.f.f.f.f.f.f.f.f.f.f.f.S.wX=X7.7.&.c c c c c c c c c c c c c c c c c c c c c c c c c c c c c =.w.lXqX9X2X2X2X2X2X2X2X2X2X2X2X2X2X:X:X,X2X2X2X2X2X2X2X2X2X2X2X2X2X4X9XlXwXpXH.] ] ] ] ] ] ] ] ] ] ] ] ] ] ] ] ] ] ] ] ] ] ] ] ] ] ] ] %XpXlXsX9X3X2X2X2X2X2X2X2X2X2X2X2X2X:X:X,X2X2X2X2X2X2X2X2X2X2X2X2X2XqX3Xw.6.5.{ { { { { { { { { { { { { { { { { { { { { { { { { { { { ` -.i.AXqXrX[.[.[.[.[.[.[.[.[.[.[.[.[.[.[.[.[.[.[.[.[.[.[.[.[.[.[.[.rXqXlXsX0X+X|.|.|.|.|.|.|.|.|.|.",
"sX9X9XqXlXqX9X0X0X0X0X0X0X0X0X0X0X0X0X0X0XjX0X0X0X0X0X0X0X0X0X0X0X0X0X0X0XqX=X7.6.6.4.4.4.4.4.4.4.4.4.4.4.4.4.7.7.4.4.4.4.4.4.4.4.4.4.4.4.4.4.5.8.lXqX9X3X3X3X3X3X3X3X3X3X3X3X3X3X3XqX4X3X3X3X3X3X3X3X3X3X3X3X3X3X9X9XlXwXqXY.H.H.H.H.H.H.H.H.H.H.H.H.H.dXfXuXfXuXuXuXuXuXuXuXfXfXuXfXqX9XlXsX9X4X3X3X3X3X3X3X3X3X3X3X3X3X3XqX4X3X3X3X3X3X3X3X3X3X3X3X3X3XqX3Xw.6.6.-.;.;.;.;.;.;.;.;.;.;.;.;.:.:.:.;.;.;.;.;.;.;.;.;.;.;.;.-.=.V.zX9X9X5X5X5X5X5X5X5X5X5X5X5X5X5X5X5X5X5X5X5X5X5X5X5X5X5X5X5X5X9X9XlXsX9X0X0X8X8X8X8X8X8X8X8X8X",
"wX9X9XqXlXqX9XU.:X:X,X2X,X2X2X2X2X,X:X:XU.4X=X:X:X:X3X3X2X2X,X2X:X:X:X:X=XwX=X7.6.=.X.......................X...=.X.........................X.=.w.lXqX4X=X2X2X2X3X2X3X3X2X3X2X2X2X=X4X=X2X2X2X3X3X3X2X2X3X2X2X2X=X2XqXlXwXdXl O O O O O O O O O O O O z 3X=X=X2X2X2X3X2X2X2X2X2X=X2X=X2XqXlXwXqX=X:X2X2X3X2X3X3X2X3X2X2X2X=X4X=X2X2X2X3X3X3X2X2X2X2X2X2X=X4X3Xw.6.5.......O.....O.O.O.O.......O.4.+.....O.O.O.....O...........=.V.zXqX3X=X2X,X3X2X2X3X2X2X2X,X2X=X3X,X=X2X,X3X3X3X2X2X3X,X,X2X=X,XqXlXsXqX:X:X,X,X2X,X3X2X,X2X,X",
"9XqX9XqXlXqX4X:XqXqX3Xr.V.t.=XI.t.9XqXqX:X4X:XqXqX4XV.r.L.U.q.>.I.wXqXqX=XqX=X7.6.=.O.#.=.X.v v v ..v +.=.#.o.o.=...#.=.X.v v X.+.v v o.#.#...=.w.lXqX4X:XqXqX3Xr.V.t.=XI.t.qXqXqX:X4X:XqXqX4XV.r.L.U.q.>.U.wXqX3X2XqXlXwXdXl O O O O O O O O O O O O z 5X:XqXqX4XV.r.L.U.q.>.U.wXqX3X2XqXlXwXqX:X4XwX3Xr.V.t.=XI.t.qXqXqX:X4X:XqXwXU.V.t.U.L.>.q.3XqXqX:X4X4Xw.6.5...#.=.X.v v v ..v +.=.#.o.o.=...#.=.v v v ..v v v #.#.o.o.=.V.zXqX3X2XqXwXV.L.t.L.:Xq.:XwXqX3X3X2X3XwX4XV.r.L.U.t.>.I.wXqX3X2XqXlXsXqX:X4XwX3Xr.V.t.=XU.t.9X",
"qXqX9XqXlXqX4X=X9XqX4X:.:.q.>.r.q.=XqXqX:X4X:X4XqX4X&.X.>.t.V.;.L.wX9X4X=XqX=X7.6.=...#.#.X.1 v e v v v o.o.o.o.=...o.#.+., 1 v v v 1 O.#.o...=.w.lXqX4X=XqXqX4X-.>.q.>.r.q.=XqX9X=X4X=X9XqX4X&.X.q.t.V.;.L.wXqX2X2XqXlXwXdXl O O O O O O O O O O O O z 5X:X4XqX4X&.X.q.t.V.;.L.wXqX2X2XqXlXwXqX:X3XqX4X-.>.q.>.r.q.=XqX9X=X4X=X4XwXI.X.&.t.r.r.;.2XqXqX:X4X4Xw.6.5...o.#.X.1 v e v v v o.o.o.o.=...o.=.v , e v v v v #.o.o.o.=.V.zXqX3X2XqXqXV.;.r.-.r.t.V.wXqX2X3X2X3XqX9X&.X.>.t.V.;.V.wXqX3X2XqXlXsXqX:X3XqX4X:.:.q.>.r.q.=X",
"qXqX9XqXlXqX4X:XqXqX9XL.v.V.V.L.r.9XqXqX:X4X:X9XqXqXL.L.L.L.2XV.I.qXqX9X=XqX=X7.6.=...#.#...v v +.v v +.#.#.o.o.=...#.#.o.v X.v X...v o.#.#...=.w.lXqX4X:XqXqX4XV.r.L.V.L.v.qXqXqX:X4X:X9XqX9XL.L.L.L.2XV.I.qXqX3X2XqXlXwXdXl O O O O O O O O O O O O z 5X:X9XqX9XL.L.L.L.2XV.I.qXqX3X2XqXlXwXqX:X4XqX4XV.r.L.V.L.v.qXqXqX:X4X:X9XqX3Xr.I.v.=X=Xr.2XqXqX:X4X4Xw.6.5...o.#...v v +.v v +.#.#.o.o.=...#.#.X.v X.v ..+.v o.#.o.o.=.V.zXqX3X2XqXqXI.V.V.L.L.r.:XqXqX2X3X2X3XqXqXL.L.L.L.2XV.I.qXqX3X2XqXlXsXqX:X3XqX9XL.v.V.V.L.r.9X",
"qXqX9XqXlXqX4X=X9X9X4XqXqXqXqXqXqX9X4X9X=X4X=X4X9X4XqXqXqXqXqXqXqX4X9X4X=XqX=X7.6.=...o.o.o.#.#.#.o.#.o.o.o.O.o.=...o.o.o.#.o.#.o.o.#.o.o.o...=.w.lXqX4X=X9X4X4XqXqXqXqXqXqX9X4X9X=X4X=X4X9X9XqXqXqXqXqXqXqX4XqX2X2XqXlXwXdXl O O O O O O O O O O O O z 5X:X4X9X9XqXqXqXqXqXqXqX4XqX2X2XqXlXwXqX:X3X9X4XqXqXqXqXqXqX9X4X9X=X4X=X4X4X9XwXqXqXqXqXqX9X4X9X=X4X4Xw.6.5...o.o.o.#.#.#.o.#.o.o.o.o.o.=...o.o.o.#.o.#.o.o.o.o.o.o...=.V.zXqX3X:XqX4XqXqXqXqXqXqXqX4XqX2X3X2X2X9X4XqXqXqXqXqXqXqX4XqX2X,XqXlXsXqX:X3X9X4XqXqXqXqXqXqX9X",
"qXqX9XqXlXqX9X:X=X:X=X=X=X=X=X=X=X=X=X=X=X9X:X=X:X=X=X=X=X=X=X=X=X=X:X=X:XqX=X7.6.=...o.O.O.............O.o...#.5...O.O.O.............O.O.O.O.=.w.lXqX9X=X=X=X=X=X=X=X=X=X=X=X=X=X=X9X:X=X:X=X=X=X=X=X=X=X=X=X:X=X3XqXlXwXfXm z z z z z z z z z z z z z 4X:X=X:X=X=X=X=X=X=X=X=X=X:X=X3XqXlXwXqX2X=X:X=X=X=X=X=X=X=X=X=X=X=X9X:X=X:X=X=X=X=X=X=X=X=X=X=X=X9X3Xw.6.5.o...O.O.............O.o...#.5...O.O...............O.o...o.=.V.zX9X3X=X:X=X=X=X=X=X=X=X=X=X:X=X4X3X=X:X=X=X=X=X=X=X=X=X=X:X=X3XqXlXsXqX2X=X:X=X=X=X=X=X=X=X=X",
"qXqX9XqXlXqX9XqX9X9X9X9X9X9X9X9X9X9X9X9XqX9XqX9X9X9X9X9X9X9X9XqX9X9X9X9X9XqX=X7.6.6.6.6.6.6.6.6.6.6.6.6.6.6.6.6.6.6.6.6.6.6.6.6.6.6.6.6.6.6.6.5.8.lXqX9XqX9X9X9X9X9X9X9X9X9X9X9X9XqX9XqX9X9X9X9X9X9X9X9X9X9X9X9XqXqX9XlXsX4XpXsXsXsXsXsXsXsXsXsXsXsXsXsX9XqX9X9X9X9X9X9X9X9X9X9X9X9XqXqX9XlXsX9XqX9X9X9X9X9X9X9X9X9X9X9X9XqX9XqX9X9X9X9X9X9X9X9X9X9X9X9X9XqX3Xw.6.6.6.6.6.6.6.6.6.6.6.6.6.6.6.6.6.6.6.6.6.6.6.6.6.6.6.6.6.6.6.=.V.zX9XqXqX9X9X9X9X9X9X9X9X9X9X9XqX9X9XqX9X9X9X9X9X9X9X9X9X9X9X9XqX9XlXsX9XqX9X9X9X9X9X9X9X9X9X9X",
"qXqX9XqXlXqX9XsXsXsXlXsXsXlXsXsXsXsXlXsXsXlXlXlXlXlXlXlXlXlXlXwXlXsXsXlXwXqX=X7.6.5.=.=.4.4.=.=.4.4.4.4.4.4.=.=.4.4.4.4.4.4.4.4.4.=.=.=.=.=.5.5.8.lXqX9XsXsXsXlXsXsXlXsXsXsXsXlXsXsXlXlXlXlXlXlXlXlXlXsXwXlXsXsXlXqX9XlXsX4XwXwXwXwXwXwXwXwXwXwXwXwXwXwXlXlXlXlXlXlXlXlXlXsXwXlXsXsXlXqX9XlXsX4XwXsXsXlXsXsXlXsXsXsXsXlXsXsXsXlXlXlXlXlXlXlXlXwXsXsXsXsXsXqX3Xw.6.6.5.=.=.4.=.=.4.4.4.4.4.4.4.=.4.4.4.4.4.4.4.4.4.=.4.=.=.=.5.=.V.AX9XqXlXwXsXsXsXsXsXsXsXsXsXlXsXsXlXlXlXlXlXlXlXlXsXwXlXsXsXlXqX4XlXsX4XwXsXsXlXsXsXlXsXsXsXsX",
"9XqX9XqXlXqX9XlXFXAXlXAXAXlXlXlXlXlXlXlXlXlXlXlXlXlXlXlXlXlXlXlXlXFXFXAXlXqX=X7.6.5.4.6.=.=.5.4.=.=.4.4.=.4.4.4.=.=.=.=.=.=.=.=.=.=.=.5.6.4.=.5.8.lXqX9XlXFXlXlXAXAXlXlXlXlXlXlXlXlXlXlXlXlXlXlXlXlXlXlXlXlXFXSXlXwX4XlXsX4XsXFXSXlXlXFXlXlXlXlXlXlXlXlXlXlXlXlXlXlXlXlXlXlXlXlXFXSXlXwX4XlXsX4XsXFXSXlXlXSXlXlXlXlXlXlXlXlXlXlXlXlXlXlXlXlXlXlXlXAXFXAXlXqX3Xw.6.6.=.6.4.=.4.5.=.=.4.4.4.=.4.4.=.=.=.=.=.=.=.=.=.=.=.5.6.4.5.=.V.AX4XqXAXFXlXlXSXlXlXlXlXlXlXlXlXlXlXlXlXlXlXlXlXlXlXlXlXFXFXlXwX4XlXsX4XwXFXSXlXlXFXlXlXlXlXlX",
"qX9X9XqXlXqX9XlXt.4XlX9X3XlXlXlXlXsXlXlXV.2XAXlXlXlXlXlXlXlXlXsXFXt.b AXsXqX=X7.6.6.o.v =.=...=.=.5.=.=.=.=.=.v 4.=.=.=.=.=.=.=.=.=.4.o.3 ..5.=.8.lXqX9XlXq.qXlX4X3XlXAXlXlXsXlXlXr.3XAXlXlXlXlXlXlXlXlXsXFXb >.GXqX4XlXsX4XlXr.r.SXwX=XlXlXlXsXsXlXlX=XL.FXlXlXlXlXlXlXlXlXsXFXb >.GXqX4XlXsX4XlXL.I.lXwX:XlXlXlXsXsXlXlX=XL.FXlXlXlXlXlXlXlXlXlX4Xv 2XAXqX3Xw.6.6.4.v o.=.o.o.4.5.=.=.=.=.4.v o.5.=.=.=.=.=.=.=.=.6.v , 5.5.=.V.AX4XwX4Xt.lXlX2XwXlXAXsXlXlXlXsXt.lXlXlXlXlXlXlXlXlXsXFXb ;.GXqX4XlXsX4XlXr.r.AXlX=XlXlXlXsXsX",
":XqX9XqXlXqX4XAXq.-.&.&.&.;.X.-.q.X.=X-.X.3XSXlXlXlXlXlXlXlXlXsXAXt.@.qXlXqX=X7.6.6.o.1 1 1 , e 1 1 v 1 e X.1 1 5.=.=.=.=.=.=.=.=.=.5.X., +.6.=.8.lXqX9XlX-.-.&.@.;.&.X.-.-.X.=X;.X.4XAXlXlXlXlXlXlXlXlXlXwX&.>.AXwX4XlXsX4XlXX.L.-.;.X.-.X.&.t.X.L.t.X.V.FXlXlXlXlXlXlXlXlXlXwX&.>.AXwX4XlXsX3XAXV.-.@.;.X.-.X.&.t.X.L.t.X.V.FXlXlXlXlXlXlXlXsXAXU.b I.AXqX3Xw.6.5.5.e 1 1 1 1 1 1 1 e , X.1 1 o.5.=.=.=.=.=.=.=.=.5.v 1 o.6.=.V.AX4XwX4X-.;.;.X.-.X.X.q.&.-.U.X.;.AXlXlXlXlXlXlXlXlXlXsX&.:.lXwX4XlXsX4XlXX.r.-.;.X.-.X.&.t.X.",
"U.wX9XqXlXqX4XlX-.;.r.@.-.b X.r.r.q.X.b v 3XAXlXlXlXlXlXlXlXlXwXFX;.q lXlXqX=X7.6.6.o.1 v v 1 1 , 1 ..v e , 3 1 5.=.=.=.=.=.=.=.=.=.5.X.% +.6.=.8.lXqX9XlX-.;.r.@.-.b X.V.r.q.X.b b qXAXlXlXlXlXlXlXlXlXlXlXv &.FXqX4XlXsX4XlXX.P.b &.q.b X.-.P.q.&.b v L.FXlXlXlXlXlXlXlXlXlXlXv &.FXqX4XlXsX3XAXr.@.r.;.-.b X.-.P.q.&.b v V.FXlXlXlXlXlXlXlXsXAX=X, I.SXqX3Xw.6.5.5.1 1 v 1 e , , +.v v 1 , , o.5.=.=.=.=.=.=.=.=.6.e % =.5.=.V.AX4XsX4X@.q.q.&.&.X.X.=Xq.q.X.v @.AXlXlXlXlXlXlXlXlXlXAXb @.FXwX4XlXsX4XlXX.L.X.@.q.b X.;.I.q.",
"9XqX9XqXlXqX9XlXL.=X4X:XI.U.U.9X4X3XI.V.U.wXlXlXlXlXlXlXlXlXlXsXAX3XL.FXsXqX=X7.6.6.o.v o.o.X.X.+...#.o.o.+.+...4.=.=.=.=.=.=.=.=.=.=.=.v =.4.5.8.lXqX9XlXL.=X4X=XI.U.U.qX3X3XI.L.=XsXlXlXlXlXlXlXlXlXlXsXFXL.2XSXqX4XlXsX4XlXP.V.:X:XP.=XI.3X9X3X=XV.I.4XAXlXlXlXlXlXlXlXlXsXFXL.2XSXwX4XlXsX4XlX=XP.4X2XI.=XI.3X9X3X=XV.I.4XAXlXlXlXlXlXlXlXlXlXlXr.lXlXqX3Xw.6.6.4.+...o...X.X.X.o.o.o.+.+.X.=.4.=.=.=.=.=.=.=.=.5.o.v 5.5.=.V.AX4XwXqXV.3X4XU.U.I.:XqX3X3XL.L.:XlXlXlXlXlXlXlXlXlXsXFXP.:XFXwX4XlXsX4XlXI.r.:X2XP.=XI.3XqX3X",
"qXqX9XqXlXqX9XlXFXFXAXSXFXFXSXAXAXAXFXFXFXlXlXlXlXlXlXlXlXlXlXlXlXAXFXlXlXqX=X7.6.5.4.6.5.5.6.6.6.5.4.5.5.6.6.5.=.=.=.=.=.=.=.=.=.=.=.=.6.=.=.5.8.lXqX9XlXFXSXAXSXFXFXFXAXAXAXFXFXFXlXlXlXlXlXlXlXlXlXlXlXlXFXAXlXwX4XlXsX4XsXFXFXSXSXFXFXFXAXAXAXSXFXFXAXlXlXlXlXlXlXlXlXlXlXlXFXAXlXwX4XlXsX4XsXFXFXAXAXFXFXFXAXAXAXSXFXFXAXlXlXlXlXlXlXlXlXlXlXlXFXlXlXqX3Xw.6.6.=.6.5.5.5.6.6.5.4.5.5.6.6.6.4.=.=.=.=.=.=.=.=.=.=.4.6.=.5.=.V.AX9XqXAXFXAXAXFXFXFXSXlXAXAXFXFXSXlXlXlXlXlXlXlXlXlXlXlXFXAXlXwX4XlXsX4XwXFXFXSXSXFXFXFXAXAXAX",
"9XqX9XqXlXqX9XqXqXqXqXqXqXqXqXqXqXqXqXqXqXqXqXqXqXqXqXqXqXqXwXqXqXqXqXqXqXqX=X7.6.6.5.5.5.=.5.5.=.=.5.5.5.5.5.5.5.5.5.5.5.5.5.5.5.=.5.5.5.5.6.5.8.lXqX9XqXqXqX9XqXqXqX9XqXqXqXqXqXqXqXqXqXqXqXqXqXqXqXqXqXqXqXqXqXqX9XlXsX9XqXqXqXqXqXqXqX9XqXqXqXqXqXqXqXqXqXqXqXqXqXqXqXqXqXqXqXqXqXqX9XlXsX9XqXqXqXqXqXqXqX9XqXqXqXqXqXqXqXqXqXqXqXqXqXqXqX9XqXqXqXqXqXqX3Xw.6.6.5.5.5.4.5.5.5.=.5.5.5.5.5.5.5.5.5.5.5.5.5.6.5.=.5.5.5.5.6.=.V.zX9XqXqXqXqXqXqXqXqXqXqXqXqXqXqXqXqXqXqXqXqXqXqXqXqXqXqXqXqXqXqX9XlXsX9XqXqXqXqXqXqXqX9XqXqXqX",
"9X9X9XqXlXqX9X9X9X9X4XjXjX9XqXjXqX4X9X9X9X9X9X9X9X9X9X9XjX0X4XjXjX4X9X9X9XqX=X7.6.6.6.5.6.w.6.6.8.7.5.6.6.6.6.6.6.6.6.6.5.7.8.5.6.w.6.5.6.6.6.5.8.lXqX9X9X4X9XMXwX4XsXsX4X9X9X9X9X9X9X9X9X9X4XqXmXqX4XAXsX4X9X9X9X9X9XlXsX9X9X9X4XpXdX9XqXzXqX4X9X9X9X9X9X9X9X9X4XqXdXqX9XzXsX4X9X9X9X9X9XlXsX9X9X9X8XpXpX9XqXdXqX9X9X9X9X9X9X9X9X9X8XpXpX4XqXzXqX4X9X9X9XqX3Xw.6.6.6.6.6.8.6.6.7.8.5.6.6.6.6.6.6.6.6.6.6.8.7.5.8.w.6.6.6.6.6.=.V.zX9X9X9X9XqXpXqX9XpXqX8X9X9X9X9X9X9X9X9X9XqXpXqX9XzXlX8X9X9X9X9X9XlXsX9X9X9X9XhXhX9XqXhXqX9X9X",
"wXqX9XqXlXqX9XqXqX9XjXA.s u u p 4XwX9XqXqXqXqXqXqX9XqXqXs.s u 9 $.jX9X9X9XqX=X7.6.6.5.7.=.1 , , , ..8.5.6.6.6.6.6.6.6.5.8...1 3 > 3 =.7.5.6.6.5.8.lXqX9X9XqXwXm f f f M sXqX9XqXqXqXqXqXqX4XsXU.N f % , t.lX4XqXqXqX9XlXsX9XqX9XdXJ.h g h k 3XpX9XqXqXqXqXqXqX9XpX1X/ h : < u.zX4XqXqXqX9XlXsX9XqX9XpX$X_ ! ! ) 8XpX9XqXqXqXqXqXqX9XpX&X_ ! ; ' 3XpX9XqX9XqX3Xw.6.6.6.6.6.^ < < < +.8.6.6.6.6.6.6.6.6.6.6.^ < > > 2 8.6.6.6.6.=.V.zX9XqX9XqX8X{.T T {.rXlX9XqXqXqXqXqXqX9XqX8X{.T H H '.zX9XqXqXqX9XlXsX9XqX9XhXoXU Y Y U 4XwX9X",
"-.9XqXqXlXqX9XqX4XjXs.u j.tXS.a u ,XqX9XqXqXqXqX9XqXqXs s S.Z.h.5 r jX9X9XqX=X7.6.5.6.#.3 1 ....v 3 +.8.5.6.6.6.6.6.5.7.v 3 v ..+.3 X #.6.5.6.5.8.lXqX9XqXqXf f H.Q.t.f N sX9X9XqXqXqXqX4XwXY.f N Y.L.m o &.lX4XqXqX9XlXsX9X9XsX/ j J.1X%Xl : 2XqX9XqXqXqXqX9XpXF.j / F.G./ + %.lX4XqXqX9XlXsX9X9XpX} W $X&X&X| ! 1XqX9XqXqXqXqX9XpX_.W $X&X%X' ; ;XpX9X9XqX3Xw.6.6.6.6.< < +.O.+.< 2 6.6.6.6.6.6.6.6.6.2 < +.+.^ > 3 7.6.6.6.=.V.zX9X9XqXrXK ].bXbX[.K '.lX9XqXqXqXqX9XqXrXK {.rX.X(.L (.zX9XqXqX9XlXsX9X9XhXz.Y |.iX+XU Y <XqX",
"X.=XwXqXlXqX9X9XwXC.u uXUXDXAX1Xt w jX4X9XqXqXqX4XjXs.s UX0Xq DXDX5 a.jX4XqX=X7.6.6.6., v 8.5.7...v X =.6.5.6.6.6.5.6.#.3 o.w., v i.3 > w.5.6.5.8.lXqX4XmXm f JXFXGXwX2X% &.lX4XqXqXqX9X9XwXf M IX:.b IXG.$ =XwX9XqX9XlXsX4XpXH.j 7XPXpXb KXk l zX4X9XqXqX9X9XpXh / IX:.b IXG.& =XwX9XqX9XlXsX9XpX&XW 7XKXFXzXR.' ' zX9X9XqXqX9XpX%XW 7XPXb v.IX' G zX9X9XqX3Xw.6.5.8.^ < 6.6.7.#...> k w.5.6.6.6.5.8.^ < 7.;.% =.7.> 2 w.5.6.=.V.zX9X9XqXT [.xXzXGXW.`.L -XqX9XqXqX9X9XpX{.].PX>.b PXrXL -XqX9XqX9XlXsX9XqX<XY iXUXDXzX1XI y hX",
"-.q.3XqXlXqX9X4XjXa s.UXsXlXq b pX5 :XwX9XqXqX9XqXqXu C.UX:Xv qXUXh.9 jX4XqX=X7.6.7..., 5.=.6.e % =.3 1 w.5.6.6.6.5.w.e 1 7.5., v 7.=.X o.7.6.5.8.lXqX9XqXf Y.FXlX2X% v.,., lX4X9XqXqX4XsXH.f AXGX:.b AXLXl m AX4XqX9XlXsX4XdX/ / KXDXt.q FX0X: ;XwX9XqXqX9XpXH.h zXGX-.b DXLXl ^ zX4XqX9XlXsX8XdX) } KXjXAXq b wX; ;XqX9XqXqX8XdX} | KXDXb t.GXjXD %XpX9XqX3Xw.6.6.6.< O.6.4...% v +.> w.5.6.6.6.6.6.< +.7.o.3 o.8.+.> 8.5.6.=.V.zX9XqX#XT zXlXFX:., pXK <.zX8XqXqX9XqXrXT lXGXt.b AXPXK K zX8XqX9XlXsX4XhXU U UXsXSXb v lX7 XX",
"sX=X9XqXlXqX9X4XjXs j.DXlXlXr.lXDX5 c.jX4XqXqX9XqX>Xu uXlXlXlXlXDXZ.5 qX9XqX=X7.6.8.+., 6.=.6.+...w., , w.5.6.6.6.5.w.1 v 6.=.=.=.=.6.> +.w.5.5.8.lXqXqX2Xf 5XAXAX3XL.JXL.% qX9X9XqXqX4XMX,.f GXlXlXlXlXJXb l SX4XqX9XlXsX4XdXh J.KXlXsXwXlXAX: 0.sX9XqXqX4XdX3.h KXlXlXlXlXJX^ l SX4XqX9XlXsX8XdX_ $XKXlXlXr.lXSXG u.pX9XqXqX8XdX_ $XKXlXlXlXlXFXG u.zX9XqX3Xw.6.6.=.< o.=.5.o.v 8.+.> 6.6.6.6.6.6.5.< O.5.=.=.=.5.O.> 5.6.6.=.V.zX9XlX'.{.xXlXSXI.=XPX(.J xX8XqXqX9XpX'.{.zXlXlXlXlXJX(.J xX8XqX9XlXsX4XhXU |.DXlXlXv.sXFXy B.",
"4XqX9XqXlXqX9X4XjXa s.UXsXlXFXAXpX5 E.wX9XqXqX9XqX9Xu !.DXlXlXlXUXh.9 jX4XqX=X7.6.7..., 5.=.=.6.4.w.3 1 w.5.6.6.6.5.w.e 1 7.=.=.=.4.=.X ..7.6.5.8.lXqX9XqXf Q.FXlXAXAXJX,.% sX4X9XqXqX4XsXH.f SXlXlXlXlXIXl b SX4XqX9XlXsX4XdX/ / LXjXlXlXzXwX: P.pX9XqXqX9XpXH.h SXlXlXlXlXPXl ^ zX4XqX9XlXsX8XdX) } KXjXlXFXzXwX; %XpX9XqXqX8XdX} } KXlXlXlXlXlX; %XpX9XqX3Xw.6.6.6.< O.6.=.5.6.7.^ > 8.5.6.6.6.6.6.< +.6.=.=.=.7.+.> 7.6.6.=.V.zX9XqX#XT zXlXlXFXAXPXK T zX8XqXqX9XqXrXT lXlXlXlXsXPXK K xX8XqX9XlXsX4XhXU U UXsXlXFXlXlX7 V.",
"9X9X9XqXlXqX9X9XjXN.u uXDXlXsXUXt 9 jX4X9XqXqXqX4XjXp s DXlXlXlXAX5 $.jX4XqX=X7.6.6.6., v 6.=.=.6.+.X o.6.5.6.6.6.5.7.o.3 o.5.=.=.8.2 > 8.5.6.5.8.lXqX4XmXm f FXlXlXlXAX% X.lX4XqXqXqX9X9XqXf ,.GXlXlXFXY.$ U.wX9XqX9XlXsX4XpXH.j 7XSXlXlXJX^ < lX4X9XqXqX9X9XqXh 3.KXlXlXFXF.* ;XwX9XqX9XlXsX8XpX&XW 7XzXlXlXJX' G zX9X9XqXqX9XpX&XW 7XzXlXlXJX` G sX9X9XqX3Xw.6.5.8.G < 6.=.=.=.5.> 2 w.5.6.6.6.5.8.^ < 5.=.=.=.6.> 2 w.5.6.=.V.zX9X9XqXT [.xXlXlXxXrXL -XqX9XqXqX9X9XqXT [.xXlXlXxXrXL `.pX9XqX9XlXsX9XqXoXY iXDXlXsXUX2.y hX",
"qX9X9XqXlXqX9XqX4XjXs.s lXsXDXh.5 :XwX9XqXqXqXqX9XqXqXu s.DXsXDXr w jX9X9XqX=X7.6.5.7.o.3 ..6.4.=.X e w.5.6.6.6.6.6.5.8.v , 5.=.6.+.X o.7.5.6.5.8.lXqX9XqXqXf m FXwXFXl , sX9X9XqXqXqXqX4XsXK.f Y.SXlXqX% &.lX4XqXqX9XlXsX9X9XdX/ h lXlXFX0.* =XwX9XqXqXqXqX9XpXG.j %XSXlXqX: %.lX4XqXqX9XlXsX9X9XdX} ! lXlXFXu.; 1XqX9XqXqXqXqX9XdX} ! lXlXSXu.; ;XpX9X9XqX3Xw.6.5.6.6.< J 6.=.7.3 3 8.6.6.6.6.6.6.6.6.< G 6.=.7.< > 7.6.6.6.=.V.zX9X9XqXrXK rXzXlXwXL (.zX9XqXqXqXqX9XqXrXK rXzXlXsXH (.zX9XqXqX9XlXsX9X9XhXD.Y lXlXDXB.7 -XwX",
"9XqX9XqXlXqX9XqX9XqXqXZ.9X9XqXE.:XjX4XqXqXqXqXqXqX9XqX3XT.qX4XqXV.9XqX9X9XqX=X7.6.6.5.7.#.=.6.5.=...7.5.6.6.6.6.6.6.6.6.6.o.5.5.6.o.o.7.5.6.6.5.8.lXqX9X9XwX2XY.qX4XqXG.4XqX9XqXqXqXqXqXqX4XsXY.2XqX9X3XG.sX9XqXqXqX9XlXsX9XqXqXqXF.4X9XwXP.=XpX4XqXqXqXqXqXqX9XpX;X1XqX9X3XG.sX9XqXqXqX9XlXsX9XqXqXqX%X9X9XqX;X;XpX9XqXqXqXqXqXqX9XpX%X8X9XqX;X;XpX9XqX9XqX3Xw.6.6.6.6.=.o.6.5.6.O.5.6.6.6.6.6.6.6.6.6.=.o.6.5.6.O.=.6.5.6.6.=.V.zX9XqX9XqXrX3XqX9X3X`.pX9XqXqXqXqXqXqX9XqXrX,XqX9X3X`.pX9XqXqXqX9XlXsX9XqX9XqXoX9X9XqX=X-XhX9X",
"qXqX9XqXlXqX9XqXqX9XqXlX9XwXwXlXlX4XqXqXqXqXqXqXqXqX4XwXjX9XsXwXlXwX9XqX9XqX=X7.6.6.6.6.w.7.6.8.7.w.6.6.6.6.6.6.6.6.6.5.6.w.6.7.7.8.w.5.6.6.6.5.8.lXqX9XqX4XsXsX9XsXwXAXwX4XqXqXqXqXqXqXqXqX9XlXwXqXsXwXAX9X9XqXqXqX9XlXsX9XqX9XwXsXsXqX9XlXsXwXqX9XqXqXqXqXqXqX9XlXpXqXsXwXzX9X9XqXqXqX9XlXsX9XqX9XqXzX9XwXwXlXlX9XqXqXqXqXqXqXqX9XqXzXqXwXwXlXlX9XqXqX9XqX3Xw.6.6.6.5.8.8.5.8.7.w.6.5.6.6.6.6.6.6.6.5.7.w.5.8.7.w.7.5.6.6.6.=.V.zX9XqX9X9XlXqXqXsXwXzX9X9XqXqXqXqXqXqXqX9XlXwXqXsXwXzXqX9XqXqXqX9XlXsX9XqX9XqXlXqXwXwXlXlX4XqX",
"9XqX9XqXlXqX9XqX9XwXP.;.wXr.q.t.q.wX9XqXqXqXqXqXqX9XwXq.t.wX-.V.-.P.wX9X9XqX=X7.6.6.6.5.v o.=.v ..v =.6.6.6.6.6.6.6.5.6.o.v 6.X.v +.v 7.5.6.6.5.8.lXqX9X9XwXq.t.wX-.V.-.P.wX9XqXqXqXqXqX9XqX4X;.U.2X;.L.;.3XqX9XqXqX9XlXsX9XqXsXt.P.t.I.qX;.L.-.=XqX9XqXqXqX9XqX4X;.U.2X;.L.;.3XqX9XqXqX9XlXsX9X9XwXP.;.wXr.q.t.q.wX9XqXqXqXqXqX9XwXU.;.qXV.q.r.q.wX9XqX9XqX3Xw.6.6.6.7.v v 7.v X.v ..7.5.6.6.6.6.6.5.7.+.v 8.v X.v ..7.5.6.6.=.V.zX9X9XqX4X;.U.2X;.L.;.3XqX9XqXqXqXqX9XqX9X;.I.3X;.L.;.2XqX9XqXqX9XlXsX9X9XwXU.;.qXV.q.r.q.wX9X",
"9XqX9XqXlXqX9XqX9XwX-.;.V.-.X.X.;.:XqX9XqXqXqXqX9XqX:X;.-.L.-.b ;.-.wX9X9XqX=X7.6.5.8.X.e v +.v , v +.8.5.6.6.6.6.6.5.7.v e X.v 1 , v #.6.6.6.5.8.lXqX9XqX:X;.-.L.-.b ;.-.wX9XqXqXqXqXqX9XsXr.&.q.r.;.v -.t.sX4XqXqX9XlXsX9X3X4X-.q.-.V.I.;.v ;.-.sX4XqXqXqX9XsXr.&.q.r.;.v -.t.sX4XqXqX9XlXsX9X9XwX-.;.V.-.X.X.;.:XqX9XqXqXqXqX9XwX-.&.V.q.X.b ;.=XwX9X9XqX3Xw.6.6.6.=.e v ..v , e v 6.5.6.6.6.6.6.6.=.v v ..v , 1 v 6.5.6.6.=.V.zX9X9XsXr.&.q.r.;.v -.t.sX4XqXqXqXqX9XsXV.&.q.r.;.v -.q.sX4XqXqX9XlXsX9X9XwX-.&.V.q.X.b -.=XwX",
"9XqX9XqXlXqX9XqX9XwX-.@.q.-.X.X.;.2XqX9XqXqXqXqX9XqX2X&.&.q.;.b @.-.wX9X9XqX=X7.6.5.7...1 v v e , e +.8.5.6.6.6.6.6.5.7.v 1 v v 1 1 e =.6.6.6.5.8.lXqX9XqX2X&.&.q.;.b @.-.wX9XqXqXqXqXqX9XwXL.@.;.q.&.b &.r.sX4XqXqX9XlXwXqX=XL.L.r.L.t.r.;.b &.-.sX4XqXqXqX9XwXL.@.;.q.&.b &.r.sX4XqXqX9XlXsX9X9XwX-.@.q.-.X.X.;.2XqX9XqXqXqXqX4XwXq.X.-.-.X.X.&.=XqX9X9XqX3Xw.6.6.6.=.e e v v , 1 v 7.5.6.6.6.6.6.6.=.v 1 v v , 1 v 6.5.6.6.=.V.zX9X9XwXL.@.;.q.&.b &.r.sX4XqXqXqXqX9XwXP.@.;.q.;.b &.t.sX4XqXqX9XlXsX9X9XwXq.X.-.-.X.X.&.=XqX",
"9XqX9XqXlXqX9XqX9XqX=Xq.U.V.r.L.r.wX9XqXqXqXqXqXqX9XwXV.r.=Xt.I.t.=XqX9X9XqX=X7.6.6.6.6.v ..o.+.o.v 5.6.6.6.6.6.6.6.6.6.=.v o...X...+.7.5.6.6.5.8.lXqX9X9XwXV.r.=Xt.I.t.=XqX9XqXqXqXqXqX9XqX9Xq.L.I.q.=Xq.4XqX9XqXqX9XlXsX9XqXsX:X=X2XI.U.t.U.q.,XqX9XqXqXqX9XqX9Xq.L.I.q.=Xq.4XqX9XqXqX9XlXsX9X9XqX=Xq.U.V.r.L.r.wX9XqXqXqXqXqX9XqX:Xq.I.L.r.P.r.wX9XqX9XqX3Xw.6.6.5.7.X.+.o.+.o.+.o.6.6.6.6.6.6.6.5.7...+.o.+...+.o.6.6.6.6.=.V.zX9X9XqX9Xq.L.U.q.=Xq.4XqX9XqXqXqXqX9X9XqXt.V.U.q.=Xq.3XqX9XqXqX9XlXsX9X9XqX:Xq.I.L.r.P.r.wX9X",
"9XqX9XqXlXqX9XqXqX9XqXsXwXwXwXwXwX9XqXqXqXqXqXqXqXqX9XwXsXqXsXwXsXqX9XqX9XqX=X7.6.6.6.6.8.7.6.8.6.8.6.6.6.6.6.6.6.6.6.6.6.8.6.7.7.7.7.6.6.6.6.5.8.lXqX9XqX9XwXsXqXsXwXsXqX9XqXqXqXqXqXqXqX9XqXsXwXwXsXqXsXqX9XqXqXqX9XlXsX9X9X4XqXqXqXwXwXsXqXsXqX9XqXqXqXqXqX9XqXsXwXwXsXqXsXqX9XqXqXqX9XlXsX9XqX9XqXsXwXwXwXwXwX9XqXqXqXqXqXqXqX9XqXsXwXwXwXwXsX9XqXqX9XqX3Xw.6.6.6.5.7.8.6.8.7.8.6.6.6.6.6.6.6.6.6.5.7.8.6.8.7.8.6.6.6.6.6.=.V.zX9XqXqXqXsXwXwXsXqXsXqX9XqXqXqXqXqXqXqX9XsXwXwXsXqXsXqX9XqXqXqX9XlXsX9XqX9XqXsXwXwXwXwXsX9XqX",
"qXqX9XqXlXqX9XqXqXqX9X4X9X4X4X9X9XqXqXqXqXqXqXqXqXqXqX9X4X4X4X4X4X9XqXqX9XqX=X7.6.6.6.6.5.5.5.5.5.5.6.6.6.6.6.6.6.6.6.6.6.5.5.5.5.5.5.6.6.6.6.5.8.lXqX9XqXqX9X4X9X4X4X4X9XqXqXqXqXqXqXqXqXqX9X4X9X4X4X9X4X9XqXqXqXqX9XlXsX9XqXqX9X9X9X4X4X4X9X4X9XqXqXqXqXqXqXqX9X4X9X4X4X9X4X9XqXqXqXqX9XlXsX9XqXqX9X4X9X4X4X9X9XqXqXqXqXqXqXqXqXqX9X4X9X4X4X9X9XqXqXqX9XqX3Xw.6.6.6.6.5.5.5.5.5.5.6.6.6.6.6.6.6.6.6.6.5.5.5.5.5.5.5.6.6.6.6.=.V.zX9XqXqX9X4X9X4X4X9X4X9XqXqXqXqXqXqXqXqXqX4X9X4X4X9X4X9XqXqXqXqX9XlXsX9XqXqX9X4X9X4X4X9X9XqXqX",
"qXqX9XqXlXqX9XqXqXqX9X9XqXhXhXqX9XqXqXqXqXqXqXqXqXqXqX9X9XpXdXpX9X9XqXqX9XqX=X7.6.6.6.6.5.6.7.w.6.5.6.6.6.6.6.6.6.6.6.6.6.5.6.8.8.6.5.6.6.6.6.5.8.lXqX9XqXqX9X9XwXhXwX9X9XqXqXqXqXqXqXqXqXqXqX4XqXfXdXqX9X9XqXqXqXqX9XlXsX9XqXqX9X9XqXhXhXqX9XqXqXqXqXqXqXqXqXqXqX4XqXfXdXqX9X9XqXqXqXqX9XlXsX9XqXqX9X9XqXhXhXqX9XqXqXqXqXqXqXqXqXqX9X4XqXdXpXqX9XqXqXqX9XqX3Xw.6.6.6.6.5.6.7.w.7.5.5.6.6.6.6.6.6.6.6.6.5.5.7.8.7.5.5.6.6.6.6.=.V.zX9XqXqXqX9XqXhXhXqX9X9XqXqXqXqXqXqXqXqXqX9XqXpXdXpX9X9XqXqXqXqX9XlXsX9XqXqX9X9XqXhXhXqX9XqXqX",
"qXqX9XqXlXqX9XqXqX9XqXhX<XA.Z.9XhX9XqXqXqXqXqXqXqXqX9XpXpXH.J.G.pXpX9XqX9XqX=X7.6.6.6.5.w.5.+.+.#.w.6.6.6.6.6.6.6.6.6.5.6.w.o.+.+.5.8.5.6.6.6.5.8.lXqX9XqX9XqXqXoXA.oXwXqX9XqXqXqXqXqXqXqXqX9XdX3XJ.J.1XdXqX9XqXqXqX9XlXsX9XqX9XqXhX<XA.Z.9XhX9XqXqXqXqXqXqXqXqX9XdX3XJ.J.1XdXqX9XqXqXqX9XlXsX9XqX9XqXhX<XA.Z.9XhX9XqXqXqXqXqXqXqX9XqXdX1XJ.H.4XfX9XqXqX9XqX3Xw.6.6.6.5.7.7...+...7.6.5.6.6.6.6.6.6.6.5.6.7...+...7.7.5.6.6.6.=.V.zX9XqXqX9XhX4XZ.A.<XhXqX9XqXqXqXqXqXqXqX9XfX9XH.J.1XdXqX9XqXqXqX9XlXsX9XqX9XqXhX<XA.Z.9XhX9XqX",
"qXqX9XqXlXqX9XqX9XqX9XI Y I I Y Z.hX9XqXqXqXqXqXqX9XpXF.h h h g h 1XpX9X9XqX=X7.6.6.5.8.e > 3 3 > 2 6.6.6.6.6.6.6.6.6.6.6.2 > 3 > > +.8.5.6.6.5.8.lXqX9X9XwX<XI I I Y I <XqX9XqXqXqXqXqXqX9XdX3.g h h g / pXqX9XqXqX9XlXsX9X9XqX9XI Y I I Y B.hX9XqXqXqXqXqXqX9XdX3.g h h g / pXqX9XqXqX9XlXsX9X9XqX9XI Y I I Y B.hX9XqXqXqXqXqX9XqXqX/ g h h g J.fX9XqX9XqX3Xw.6.6.5.7.O.3 3 3 > 3 #.6.5.6.6.6.6.6.5.7.o.3 > 3 > > o.7.5.6.6.=.V.zX9XqX9XhXz.Y I I Y x.qX9X9XqXqXqXqXqX9XdXJ.g h h g / qXqX9XqXqX9XlXsX9X9XqXqXd.Y I I Y A.hX9X",
"qXqX9XqXlXqX9X9X9XqXI I sXDXlXoXY Z.hX9XqXqXqXqX9XpX%Xj J.SXSXlX/ g 3XqX9XqX=X7.6.5.w.e > ..6.6.#.3 2 w.5.6.6.6.6.6.6.7.3 3 =.6.5.+.X +.8.5.6.5.8.lXqX9XqX<XY A.AXDXlXx.Y 9XqX9XqXqXqXqX4XdX3.g %XSXSX8Xh / fX9X9XqX9XlXsX9XqXqXI I sXDXlXoXY Z.hX9XqXqXqXqX4XdX3.g %XSXSXjXh / sX9X9XqX9XlXsX9XqXqXI I sXDXlXoXY Z.hX9XqXqXqX9X9XpXh h 0XFXSXH.j J.fX4X9XqX3Xw.6.5.7.o.> e 5.6.=.2 > =.6.6.6.6.6.5.6.#.> 2 5.6.=.2 > =.6.5.6.=.V.zX9X9XhXz.Y <XDXDXfXI I hX9XqXqXqXqX4XdXJ.j H.SXSX0Xh h pX9X9XqX9XlXsX9X9XwXI I sXDXlXyXY A.hX",
"qXqX9XqXlXqX9X9XhXA.I DXlXlXAXhXA.t qX9X9XqXqX9X9XdXh / PXlXlXJXIX/ / dX4XqX=X7.6.6.=.> ..7.=.5.=.o.> +.7.5.6.6.6.5.8.+.> 6.5.=.6.i.+.> 6.6.6.5.8.lXqX4XhXI x.UXlXlXlXhXI $.jX4XqXqXqX9XqX3Xg %XKXlXlXIXFXg H.pX9XqX9XlXsX4XhXA.I DXlXlXFXUXZ.I qX9X9XqXqX9XqX3Xg %XKXlXAX>X2Xj u.sX9XqX9XlXsX4XhXA.I DXlXlXAXhXA.t qXqX9XqXqX9XfXJ.h FXSXlXDXIXH.g qXqX9XqX3Xw.6.5.w.3 2 w.=.4.=.=.3 2 w.5.6.6.6.5.w.2 2 w.=.=.7.i.2 2 w.5.6.=.V.zX9XqX4XY <XUXlXAXhX9Xt B.hX9XqXqX9XqX9Xg H.KXlXlXIXJXh J.fX9XqX9XlXsX4XhXA.I DXAXlXSXhXZ.y 4X",
"qXqX9XqXlXqX9X9XjXI A.DXsXFXb , 2Xy V.wX9XqXqX9XqX3Xg 1XSXlXlX&.@.H.h pX9XqX=X7.5.w.+.3 6.=.6.+.% v 3 3 w.5.6.6.6.5.w.2 2 7.=.6.v , X.> +.8.5.5.8.lXqXqX4XY uXlXlXsX, b V.y wX9X9XqXqX9XdXJ.h FXlXAX3Xb b./ / dX4XqX9XlXsX4XjXI A.DXsXSX;., U.y V.wX9XqXqX9XdXJ.h FXjXFXr.% E.^ k zX4XqX9XlXsX4XjXI z.DXsXFXX., 2Xy V.wX9XqXqX4XdX/ / KXjXSXv.b U.h H.pX9XqX3Xw.6.6.=.> ..5.=.=.% , +.> 7.5.6.6.6.6.6.> ..6.=.=.1 , +.> 6.6.6.=.V.zX4XhXA.I DXsXFXI.% t.$.P lX4XqXqX9XpXH.h SXlXAX4Xb v./ / dX4XqX9XlXsX4XjXI x.DXsXFX&., 2Xy B.",
"qXqX9XqXlXqX9X9XjXI A.DXlXAXI.3XDXy V.hX9XqXqX9XqX1Xg 0XzXlXlXX.;.G.: qX9XqX=X7.5.w.+.3 6.=.5.o.+.w.3 3 w.5.6.6.6.5.w.3 2 7.=.6.v , o.> +.w.5.5.8.lXqXqX3XI fXlXlXsXL.zXXXy qX9X9XqXqX4XdXJ.h KXlXSX:Xb Y.^ l SX4XqX9XlXsX4XjXI A.DXlXSXr.r.lXy V.hX9XqXqX4XdXJ.h KXlXAX4X2XIX^ l SX4XqX9XlXsX4XjXI A.DXlXAXI.3XFXy B.hX9XqXqX4XdX' ] KXjXFXt.b 3X: 0.lX4XqX3Xw.6.6.=.> o.5.=.=.v 5.+.X 6.6.6.6.6.6.5.> ..5.=.=.1 1 +.4 5.6.6.=.V.zX4XhXA.I DXlXAX3XL.LX$.P zX4XqXqX9XdXJ.h SXlXAX3Xb v.%.l zX4XqX9XlXsX4XjXI z.DXlXAXI.2XGXy y.",
"qXqX9XqXlXqX9X9XjXx.I UXlXlXSXJX:Xy 3XqX9XqXqX9X9XpXh J.KXlXlXFXIX/ l zX4XqX=X7.6.7.o.> =.6.=.5.6.w.> 1 w.5.6.6.6.5.w.1 3 8.=.=.6.i.o.4 =.6.6.5.8.lXqX9XwXI Z.UXlXlXSXIX$.y lX4X9XqXqX9XpX%Xg wXSXlXAXLXIX: %.zX4XqX9XlXsX4XjXx.I UXlXlXFXIX<Xy 3XqX9XqXqX9XpX%Xg wXSXlXAXAXJX< %.zX4XqX9XlXsX4XjXx.I UXlXlXSXJX<Xy 3XqX9XqXqX4XdX/ h KXlXlXDXIX0X: =XqX9XqX3Xw.6.5.7.3 e 8.=.4.5.w.2 > w.5.6.6.6.5.8.3 1 8.=.=.7.i.2 > w.5.6.=.V.zX9XqX<XY sXDXlXAXFXUXy 1.lX4XqXqX9XqX1Xg 0XKXlXlXGXIXl / zX4XqX9XlXsX4XjXx.I UXlXlXSXGX4Xy :X",
"9XqX9XqXlXqX9X9XqX3XY A.DXlXlXsXy $.lX4XqXqXqXqX4XdXJ.j 1XSXlXSXG.& G.sX4XqX=X7.6.5.w.2 3 =.=.=.6.2 X 6.6.6.6.6.6.6.6.=.> 2 6.=.=.=.X 3 w.5.6.5.8.lXqX4XhXA.Y <XAXlXAXV.7 V.wX9XqXqXqX9X9XdX/ h lXlXlXSX^ : qXqX9XqX9XlXsX9XqX3XY A.DXlXlXwXy $.lX4XqXqXqX9X9XdX/ h lXlXlXFX^ : qXqX9XqX9XlXsX9XqX3XY A.DXlXlXsXy $.lX4XqXqXqX9XqX3Xg ] SXlXlXwX: k zX4X9XqX3Xw.6.5.8.+.> ..5.=.5.+.4 ..7.5.6.6.6.5.8.+.X ..5.=.5.+.4 +.8.5.6.=.V.zX9X9XhXI I lXlXlXDX$.y qXqX9XqXqXqX4XdX/ h jXlXlXSX%.: 4XqX9XqX9XlXsX9XqX4XY z.DXlXlXlXy P lX",
"9XqX9XqXlXqX9XqX9XhXZ.I wXwXzX9.t hX9X9XqXqXqXqXqX9XdX/ / zXwXzXk %.zX4X9XqX=X7.6.6.6.5.3 ..6.5.=.> o.7.5.6.6.6.6.6.5.8...3 =.=.7.v 3 7.6.6.6.5.8.lXqX9X9XhXx.x.lXwXlXP 1.lX4XqXqXqXqXqX9XqX9Xh H.lXlX3Xl F.pX9XqXqX9XlXsX9X9XhXZ.I wXwXzX9.t hX9X9XqXqXqXqX9XqX9Xh H.lXlX3X< F.pX9XqXqX9XlXsX9X9XhXZ.I wXwXzX9.t hX9X9XqXqXqXqX9XpXH.h qXwXzX0.l pXqX9X9XqX3Xw.6.6.5.w.1 1 7.=.8.3 1 w.5.6.6.6.6.6.5.w.2 2 7.=.8.3 2 w.5.6.6.=.V.zX9X9XqX9XI oXlXlX3Xy =XwX9XqXqXqXqX9XqXqXh H.zXwX9Xl G.sX9XqXqX9XlXsX9X9XwXoXI qXwXzXB.t wXqX",
"9XqX9XqXlXqX9XqXqX9XwXwX9XqX4XqXhXqX9XqXqXqXqXqXqXqX9XpXqX9X9X9XwXpX9XqX9XqX=X7.6.6.6.6.w.6.6.6.6.7.6.5.6.6.6.6.6.6.6.5.6.7.6.6.6.6.8.6.6.6.6.5.8.lXqX9XqX9XhXqX9XqX4XqXwX9XqXqXqXqXqXqXqX9XqXpX9X9X9XqXpXwX9XqXqXqX9XlXsX9XqX9XqXwX4XqX9XqXhXqX9XqXqXqXqXqXqX9XqXsXqX9X9X9XsXwX9XqXqXqX9XlXsX9XqX9XwXwX9XqX4XqXhXqX9XqXqXqXqXqXqX9XpXpX9XqX9XqXsXqX9XqX9XqX3Xw.6.6.6.5.8.6.6.6.6.7.7.5.6.6.6.6.6.6.6.5.7.6.6.6.6.6.7.5.6.6.6.=.V.zX9XqX9XqXhX9XqX9X9XwXqX9XqXqXqXqXqXqX9XqXpXqX9X9X9XsXpX9XqXqXqX9XlXsX9XqX9XwXwX9XqX4XqXhXqX9X",
"9XqX9XqXlXqX9XqX9XqX3X3XqX4XwX4X4XqX9XqXqXqXqXqXqXqX9X9XqXqX4XqX4XqX9XqX9XqX=X7.6.6.6.6.=.6.5.5.6.=.6.6.6.6.6.6.6.6.6.6.6.6.6.=.6.=.6.5.6.6.6.5.8.lXqX9XqXqX3X3XqX4XwX4X4XqX9XqXqXqXqXqXqXqX9X9XqX4XqX4X9X9XqXqXqXqX9XlXsX9XqXqX9X2XwX3XqXqX3XqX9XqXqXqXqXqXqXqXqX2XqX9X9XwX3X9XqX9XqXqX9XlXsX9XqXqX3X3XqX4XwX4X4XqX9XqXqXqXqXqXqXqX9XqXqX4XqX4X9X9XqXqX9XqX3Xw.6.6.6.6.=.6.5.5.6.=.6.6.6.6.6.6.6.6.6.6.6.6.6.=.6.=.6.6.6.6.6.=.V.zX9X9XqX9X2XwX3XqXqX3XqX9XqXqXqXqXqXqXqX9X9XqXqX4XqX3XqX9XqXqXqX9XlXsX9XqXqX3X3XwX3XqX9X4XqX9X",
"qX9X9XqXlXqX9XqX9XqXL.X.&.X.4X;.;.qX9X9XqXqXqXqXqX9XwXV.&.q.X.;.&.9XqX9X9XqX=X7.6.6.6.6.v 1 1 v =.1 +.7.5.6.6.6.6.6.6.6.5.1 X.1 v 1 o.7.5.6.6.5.8.lXqX9X9XqXL.@.&.X.4X;.&.qX9X9XqXqXqXqXqX9XsX;.q.;.;.X.q.wX9XqXqXqX9XlXsX9X9XqX2X&.@.X.U.r.b =XqX9XqXqXqXqX9X9XqXq.&.@.-.:XX.r.wX9XqXqX9XlXsX9X9XqXL.@.&.X.4X;.&.qX9X9XqXqXqXqXqX9XsX;.q.;.;.X.q.wX9XqX9XqX3Xw.6.6.6.6.v 1 1 v =.1 +.7.5.6.6.6.6.6.6.6.5.1 X.1 v 1 o.7.5.6.6.=.V.zX9X9XqX3X;.;.X.P.L.b =XwX9XqXqXqXqXqX9XwXP.@.t.X.;.@.4XqX9XqXqX9XlXsX9X9XqXI.@.;.X.3X-.@.9XqX",
"sX9X9XqXlXqX9XqX9X9XwX;.@.q.t.q.;.=XqX9XqXqXqXqXqX9XqX:X@.q.&.b q.I.wX9X9XqX=X7.6.6.6.6.=.1 v v +.v v 6.5.6.6.6.6.6.6.5.7.v e +., +.v 8.5.6.6.5.8.lXqX9XqX9XwX;.@.q.t.q.;.=XqX9XqXqXqXqXqX9XsXr.X.r.b -.-.qX9XqXqXqX9XlXsX9XqX4XsXr.@.X.q.r.v =XwX9XqXqXqXqXqX9XwXU.v -.-.P.X.X.sX4XqXqX9XlXsX9XqX9XwX;.@.q.t.q.;.=XwX9XqXqXqXqXqX9XsXr.X.r.b -.-.qX9XqX9XqX3Xw.6.6.6.6.=.1 v v +.v v 6.5.6.6.6.6.6.6.5.7.v e +., v v 8.5.6.6.=.V.zX9XqX4XwXL.b q.q.q.-.q.lX4XqXqXqXqXqX9XqX3X@.-.;.b q.L.wX9XqXqX9XlXsX9XqX9XwX-.X.q.t.q.-.I.wX",
"sX4X9XqXlXqX9XqX4XsX;.X.-.X.q.&.@.9XqX9XqXqXqXqXqX9XqX3X-.q.X.@.@.4XqX9X9XqX=X7.6.6.6.6., v 1 1 +.1 v 7.5.6.6.6.6.6.6.5.8.v +.1 e 1 ..7.5.6.6.5.8.lXqX9X4XsX;.X.-.X.q.&.@.9XqX9XqXqXqXqXqX9XwXL.q.;.@.X.-.wX9XqXqXqX9XlXsX9X9XwXP.v P.X.q.-.X.P.wX9XqXqXqXqX9XqX9Xq.X.X.@.P.@.q.sX9XqXqX9XlXsX9X9XsX;.X.-.X.q.&.@.9XqX9XqXqXqXqXqX9XwXL.q.;.@.X.-.wX9XqX9XqX3Xw.6.6.6.6., v e 1 +.1 v 7.5.6.6.6.6.6.6.5.8.v +.1 e 1 ..7.5.6.6.=.V.zX9X9XwXU.v q.X.-.q.b I.wX9XqXqXqXqXqXqXqX4X-.q.X.@.X.3XqX9XqXqX9XlXsX9X9XsX-.X.q.X.q.;.X.4XqX",
"wX9X9XqXlXqX9XqX9XqX,X=X2X2X4X2X3XqX9XqXqXqXqXqXqXqXqX9X4X3X2X4X2XqX9XqX9XqX=X7.6.6.6.6.#.=.=.=.5.=.5.6.6.6.6.6.6.6.6.6.6.5.6.=.6.=.6.6.6.6.6.5.8.lXqX9X9XqX,X=X2X2X4X2X3XqX9XqXqXqXqXqXqX9XqX4XqX2X4X2X4XqX9XqXqXqX9XlXsX9XqXqX3X=X=X3X4X3X:XqX9XqXqXqXqXqXqXqXqXU.4X3X3X3X:XqX9XqXqXqX9XlXsX9XqXqX,X=X2X2X4X2X3XqX9XqXqXqXqXqXqX9XqX4XqX2X4X2X4XqX9XqX9XqX3Xw.6.6.6.6.#.=.=.=.5.=.5.6.6.6.6.6.6.6.6.6.6.5.6.=.6.=.6.6.6.6.6.=.V.zX9X9XqX3XU.2X,X3X3X:XqX9XqXqXqXqXqXqXqXqX9X4X4X2X4X,XqX9XqXqXqX9XlXsX9X9XqX2X=X2X2X4X3X2XqX9X",
"9XqX9XqXlXqX9XqXqX9XqXwXqXqXqXqXqX9XqXqXqXqXqXqXqXqXqXqXqXqXqXqXqX9XqXqX9XqX=X7.6.6.6.6.6.6.6.6.6.6.6.6.6.6.6.6.6.6.6.6.6.6.6.6.6.6.6.6.6.6.6.5.8.lXqX9XqX9XqXwXqXqXqXqXqX9XqXqXqXqXqXqXqXqX9XqXqXqXqXqXqX9XqXqXqXqX9XlXsX9XqX9XqXwXqXqXqXqXqX9XqXqXqXqXqXqXqXqX9XwXqXqXqXqXqX9XqXqXqXqX9XlXsX9XqX9XqXwXqXqXqXqXqX9XqXqXqXqXqXqXqXqX9XqXqXqXqXqXqX9XqXqX9XqX3Xw.6.6.6.6.6.6.6.6.6.6.6.6.6.6.6.6.6.6.6.6.6.6.6.6.6.6.6.6.6.6.6.=.V.zX9XqX9XqXwXqXqXqXqXqX9XqXqXqXqXqXqXqXqXqXqXqXqXqXqXqX9XqXqXqXqX9XlXsX9XqX9XqXwXqXqXqXqXqX9XqX",
"qXqX9XqXlXqX9XqXqXqX9X9X9X9X9X9X9XqXqXqXqXqXqXqXqXqXqXqX9X4X4X4X4XqXqXqX9XqX=X7.6.6.6.6.5.5.5.5.5.5.6.6.6.6.6.6.6.6.6.6.6.6.5.5.5.5.6.6.6.6.6.5.8.lXqX9XqXqX9X9X9X9X9X9X9XqXqXqXqXqXqXqXqXqXqX9X4X4X4X4X9XqXqXqXqXqX9XlXsX9XqXqX9X9X9X9X9X9X9XqXqXqXqXqXqXqXqXqXqX9X4X4X4X4X9XqXqXqXqXqX9XlXsX9XqXqX9X9X9X9X9X9X9XqXqXqXqXqXqXqXqXqXqX9X8X8X8X8X9XqXqXqX9XqX3Xw.6.6.6.6.6.5.5.5.5.5.6.6.6.6.6.6.6.6.6.6.6.5.5.5.5.5.6.6.6.6.6.=.V.zX9XqXqX9X9X9X9X9X9X9XqXqXqXqXqXqXqXqXqXqX9X9X9X9X9X9XqXqXqXqXqX9XlXsX9XqXqX9X9X9X9X9X9X9XqXqX",
"qXqX9XqXlXqX9XqXqXqX9XqXhXhXhXhX9X9XqXqXqXqXqXqXqXqX9X4XwXjXjXjXwX4XqXqX9XqX=X7.6.6.6.5.6.w.w.w.w.6.5.6.6.6.6.6.6.6.6.6.5.6.w.w.w.8.5.6.6.6.6.5.8.lXqX9XqXqX9XqXhXhXhXqX9XqXqXqXqXqXqXqXqXqX9X9XsXmXmXmXqX4XqXqXqXqX9XlXsX9XqXqX9XqXhXhXhXhX9X9XqXqXqXqXqXqXqXqX9X9XdXdXdXdXqX9XqXqXqXqX9XlXsX9XqXqX9XqXhXhXhXhX9X9XqXqXqXqXqXqXqXqX9XqXdXdXdXpX9X9XqXqX9XqX3Xw.6.6.6.6.5.7.w.w.w.7.5.6.6.6.6.6.6.6.6.6.5.6.q.q.q.6.5.6.6.6.6.=.V.zX9XqXqX9X9XhXhXhXhXqX9XqXqXqXqXqXqXqXqX9X9XpXpXpXpXqX9XqXqXqXqX9XlXsX9XqXqX9XqXhXhXhXhX9X9XqX",
"qXqX9XqXlXqX9XqXqX9XqX4X}.R R OXhXqX9XqXqXqXqXqXqX9X9XjXC.p s s.T.jX4XqX9XqX=X7.6.6.5.6.6.+.2 2 e 4.7.5.6.6.6.6.6.6.6.5.7.=.v 1 1 +.7.6.6.6.6.5.8.lXqX9XqX9XhXoX}.R }.6XhX9XqXqXqXqXqXqXqX9XqXwX,.N l M 3XsX4XqXqXqX9XlXsX9XqX9XqX4X}.R R OXhXqX9XqXqXqXqXqXqX9XqXpXJ.' h / 3XpX9XqXqXqX9XlXsX9XqX9XqX4X}.R R OXhXqX9XqXqXqXqXqXqX9XpX8X} _ _ $XpXqX9XqX9XqX3Xw.6.6.6.5.w.O.2 2 2 o.w.5.6.6.6.6.6.6.6.5.8.O.G 2 G O.8.5.6.6.6.=.V.zX9XqX9XqXqXOXR R }.9XqX9XqXqXqXqXqXqX9XqXqX'.{.{.].8XqX9XqXqXqX9XlXsX9XqX9XqX8X}.R R OXqXqX9X",
"qXqX9XqXlXqX9XqX9XqXOXR R }.}.R R qX9X9XqXqXqXqXqX9XjXs.u s.f.a u j.jX4X9XqX=X7.6.6.6.5.3 3 2 2 3 > o.6.5.6.6.6.6.6.5.7.o.3 1 v e 3 1 6.6.6.6.5.8.lXqX9X9XhX}.R }.}.}.R }.hX9XqXqXqXqXqX9XqX4Xf f M M f f Y.wX4XqXqX9XlXsX9X9XqXOXR R }.}.R R qXqX9XqXqXqXqX9XqX9Xh h / 3.h g %XpX9XqXqX9XlXsX9X9XqXOXR R }.}.R R qX9X9XqXqXqXqX9XpX&XW _ $X} ! _ qXqX9X9XqX3Xw.6.6.5.7.2 > 2 e 2 > +.7.5.6.6.6.6.6.5.8.^ < G ^ 2 < ^ 8.5.6.6.=.V.zX9X9XqX9XR R }.}.R R <XqX9XqXqXqXqX9XqXqX{.T [.[.{.K rXqX9XqXqX9XlXsX9X9XqX+XR R }.}.R R qXqX",
"qXqX9XqXlXqX9X9XqX<XR @XxXxXxXGXR }.hX9XqXqXqXqX4XjXj.u pXUXUXUXtXu C.wX4XqX=X7.6.5.w.2 3 7.7.7.w.2 3 6.6.6.6.6.6.6.6.=.3 v 7.6.7.6., e 8.5.6.5.8.lXqX9XhXOXR sXxXxXUXnXR +XqX9XqXqXqX9X4XsXN N GXJXGXLXM f qXqX9XqX9XlXsX9XqX<XR @XxXxXxXzXR }.hX9XqXqXqX9X9XdXh ' KXKXKXLX/ g qXqX9XqX9XlXsX9XqX<XR @XxXxXxXGXR }.hX9XqXqXqX9XqX8XW $XKXKXKXSX_ | dX8X9XqX3Xw.6.5.w.+.> #.7.6.w.o.> ..7.5.6.6.6.5.8.+.< o.9.6.9.o.< O.7.5.6.=.V.zX9X9XhXR R xXxXxXPX}.R qXqX9XqXqXqX9XlX{.{.xXxXxXxX[.K 8XqX9XqX9XlXsX9XqX9XR OXxXxXxXxXR }.hX",
"9XqX9XqXlXqX9X9XhX}.R xXsXlXqXY.<XR 3XqX9XqXqX9X9XwXu S.UXsXlXzXUXf.a jX4XqX=X7.6.6.o.> =.5.=.=.X.o.3 e w.5.6.6.6.5.w.v , 7.=.=.4.6.o., =.6.6.5.8.lXqX9XqXR @XxXsXlX,XQ.}.R hX9X9XqXqX9XwXY.f lXAXlXlXlXJXf ,.sX4XqX9XlXsX9XhX}.R xXsXlXSXFXiXR 9XqX9XqXqX9XpXF.g jXSXjXlXlXKXh 3.dX4XqX9XlXsX9XhX}.R xXsXlXwXY.<XR ,XqX9XqXqX8XdX} _ KXjXlXAXxX0X! 1XqX9XqX3Xw.6.5.7.3 +.7.=.=...X.2 3 w.5.6.6.6.5.8.< +.9.=.=.4.9.^ < 8.5.6.=.V.zX9XqX6XR sXzXsXlXU.2XR }.hX9XqXqX9XqXrXK eXzXlXAXAXxX{.'.lX9XqX9XlXsX9XhX}.R xXsXlXlXzXfXR <X",
"9XqX9XqXlXqX9X9XhXR OXxXlXFXb , :XE  XhX9XqXqX9XqX>Xu uXlXlXwX:XUXC.u qX9XqX=X7.5.w.+.3 6.=.6.b % v 2 3 w.5.6.6.6.5.w.1 v 6.=.4...=.6., ..7.6.5.8.lXqXqX4XR fXlXlXwX, b XXE qX9X9XqXqX4XMX,.f GXlXAX4X4XIXm N AX4XqX9XlXsX9XhXR OXxXlXAXV.U.zXR OXqX9XqXqX4XdX3.h KXlXAX4XwXIX/ / dX4XqX9XlXsX9XhXR OXxXsXFXb , :XP  XhX9XqXqX8XdX_ } KXlXlX:XlXFX! $XpX9XqX3Xw.6.6.=.3 o.4.4.=.% , +.> 6.6.6.6.6.6.5.< O.5.=.=...7.O.< 5.6.6.=.V.zX9XhXOXR xXsXFXL., ,.2.P zX9XqXqX9XpX'.{.zXlXAX4X3XJX[.{.pX9XqX9XlXsX9XhXR }.xXlXlXlXSXzXR OX",
"qXqX9XqXlXqX9X9XhXR }.xXlXlXqXlXAXE XXwX9XqXqX9XqX4Xu yXAXzX9X, &.S.u wX9XqX=X7.6.w.+.3 6.=.4.=.#.w.3 3 w.5.6.6.6.5.w.1 e 7.=.6., % =., ..7.6.5.8.lXqX9X9XR iXzXlXlX9XJX XE wX9X9XqXqX4XsX>.f FXlXFXt.% :Xm N AX4XqX9XlXsX9XhXR }.xXsXFX&., 2XR oXqX9XqXqX9XdXJ.h FXlXGX>., fX/ / dX4XqX9XlXsX9XhXR }.xXlXlXqXlXAXE XXwX9XqXqX8XdX) } KXjXFXb , sX[ &XpX9XqX3Xw.6.6.5.3 O.5.=.=.o.8.+.> 7.5.6.6.6.6.6.< O.5.4.=.% , O.< 6.6.6.=.V.zX9XhXOXR xXlXlXsXqXPXP P zX9XqXqX9XqX#XT zXlXFXL., K.[.{.pX9XqX9XlXsX9XhX}.}.xXlXlXq t.FXR OX",
"qXqX9XqXlXqX9X9XhXOXR zXlXlXlXJXy.E wX9X9XqXqX9X4XjXs s.UXlXAX3X1Xa s.jX4XqX=X7.6.6.=.> +.6.=.=.6.=.4 +.7.5.6.6.6.5.7.X.3 4.4.=.=.X.v 3 6.6.6.5.8.lXqX9XhXR }.xXlXlXlXJXP P zX9XqXqXqX9XqX3Xf K.GXlXAXU.U.f H.sX4XqX9XlXsX9XhXOXR zXlXlXFXxXy.E wX9X9XqXqX9XqX3Xg H.KXlXAXt.U.g H.pX9XqX9XlXsX9XhXOXR zXlXlXlXJXB.E qX9X9XqXqX9XpX$X! zXzXlXlXE.u.! qXqX9XqX3Xw.6.5.w.2 2 w.=.=.4.w.> 2 w.5.6.6.6.5.8.2 2 9.=.5.o.X.2 2 w.5.6.=.V.zX9XqX9XR +XxXlXlXDXlXE  XhX9XqXqX9XqX9XK #XxXlXSXU.U.K '.pX9XqX9XlXsX9XhXOXR lXlXFX>.M nXR qX",
"qXqX9XqXlXqX9XqX9XqXR R zXlXzXXX7  XhX9XqXqXqXqX9X0X>Xu j.DXsXUXa.5 4XqX9XqX=X7.6.5.w.+.> o.5.=.=.> 3 w.5.6.6.6.6.6.5.7.1 , 5.=.6.O.X +.8.5.6.5.8.lXqX9XqX<XR OXzXlXDX2.E 9XqX9XqXqXqXqX4XsX,.f 2XAXlXFX, l lX4X9XqX9XlXsX9X9XqXR R zXlXzXXX7 B.hX9XqXqXqXqX4XdX3.j 1XSXlXFX< l lX4X9XqX9XlXsX9X9XqXR R zXlXzXXX7  XhX9XqXqXqX9X9XpX_ _ zXlXSX7X; 3.sX9X9XqX3Xw.6.5.6.#.> e 6.=.6.2 X 4.6.6.6.6.6.6.6.=.< ^ 6.=.7.2 4 =.6.5.6.=.V.zX9X9XhXOXR 6XzXlXlXP P lX9XqXqXqXqX9XpX'.K eXzXlXFXH H zX9X9XqX9XlXsX9X9XhXR R lXlXGX<XE OXhX",
"qXqX9XqXlXqX9XqX9XqX8X}.qXqXlXB.B.hX9XqXqXqXqXqXqX4XjXC.A.jXqXwX$.E.jX9X9XqX=X7.6.6.5.7.+.o.6.6.=.2 6.6.6.6.6.6.6.6.6.6.5.v =.5.6.X.v w.5.6.6.5.8.lXqX9X9XhXOXOXqXqXwX2.-XqX9XqXqXqXqXqXqX4XsX,.Y.sXqX2XX.qXqX9XqXqX9XlXsX9X9XqX8X}.9XqXlXB.y.lX4XqXqXqXqXqXqX9XpXJ.F.pXwX2X%.qXqX9XqXqX9XlXsX9X9XqX8X}.qXqXlX XB.hX9XqXqXqXqXqX9XqX8X_.8XqXpXu.3.zX9XqX9XqX3Xw.6.6.5.7...+.6.=.7.1 o.7.5.6.6.6.6.6.5.7.O.+.6.5.6.+.O.8.5.6.6.=.V.zX9XqX9XqXOX6XqXwX3X2.qX9X9XqXqXqXqXqX9XpX'.rXqXqX3X(.9XqX9XqXqX9XlXsX9XqXqX9X}.9XqXqX Xy.hX9X",
"qXqX9XqXlXqX9XqXqX9XsXhXqXqX4XlXlXwXqX9XqXqXqXqXqXqX4X0XjXqXqXwXlXlX4XqX9XqX=X7.6.6.6.6.w.6.6.6.6.w.6.7.6.6.6.6.6.6.6.6.6.w.7.5.7.8.w.6.6.6.6.5.8.lXqX9XqX9XlXhX9XqX4XzXwXwXqX9XqXqXqXqXqXqX4XsXsX4XqXwXSXwX9XqXqXqX9XlXsX9XqX9XqXhXwXwX4XlXlXqXwX9XqXqXqXqXqXqX9XdXlXqXqXsXzXwX9XqXqXqX9XlXsX9XqX9XwXhXqXqX4XlXlXwXqX9XqXqXqXqXqX9XqXdXwX9XqXlXzXqX9XqX9XqX3Xw.6.6.6.5.w.7.6.6.6.w.7.7.6.6.6.6.6.6.6.5.6.8.7.6.7.w.w.6.6.6.6.=.V.zX9XqX9XqXlXqXwX9XwXzXwXwX9XqXqXqXqXqXqX9XqXsXqX9XsXzXsX9XqXqXqX9XlXsX9XqX9XqXhXwX9XwXhXlXqX9X",
"qXqX9XqXlXqX9XqX9XqXV.U.4XI.wXr.:Xr.3XqX9XqXqXqXqXqX9XqXP.2X4Xr.:Xr.qX9X9XqX=X7.6.6.6.=.+.=.;.=.=.X.=.X.6.6.6.6.6.6.6.6.6.;...7.X.;.X.=.6.6.6.5.8.lXqX9X9XqXV.U.4XI.wXr.:Xr.3XqX9XqXqXqXqX9XqX3XL.qXU.P.I.P.wX9XqXqX9XlXsX9X9XqX2XU.I.V.wXL.I.:XI.qX9XqXqXqXqX9XqX3Xr.3X4Xr.=XV.qX9XqXqX9XlXsX9X9XqXV.I.4XI.wXr.:Xr.3XqX9XqXqXqXqX9XqX3XL.qXU.P.I.P.wX9X9XqX3Xw.6.6.6.=.+.=.;.=.=.X.=.X.6.6.6.6.6.6.6.6.6.=...7.X.#.X.=.6.6.6.=.V.zX9X9XqX=Xr.qXI.qXI.P.I.I.wX9XqXqXqXqXqX9XqXI.:X9Xr.,Xr.qXqX9XqX9XlXsX9XqX9XqX4XI.qXr.=XP.3XqX",
"9XqX9XqXlXqX9XqX9XqXV.&.-.&.:XX.b X.q.sX4XqXqXqXqX9XwXP.v 3Xt.X.b @.L.wX4XqX=X7.6.6.6.6.v v 1 ..+.1 1 1 o.7.5.6.6.6.6.6.6., v =.1 1 1 v 7.5.6.5.8.lXqX9XqXqXV.&.-.&.:XX.b X.q.wX4XqXqXqXqX4XsX-.X.qX;.X.X.&.3XqX9XqX9XlXsX9X9XwXV.X.3XX.3Xb q.b q.wX9XqXqXqXqX9XsXL.v 4Xt.X.b X.L.wX9XqX9XlXsX9XqXqXV.&.-.&.:XX.X.X.q.wX4XqXqXqXqX4XsX-.X.qX;.X.X.&.3XqX9XqX3Xw.6.6.6.6.v v 1 ..+.1 1 1 ..7.5.6.6.6.6.6.6., v =.1 1 1 v 7.5.6.=.V.zX9X9XqX3X@.t.b 3X;.X.X.;.4XqX9XqXqXqX9XwX=Xv :Xr.X.b X.V.wX9XqX9XlXsX9XqX9XsXt.X.wXv P.X.I.wX",
"9XqX9XqXlXqX9XqX=Xr.r.;.v X.r.q.v -.-.sX4XqXqXqX9XqXP.&.X.-.q.-.v -.t.sX4XqX=X7.6.7.X...v v 3 v v v , v X.8.5.6.6.6.6.=.v 1 e +.v , v v 6.5.6.5.8.lXqXqX=Xr.r.;.v X.r.q.v -.-.sX4XqXqX9XqX4Xr.X.X.t.q.X.X.-.=XqX9XqX9XlXsX9X9Xq.:X;.U.;.3X=Xb b &.4XqX9XqXqX9XwXr.P.q.-.q.-.X.b r.sX9XqX9XlXwXqX=Xr.r.;.v X.r.q.v -.-.sX4XqXqX9XqX4Xr.X.X.t.q.X.X.-.=XqX9XqX3Xw.6.7.X...v v 3 v v v , v X.8.5.6.6.6.6.=.v 1 e +.v , v v 6.5.6.=.V.zX9XqXt.P.-.X.q r.-.X.X.-.:XqX9XqXqX9XqXI.;.X.-.q.-.v -.q.sX4XqX9XlXsX4XqX:Xq.b v 3XV.;.q.L.wX",
"9XqX9XqXlXqX9XqXqXqXX.q.P.;.V.;.r.&.I.wX9XqXqXqXqX9XqX2X;.q.r.;.r.&.3XqX9XqX=X7.6.5.7.o., ..+.v X.v +.e =.6.6.6.6.6.6.6.6.v v X.v +.v X.7.5.6.5.8.lXqX9XqXqXX.q.P.;.V.;.r.&.I.wX9XqXqXqXqX9XwXL.;.r.q.-.q.-.wX9X9XqX9XlXsX9XqXqX3XV.;.&.r.q.q.q.q.qX9XqXqXqXqX9XqX:X-.t.r.&.L.-.4XqX9XqX9XlXsX9XqXqXX.-.P.;.V.;.r.&.I.wX9XqXqXqXqX9XwXL.;.r.q.-.q.-.wX9X9XqX3Xw.6.5.6.o., X.+.v X.v +.e =.6.6.6.6.6.6.6.6.v v X.v +.v X.7.5.6.=.V.zX9X4XsXq.X.U.-.t.q.-.-.-.wX9XqXqXqXqX9XqX3X;.q.r.;.r.@.2XqX9XqX9XlXsX9XqXqX9XI.;.r.-.V.L.=XqX",
"9XqXqXqXlXqX9XqXqXqXsXqXwXsXwXwXwXwXqX9XqXqXqXqXqXqX9XqXwXwXwXwXwXwXqX9X9XqX=X8.6.6.6.6.8.6.8.8.7.8.7.8.6.6.6.6.6.6.6.6.6.7.7.7.8.7.8.7.6.6.6.5.w.lXqX9XqXqXsXqXwXsXwXwXwXwXqX9XqXqXqXqXqXqX9XqXwXwXwXwXwXwXqXqXqXqX9XlXsX9XqXqXqXwXwXqXqXqXwXwXwXqXqXqXqXqXqXqXqXqXqXwXwXsXqXwXqXqXqXqX9XlXsX9XqXqXsXqXwXsXwXwXwXwXqX9XqXqXqXqXqXqX9XqXwXwXwXwXwXwXqXqXqXqX3Xw.6.6.6.6.8.6.8.8.7.8.7.8.6.6.6.6.6.6.6.6.6.7.7.7.7.7.8.7.6.6.6.=.L.zX9XqX9XwXwXqXsXwXwXwXwXwXqXqXqXqXqXqXqX9XqXwXwXwXwXwXwXqX9XqXqX9XlXsX9XqXqXqXwXsXwXqXwXqXqX9X",
"9X9X9X9XlXqX4X9X9X9X4X4X4X4X4X4X4X4X4X9X9X9X9X9X9X9X9X9X4X4X4X4X4X4X9X9X4XqX=X6.=.=.=.=.=.=.=.=.=.=.=.=.=.=.=.=.=.=.=.=.=.=.=.=.=.=.=.=.=.=.=.=.6.lXqX4X9X9X4X4X4X4X4X4X4X4X4X9X9X9X9X9X9X9X9X4X4X4X4X4X4X4X9X9X9X9X4XlXwX4X9X9X9X4X4X4X4X4X4X4X4X9X9X9X9X9X9X9X9X9X4X4X4X4X4X4X9X9X9X9X4XlXwX4X9X9X4X4X4X4X4X4X4X4X4X9X9X9X9X9X9X9X9X4X4X4X4X4X4X4X9X9X9XqX3X8.=.=.=.=.=.=.=.=.=.=.=.=.=.=.=.=.=.=.=.=.=.=.=.=.=.=.=.=.=.=.=.=.i.zX4X9X9X4X4X4X4X4X4X4X4X4X9X9X9X9X9X9X9X9X9X4X4X4X4X4X4X9X9X9X9X4XlXsX4X9X9X9X4X4X4X4X4X4X9X9X",
"sXsXwXwXlXsXsXsXsXsXsXsXsXsXsXsXsXsXsXsXsXwXwXwXwXsXsXsXsXsXsXsXsXsXsXsXsXlXqX=X=X=X=X=X=X=X=X=X=X=X=X=X=X=X=X=X=X=X=X=X=X=X=X=X=X=X=X=X=X=X=X=X=XlXlXsXsXsXsXsXsXsXsXsXsXsXsXsXsXsXsXsXsXsXsXsXsXsXsXsXsXsXsXsXsXsXsXlXlXsXsXsXsXsXsXsXsXsXsXsXsXsXsXsXsXsXsXsXsXsXsXsXsXsXsXsXsXsXsXsXsXlXlXsXsXsXsXsXsXsXsXsXsXsXsXsXsXsXsXsXsXsXsXsXsXsXsXsXsXsXsXsXsXsXwX2X=X=X=X=X=X=X=X=X=X=X=X=X=X=X=X=X=X=X=X=X=X=X=X=X=X=X=X=X=X=X=X=X3XlXsXsXsXsXsXsXsXsXsXsXsXsXsXsXsXsXsXsXsXsXsXsXsXsXsXsXsXsXsXsXsXsXlXlXsXsXsXsXsXsXsXsXsXsXsXsX",
"lXlXzXFXSXSXlXlXlXlXlXlXlXlXlXlXlXlXlXlXlXlXlXlXlXlXlXlXlXlXlXlXlXlXlXlXlXlXlXlXlXlXlXlXlXlXlXlXlXlXlXlXlXlXlXlXlXlXlXlXlXlXlXlXlXlXlXlXlXlXlXlXlXlXlXlXlXlXlXlXlXlXlXlXlXlXlXlXlXlXlXlXlXlXlXlXlXlXlXlXlXlXlXlXlXlXlXlXlXlXlXlXlXlXlXlXlXlXlXlXlXlXlXlXlXlXlXlXlXlXlXlXlXlXlXlXlXlXlXlXlXlXlXlXlXlXlXlXlXlXlXlXlXlXlXlXlXlXlXlXlXlXlXlXlXlXlXlXlXlXlXlXlXlXlXlXlXlXlXlXlXlXlXlXlXlXlXlXlXlXlXlXlXlXlXlXlXlXlXlXlXlXlXlXlXlXlXlXlXlXlXlXlXlXlXlXlXlXlXlXlXlXlXlXlXlXlXlXlXlXlXlXlXlXlXlXlXlXlXlXlXlXlXlXlXlXlXlXlXlXlXlXlXlXlXlX",
"9XqXP.7.w.w.2XqX9X4XqX4X9X9X4X4X9X9X9X9X3X;X;X;X;X9X9X4X9XqX4X9X4X4X4X9X9X9X9X4X4X4X4X4X4X4X4X4X4X4X4X4X4X4X4X4X4X4X4X4X4X4X4X4X4X4X4X4X4X4X4X4X4X9X9X9X9X9X9X9X9X9X9X9X9X9X9X9X9X9X9X9X9X9X9X9X9X9X9X9X9X9X9X9X9X9X9X9X9X9X9X9X9X9X9X9X9X9X9X9X9X9X9X9X9X9X9X9X9X9X9X9X9X9X9X9X9X9X9X9X9X9X9X9X9X9X9X9X9X9X9X9X9X9X9X9X9X9X9X9X9X9X9X9X9X9X9X9X9X9X9X9X9X9X9X4X4X4X4X4X4X4X4X4X4X4X4X4X4X4X4X4X4X4X4X4X4X4X4X4X4X4X4X4X4X4X4X4X9X9X9X9X9X9X9X9X9X9X9X9X9X9X9X9X9X9X9X9X9X9X9X9X9X9X9X9X9X9X9X9X9X9X9X9X9XqXqXqXqX4XqXqXqXqX4XqX",
"4XlX+.+.O.J P.pX9XsX;XwXqXqXlXlXqX9X9XqX3XO.J J +.qX9XwX3X;XsX4XpXzXsX9XqXqXqXqXqXqXqXqXqXqXqXqXqXqXqXqXqXqXqXqXqXqXqXqXqXqXqXqXqXqXqXqXqXqXqXqXqXqXqXqXqXqXqXqXqXqXqXqXqXqXqXqXqXqXqXqXqXqXqXqXqXqXqXqXqXqXqXqXqXqXqXqXqXqXqXqXqXqXqXqXqXqXqXqXqXqXqXqXqXqXqXqXqXqXqXqXqXqXqXqXqXqXqXqXqXqXqXqXqXqXqXqXqXqXqXqXqXqXqXqXqXqXqXqXqXqXqXqXqXqXqXqXqXqXqXqXqXqXqXqXqXqXqXqXqXqXqXqXqXqXqXqXqXqXqXqXqXqXqXqXqXqXqXqXqXqXqXqXqXqXqXqXqXqXqXqXqXqXqXqXqXqXqXqXqXqXqXqXqXqXqXqXqXqXqXqXqXqXqXqXqXqXqXqXqXqXqXqX3XV.i.;Xi.7.i.i.P.4XpXH.",
"9XsXO.O.+.+.P.wXqXi.< 4.pX;XO.O.=XqX9XqX2Xw.4.2 w.4XqX9X+.< ;XpXu.O.7.qX9X9XqXqXqXqXqXqXqXqXqXqXqXqXqXqXqXqXqXqXqXqXqXqXqXqXqXqXqXqXqXqXqXqXqXqXqXqXqXqXqXqXqXqXqXqXqXqXqXqXqXqXqXqXqXqXqXqXqXqXqXqXqXqXqXqXqXqXqXqXqXqXqXqXqXqXqXqXqXqXqXqXqXqXqXqXqXqXqXqXqXqXqXqXqXqXqXqXqXqXqXqXqXqXqXqXqXqXqXqXqXqXqXqXqXqXqXqXqXqXqXqXqXqXqXqXqXqXqXqXqXqXqXqXqXqXqXqXqXqXqXqXqXqXqXqXqXqXqXqXqXqXqXqXqXqXqXqXqXqXqXqXqXqXqXqXqXqXqXqXqXqXqXqXqXqXqXqXqXqXqXqXqXqXqXqXqXqXqXqXqXqXqXqXqXqXqXqXqXqXqXqXqXqXqXqX9XqX,X8.O.#.7.zX#.O.2X2XsX%.",
"4XsXO.J 7.3XP.wXqX;X^ i.wX2Xi.i.2XqX9XqX=X;X;X2 P.3XqXqX4.^ 3XqX;Xu.F.qX9XqXqXqXqXqXqXqXqXqXqXqXqXqXqXqXqXqXqXqXqXqXqXqXqXqXqXqXqXqXqXqXqXqXqXqXqXqXqXqXqXqXqXqXqXqXqXqXqXqXqXqXqXqXqXqXqXqXqXqXqXqXqXqXqXqXqXqXqXqXqXqXqXqXqXqXqXqXqXqXqXqXqXqXqXqXqXqXqXqXqXqXqXqXqXqXqXqXqXqXqXqXqXqXqXqXqXqXqXqXqXqXqXqXqXqXqXqXqXqXqXqXqXqXqXqXqXqXqXqXqXqXqXqXqXqXqXqXqXqXqXqXqXqXqXqXqXqXqXqXqXqXqXqXqXqXqXqXqXqXqXqXqXqXqXqXqXqXqXqXqXqXqXqXqXqXqXqXqXqXqXqXqXqXqXqXqXqXqXqXqXqXqXqXqXqXqXqXqXqXqXqXqXqXqXqX9XqX4XO.7.7.=.P.8.4.i.3XsXJ.",
"9XwXw.=.8.i.=XqX9XpX3XwX9XqXsXsXqX9X9XqX3Xi.w.O.i.qX9XqXqX4XwX9XwXsXpX9XqXqXqXqXqXqXqXqXqXqXqXqXqXqXqXqXqXqXqXqXqXqXqXqXqXqXqXqXqXqXqXqXqXqXqXqXqXqXqXqXqXqXqXqXqXqXqXqXqXqXqXqXqXqXqXqXqXqXqXqXqXqXqXqXqXqXqXqXqXqXqXqXqXqXqXqXqXqXqXqXqXqXqXqXqXqXqXqXqXqXqXqXqXqXqXqXqXqXqXqXqXqXqXqXqXqXqXqXqXqXqXqXqXqXqXqXqXqXqXqXqXqXqXqXqXqXqXqXqXqXqXqXqXqXqXqXqXqXqXqXqXqXqXqXqXqXqXqXqXqXqXqXqXqXqXqXqXqXqXqXqXqXqXqXqXqXqXqXqXqXqXqXqXqXqXqXqXqXqXqXqXqXqXqXqXqXqXqXqXqXqXqXqXqXqXqXqXqXqXqXqXqXqXqXqXqX9XwX;X7.sX9X,X;X3X9X;X4XqXqX",
"qX9XwXpXqXqXqX9XqX9XqX9XqX9X9X9X9XqXqX9XqXqXqXsXqXqXqX9XqXqX9XqX9X9X9XqXqXqXqXqXqXqXqXqXqXqXqXqXqXqXqXqXqXqXqXqXqXqXqXqXqXqXqXqXqXqXqXqXqXqXqXqXqXqXqXqXqXqXqXqXqXqXqXqXqXqXqXqXqXqXqXqXqXqXqXqXqXqXqXqXqXqXqXqXqXqXqXqXqXqXqXqXqXqXqXqXqXqXqXqXqXqXqXqXqXqXqXqXqXqXqXqXqXqXqXqXqXqXqXqXqXqXqXqXqXqXqXqXqXqXqXqXqXqXqXqXqXqXqXqXqXqXqXqXqXqXqXqXqXqXqXqXqXqXqXqXqXqXqXqXqXqXqXqXqXqXqXqXqXqXqXqXqXqXqXqXqXqXqXqXqXqXqXqXqXqXqXqXqXqXqXqXqXqXqXqXqXqXqXqXqXqXqXqXqXqXqXqXqXqXqXqXqXqXqXqXqXqXqXqXqXqX9XqX,X4XqXqXqXwXqXqXqXqX9XqX"
};
