/* XPM */
static char *sc_mb_gate_ms[] = {
/* columns rows colors chars-per-pixel */
"256 256 256 2 ",
"   c #5D3601",
".  c #5A2E00",
"X  c #5A3913",
"o  c #3C5903",
"O  c #017001",
"+  c #014D2A",
"@  c #02552F",
"#  c #135613",
"$  c #455C0E",
"%  c #4B6D06",
"&  c #61612A",
"*  c #761753",
"=  c #760C50",
"-  c #5A2F4A",
";  c #025B6E",
":  c #026478",
">  c #01646E",
",  c #2F6A5F",
"<  c #525150",
"1  c #706D54",
"2  c #675A64",
"3  c #596B6C",
"4  c #7C7866",
"5  c #706F6E",
"6  c #5E5D59",
"7  c #943234",
"8  c #B3393C",
"9  c #945B37",
"0  c #AB5345",
"q  c #977951",
"w  c #817D6B",
"e  c #8B7570",
"r  c #AC776D",
"t  c #9B5F56",
"y  c #CD554C",
"u  c #D1746F",
"i  c #E27674",
"p  c #D4624D",
"a  c #9E2751",
"s  c #0A960D",
"d  c #12982E",
"f  c #2B9B30",
"g  c #31A335",
"h  c #28981D",
"j  c #62942A",
"k  c #2D9A51",
"l  c #38A34B",
"z  c #349166",
"x  c #32A36C",
"c  c #139658",
"v  c #779457",
"b  c #4CAA4E",
"n  c #729074",
"m  c #55A96A",
"M  c #6DAC70",
"N  c #559B63",
"B  c #76C17F",
"V  c #90AC52",
"C  c #848768",
"Z  c #898778",
"A  c #938D79",
"S  c #8C9778",
"D  c #94987A",
"F  c #899569",
"G  c #AE8977",
"H  c #96A37D",
"J  c #8EAC72",
"K  c #99A36A",
"L  c #CB887A",
"P  c #CBDC65",
"I  c #014887",
"U  c #024F94",
"Y  c #01798D",
"T  c #325DA8",
"R  c #514994",
"E  c #6F718D",
"W  c #635AB8",
"Q  c #656CA5",
"!  c #3F64ED",
"~  c #3B5AC7",
"^  c #726ACB",
"/  c #473F8C",
"(  c #A3639B",
")  c #C96B90",
"_  c #CA6BD4",
"`  c #8974D3",
"'  c #088C95",
"]  c #1093A9",
"[  c #3697AB",
"{  c #2E94B2",
"}  c #35A2B7",
"|  c #2F9694",
" . c #56998E",
".. c #789C96",
"X. c #709889",
"o. c #55A592",
"O. c #79A68A",
"+. c #79A997",
"@. c #6EAC90",
"#. c #509AAD",
"$. c #7A9AA6",
"%. c #6D93A9",
"&. c #4FA7B4",
"*. c #7BA5A7",
"=. c #6FACB2",
"-. c #4EAEC3",
";. c #68B8C7",
":. c #73B3C8",
">. c #5F8FD7",
",. c #50A5BD",
"<. c #8A8A84",
"1. c #918D84",
"2. c #99978E",
"3. c #9C9A8C",
"4. c #989785",
"5. c #9C9B93",
"6. c #989894",
"7. c #88978B",
"8. c #A39D8B",
"9. c #A09E96",
"0. c #A29F98",
"q. c #B5928E",
"w. c #87A68B",
"e. c #9EA789",
"r. c #9AA587",
"t. c #87AA95",
"y. c #8AB59D",
"u. c #86B399",
"i. c #98B89B",
"p. c #94B08D",
"a. c #A2AB8E",
"s. c #A3A48B",
"d. c #A5A293",
"f. c #AAA595",
"g. c #A4AD90",
"h. c #A5A49D",
"j. c #ADAB9B",
"k. c #A9A99A",
"l. c #B2AB9C",
"z. c #A5B99C",
"x. c #B2B496",
"c. c #8E94AE",
"v. c #84A7A7",
"b. c #8BB7A3",
"n. c #96BAA7",
"m. c #8CADB4",
"M. c #85AAB4",
"N. c #8CB2B6",
"B. c #92B1B6",
"V. c #92B3B9",
"C. c #9BB8B7",
"Z. c #95A8AA",
"A. c #A9A7A1",
"S. c #AAA9A2",
"D. c #AAAAA6",
"F. c #B1AEA3",
"G. c #B4ADA8",
"H. c #A7BBA4",
"J. c #B4B2A5",
"K. c #B5B4A9",
"L. c #B9B6AA",
"P. c #BCBAAC",
"I. c #B8B8A5",
"U. c #A9BBBD",
"Y. c #A5B8B9",
"T. c #B9B9B6",
"R. c #A7AABA",
"E. c #AB8EB2",
"W. c #CD958E",
"Q. c #CDBDBD",
"!. c #C4BBB4",
"~. c #CEB3B0",
"^. c #E6B6B2",
"/. c #DB9399",
"(. c #B3C696",
"). c #9AC2B3",
"_. c #A9C2A7",
"`. c #B5C5AA",
"'. c #B0C9B7",
"]. c #90C791",
"[. c #C3C1B6",
"{. c #C6C4B9",
"}. c #C8C6BB",
"|. c #CBC9BE",
" X c #C6CAB7",
".X c #DCC3BD",
"XX c #CDD2B2",
"oX c #E4D9A6",
"OX c #9C96D3",
"+X c #9191CF",
"@X c #98B7C7",
"#X c #8EB6CD",
"$X c #B8B9C5",
"%X c #ABB3D1",
"&X c #9591E3",
"*X c #AEAAE5",
"=X c #A59DD7",
"-X c #CDBACD",
";X c #C4BFE3",
":X c #D39AD1",
">X c #96C4CE",
",X c #BACBC8",
"<X c #B2CCD1",
"1X c #B8CDE2",
"2X c #C6C5C1",
"3X c #CDCBC3",
"4X c #CACAC7",
"5X c #D1CFC6",
"6X c #D0CFC9",
"7X c #D9C5C4",
"8X c #C9D2CB",
"9X c #D2D1C7",
"0X c #D4D3CB",
"qX c #D9D6CF",
"wX c #D9DAC9",
"eX c #CAC9D6",
"rX c #C9DAD7",
"tX c #D5D5D1",
"yX c #D9D7D0",
"uX c #DBD9D2",
"iX c #DEDDD9",
"pX c #D6DAD7",
"aX c #D5CAD5",
"sX c #EDCCCA",
"dX c #E6C5C3",
"fX c #E2DCD3",
"gX c #E0DED9",
"hX c #E9DBD6",
"jX c #EDD1CD",
"kX c #DBE2D7",
"lX c #D7E1D2",
"zX c #E3E2DC",
"xX c #EAE4DD",
"cX c #E7E7D8",
"vX c #EBEADB",
"bX c #C9C6E3",
"nX c #D0CDE3",
"mX c #D2CCEA",
"MX c #D7D5E9",
"NX c #D8D6EA",
"BX c #D8D6E8",
"VX c #D1D4EC",
"CX c #E4DAEF",
"ZX c #D8E7E5",
"AX c #CAE2E2",
"SX c #E6E5E1",
"DX c #E9E6E2",
"FX c #EAEAE4",
"GX c #EEEEE9",
"HX c #E4EBE6",
"JX c #F0EFEA",
"KX c #F5EAE4",
"LX c #F2F1EC",
"PX c #FAF4EA",
"IX c #F8F5F3",
"UX c #EBEFF0",
/* pixels */
"yXyXyXuXuXuXyXyXyXyXyXyXuXuXyXyXyXyXyXyXuXuXyXuXfXuXuXfXuXyXuXuXuXuXuXuXuXuXuXuXuXuXuXuXuXuXuXuXuXuXuXuXuXuXuXuXuXuXuXuXuXuXuXuXuXuXuXuXuXuXuXuXuXuXuXuXuXuXuXuXuXuXuXuXuXuXuXuXuXuXuXuXuXuXuXuXuXuXuXuXuXuXuXuXuXuXuXuXuXuXuXuXuXuXuXuXuXuXuXuXuXuXuXuXuXuXuXuXuXuXuXuXuXuXuXuXuXyXuXuXuXuXuXfXuXuXuXuXiXuXuXuXuXuXuXuXuXuXuXuXyXuXuXuXuXuXuXuXuXuXuXuXuXuXuXuXuXuXuXuXuXuXuXfXuXyXuXiXuXuXuXuXiXuXuXuXyXuXuXuXuXuXuXiXuXuXuXuXuXuXfXuXuXuXuXuXuXuXuXiXuXyXyXuXyXfXfXuXfXfXfXuXfXuXfXuXuXfXuXfXfXuXfXuXfXfXfXuXyXuXuXyXqXuX0XyX",
"uXfXuXyXuXyXuXfXfXfXfXfXuXuXfXfXfXfXfXfXyXyXuXrX<X).).<XtXuXyXuXuXuXuXuXuXuXuXuXuXuXuXuXuXuXuXuXuXuXuXuXuXuXuXuXuXuXuXuXuXuXuXuXuXuXuXuXuXuXuXuXuXuXuXuXuXuXuXuXuXuXuXuXuXuXuXuXuXuXuXuXuXuXuXuXuXuXuXuXuXuXuXuXuXuXuXuXuXuXuXuXuXuXuXuXuXuXuXuXuXuXuXuXuXuXuXuXuXuXuXuXuXuXuXuXyXuX6X$X2X2X4XU.0X4X$X0X$X2X4XqX4X0X4X4X2X2X0X4XuX2X6X4X2X4X6X4X4XyX$X$X$X4X2X$XuX4X0X2X6X4X2XT.0XuXqX$X4XuX2X0XT.$X$X$XuX4X6X6X2X$X6XT.2XqX$X4X$X4XT.4X0XT.0X0X4X4X4X$XqXuXT.0XuX,XU.0XC.,X>XyX,X,XV.4X6XV.8X,XU.8X,XtX@X,XC.qXuXyXiX X].M ].9X",
"<X} <XfXyXuXyX:.&.&.&.&.8X8X&.&.&.&.&.>XfXuXeX].].P P ].).8XuXyXuXuXuXuXuXuXuXuXuXuXuXuXuXuXuXuXuXuXuXuXuXuXuXuXuXuXuXuXuXuXuXuXuXuXuXuXuXuXuXuXuXuXuXuXuXuXuXuXuXuXuXuXuXuXuXuXuXuXuXuXuXuXuXuXuXuXuXuXuXuXuXuXuXuXuXuXuXuXuXuXuXuXuXuXuXuXuXuXuXuXuXuXuXuXuXuXuXuXuXuXuXuXuXuXyXiX$XR.4X$X$X$XT.U.R.$X$XqXR.R.$X$XR.2X$XR.R.T.fXR.U.R.R.$X4XT.$XzX$X$X$X2XR.R.0XR.$XR.R.$XR.2XR.fX$X$X$X6Xc.6XT.2XR.$XfXR.R.R.R.$X$X$X$X$XR.4XT.$X$X$X$XR.0XuXR.$X$Xc.6XiXK.0XfX*.U.V.@X8X#.,X%.V.#.V.V.V.,XN.#.,X%.U.%.V.N.uXuXqXgX`.M J M  X",
">X] >XfXtXfX#X] } } } } 8X8X] { } } ] { 8XtX].P XXuXuXoX].#XqXuXyXuXuXuXuXuXuXuXuXuXuXuXuXuXuXuXuXuXuXuXuXuXuXuXuXuXuXuXuXuXuXuXuXuXuXuXuXuXuXuXuXuXuXuXuXuXuXuXuXuXuXuXuXuXuXuXuXuXuXuXuXuXuXuXuXuXuXuXuXuXuXuXuXuXuXuXuXuXuXuXuXuXuXuXuXuXuXuXuXuXuXuXuXuXuXuXuXuXuXuXuXuXuXuXuXuX0XR.R.$X$X$X$XU.$X$X$X0XR.$XU.R.R.R.$X$XR.R.fX$XR.R.$XT.$X$XR.0X2X2X$X$XR.R.$XR.R.T.U.R.T.$XR.fX$X$XR.U.Z.$X$X4XR.$XiX$XR.R.$XT.$X$XU.4XT.R.$X$X$X$X$XR.qXyXR.$X$XR.4XfXK.0XuX,X=.M.U.8X*.=.M.V.=.N.V.C.*.N.=.U.=.=.M.4X=.,XfXqXgX'.M ].M 3X",
">X] >XfXtXhX;.] ,XhXfXhXfX8X] :.hXhX#X] ,X<X].XXiXuX8X<X<X&.,XuXyXuXuXuXuXuXuXuXuXuXuXuXuXuXuXuXuXuXuXuXuXuXuXuXuXuXuXuXuXuXuXuXuXuXuXuXuXuXuXuXuXuXuXuXuXuXuXuXuXuXuXuXuXuXuXuXuXuXuXuXuXuXuXuXuXuXuXuXuXuXuXuXuXuXuXuXuXuXuXuXuXuXuXuXuXuXuXyXyXyXyXyXyXyXyXyXyXyXyXyXyXyXyXyXyXuX4X$X4X2X4XT.0X4X$X0X$X2X4XqX2X6XqX$X2X4X0X2XuX6X4X4X0X4X$XyX$X2X0X6X2X4X2X2X4X0X6X2X0X2X4XT.0XuXqX$X2X4XyX4X4X0X2X$XuX6X4X4X4X$X6X$X4X0X$X4X2X6XT.4X0X$X0X6X6X4X4X$X0XuX!.0XuX,X,X0XC.,X,X,X,X,XC.4X6XC.,X,XU.8X,X,X,X,XU.qXyXqXuX3X_.p._.9X",
">X] >XfXtXfX>X] } &.&.#XfX8X] :.fXuX:.] ,X8X;.-.8XuX8X8XuX=.>XuXyXuXuXuXuXuXuXuXuXuXuXuXuXuXuXuXuXuXuXuXuXuXuXuXuXuXuXuXuXuXuXuXuXuXuXuXuXuXuXuXuXuXuXuXuXuXuXuXuXuXuXuXuXuXuXuXuXuXuXuXuXuXuXuXuXuXuXuXuXuXuXuXuXuXuXuXuXuXuXuXuXuXuXuXuXuXyXiXiXiXiXiXiXiXiXiXiXiXiXiXiXiXiXiXiXiXzXzXzXzXzXzXgXgXzXgXzXzXzXiXzXgXiXzXzXgXgXzXiXgXzXzXgXzXzXiXzXzXgXgXzXzXzXzXzXgXgXzXgXzXzXzXgXiXgXzXzXzXiXzXzXgXzXzXuXiXiXiXgXgXiXzXgXiXzXgXgXiXzXiXiXzXiXiXiXgXgXzXiXiXgXiXiXzXzXgXxXgXgXzXgXgXxXgXgXxXzXzXzXgXzXzXgXzXzXgXiXiXiXgXgXxXgXgX",
">X] >XfXtXyXuX:.} } } ] >X8X{ { } } ] { 8X,X&.] ,XhXuXuXyX=.>XuXyXuXuXuXuXuXuXuXuXuXuXuXuXuXuXuXuXuXuXuXuXuXuXuXuXuXuXuXuXuXuXuXuXuXuXuXuXuXuXuXuXuXuXuXuXuXuXuXuXuXuXuXuXuXuXuXuXuXuXuXuXuXuXuXuXuXuXuXuXuXuXuXuXuXuXuXuXuXuXuXuXuXuXuXuXyXiXzXzXzXxXzXzXzXzXzXzXzXzXzXzXzXzXzXzXzXzXzXzXzXzXzXDXDXzXzXSXzXzXzXSXSXzXzXzXzXzXzXzXzXzXzXSXzXzXzXzXzXzXzXzXzXzXzXzXzXzXzXzXzXzXzXzXxXzXzXzXzXzXzXzXzXzXzXzXiXSXzXiXgXgXiXiXiXiXgXiXzXgXzXzXiXgXgXgXgXgXiXzXxXxXxXxXzXSXzXSXDXDXDXzXSXzXSXzXzXzXxXxXxXzXzXDXzXFXSXSXFXSXSXzXDXFXSX",
">X] <XhXfXuXuXhXfXhX8X{ #X8X] } &.&.&.<XhX#X&.} &.8XtXhX<X&.,XuXyXuXuXuXuXuXuXuXuXuXuXuXuXuXuXuXuXuXuXuXuXuXuXuXuXuXuXuXuXuXuXuXuXuXuXuXuXuXuXuXuXuXuXuXuXuXuXuXuXuXuXuXuXuXuXuXuXuXuXuXuXuXuXuXuXuXuXuXuXuXuXuXuXuXuXuXuXuXuXuXuXuXuXuXyXiXzXzXzXxXkXzXzXzXzXzXzXzXzXzXzXzXzXzXzXzXzXzXzXzXzXxX9X|.DXxX|.SXDXSXyXuXSXzXSXSXxXDXDXzXDXzXqXzXzXzXzXzXzXzXzXzXzXzXzXzXzXzXzXzXzXzXzXkXzXxXzXzXzXzXzXzXzXgXiXDX].'.xXiXgXxXxXxXzXiXzXpX=.>XiXgXgXgXgXgXgXzXxXiXrXrXpXiX9XzX3X3X3X5XgX9XuXqXiXzXzXrXrXrXzXzX9XuX[.uXqX[.uXuXuX3XP.yX",
">X] &.&.&.>XyX&.&.&.&.] >X8X] :.hXfXfXfXtXhX<X{ } ] :.8X=.#XtXuXyXuXuXuXuXuXuXuXuXuXuXuXuXuXuXuXuXuXuXuXuXuXuXuXuXuXuXuXuXuXuXuXuXuXuXuXuXuXuXuXuXuXuXuXuXuXuXuXuXuXuXuXuXuXuXuXuXuXuXuXuXuXuXuXuXuXuXuXuXuXuXuXuXuXuXuXuXuXuXuXuXuXuXyXiXzXzXzXxXrX<XzXzXzXzXzXzXzXzXzXzXzXzXzXzXzXzXzXzXzXzXDXf.{.P.f.l.l.J.!.d.!.uXj.!.J.L.j.l.}.J.d.f.SXzXzXzXzXzXzXzXzXzXzXzXzXzXzXzXzXzXzXxXpX<XzXzXzXzXzXzXzXgXgXzXiXg B DXiXgX<X>X=.<XzXzX8X&.=.pXzXgXgXgXgXzXzXxXrX;.;.<X9X4.[.3.f.[.4.P.j.3X!.9XDXkX<X>X<XSX9X4.[.4.I.I.|.s.}.[.[.f.iX",
">X} } } { #XyX} } } } =.uX8X} #XfXtXyXyXyXfX>X>X;.} ;.=.:.8XuXyXuXuXuXuXuXuXuXuXuXuXuXuXuXuXuXuXuXuXuXuXuXuXuXuXuXuXuXuXuXuXuXuXuXuXuXuXuXuXuXuXuXuXuXuXuXuXuXuXuXuXuXuXuXuXuXuXuXuXuXuXuXuXuXuXuXuXuXuXuXuXuXuXuXuXuXuXuXuXuXuXuXuXyXiXzXzXzXzXxXrX<XxXzXzXzXzXzXzXzXzXzXzXzXzXzXzXzXzXzXzXzXxX0Xf.D F.8.4.d.P.!.3X3Xl.s.I.f.f.I.s.4.l.P.DXzXzXzXzXzXzXzXzXzXzXzXzXzXzXzXzXzXzXxXpX>XzXzXzXzXzXzXgXgXiXDX].M M yXzXgX<X>XN.,XzXzX8X=.=.rXzXiXgXgXzXzXzXxXrX;.;.<XqX8.8.J.f.}.L.8.f.[.J.qXDXkXrX>XrXSXF.4.s.j.j.J.0X8.P.I.9XI.SX",
"yXyXyXyXyXuXuXyXyXyXyXfXuXyXyXyXuXuXuXuXuXyXfXhX#X<X<X>XtXuXyXuXuXuXuXuXuXuXuXuXuXuXuXuXuXuXuXuXuXuXuXuXuXuXuXuXuXuXuXuXuXuXuXuXuXuXuXuXuXuXuXuXuXuXuXuXuXuXuXuXuXuXuXuXuXuXuXuXuXuXuXuXuXuXuXuXuXuXuXuXuXuXuXuXuXuXuXuXuXuXuXuXuXyXiXzXzXzXzXzXzXxXpXzXzXzXzXzXzXzXzXzXzXzXzXzXzXzXzXzXzXzXzXxX|.{.3X}.9X{.9X[.{.5X3Xs.5XqX9X{.|.{.{.5X{.zXzXzXzXzXzXzXzXzXzXzXzXzXzXzXzXzXzXzXxXpXkXxXzXzXzXzXgXgXgXiXzX8XzXwXuXzXgXxXxXxXzXiXgXiX<X8XzXiXgXgXzXzXzXzXxXpX<X<XrXfX3X}.9X!.{.qX3X3X[.[.SXzXzXrX<XrXzX3XzX!.L.0X5XI.iX[.[.zX3XzX",
"uXuXuXuXuXuXyXuXuXuXuXyXyXuXuXuXyXuXyXyXyXuXyXtXfXuXuXuXuXyXuXyXyXyXyXyXyXyXyXyXyXyXyXyXyXyXyXyXyXyXyXyXyXyXyXyXyXyXyXyXyXyXyXyXyXyXyXyXyXyXyXyXyXyXyXyXyXyXyXyXyXyXyXyXyXyXyXyXyXyXyXyXyXyXyXyXyXyXyXyXyXyXyXyXyXyXyXyXyXyXuXuXyXiXzXzXzXzXzXzXzXzXxXzXzXzXzXzXzXzXzXzXzXzXzXzXzXzXzXzXzXzXzXzXSXDXDXSXSXDXSXDXDXFX0X0XFXzXSXSXSXDXDXSXDXzXzXzXzXzXzXzXzXzXzXzXzXzXzXzXzXzXzXzXzXxXzXzXzXzXzXgXgXgXgXgXiXzXiXzXzXgXgXiXiXiXiXgXgXgXxXzXiXgXgXzXzXzXzXzXzXxXxXxXxXzXDXDXSXDXSXxXDXDXDXDXzXzXzXxXxXxXzXDXzXFXFXSXSXFXxXDXDXzXSXzX",
"zXzXzXzXzXzXzXzXzXzXzXzXzXzXzXzXzXzXzXzXzXzXzXzXzXzXzXzXzXzXzXzXzXzXzXzXzXzXzXzXzXzXzXzXzXzXzXzXzXzXzXzXzXzXzXzXzXzXzXzXzXzXzXzXzXzXzXzXzXzXzXzXzXzXzXzXzXzXzXzXzXzXzXzXzXzXzXzXzXzXzXzXzXzXzXzXzXzXzXzXzXzXzXzXzXzXzXzXzXzXzXzXzXzXzXzXzXzXzXzXzXzXzXzXzXzXzXzXzXzXzXzXzXzXzXzXzXzXzXzXzXzXzXzXzXzXzXzXzXzXzXzXzXzXSXSXzXzXzXzXzXzXzXzXzXzXzXzXzXzXzXzXzXzXzXzXzXzXzXzXzXzXzXzXzXzXzXzXzXzXzXzXzXzXzXzXzXzXzXzXzXzXzXzXzXzXzXzXzXzXzXzXzXzXzXzXzXzXzXzXzXzXzXzXzXzXzXzXzXzXzXzXzXzXzXzXzXzXzXzXzXzXzXzXzXzXzXzXzXzXzXzXzXzXzXzX",
"3X5X5X5X5X5X5X9X9X9X9X5X3X5X5X5X3X3X9X5X9X3X5X5X9X3X3X3X3X3X3X3X3X3X3X3X3X3X3X3X3X3X3X3X3X3X3X3X3X3X3X3X3X3X3X3X3X3X3X3X3X3X3X3X3X3X3X3X3X3X3X3X3X3X3X3X3X3X3X3X3X3X3X3X3X3X3X3X3X3X3X3X3X3X3X3X3X3X3X3X3X3X3X3X3X3X3X3X3X3X3X3X3X3X3X3X3X3X3X3X3X3X3X3X3X3X3X3X3X3X3X3X3X3X3X3X3X3X3X3X3X3X3X3X3X3X3X3X3X3X3X3X3X3X3X3X3X3X3X3X3X3X3X3X3X3X3X3X3X3X3X3X3X3X3X3X3X3X3X3X3X3X3X3X3X3X3X3X3X3X3X3X3X3X3X3X3X3XiXzXuXuXuXuXiXiXuXuXuXuXzXzXuXiXiXuXuXuXiXzXuXgXiXuXuXuXuXzX5X3X5X3X3X3X3X3X3X3X5X3X3X3X3X3X3X3X3X3X3X3X3X3X3X3X3X3X",
"{.P.P.P.P.P.!.J.I.L.P.!.[.P.[.[.[.{.I.!.L.[.[.!.P.[.{.[.{.{.{.{.{.{.{.{.{.{.{.{.{.{.{.{.{.{.{.{.{.{.{.{.{.{.{.{.{.{.{.{.{.{.{.{.{.{.{.{.{.{.{.{.{.{.{.{.{.{.{.{.{.{.{.{.{.{.{.{.{.{.{.{.{.{.{.{.{.{.{.{.{.{.{.{.{.{.{.{.{.{.{.{.{.{.{.{.{.{.{.{.{.{.{.{.{.{.{.{.{.{.{.{.{.{.{.{.{.{.{.{.{.{.{.{.{.{.{.{.{.{.{.{.{.{.{.{.{.{.{.{.{.{.{.{.{.{.{.{.{.{.{.{.{.{.{.{.{.{.{.{.{.{.{.{.{.{.{.{.{.{.{.{.{.{.{.{.{.[.uXgXqXyXyX|.L.!.3XuXyXqXgXgXuX3X5XgXuXqXuXzXuX{.3XiXuXyXuXzX|.{.P.P.}.|.|.}.}.[.P.}.{.{.{.{.{.{.{.{.{.{.{.{.{.{.{.{.",
"L.s.f.D 8.f.f.P.8.s.D s.P.D s.8.J.j.l.f.D l.8.f.D s.f.J.3X}.}.}.}.}.}.}.}.}.}.}.}.}.}.}.}.}.}.}.}.}.}.}.}.}.}.}.}.}.}.}.}.}.}.}.}.}.}.}.}.}.}.}.}.}.}.}.}.}.}.}.}.}.}.}.}.}.}.}.}.}.}.}.}.}.}.}.}.}.}.}.}.}.}.}.}.}.}.}.}.}.}.}.}.}.}.}.}.}.}.}.}.}.}.}.}.}.}.}.}.}.}.}.}.}.}.}.}.}.}.}.}.}.}.}.}.}.}.}.}.}.}.}.}.}.}.}.}.}.}.}.}.}.}.}.}.}.}.}.}.}.}.}.}.}.}.}.}.}.}.}.}.}.}.}.}.}.}.}.}.}.}.}.}.}.}.}.}.{.uXgXyXyXuXI.!.!.[.uXuXyXgXiXiXP.f.f.|.uXuXSX[.k.f.P.[.4.0XzX3XP.8.I.l.f.j.j.P.s.F.3X{.}.}.}.}.}.}.}.}.}.}.}.}.}.}.}.",
"{.d.D L.d.f.d.|.l.j.D d.j.s.D D L.j.f.D 8.8.4.D L.f.8.J.3X}.}.}.}.}.}.}.}.}.}.}.}.}.{.{.{.}.}.}.}.}.}.}.}.}.}.}.}.}.}.}.}.}.}.}.}.}.}.}.}.}.}.}.}.}.}.}.}.}.}.}.}.}.}.}.}.}.}.}.}.}.}.}.}.}.}.}.}.}.}.}.}.}.}.}.}.}.}.}.}.}.}.}.}.}.}.}.}.}.}.}.}.}.}.}.}.}.}.}.}.}.}.}.}.}.}.}.}.}.}.}.}.}.}.}.}.}.}.}.}.}.}.}.}.}.}.}.}.}.}.}.}.}.}.}.}.}.}.}.}.}.}.}.}.}.}.}.}.}.}.}.}.}.}.}.}.}.}.}.}.}.}.}.}.}.}.}.}.{.uXgXyXyXuXL.[.j.J.iXyXyXgXiXiX!.4.d.K.gXuXDXP.F.j.4.3.4.qXzX3X{.f.D 8.8.8.f.4.C F.3X{.}.}.}.}.}.}.}.}.}.}.}.}.}.}.}.",
"[.F.I.}.I.J.J.J.P.P.P.L.l.P.L.I.[.P.j.L.P.J.[.J.}.P.[.!.{.{.{.{.{.{.{.{.{.{.{.[.[.{.|.|.|.{.{.{.{.{.{.{.{.{.{.{.{.{.{.{.{.{.{.{.{.{.{.{.{.{.{.{.{.{.{.{.{.{.{.{.{.{.{.{.{.{.{.{.{.{.{.{.{.{.{.{.{.{.{.{.{.{.{.{.{.{.{.{.{.{.{.{.{.{.{.{.{.{.{.{.{.{.{.{.{.{.{.{.{.{.{.{.{.{.{.{.{.{.{.{.{.{.{.{.{.{.{.{.{.{.{.{.{.{.{.{.{.{.{.{.{.{.{.{.{.{.{.{.{.{.{.{.{.{.{.{.{.{.{.{.{.{.{.{.{.{.{.{.{.{.{.{.{.{.{.{.{.[.uXgXyXuXuX}.!.j.J.iXyXyXgXgXuX|.P.3X3XuXuXzXuXK.{.}.P.[.9XzX|.[.J.P.l.D P.P.F.J.!.}.{.{.{.{.{.{.{.{.{.{.{.{.{.{.{.{.",
"5X0X0X9X0X0X0X0X0X0X0X0XqX0X0X0X9X0XqX0X0XqX0XqX9X0X0X0X9X9X9X9X9X9X9X9X9X9X0XfXfX4XN.B.C.0X9X9X9X9X9X9X9X9X9X9X9X5X3X9X9X9X9X9X9X9X9X9X9X9X9X9X9X9X9X9X9X9X9X9X9X9X9X9X9X9X9X9X9X9X9X9X9X9X9X9X9X9X9X9X9X9X9X9X3X4X9X9X9X9X9X9X0X9X9X0X5X9X9X9X9X9X9X9X9X9X9X9X9X9X9X9X9X9X9X9X9X9X9X9X9X9X9X9X9X9X9X9X9X9X9X3X3X9X9X9X9X9X9X9X9X9X9X9X9X9X9X9X9X9X9X9X9X9X9X5X0X9X9X9X9X9X9X9X9X9X9X9X9X9X9X9X9X9X9X9X9X3XuXgXyXuXuXyXuXiXuXyXuXyXgXgXqXuXiXuXuXyXiXzXyXgXiXiXgXiXuXzX5X3X5X5X{.[.5X3X5X5X3X3X3X3X3X3X3X3X3X3X3X3X3X3X3X3X3X3X",
"sXhXxXJXLXLXLXLXLXLXLXLXLXLXLXLXFXFXLXLXLXLXLXLXLXLXLXDXLXLXLXLXLXLXDXLXLXLXZX>X>X;.:.<X&.SXLXLXFXFXLXJXDXLXDXfXhX~.a.wXwXcXLXLXLXLXLXLXLXLXLXLXLXLXLXDXJXLXLXLXLXLXLXLXLXGXFXLXLXLXLXLXJXDXLXLXLXLXGXFXLXFXkXwXn.:.rXrXZXLXFXFXIXFXFXIX3XDXLXLXLXLXLXLXLXLXLXLXLXLXLXLXLXJXDXLXLXLXLXLXLXLXLXLXDXLXLXLXHXAXAX@X%XBXBXFXLXDXJXLXLXLXDXLXLXJXDXLXLXDXLXLXDXLXGX3XIXLXLXLXLXLXLXLXLXLXLXLXLXLXLXLXFXFXFXBXBX%XeXzXyXuXyXuXzXzXuXyXuXyXgXgXyXyXyXyXuXyXiXzXyXyXyXyXyXyXuXzXuXuXuXuXuXuXuXyXyXuXuXuXuXuXuXuXuXuXuXuXuXuXuXuXuXuXuXuX",
"~.l.l.DXLXGXJXJXJXJXJXJXJXJXGXLXDXDXLXGXJXJXJXJXJXJXJXzXJXJXJXJXGXLXzXGXGXPX>X=.@X>XpXkX=.kXLXJXDXDXLXFXxXLXxX0XjX~.H 9XwXzXGXJXGXJXJXJXJXJXJXJXJXGXLXzXGXJXGXJXJXJXJXGXLXFXSXLXGXJXGXJXGXzXLXGXGXLXFXDXLXxXuXXXb.;.1X<XZXGXDXFXLXDXDXIX}.xXLXGXJXJXJXJXJXJXJXJXJXJXJXGXJXGXzXLXGXJXJXJXJXJXGXJXzXGXJXGXZXrX1X@X%XBXBXSXJXxXFXJXJXGXzXJXJXGXxXLXJXzXGXLXzXJXFX{.LXGXJXJXJXJXJXJXJXJXJXJXJXJXGXLXDXSXSXBXBX=XeXzXyXuXyXuXxXxXuXyXuXyXgXzX7X.X7X7X.X.XuXzX0X.X.X7X.X.XqXzXuXyXyXyXfXfXfXhXfXyXyXyXyXyXyXyXyXyXyXyXyXyXyXqXyXuXyXyX",
"G 8.4.gXLXGXJXJXJXJXJXJXJXJXJXLXFXDXLXJXJXJXJXJXJXJXJXzXJXJXJXJXJXLXxXGXGXPX>X>XfXiXrXpX=.rXLXLXDXFXLXGXxXLXxXqXjX~.H wXwXcXGXJXJXJXJXJXJXJXJXJXJXJXLXxXGXLXJXJXJXJXJXJXLXFXSXLXJXJXJXLXGXxXLXJXJXLXFXDXLXxXuXXXb.;.1X<XZXJXDXFXLXDXDXIX2XSXLXJXJXJXJXJXJXJXJXJXJXJXJXJXJXGXxXLXJXJXJXJXJXJXJXJXzXJXJXGXZXrX1X@X%XBXBXDXJXxXGXLXJXGXzXLXJXGXxXLXJXzXGXLXzXJXFX}.LXGXJXJXJXJXJXJXJXJXJXJXJXJXJXLXDXDXSXBXBX=XeXzXyXuXyXuXiXiXuXuXuXyXgXzX7X.X.X7X.X.XuXzX7X.X.X7X.X.XqXzXuXyXuXuX@X&.&.=.<XfXuXyXuXuXuXyXuXuXiXuXiXuXuXgXuXyXuXuX",
"l.~.L.xXLXJXJXJXJXJXJXJXJXJXJXLXFXDXLXJXJXJXJXJXJXJXJXzXJXJXJXJXJXLXxXGXGXPX>X>XtXrXrXiX=.kXIXLXDXFXLXGXxXLXxXqXjX~.H wXwXcXGXJXJXJXJXJXJXJXJXJXJXJXLXxXGXLXJXJXJXJXJXJXLXFXSXLXJXJXJXLXGXxXLXJXJXLXFXDXLXxXuXXXb.;.1X<XZXJXDXFXLXDXDXIX2XSXLXJXJXJXJXJXJXJXJXJXJXJXJXJXJXGXxXLXJXJXJXJXJXJXJXJXzXJXJXGXZXrX1X@X%XBXBXDXJXxXGXLXJXGXzXLXLXGXxXLXJXzXGXLXzXJXFX}.LXGXJXJXJXJXJXJXJXJXJXJXJXJXJXLXDXDXSXBXBX=XeXzXyXyXfX8X[ #.8XuXyXyXgXzX7X.X.X7X.X.XuXzX7X.X.X7X.X.XqXzXuXuXyX&.#.#X<X#X[ =.fXyXuXuXyXiXJ.P.|.5X{.0X0XK.3XuXyXuX",
"dXjXxXGXJXJXJXJXJXJXJXJXJXJXJXLXFXDXLXJXJXJXJXJXJXJXJXzXJXJXJXJXJXLXxXGXGXPX>X>XtXrXrXiX=.=.<XLXDXFXLXGXxXLXxXqXjX~.H wXwXcXGXJXJXJXJXJXJXJXJXJXJXJXLXxXGXLXJXJXJXJXJXJXLXFXSXLXJXJXJXLXGXxXLXJXJXLXFXDXLXxXuXXXb.;.1X<XZXJXDXFXLXDXDXIX2XSXLXJXJXJXJXJXJXJXJXJXJXJXJXJXJXGXxXLXJXJXJXJXJXJXJXJXzXJXJXGXZXrX1X@X%XBXBXDXJXxXGXLXJXGXzXLXLXGXxXLXJXzXGXLXzXJXFX}.LXGXJXJXJXJXJXJXJXJXJXJXJXJXJXLXDXDXSXBXBX=XeXzXyXyXfX,X[ [ 8XuXyXyXgXzX7X.X.X7X.X.XuXzX7X.X.X7X.X.XqXzXuXfX=.&.zXKXDXKXpX[ V.fXyXuXqXiXL.3.3.3.8.3.F.Z 3XuXyXuX",
"^.jXhXFXJXJXJXJXJXJXJXJXJXJXJXLXFXDXLXJXJXJXJXJXJXJXJXzXJXJXJXJXJXLXxXGXGXPX>X<XtXrXrXpX<X@X&.ZXKXDXLXGXxXLXxXqXjX~.H wXwXcXGXJXJXJXJXJXJXJXJXJXJXJXLXxXGXLXJXJXJXJXJXJXLXFXSXLXJXJXJXLXGXxXLXJXJXLXFXDXLXxXuXXXb.;.1X<XZXJXDXFXLXDXDXIX2XSXLXJXJXJXJXJXJXJXJXJXJXJXJXJXJXGXxXLXJXJXJXJXJXJXJXJXzXJXJXGXZXrX1X@X%XBXBXDXJXxXGXLXJXGXzXLXLXGXxXLXJXzXGXLXzXJXFX}.LXGXJXJXJXJXJXJXJXJXJXJXJXJXJXLXDXDXSXBXBX=XeXzXyXyXfX,X[ [ 8XuXyXyXgXzX7X.X.X7X.X.XuXzX7X.X.X7X.X.XqXzXuX8X[ rXDXkXzXHXPX<X#.uXuXyXyXiXJ.f.[.D 8.l.8.j.|.uXyXuX",
"q..XxXFXJXJXJXJXJXJXJXJXJXJXJXLXFXDXLXGXJXJXJXJXJXJXJXzXJXJXJXJXJXLXxXGXGXPX:.<XtXrXpXpXrXfX:.rXKXDXLXGXxXLXxXqXjX~.H 9XwXcXGXJXJXJXJXJXJXJXJXJXJXJXLXxXGXLXJXJXJXJXJXJXLXFXSXLXJXJXJXLXGXxXLXJXJXLXFXDXLXxXuXXXb.;.1X<XZXJXDXFXLXDXDXIX2XSXLXJXJXJXJXJXJXJXJXJXJXJXJXJXJXGXxXLXJXJXJXJXJXJXJXJXzXJXJXGXZXrX1X@X%XBXBXDXJXxXGXLXJXGXzXLXLXGXxXLXJXzXGXLXzXJXFX}.LXGXJXJXJXJXJXJXJXJXJXJXJXJXGXLXDXDXSXBXBX=XeXzXyXyXfX,X[ [ 8XuXyXyXgXzX7X.X.X7X.X.XuXzX7X.X.X7X.X.XqXzXfX<X&.zXzXzXzX8.A 4X#.4XfXyXyXiXiXyXzX{.0XiXuXgXiXiXyXuX",
"q.Q.xXFXGXGXGXGXGXGXGXGXGXGXGXLXDXDXLXGXGXGXGXGXGXGXGXzXGXGXGXGXGXLXzXGXGXPX:.<X8XrXrXrX8XtX=.<XKXDXLXFXzXJXxXqXsX~.H  XwXzXFXGXGXGXGXGXGXGXGXGXGXGXJXzXFXGXGXGXGXGXGXGXJXFXxXJXGXGXGXGXFXzXJXGXGXJXDXSXJXcXuXXXb.;.1X<XZXGXSXDXLXSXDXIX}.zXLXGXGXGXGXGXGXGXGXGXGXGXGXGXGXGXzXJXGXGXGXGXGXGXGXGXzXGXGXGXZXrX1X@X%XBXBXSXGXzXFXGXGXGXzXGXGXFXzXGXGXzXGXJXzXJXFX{.LXGXGXGXGXGXGXGXGXGXGXGXGXGXGXLXDXSXSXBXBX=XeXzXyXyXfX,X[ [ 8XuXyXyXgXzX7X.X.X7X.X.XuXzX7X.X.X7X.X.XqXzXfX,X#.zXzXzXzXI.l.2X, 4XiXyXiX}.!.uXP.3X!.iXqXP.P.|.uXyX",
"~.jXxXJXIXLXIXIXIXIXIXIXIXIXLXIXJXGXIXLXIXIXIXIXIXIXIXDXIXIXIXIXLXIXDXJXUXIX:.rXiXNXNXSXBXSX>X;.>XrXIXLXFXIXKXjXqXF.r.3XlXvXLXIXIXIXIXIXIXIXIXIXIXIXIXFXLXIXIXIXIXIXIXIXIXLXGXIXIXIXIXIXLXFXIXIXIXIXJXGXIXFXzXXXb.;.AXrXZXIXGXJXIXGXGXIX3XFXIXIXIXIXIXIXIXIXIXIXIXIXIXIXIXLXFXIXIXIXIXIXIXIXIXIXFXIXIXIXHXAXAX@X%XNXCXGXIXFXLXIXPXPXKXIXIXIXLXIXIXKXIXIXDXIXJX2XIXLXLXLXLXLXLXLXLXLXLXLXLXLXLXIXJXFXGXNXBX=XeXzXyXyXfX,X[ [ 8XuXyXyXgXzX7X.X.X7X.X.XuXzX7X.X.X7X.X.XqXzXuXqX[ <XKXzXzXFXIXv., fXyXyXuXk.f.!.d.A f.}.f.4.A f.iXyX",
"b b b b b b b b b b b b b b b b b b b b b b b b b b b b b b b b b b b l l l d l b b b m M M 4.<...%.~.!.,X8X{.~.!.8.S H.P.[.2X3X3X3X3X3X2X3X3X3X3X3X3X[.2X3X3X3X3X3X3X3X3X}.{.3X2X3X3X3X2X[.3X3X3X3X}.{.3X[.P.x.+.&.Y.C.'.4X{.{.3X{.{.3XS.[.3X3X3X3X3X3X3X3X3X3X3X3X3X3X3X2X[.3X3X3X3X3X3X3X3X3X[.3X3X2X,XU.C.M.OX$X$X2X9X}.T.$X;X;XC.y.M M b b b b b b b b b g b b b b b b b b b b b b b b b b b b b b l N aXzXyXyXfX,X[ [ 8XuXyXyXgXzX7X.X.X7X.X.XuXzX7X.X.X7X.X.XqXzXuXfX@X[ rXxXzXDXY.; Y.gXyXyXuXj.8.J.d.4.f.!.8.3.A f.iXyX",
"q.x.x.!.[.[.[.[.[.[.[.[.[.[.[.[.I.I.[.[.[.[.[.[.[.[.[.I.[.[.[.[.[.[.I.o.g.z.z.p.p.p.J M M b g h h , 3 ( W.^.iX5XQ.j.S `.|.qXzXzXzXzXzXiXzXzXzXzXzXzXzXqXiXzXzXzXzXzXzXzXzXiXuXzXzXzXzXzXiXyXzXzXzXzXiXuXzXuX9XXXb.=.<X,XrXzXiXiXSXiXiXFXT.uXxXzXzXzXzXzXzXzXzXzXzXzXzXzXzXzXuXzXzXzXzXzXzXzXzXzXuXzXzXzXpX<X<X#X=XeXpXiX%XOX&X+Xz d f b M O.y.).)._.'.'.'.,X'.Z.,X,X,X,X,X,X,X,X,X,X,X,X,X,X,X,X'.'.'.Y.Y.c.aXzXyXyXfX,X[ [ 8XuXyXyXgXzX7X.X.X7X.X.XuXzX7X.X.X7X.X.XqXzXuXyXfX=.@XzXuXxX..v.zXyXuXyXuX5X{.5X{.3X{.iX{.|.[.3XuXyX",
"^.^.dXsXjXjXjXjXjXjXjXjXjXjXjXjXsXsXjXjXjXjXjXjXjXjXjXsXjXjXjXjXjXjXdX=.7X7X7X7X-X7X7X7X-X-X7X'.p.b d m ~././.^.yXF.r.'.8XcXLXLXLXLXIXZXGXIXIXIXIXIXIXLXIXIXIXIXIXIXIXIXIXIXIXIXIXIXIXIXIXJXIXIXIXIXFXDXLXFXkXXXb.;.rX<XZXLXFXGXIXFXFXIX3XDXIXLXLXLXLXLXLXLXLXLXLXLXLXLXLXLXDXLXLXLXLXLXLXLXLXLXDXLXLXLXHXAXAX@X%XSXbX&X*XmXM g M ,XnXCXCXCXNXCXCXMXCXCXMXCXNX$XCXCXCXCXCXCXCXCXCXCXCXCXCXCXCXCXNXNXNXmXbX=XeXzXyXyXfX,X[ [ 8XuXyXyXgXzX7X.X.X7X.X.XuXzX7X.X.X7X.X.XqXzXuXyXyXfXuXtXtXtXfXfXyXuXuXuXyXuXiXuXiXuXiXyXiXiXiXuXyXuX",
"^.^.^.dXsXsXsXsXsXsXsXsXsXsXsXsXdXdXsXsXsXsXsXsXsXsXsXdXsXsXsXsXsXsX.X=.Q.Q.Q.Q.!.Q.Q.Q.!.!.Q.-X-X-Xz.g d ,X^.u W.J.r.'. XzXGXIXIXGXpX'.`.`.`.(.(.(.(.x.(.(.(.(.(.(.(.(.(.(.(.(.(.(.(.(.(.(.XXXXlXGXJXLXIXcXuXXXb.;.1X<XZXGXDXFXLXDXDXIX}.SXLXGXJXJXJXJXJXJXJXJXJXJXJXJXJXGXzXLXGXJXJXJXJXJXJXJXzXGXJXGXZXrX1X@X%X*X&XmXBXg b eXCXCXnXMXBXMXeXMXMXeXMXMXeXMXnX$XNXMXMXMXMXMXMXMXMXMXMXMXMXMXMXNXnXnXnXbX;XOXeXzXyXyXfX,X[ [ 8XuXyXyXgXzX7X.X.X7X.X.XuXzX7X.X.X7X.X.XqXzXuXyXuXtXuXhXhXhXuXqXuXuXuXuXuXyXqXyXyXyXqXuXyXyXqXyXuXuX",
"^.^.^.dXsXsXsXsXsXsXsXsXsXsXsXsXdXdXsXsXsXsXsXsXsXsXsXdXsXsXsXsXsXsX.X=.Q.Q.Q.Q.!.Q.7X7X-X!.Q.Q.!.!.7X-Xb f !.!.W.r w.'. XGXvX`.p.J J J H p.(.(.(.(.(.(.(.(.`.`.`.`.`.`.`.(.(.(.(.(.(.(.(.H (.J J J J (.cXJXkXXXb.;.1X<XZXJXDXFXLXDXDXIX2XSXLXJXJXJXJXJXJXJXJXJXJXJXJXJXJXGXxXLXJXJXJXJXJXJXJXJXzXJXJXGXZXrX1X>X` =XmXeXg M CXNXBXMXnXNXNXMXnXNXNXnXMXNXnXNXnX$XNXMXNXNXNXNXNXNXNXNXNXNXNXNXNXNXnXnXmXbX;XOXeXzXyXyXfX,X[ [ 8XuXyXyXgXzX.X.X.X7X.X.XuXzX7X^..X7X.X.XqXzXuXyXyXfX8XN.=.@X0XfXyXuXuXuXyXuXgXuXyXuXuXuXuXyXuXuXyXuX",
"^.^.dXsXsXsXsXsXsXsXsXsXsXsXsXsXdXdXsXsXsXsXsXsXsXsXsXdXsXsXsXsXsXsXQ.=..XQ.Q.Q.!.Q.i.p.z.-X7XQ.Q.Q.Q.Q.@Xk f ~.~.L r  X2Xg.V J _.'.'.,X8XpXFXFXFXFXFXkXcXFXvXvXvXvXvXvXFXcXzXFXvXFXFXFXyXuXFXFXcXkXXX(.J J XXwXb.;.1X<XZXJXDXFXLXDXDXIX2XSXLXJXJXJXJXJXJXJXJXJXJXJXJXJXJXGXxXLXJXJXJXJXJXJXJXJXzXJXJXGXZXrXrX+X&XbXbXg u.CXnXMXNXMXnXNXNXMXnXNXNXnXMXNXnXNXnX$XNXMXNXNXNXNXNXNXNXNXNXNXNXNXNXNXnXnXmXbX;XOXeXzXyXyXfX,X[ [ 8XuXyXyXgXgXqX0XqXwX.X.XuXzXwX.X.XwX.X.XwXzXuXyXfXN.[ &.=.&.[ >XfXyXuXyXuX3Xj.9XiX9X3XqXuXuX9X3XuXyX",
"/.~.~.^.sXsXsXsXsXsXsXsXsXsXsXsXdXdXsXsXsXsXsXsXsXsXsXdXsXsXsXsXsXsXQ.=..XQ.Q.Q.-Xp.b M b M p.Q.Q.Q.Q.Q.Z.:.m f Z...5 7.J J 8XpX8X'._.`.2X8XkXkXkXkXcXwXlXkXkXkXkXkXkXkXcXlXwXcXkXkXkXlX`. X0XkXkXcXkXzXcX(.V x.V.;.1X<XZXJXDXFXLXDXDXIX2XSXLXJXJXJXJXJXJXJXJXJXJXJXJXJXJXGXxXLXJXJXJXJXJXJXJXJXzXJXJXGXZXAX<X^ =XmXl M CXeXMXNXNXMXnXNXNXMXnXNXNXnXMXNXnXNXnX$XNXMXNXNXNXNXNXNXNXNXNXNXNXNXNXNXnXnXmXbX;XOXeXzXyXyXfX,X[ [ 8XuXyXyXgXgXP P P wXwXwXuXzXwXoXXXwXoXoXwXzXuXfX@X[ <XKXKXxX>X[ ,XfXyXyXiXf.!.4.!.3.3.d.d.!.4.j.gXqX",
"/.q.W.~.jXsXsXsXsXsXsXsXsXsXsXsXdXdXsXsXsXsXsXsXsXsXsXdXsXsXsXsXjXjXQ.=.7XQ.-X-X-XM p.-Xj.J b I.Q.!.Q.Q.T.&.&.f d c.N z s.8X2X8X'.`._.'.8X8XwXcXcXcXcXwXlXcXcXcXcXcXcXcXcXlXwXcXcXcXcXlX_.'.'.kXcXcXlXwXcXzXXXV N :.1X<XZXJXDXFXLXDXDXIX2XSXLXGXGXGXGXGXGXGXGXGXGXGXGXGXGXGXzXLXGXGXGXGXJXJXJXJXzXJXJXGXZXrX&X#X*Xm l CXMXnXMXNXNXMXnXNXNXMXnXNXNXnXMXNXnXNXnX$XNXMXNXNXNXNXNXNXNXNXNXNXNXNXNXNXnXnXmXbX;XOXeXzXyXyXfX,X[ [ 8XuXyXyXgXgXoXP P P P P wXzXwXwXwXwXwXwXuXzXuXtX[ <XKXzXzXFXPX#X#.fXyXyXiXF.j.f.3.3.d.4.8.3.4.L.iXyX",
"/.W.q.^.jXsXsXsXsXsXsXsXsXsXsXsXdXdXsXsXsXsXsXsXsXsXsXdXsXsXsX7X$X,XB.=..X-Xz.b N b z.K.J.!.M z.-X!.2XQ.!.dX=.v.f v C  .r `.8X8X'._.`._.'.8X8XcXcXcXcX X8XcXcXcXcXcXcXcXcXlXwXkXkXcXcXwX_.H.'.lXcXcXlXwXcXwXXXXXv M AX<XZXJXDXFXLXSXDXIX2XDXPXLXLXLXLXJXLXPXPXPXPXPXPXPXPXLXDXPXLXLXLXLXLXJXGXGXzXGXJXGXHX&X#X*X..f bXmXMXnXMXNXNXMXnXNXNXMXnXNXNXnXMXNXnXNXnX$XNXMXNXNXNXNXNXNXNXNXNXNXNXNXNXNXnXnXmXbX;XOXeXzXyXyXfX,X[ [ 8XuXyXyXgXgXwXwXyXP P P wXSXoXP oXoXoXP oXSXfX,X#.zXzXzXzXP.I.8X#.8XuXyXuXyX}.uX3XqX[.j.uX3X0X5XuXuX",
"^.^.^.dXsXsXsXsXsXsXsXsXsXsXsXsXdXdXsXsXsXsXsXsXsXsXsXdXsXsXjXM.#.M.=.Y.Q.7XM M S.J.K.K.J.L.M z.-X!.Q.Q.!..XC.#. .s v &.G q.8X8X'._._._.'.8X8XkXkXkXkX'.8XcXkXkXkXcX9X9XcXlXwXwXlXkXcX8X_.H.'.wXcXcXwXwXkXwXXXXXb.b i.<XkXGXDXKXIXKXKXIX{.kXHXZXZXZXZXrXZXZXZXZXZXZXZXZXZXAXrXZXZXZXZXHXHXJXLXPXKXPXJXLXbX&X1X#Xd Y.mXnXMXnXMXNXMXMXnXNXNXMXnXNXMXeXMXNXeXMXnX$XNXMXMXMXMXMXMXMXMXMXMXMXMXMXMXNXnXnXmXbX;XOXeXzXyXyXfX,X[ [ 8XuXyXyXgXgXXXoXXXwXwXwXuXSXoXP P P P P oXSXfX<X&.zXzXzXzX8.A 2XT 2XfXyXuX0X0XuX9XyX9XgXiX5X5XqXuXuX",
"/.^.^.dXdXdXdXdXdXdXdXdXdXdXdXdX^.^.dXdXdXdXdXdXdXdXdX^.dXdXsX=.T.^.~.~.!.-XM J G.F.F.F.j.G.M p.Q.!.!.!.!.!.~.S.F v h  .k.r J.,X`.H.H.H.H.'.'. XwXwXwX'. XwXwXwXwXwX`._.wX|.9X`.|.wXwX'.H.H.H.|.wXwXwX|.9XXX X[.+.=.v y.pXKXiX<X>X:.;.;.&.;.;.;.;.;.;.;.;.:.;.;.;.;.;.;.:.;.;.;.;.;.;.;.;.;.;.:.:.>XpXxX&X%X1Xg M ;X$XeXnXeXeXnXnXnXeXnXnXeXeXnXnXeXnXnXeXnXeXR.nXeXnXnXnXnXnXnXnXnXnXnXnXnXnXnXeXeXeX;X%XOXeXzXyXyXfX,X[ [ 8XuXyXyXgXgXwXXXXXXXoXXXuXzXqXwXwXwXwXwXuXzXfX8X[ rXDXzXzXFXIXY., uXuXyXiXj.f.|.8.3.d.9XJ.4.4.j.iXyX",
"^.^.^.sXsXsXsXsXsXsXsXsXsXsXsXsXdXdXsXsXsXsXsXsXsXsXsXdXsXsXjX=.U.7X!.Q.Q.7XM w.L.K.K.K.J.L.M p.-X!.7XQ.!.Q.-XD F W.f d K.l.G 8X'.'.'.'.'.,XrX8XtXcXkX4X8XcXvXvXvXlX'.'.8XwXcX,XlXGXcX'.'.'.'.pXFXcXkX|.wXwXXXXXu.=.i.v 1X>X;.:.>X<X1XZX'.rXZXZXZXZXHXrXZXHXHXHXHXHXHXHXHXHXkXHXZXZXZXZXZXZXAX1X>X>X;.>.&XVXm f *XbXbXmXNXnXMXNXNXNXnXNXNXMXnXNXNXnXNXNXnXNXMX$XNXNXNXNXNXNXNXNXNXNXNXNXNXNXNXNXnXnXmXbXbXOXeXzXyXyXfX,X[ [ 8XuXyXyXgXgXwXXXXXwXXXXXuXzXwXoXXXwXoXoXwXzXuXfX=.&.zXzXzXzX8X, v.zXqXyXuXj.f.F.f.A j.P.8.4.A d.iXyX",
"^.^.^.dXsXsXsXsXsXsXsXsXsXsXsXsXdXdXsXsXsXsXsXsXsXsXsXdXsXsXjX=.T.7X!.Q.Q.7XM p.K.K.K.K.J.L.M p.7XQ.Q.Q.!.7XI.v ~.8.A f l !.q.l.'.H.i.p.J J H J J J J J J J J J J J J J J J K J J J J J J J J g.XXXXlX4X0XwXXXXXu.=.).m #.>X8XHXHXkXkXHX'.rXZXZXZXZXZX,XkXZXAXZXZXZXZXZXZXZXrXZXZXZXZXZXZXZXZXZXkXFXZX&X:.o.f #X=XbXbXnXNXnXMXNXNXMXnXNXNXMXnXNXNXnXMXNXnXNXnX$XNXMXNXNXNXNXNXNXNXNXNXNXNXNXNXNXnXnXmXbX;XOXeXzXyXyXfX,X[ [ 8XuXyXyXgXgXwXXXXXwXXXXXuXzXwXXXXXwXXXXXwXzXuXuXuX&.@XxXiXxXX.E fXyXyXyXiX[.J.{.J.P.J.uXJ.L.F.!.uXyX",
"^.^.^.dXsXsXsXsXsXsXsXsXsXsXsXsXdXdXsXsXsXsXsXsXsXsXsXdXsXsXjX=.T.7X!.Q.Q.7XM p.K.K.K.K.J.L.J b M z.7XQ.!.7XF s.~.8.A h.s M ~.C M v J J J p.i.p.p.i.p.p.i.(.`.(._.z.p.p.p.z.(.i.(.`.z.p.p.J J J J K V J (.lXwXXXu.=.&.o.M '.,XAXZXkXkXZX'.rXZXZXZXZXZX,XlXrX,XZXZXZXZXZXZXZXrXZXZXZXZXZXZXZXZXZXrXZX*X*X<Xd #.#X=XbXbXmXNXnXMXNXNXMXnXNXNXMXnXNXNXnXMXNXnXNXnX$XNXMXNXNXNXNXNXNXNXNXNXNXNXNXNXNXnXnXmXbX;XOXeXzXyXyXfX,X[ [ 8XuXyXyXgXgX9X9X0XR.c.c.tXzX0X.X.X0XeXeXtXzXuXyXuXyX0XqXqXqX9XuXuXyXuXuXyXiXgXiXgXiXiXuXgXiXiXiXyXuX",
"^.^.^.dXsXsXsXsXsXsXsXsXsXsXsXsXdXdXsXsXsXsXsXsXsXsXsXdXsXsXsX=.T.7X!.Q.Q.7XM p.G.K.K.K.J.J.J.p.M M 7X!.-Xx.F ~.l.8.F J. .s v D D _._._._._._._._._._.z.H.`. X'.'.'.H._.H._. X_. X9X'._.H.H._.'.lXwXXXp.J V (.XXy.] =.n.O.M <XlXZXkXkXZX'.rXZXZXZXZXZX,XAX8X,XZXZXZXZXZXZXZXrXZXZXZXZXZXZXZXZXZXlXAX&XbXh @.#X{ =XbXbXmXNXnXMXNXNXMXnXNXNXMXnXNXNXnXMXNXnXNXnX$XNXMXNXNXNXNXNXNXNXNXNXNXNXNXNXNXnXnXmXbX;XOXeXzXyXyXfX,X[ [ 8XuXyXyXgXzXW.L W.Z.c.c.tXzX0X.X.X6XeXeXtXzXuXyXyXqXgXSXSXSXiXqXyXuXuXuXuXyXqXyXqXqXyXuXqXyXqXyXuXuX",
"^.^.dXsXsXsXsXsXsXsXsXsXsXsXsXsXdXdXsXsXsXsXsXsXsXsXsXdXsXsXsX=.T.7X!.-X7XdXM g.G.K.K.K.J.J.K.!.g.M 7XQ.!.F l.l.l.D F K N  .d J G z.z.z.z.z.z.z.z.z.H.i.z._._.`.'._.z.H.H.z.H.z.`.'.`.H.z.i.z._.XXXXXXH.'.(.V K &.&.b.u.C.M n.rXZXkXkXZX'.rXZXZXZXZXZX,XrX,X,XZXZXZXZXZXZXZXrXZXZXZXZXZXZXZXZXZXlX*X*Xg M 1X>X:.,.;XbXmXNXnXMXNXNXMXnXNXNXMXnXNXNXnXMXNXnXNXnX$XNXMXNXNXNXNXNXNXNXNXNXNXNXNXNXNXnXnXmXbX;XOXeXzXyXyXfX,X[ [ 8XuXyXyXgXzXW.u L Z.c.c.tXzX0X.X.X0XtXtXyXzXuXyXyXzX}.D C H 9XgXqXuXuXuXuXuXuXuXgXuXqXyXyXuXuXuXuXuX",
"/.q.W.~.jXsXsXsXsXsXsXsXsXsXsXsXdXdXsXsXsXsXsXsXsXsXsXdXsXsXsX=.!.Q.Q.I.p.z.b z.G.K.K.K.J.J.K.L.p.N 7X7XH H !.l.f.8.v V  .Z.w.s j 8._.z.z.z.z.H.H.H.H.i.z.H.z.H.`.H.H.H.H.z.i.H.`.'.`.H.z.i.H._.XXwXXXz.z.`.XXm z =.b.u.n.i.M <XZXpXrXZX,XrXZXZXZXZXZX'.rX,X,XZXZXZXZXZXZXZXrXZXZXZXZXZXZXZXZXZXMX%.h @.VX>X>X#X>.:.mXnXNXnXMXNXNXMXnXNXNXMXnXNXNXnXMXNXnXNXnX$XNXMXNXNXNXNXNXNXNXNXNXNXNXNXNXNXnXnXmXbX;XOXeXzXyXyXfX,X[ [ 8XuXyXyXgXzXW.u L Z.c.c.tXzXqX0XwX%X&X&XeXxXuXqXgXD $ & C & $ g.zXqXuXuXuXuXuXyX!.9XzXuXiXuXuXuXuXuX",
"W.q.e ~.jXsXsXsXsXsXsXsXsXsXsXsXdXdXsXsXsXsXsXsXsXsXsX.XdXdXdX=.Q.Q.!.b M M M K.F.K.K.K.J.F.K.L.g.b 7X!.F !.L.l.l.F v s...@.x.w.d h J _.`._.H.H.H.z.z.i.z.z.z.z.z.z.z.z.z.i.i.z._.'._.z.z.i.z.H. XXX Xi.i.(.n.&.v N b.u.b.).M n.AXrX,XrXU.rXZXZXZXZXrX'.,X'.'.ZXZXZXZXZXZXZXrXZXZXZXZXZXHXUXUXrXm d ).VX1X<X>X#X=X>.%XMXMXnXMXNXMXMXeXNXNXMXnXNXMXeXMXNXeXMXnX$XNXMXMXMXMXMXMXMXMXMXMXMXMXMXMXNXnXnXmXbX;XOXeXzXyXyXfX,X[ [ 8XuXyXyXgXzXW.u L Z.c.c.tXSX~.L L OX>.>.%XxXyXzXH $ !.GXGXGXx.$ x.gXqXuXuXyXiX}.d.f.k.L.P.0XuXuXuXuX",
" .X. .%.jXjXjXjXjXjXjXjXjXjXjXjXsXsXjXjXjXjXsXjXsXjX2X&.=.=.=.=.7X7X!.N !.!.!.L.J.L.L.L.K.J.L.P.j.b 7XH r.}.!.G.s.v F s.w.#.o.x.k.x d f b M p.z._._.`.H.`.`.`.`.`.`.`.`.`.H.H.`.'. X`.`._.H.`.`.3XcX5XH.`.H.&._.b.N O.B.C.'.Y.M BXBXrXNX$XNXUXUXUXUXrX,X,X,X,XHXUXUXUXUXUXUXZXUXUXHXZXAX'.].m g N AXVXbX1X1X>X#XOX*X>.mXCXMXNXNXNXNXnXNXNXNXBXCXNXnXNXCXnXNXNX$XCXNXNXNXNXNXNXNXNXNXNXNXNXNXNXCXMXMXMXbXbXOXeXzXyXyXfX,X[ [ 8XuXyXyXgXzXW.u L Z.c.c.0XHXW.y p E.>.>.%XcXuX0X$ x.IXgXzXzXIXK & iXyXyXuXyXiX{.j.3.d.J.4.iXyXuXuXuX",
"q.S.~.%.=.M.M.M.M.M.M.M.M.M.!.Q.!.!.Q.Q.T.#.#.#.#.#.#.Z.~.~.~.~.L.!.l.b k.k.k.k.d.k.k.k.f.d.k.k.f.b g v l.l.l.8.v C v S D r. .r.r.v f c c d d d d f g g g l b b b b b b b b b b b b b b b b b b b m b b b l k b l k h l b b b f b m m m b m M M M M m b b b b m m m m m m b b b b g g h f b w.=X=X<X%X%X%X@X#X:.+X%X:.:.aX$XeXeXeXeX$XeXeXeX#X%XeX$XeXeX$XeX-XR.eXeXeXeXeXeXeXeXeXeXeXeXeXeXeXeX-X$X$X%X%X+XeXzXyXyXfX,X[ [ 8XuXyXyXgXzXW.u L Z.c.c.tXHX/.p p E.>.>.%XcXgXI.& zXzXSXDXzXDX|.$ |.iXyXuXyXuX0Xl.{.qXJ.K.zXqXyXuXuX",
"q.l.l.G.C.B.B.B.B.B.B.B.C.m.%.%.%.%.%.%.#.Z.G.G.G.G.G.G.G.G.G.G.G.L.k.b k.f.f.f.d.k.f.k.d.d.k.k.d.G.v b l.l.l.v F A C D S S | |  .k z d  .i.y.@.o.m m x x x x x x x x x x x k k k x k x d d x k x m x l k c l b k k x f b m m m l M M M m M B B M B M M M M M B ].].].].].].]._._.'.'.,X8XpXeX&X%X%X%X%X%X@X#X:.+X%X%X,.%X-X$X-X-X-X$XeX@X$X[ =.eX$X-X-X$X-X$XR.eX-X-X-X-X-X-X-X-X-X-X-X-X-X-XeX$X$X$X%X%X+XaXzXyXyXfX,X[ [ 8XuXyXyXgXzXW.u L Z.c.c.tXHXW.p p E.>.>.%XcXSXx.& zXFX5X9XSXSXwX& {.iXyXuXyXqXuXSXiX0X3XuXyXuXuXyXuX",
"~.~.~.Q.7X7X7X7X7X7X7X7X7X7X7X7XQ.Q.7X7X7X7X7X7X7X7X7XQ.7X7X7X7X7X7XP.b P.L.L.L.J.L.L.L.K.J.L.L.K.J.v l b I.x.v v g j F r.a.+.t.v g ..j x =.(._.`.`.`.H.`.`.`.`.`.`.`.`.`.H.H.`.`.'.`._.g m {._.'.wX'.I.=.v.i.z.+.o.b.M w.,XY.,Xp.H.VXrXC.nXUXUXrXZX,X,X,X,X,XBXHXUXUXUXUXZXBXUXUXUXUXHXZXHX*X*XnXVXVXVX1X1X>X#XOX*XbX#X#XCXNXCXNXNXnXCX;.>X&.#XCXnXNXCXnXCXNX$XCXNXNXNXNXNXNXNXNXNXNXNXNXNXNXCXMXMXMXbXbXOXeXzXyXyXfX,X[ [ 8XuXyXyXgXzXW.u L Z.c.c.tXHXW.p p E.>.>.%XcXiX}.$ |.DX1 [.DXLXx.& uXuXyXyXiX0X{.|.j.l.gXf.d.d.0XuXyX",
"W.~.~.Q.Q.Q.Q.Q.Q.Q.Q.Q.Q.Q.Q.Q.!.!.Q.Q.Q.Q.Q.Q.Q.Q.Q.!.Q.Q.Q.Q.Q.-XJ.b P.J.K.K.F.K.K.K.J.F.K.J.L.F H J.b J F D b F j g r.r.g.g.b r.l.v M &.y.z.z.z.z.i.z.z.z.z.z.z.z.z.z.z.i.z.z.z._.M m b M z._.'.`.+.o.i.t.p.@.o.+.u.N i.n.n.'.M <X,Xy.,XZXAX,X,X'.).'.'.).,XrXrXZXZXZXrX,XAXZXAXZXZXZXZX&XbX1XbXbXbX1X<X>X#XOX%X%XbX:.<XBXMXMXMXeXCX&.&.&.&.CXeXMXNXnXNXnX$XNXMXMXMXMXMXMXMXMXMXMXMXMXMXMXNXnXnXmXbX;XOXeXzXyXyXfX,X[ [ 8XuXyXyXgXzXW.u L Z.c.c.tXHXW.p p E.>.>.%XxXyXzXq & |.f.FXzX0X& K SXqXyXuX3XJ.4.8.A }.F.4.4.A 3XiXyX",
"W.~.~.Q.Q.Q.Q.Q.Q.Q.Q.Q.Q.Q.Q.Q.Q.Q.Q.Q.Q.Q.Q.Q.Q.Q.Q.!.Q.Q.Q.Q.Q.7XJ.N P.K.K.K.F.K.K.K.J.J.K.L.j.v j.J.M j D r.b D C b H e.a.g.b a.g.r.g o.b._.H.H.H.i.z.H.H.H.H.H.H.H.H.z.i._.H.z._.M J g s H._.'._.o.b.i.u.p.@.o.u.u.w.M n.n.,XJ n.,XZ.,XrX,X,X,X'.'.'.'.).,XrX<XrXZXZX,X,XAXZXAXZXZXkX*X*XVX1XbXbXbX1X<X>X#XOX%X%XbX>X:.CXMXNXMXeXMX;.&.&.' :.BXbX:.eXMXnX$XNXMXNXNXNXNXNXNXNXNXNXNXNXNXNXNXnXnXmXbX;XOXeXzXyXyXfX,X[ [ 8XuXyXyXgXzXW.u L Z.c.c.tXHXW.p p E.>.>.%XxXuXuXtX& K UXuXFXC 1 iXyXyXyXuXqX[.j.[.j.0XP.d.k.8.5XuXyX",
"W.~.~.Q.Q.Q.Q.Q.Q.Q.Q.Q.Q.Q.Q.Q.Q.Q.Q.Q.Q.Q.Q.Q.Q.Q.Q.!.Q.Q.Q.-X!.Q.p.b !.J.K.K.F.K.K.K.J.J.K.P.J H J.F.M j J.D b D C b H e.g.M b k.e.j.v z b.z.H.H.H.i.z.H.H.H.H.H.z.z.H.z.z.w.i.H._.b p.J g i.H.`.b.o.H.i.p.p.@.o.u.+.n.M w.).'._.M ,XZ.<X<X,X'.'.'.'.'.'.).,X,X<XrXZXrX,X'.rXAXrXZXrXrX&X1XbX1XbXbXbX1X<X>X#XOX*X%X1XVX;.1XNXNXCX<X;.:.&.{ ] ;.CX1X&.;.bXBX$XNXNXNXNXNXNXNXNXNXNXNXNXNXNXNXNXnXnXmXbX;XOXeXzXyXyXfX,X[ [ 8XuXyXyXgXzXW.u L Z.c.c.tXHXW.p p E.>.>.%XxXuXqXiXuX9XtXtXuX9XuXuXyXuXuXyXuXuXuXuXuXuXuXuXuXyXuXyXuX",
"W.G.~.!.Q.Q.Q.Q.Q.Q.Q.Q.Q.Q.Q.Q.Q.Q.Q.Q.Q.Q.Q.Q.Q.Q.Q.!.Q.Q.7XJ b M b J P.K.K.K.F.K.K.K.J.F.L.J.v k.j.J.v v J.v b D C b H e.j.b r.g.a.j.v , =._.H.H.H.z.z.H.H.H.H.H.H.H.H.i.H.h M _._.b | *.k p.H.`.o.y.i.i.p.p.@.o.u.+.y.i.v n.'.'.M i.H.,XrX'.'.'.'.'.'.'.'.'.,XrXrXZXrX,X,XrXpXrXkXrX%X*XNXVX1XbXbXbX1X<X>X:.+X%X%X1XVX@X:.CX#X<X;.&.:.=.] { ;.>X;.{ &.VXCX#.#XCXMXVXnXNXNXNXNXNXNXNXNXNXNXNXnXnXmXbX;XOXeXzXyXyXfX,X[ [ 8XuXyXyXgXzXW.u L Z.c.c.tXHXW.p p E.>.>.%XxXuXyXyXyXuXfXhXfXuXyXyXuXuXuXuXuXyXyXyXyXyXyXyXyXuXyXuXuX",
"W.A Z ~.7XQ.Q.Q.Q.Q.Q.Q.Q.Q.Q.Q.Q.Q.Q.Q.Q.Q.Q.Q.Q.Q.Q.!.Q.Q.7Xm z.Q.L.P.K.K.K.K.F.K.K.K.J.F.P.H F l.j.k.j b v g F D F b H a.v g g.a.a.j.M h | n.z.H.H.i.i.H.H.H.H.H.p.p.H.H.i.h M _.z.k o.{ c M `.*.o.i.n.i.p.w.X.o.+.+.y.n.J w.).b.@. .=.=.=.=.=.=.=.=.=.=.=.=.=.=.;.;.=.=.=.;.;.:.:.:.>.#X#X%X%X1XnXVX1X%X#X:.+X%X%X1X1X<X} NX;.&.} { :.#X{ } ;.&.] ] } #XnX[ ] VXCX>X#XCXMXNXNXNXNXNXNXNXNXNXnXnXmXbX;XOXeXzXyXyXfX,X[ [ 8XuXyXyXgXzXW.u L Z.c.c.tXHXW.p p E.>.>.%XxXuXyXyXfX8X#X:.@XtXfXyXuXuXuXuXuXuXuXuXuXuXqXuXuXuXuXuXuX",
"q.A w l.7XQ.Q.Q.Q.Q.Q.Q.Q.Q.Q.Q.Q.Q.Q.Q.Q.Q.Q.Q.Q.Q.Q.Q.-X-X7XM g.L.j.J.K.K.K.K.F.K.K.K.J.J.J.v g.k.J.F F b b 4.s.S F b b s.g r.g.a.a.a.j.j z n.z.z.i.| #.H.H.z.H.i.g g M i.p.f M `.M c n.=.@.b `.o.n.M m n.p.w.M o.m f n.y.o.z #.o.=. . .=.=.M.N.N.N.#.=.N.N.N.N.N.>X>XV.N.N.>X>X#X>X:.>.:.:.:.;.;.:.%X1X%X#X:.+X%X%X%XbX#X' #X:.{ ] ' #X#X&.&.;.{ ] { ] ' ] { ] bXNX} -.NXMXNXNXNXNXNXNXNXMXNXnXnXmXbX;XOXeXzXyXyXfX,X[ [ 8XuXyXyXgXzXW.u L Z.c.c.tXHXW.p p E.>.>.%XxXuXyXfX#X{ >.:.>.} >XfXyXuXuXuXuXuX0X0X0XqXgXuXuXuXuXuXuX",
"W.l.~.!.7XQ.Q.Q.Q.Q.Q.Q.Q.Q.Q.7XQ.Q.7XQ.Q.Q.Q.Q.Q.Q.-XL.I.I.I.b F.L.F.K.K.K.K.K.F.K.K.L.J.L.H J l.j.a.v g.j.f.4.r.D C H b g b l.a.g.g.a.j.v z =._._.b.o.o.n.H.z._.J x o.h b w.g M '.M c H.x.u.b v.@.H.b f H.p.w.X. .k d m #.*.M O.n.n.y.N ).).).).).).[ N.'.).).).).<X<X<X).).<X<X<X<X+X@X<X<X%X%X<X#X:.;.#X@X:.+X%X%X%XbX#X' } ;.{ ' ' @X1X=.&.;.&.1X=.' ] ' m.:.#X&.] ] >XCXMXNXNXNXNXNXNXNXNXnXnXmXbXbXOXeXzXyXyXfX,X[ [ 8XuXyXyXgXzXW.u L Z.c.c.tXHXW.p p E.>.>.%XxXyXfX@X{ <XvXvXxX>X{ <XfXyXuXuXyXiXK.4.8.J.j.4.5XuXyXuXuX",
"W.~.~.!.!.!.!.!.!.!.!.!.!.!.!.!.!.!.!.!.!.!.!.!.!.Q.z.l M N N M F.F.j.F.F.F.F.F.j.F.F.F.S.S.v a.g.j.v S s.e.r.D 4.A v D D v H a.e.e.e.e.f.M g | +.g.m +.o.y.z.i.H.b c | p.b b k m P.m x H.i.p.l o.u.n.b g i.t.w.X.N c c m y.t.t.N b.b.n.M y.C.n.n.n.C.| *.C.C.n.n.n.C.).C.n.C.<X>X<X@X>.@X@X@X@X@X%X%X1X#X#.;.=.+X@X#X#X:.;.{ &.{ } ' ] %XbXb o.-.&.eX=.' =.M.R.:.{ [ ] ' ;.eXnXnXnXnXnXnXnXnXnXeXeXeX;X%XOXeXzXyXyXfX,X[ [ 8XuXyXyXgXzXW.u L Z.c.c.tXHXW.p p E.>.>.%XcXuXtX} <XKXzXzXFXPX#X,.fXyXuXuXyXgXP.Z 4.8.Z 4.0XuXyXuXuX",
"W.~.~.Q.Q.Q.Q.Q.Q.Q.Q.Q.Q.Q.Q.Q.!.!.Q.Q.Q.Q.Q.Q.Q.-Xp.M -X!.Q.!.J.K.F.J.K.K.K.J.F.K.K.J.L.H F J.k.e.v g.e.a.s.4.8.A C H r.f.g.a.a.a.a.a.a.j.b h f l c b o.*._.H.i.d *.o.[ b f | b `.m M H.i.z.k o.n.i.k l n.u.w.X.z x m f l m n.M M n.n.O.M ).C.C.).C.d @.).y.).C.C.C.).C.C.C.<X<X<X+X#X%X@X@X@X%X%X@X1X<X#X-.#.+X%X&.&.{ } :.{ { &.] @X<XbXl O.-.[ aX#X] #XeXR.#X&.&.' ] ] >XnXVXBXMXMXMXMXMXNXnXnXnXbX;XOXeXzXyXyXfX,X[ [ 8XuXyXyXgXzXW.u L Z.c.c.tXHXW.p p E.>.>.%XcXfX<X,.zXzXzXzX!.I.8X,.8XuXyXuXyXuX9X{.}.3X!.[.5XuXyXuXuX",
"W.~.~.Q.Q.Q.Q.Q.Q.Q.Q.Q.Q.Q.Q.Q.Q.Q.Q.Q.Q.Q.-X-XQ.7Xp.M P.J.J.J.K.K.F.K.K.K.K.K.F.K.K.K.K.v g.j.j.v H g.e.g.s.4.s.D C H r.r.a.a.a.a.a.a.a.g.p.F F | &.J d k z.`.m m `.(.=.l d o.b `.m M H.i.H.l u.n.p.c c M u.p.o.c x @.s s x n.u.N b.n.t.M n.).).).n.s @.b d C.).).).).).C.C.<X<X@X+X%X%X%X%X@X%X%X%X<X%X#X#X#.>.%X#.} { { #X' ] [ @XeX<XbXg w.#X&.eX1X#X@X<XR.1XeX&.' ] ' >X;.&.CXMXNXNXNXNXNXnXnXmXbXbXOXeXzXyXyXfX,X[ [ 8XuXyXyXgXzXW.u L Z.c.c.tXHX/.p p E.>.>.%XcXfX<X>.zXzXzXzX4.F 2XT 2XfXyXuXuXuXiXgXgXiXiXzXuXuXuXuXuX",
"W.~.~.Q.Q.Q.Q.Q.Q.Q.Q.Q.Q.Q.Q.Q.!.!.Q.Q.Q.Q.!.!.!.7XM M !.K.K.K.K.K.F.K.K.K.K.K.F.K.K.P.e.F J.j.a.v g.a.e.g.s.4.8.D C H r.e.a.a.a.a.a.a.a.a.g.g.G | o.P.M d c o.c J H._.*.o.m &.b *.c p.H.z.b.k p.H.O.x d s p.O.| k x @.s s c u.n.M O.).t.O.O.).C.).b.d m s s N.).).).).).C.C.>X<X+X+X@X@X@X%X@X@X%X@X<X@X#X#X=.#.=.&.[ ] { @X{ :.;.$X<X<XbXg g #X&.eX<X,XeX<XR.1XeX&.' ] ' >X&.{ CXMXNXNXNXNXNXnXnXmXbX;XOXeXzXyXyXfX,X[ [ 8XuXyXyXgXzXW.u L c.c.c.0XHXW.p p E.>.>.%XcXuX8X{ rXvXzXzXFXIX$XT uXuXyXiXK.j.9Xd.j.f.uX[.d.8.L.iXyX",
"W.~.~.Q.Q.Q.Q.Q.Q.Q.Q.Q.Q.Q.-X7X-X-X7X7X!.b N b b N b a.L.K.K.K.K.K.F.K.K.K.K.K.F.K.K.P.v r.j.J.F J g.a.e.g.s.4.s.D C H r.e.a.a.a.a.a.a.a.a.a.g.D Z ).z.b.&.g s g _.z.H.n.[ #.=.k | x p.H.z.=.l O.Y.M m k h w. . .k m +.s s s m n.u.N n.t.b.M n.).).y.k b d d N.).).).).).C.n.).).$.V.@X@X@X@X@X@X%X@X%X@X#X:.$.%.] =.=.&.[ %X%XeXo.@XeX<XbXg s @X:.eX<X$X<X<XR.1XeX&.] &.=.:.} { NXMXNXNXNXNXNXnXnXmXbX;XOXeXzXyXyXfX,X[ [ 8XuXyXyXgXzXG t r c.Q %.6XFXW.0 y ` ! ! %XvXyXfX:.>.zXzXzXzXtXT $.cXyXyXyXj.j.K.k.Z j.P.8.4.A d.iXyX",
"W.~.~.Q.Q.Q.Q.Q.Q.Q.Q.Q.Q.Q.z.i.p.p.i.z.M M !.J.K.J.L.F.K.K.K.K.K.K.F.K.K.K.K.K.F.K.L.g.v j.j.g.v a.a.a.e.g.s.4.s.D C H r.e.a.a.a.a.a.a.a.a.a.a.g.G z.z.i.[ o.p.p.H.z.H._.+.] H.m d h i._.+.=.M M U.m m &.b  .@.@.c m +.b g s x n.i.M w.t.n.O.O.).).+.k l c c *.).C.).).).C.n.).M.M.V.@X@X@X@X@X@X%X@X@X@X#X#X#.#.' #.$X@X| B.<X1Xf l <XeXbXg s ,X<X<X<X$X<X<XR.1XeX=.] @X<X] ' { NXNXNXNXNXNXNXnXnXmXbX;XOXeXzXyXyXfX,X[ [ 8XuXyXyXgXzXG t r c.Q %.6XFXW.0 y ` ! ! %XvXuXuXyX,.#XxXiXxX%.Q fXuXyXyXiXL.d.P.d.j.f.5Xf.k.8.J.iXyX",
"~.l.f.~.7XQ.-X-X-X-X-XQ.7Xz.b M M M M M M z.L.K.K.K.K.F.K.K.K.K.K.K.F.K.K.K.K.K.F.K.P.F r.j.J.F F g.a.a.e.g.s.4.s.D C H r.e.a.a.a.a.a.a.a.a.a.a.g.D D _.z.o.b._.H.z.H.H.H.y.+.`.J s M H.z.o.b.M m U.b M =.k x t.X.c o.+.b.@.s c [ o.| m t.b.n.M C.>X@.x d c c @.'.C.).).).C.n.).%.B.B.@X@X@X@XB.@X@X@X@X@X#X:.] [ ' #.*.b m b 1Xm h s +.M Y.l s '.<X1XeX$X1X<XR.1XeX@X&.@X<X] :.] #XCXMXNXNXNXNXnXnXmXbX;XOXeXzXyXyXfX,X[ [ 8XuXyXyXgXzXG t r c.Q %.6XFXW.0 y ` ! ! %XvXuXyXuXyX0XqXqXyX6XuXuXyXuXuXuXuXuXuXuXiXuXuXyXuXyXuXuXuX",
"q.w w 0.}.!.!.!.!.!.!.!.-XM J Q.L.L.!.!.!.L.K.K.K.K.K.F.K.K.K.K.K.K.F.K.K.K.K.K.F.L.j.v j.k.g.v a.a.g.a.e.g.s.4.8.D C H r.e.a.a.a.a.a.a.a.a.a.a.a.a.G i.z._.H.z.z.H.H.H.H.z.z._.p.f _._.y.o.H.M x Y.b w.N.c s O.X.c @.+.u.b.s k ] ' ] | | b.).M t.).d m d c c o.'.C.).).).C.n.m.$.V.B.@XV.@X@XN.@X@X@X@X@XN.=.] | c k z f b g u.b u.s M g y.b s m bXn.u.<X<X<XR.eX<XeX@X<X1X{ 1X&.&.CXMXNXNXNXNXnXnXmXbX;XOXeXzXyXyXfX,X[ [ 8XuXyXyXgXzXG t r c.Q %.6XFXW.0 y ` ! ! %XvXuXyXyXqXiXzXSXgXiXqXyXuXuXuXyXyXuXyXuXyXyXyXyXyXuXyXuXuX",
"j j v N b b b b b b b b N b z.L.J.J.K.K.K.K.L.L.L.L.L.F.L.L.L.L.K.L.J.K.L.L.L.K.F.T.F H j.j.J J g.a.g.a.a.g.a.4.s.D C r.r.e.a.g.g.g.g.g.g.g.g.g.a.g.G D _.H.H.H.H.H.H.H._.z.i._.H.i.H._.o.+.H.M c n.b p.*.k h M @.d @.+.u.b.h l =.' *.o.c &.).b.N *.s M f o.x o.'.).).).).C.C.$.m.V.V.V.V.@X@XB.@X@XV.V.@X=.=.] | d h k g b m l +.%Xf k g m b s b mX@.b @.u.bXR.eX1X<XbX).C.} <X<X&.NXNXNXNXNXNXMXnXmXbXbXOXeXzXyXyXfX,X[ [ 8XuXyXyXgXzXG t r c.Q %.6XFXW.0 y ` ! ! %XvXuXyXyXgX|.H K x.0XgXqXuXuXyXiXiXqXyXyXyXuXuXuXuXqXuXuXuX",
"q.l.l.F.F.F.F.F.F.F.F.F.F.J.J.J.S.j.J.F.F.F.F.F.F.F.F.j.F.F.F.F.F.J.j.F.J.F.F.F.j.j.v k.g.g.v e.e.e.a.e.r.a.e.D 4.A v D H r.e.e.e.e.e.e.e.e.e.e.e.e.e.A z.i.i.i.i.i.i.i.z.i.i.z.i.z.z.y.o.p.n.w.c *.b u.o.@.x b X.d @.+.+.y.f g o.| n.b d { b.n.h m s M g +.M x >Xn.C.C.C.).M.%.B.m.m.m.m.m.m.m.m.V.m.m.@X&.] c | s g s d f @.h b.@Xg s k s f s l mXM g l O.bXR.<X$X<XbXM @.-.%X,X=.bXnXnXnXnXnXeXeXbX;X%XOXeXzXyXyXfX,X[ [ 8XuXyXyXgXzXG t r c.Q %.6XFXW.0 y ` ! ! %XvXuXqXgXH j V V j j (.gXqXyXuX|.{.gXiXiXuX3X0X0XqXgXuXuXuX",
"A 4.3.8.9.9.9.9.9.9.9.9.9.9.9.9.3.3.9.9.9.9.9.9.9.9.9.3.9.9.9.9.9.9.3.9.9.9.9.5.9.F F 3.3.v v 4.S D D D S D D S A C v S S S D D D D D D D D D D D D 4.e A p.w.w.w.w.w.w.p.w.w.p.w.w.r. .@.w.w.M c  .b  .o.+.' l n c X.X.O.O.l g x o.t.g d | @.t.s d d m +.t.M c #.t.u.v.Z.o.%.c.v.v.*.v.*.v.v.*.$.v.*.v.*.] ' d ' s m f d l +.f Z.v.O.b l M f s h N M h s O.N n %XR.R.%XN m #.R.R.#.%X$X$X$X$X$X$X$X%X%X%X+XaXzXyXyXfX,X[ [ 8XuXyXyXgXzXG t r c.Q %.6XFXW.0 y ` ! ! %XvXyXgXx.j XXFXGXFX(.j `.gXqXuXf.f.f.F.[.P.4.3.3.J.l.4.3XuX",
"f.l.F.K.L.L.L.L.L.L.L.L.L.L.L.L.K.J.L.L.L.L.L.L.L.L.L.J.L.L.L.L.L.L.J.L.L.L.L.L.F.v j.x.j.v a.g.a.a.g.g.a.g.a.r.s.D C r.r.a.g.g.g.g.g.g.g.g.g.g.g.g.g.4.G _._._._._._._._.H.z._._._.n.o.n.i.n.i.k | l #.y.y.o.l x c *.+.u.y.b.m M n.b.l g  .=.b.d d m n.).>Xy.c ] ).'.).=.] ] =.N.=.C.V.C.V.V.V.V.@XV.V.M.] ' d c m %Xb l z @Xb.Y.C.@Xb.x @.g b f s f g s b.g m b M bXmXM M 1Xn.,X;.1XCXNXNXNXCXMXMXMXbXbXOXeXzXyXyXfX,X[ [ 8XuXyXyXgXzXG t r c.Q %.6XFXW.0 y ` ! ! %XvXuXqXj (.UXzXzXzXIXK j iXqXuXk.J.Z [.A f.F.A D 8.Z 4.0XuX",
"q.f.l.J.K.K.K.K.K.K.K.K.K.K.K.K.J.J.K.K.K.K.K.K.K.K.K.F.K.K.K.K.K.K.F.J.K.K.J.P.S F J.J.H F k.a.a.a.a.a.e.a.s.4.8.A C H r.e.a.a.a.a.a.a.a.a.a.a.a.a.a.e.A a._.z.z.z.z.z.H.z.i.H.z._.+.+.i.y.n.i.b | c *.y.u.u.k c m *.+.u.y.n.m M +.m b b o. .| d d m <XC.).n.c ] [ =.).{ c ' &.M.[ C.N.=.V.V.N.=.=.=.C.=.#.| d N m @Xb M %.=.U.C.C.B.Y.M.o.M m g g s b f m m g s l bX<Xg M CXb n.:.<XCXMXMXMXNXnXnXmXbX;XOXeXzXyXyXfX,X[ [ 8XuXyXyXgXzXG t r c.Q %.6XFXW.0 y ` ! ! %XvXiX`.j zXzXzXDXzXSX9Xj |.uXuXP.K.3X3X8.3X5X{.{.3X!.[.3XuX",
"q.j.l.J.K.K.K.K.K.K.K.K.K.K.K.K.J.J.K.K.K.K.K.K.K.K.K.F.K.K.K.K.K.K.F.K.K.K.K.K.v g.j.j.v r.g.a.a.a.g.a.e.g.s.4.s.D C H r.e.a.a.a.a.a.a.a.a.a.a.a.a.a.e.8.A _.z.H.H.H.H.H.z.z.H.H.n.o.i.i.i.n.i.b m k n.y.u.y.x s  .+.+.u.y.b.m b m s m b o.c d l s b n.).).).c o.] ' C.{ d c } #.{ V.&.] N.V.M.#.[ [ C.=.#.| s z X.@X@.+.V.#.C.C.C.B.C.C.=.b.b y.M M M g b O.Z.f g mXl s b y.l n.:.>XCXMXNXNXNXnXnXmXbX;XOXeXzXyXyXfX,X[ [ 8XuXyXyXgXzXG t r c.Q %.6XFXW.0 y ` ! ! %XvXgX(.j zXzXSX|.qXFXwXj  XiXqXiXiXgX0X5XzXiXgXgXgXiXiXuXyX",
"q.j.l.J.K.K.K.K.K.K.K.K.K.K.K.K.J.J.K.K.K.K.K.K.K.K.K.F.K.K.K.K.K.K.F.K.K.K.P.r.F J.l.H v g.a.g.a.a.g.a.e.g.s.4.s.D C H r.e.a.a.a.a.a.a.a.a.a.a.a.a.g.e.g.G g._.z.H.H.H.H.z.z.H._.+.@.H.i.i.i.i.b N m b.y.u.y.x k o.+.+.u.y.b.M s l s M b m o.s m b M O.).C.).d h V.] &.c d m &.' ] [ ] &.=.Y.=.[ [ ' M.[ &.m d k @.m.B.V.B.=.=.Y.C.B.C.Y.=.*.w.$XC.$XM b s O.%Xm s '.h m f g s M #X>XCXMXNXNXNXnXnXmXbX;XOXeXzXyXyXfX,X[ [ 8XuXyXyXgXzXG t r c.Q %.6XFXW.0 y ` ! ! %XvXiX|.j XXFXFXl.w IX`.j uXuXyXqXiX[.J.J.j.d.3XF.F.5XuXyXuX",
"f.l.l.J.K.K.K.K.K.K.K.K.K.K.K.K.J.J.K.K.K.K.K.K.K.K.K.F.K.K.K.K.K.K.F.K.K.K.L.v r.j.J.v H a.a.g.a.a.g.a.e.g.s.4.s.D C H r.e.a.a.a.a.a.a.a.a.a.a.a.a.g.e.g.D A _.z.H.H.H.H.z.z.H.H.o.i.i.i.i.i.n.m s O.b.y.u.t.o. .o.+.+.u.y.b.O.s s s y.l h b s M C.n.M n.).>Xg d '.&.] d f m &.' ] ] =.=.[ N.] ] [ ' #.[ =.m k f +.m.m.B.m.M.#.C.C.B.C.C.N.=.$XY.Y.$Xb.M b Y.Z.M h b m Y.h s s g =.>XCXMXNXNXNXnXnXmXbX;XOXeXzXyXyXfX,X[ [ 8XuXyXyXgXzXG t r c.Q %.6XFXW.0 y ` ! ! %XvXyXgXV V zXzXzXs.|.j K gXqXuXyXuX3X3.J.A d.P.d.1 l.iXyXuX",
"8.A A d.L.K.K.K.K.K.K.K.K.K.K.K.J.J.K.K.K.K.K.K.K.K.K.F.K.K.K.K.K.K.F.K.K.P.a.F j.j.r.v g.e.g.g.a.a.g.a.e.g.s.4.s.D C H r.e.a.a.a.a.a.a.a.a.a.a.a.a.g.e.a.g.G z._.H.H.H.H.z.i._.+.@.z.i.i.i.i.n.o.d t.y.y.u.u.w. .o.+.+.u.y.y.u.M l M C.b s g b M C.n.O.O.).).b.l b =.' s g m M.&.=.N.C.=.' ] &.[ { ] ] ] M.m k d M.M.m.V.m.V.#.M.Y.B.C.C.Y.#.V.U.Y.Y.$XY.C.U.Z.n.n.l m U.s s s s c >XCXMXNXNXNXnXnXmXbX;XOXeXzXyXyXfX,X[ [ 8XuXyXyXgXzXG t r c.Q %.6XFXW.0 y ` ! ! %XvXyXuXqXj H DXiXGXK V iXuXyXuXuXuX0XP.j.f.8.3X3Xf.J.iXyXuX",
"Z 4 C 3.L.K.K.K.K.K.K.K.K.K.K.K.J.J.K.K.K.K.K.K.K.K.K.F.K.K.K.K.K.K.F.K.K.P.F e.k.J.v H g.e.a.a.a.a.g.a.e.g.s.4.8.D C H r.e.a.a.a.a.a.a.a.a.a.a.a.a.a.e.a.g.D D _.z.H.H.H.z.i._.o.y.i.i.i.i.n.y.o.O.u.u.y.u.t.w. .o.+.+.u.y.u.y.n.b.y.n.N h M b.N n.n.n.M C.).<Xb s @.{ d m N m.C.V.V.V.=.] #.Y.[ [ [ ' ] #XN N N m.M.m.V.m.V.M.#.Y.B.C.C.Y.*.=.U.Y.U.U.Y.U.Y.Z.$X$Xf b $Xf s l b d >XCXMXNXMXNXnXnXmXbX;XOXeXzXyXyXfX,X[ [ 8XuXyXyXgXzXG t r c.Q %.6XFXW.0 y ` ! ! %XvXuXqXiXqX9XuXqXyX9XyXuXyXuXuXuXuXuXuXuXuXuXuXuXiXuXuXuXuX",
"8.4.4.j.L.K.K.K.K.K.K.K.K.K.K.L.J.J.L.K.K.K.K.K.K.K.K.F.K.K.K.K.K.L.F.K.P.g.v J.k.a.v g.a.a.g.g.a.a.g.a.e.g.s.4.s.D C r.r.e.a.g.g.g.g.g.g.g.g.g.g.g.g.e.a.g.g.G z._.H.H.H.z.z.b.o.H.n.n.i.i.H.o.+.n.y.y.b.u.u.w. .o.+.+.u.b.y.y.y.u.u.b.O.u.n.b.M O.C.C.O.O.).>Xm b l N l @Xb m.V.B.V.V.M.&.V.C.[ #.M.' ] m l  .$.M.M.m.V.m.B.C.#.m.C.C.C.C.B.#.U.Y.U.U.Y.U.Y.Z.U.$Xb M $Xg s b m s #XCXMXNXNXNXMXnXmXbXbXOXeXzXyXyXfX,X[ [ 8XuXyXyXgXzXG t r c.Q %.6XFXW.0 y ` ! ! %XvXuXuXyXuXuXuXuXuXuXuXyXuXuXuXuXuXuXyXuXyXuXuXuXyXuXuXuXuX",
"q.l.l.F.J.J.J.J.J.J.J.J.J.J.J.J.F.S.J.J.J.J.J.J.J.J.J.j.J.J.J.J.J.J.j.F.L.F H j.k.F S g.e.e.a.a.e.e.a.e.e.a.e.4.4.A v H H r.e.a.a.a.a.a.a.a.a.a.a.a.a.r.e.a.g.A D _.z.z.z.i.z.o.u.i.i.i.i.i.y.o.y.u.u.u.y.u.t.O. . .+.+.+.u.u.u.y.u.u.y.O.u.u.y.t.N n.b.b.M C.C.y.n.h s b @Xb v.B.V.m.B.m.B.m.C.[ [ m.| #.s f %.%.M.M.m.m.m.m.B.=.%.C.B.C.B.C.=.M.Y.Y.Y.Y.Y.Y.Z.Y.Y.C.Y.Y.M s b M s #XBXnXnXnXnXeXeXbX;X%XOXeXzXyXyXfX,X[ [ 8XuXyXyXgXzXG t r c.Q %.6XFXW.0 y ` ! ! %XvXyXqXyXqXqXyXyXyXqXqXyXyXyXyXyXyXyXyXyXyXyXyXyXyXyXyXyXyX",
"8.f.j.F.J.J.J.J.J.J.J.J.J.J.J.J.F.F.J.J.J.J.J.J.J.J.J.j.J.J.J.J.J.J.j.J.k.v j.j.e.v a.a.e.e.a.a.e.e.a.a.e.a.e.4.4.A C H H r.a.a.a.a.a.a.a.a.a.a.a.a.a.e.a.a.a.s.A z.z.z.z.z.u.o.i.i.i.i.i.i.o.@.y.y.u.u.y.u.t.O. . .+.+.+.y.u.u.y.u.u.y.O.u.y.u.b.M O.n.n.M t.C.).V.z h m.V.b m.m.M m.v.@Xm.V.C.[ #.Z.g *.f d %.%.M.M.m.m.m.m.m.B.#.m.C.C.B.C.m.%.Y.Y.Y.Y.Y.Y.Z.U.Y.Y.Y.Y.$Xf b M s #XCXnXnXnXMXnXeXbX;X;XOXeXzXyXyXfX,X[ [ 8XuXyXyXgXzXG t r c.Q %.6XFXW.0 y ` ! ! %XvXiXiXiXiXiXiXiXiXiXiXiXiXiXiXiXiXiXiXiXiXiXiXiXiXiXiXiXiX",
"f.l.l.J.K.K.K.K.K.K.K.K.K.K.K.L.J.J.L.K.K.K.K.K.K.K.K.F.K.K.K.K.K.L.F.P.J H J.J.F F k.a.a.a.g.g.a.a.g.a.e.g.s.4.s.D C r.r.e.a.g.g.g.g.g.g.g.g.g.g.a.g.e.a.g.a.g.A s._.H.H.z.o.+.n.n.n.n.i.y.o.y.y.y.y.u.y.u.u.w. .o.+.+.u.b.y.y.b.y.y.b.O.u.b.y.b.u.M n.n.y.M ).).M.*.b V.@Xl g m f m b +.N.+.b.| &.y.s +.g f %.%.M.M.m.V.m.B.V.C.=.=.U.C.C.B.Y.%.B.U.U.Y.U.Y.Z.U.U.U.U.U.$XO.m O.s [ >XCXNXNXNXnXnXmXbXbXOXeXzXyXyXfX,X[ [ 8XuXyXyXgXzXG t r c.Q %.6XFXW.0 y ` ! ! %XvXiXuXuXuXuXuXuXiXuXuXuXiXuXuXiXuXuXuXuXuXuXuXuXuXuXuXuXuX",
"q.j.l.J.K.K.K.K.K.K.K.K.K.K.K.K.J.J.K.K.K.K.K.K.K.K.K.F.K.K.K.K.K.K.F.J.v j.j.k.v a.a.a.a.a.a.a.a.a.g.a.e.g.s.4.8.D C H r.e.a.a.a.a.a.a.a.a.a.a.a.a.a.e.a.a.a.g.s.A _.z.H.i.o.i.i.i.i.i.i.o.@.i.y.y.y.u.y.u.t.w. .o.+.+.u.y.u.y.y.u.u.b.O.u.y.y.y.b.M u.n.C.M y.C.%.V.N.N.@Xl s s f s l s b l b c x O.d m N @.%.%.M.M.m.V.m.B.V.V.N.#.C.C.C.B.Y.=.*.U.U.Y.U.Y.Z.U.U.U.U.Y.$XO.m y.d ' &.NXMXMXNXnXnXmXbX;XOXeXzXyXyXfX,X[ [ 8XuXyXyXgXzXG t r c.Q %.6XFXW.0 y ` ! ! %XvX}.{.|.}.}.{.}.{.{.}.}.{.}.{.{.{.{.{.{.{.{.{.{.{.{.{.{.{.",
"q.f.l.J.K.K.K.K.K.K.K.K.K.K.K.K.J.J.K.K.K.K.K.K.K.K.K.F.K.K.K.K.K.K.K.H J J.J.J F k.a.g.a.a.g.g.a.a.g.a.e.g.s.4.s.D C H r.e.a.a.a.a.a.a.a.a.a.a.a.a.g.e.a.a.a.a.g.G s._._.@.+.n.i.i.i.i.i.o.y.y.y.y.y.u.y.u.t.w. .o.+.+.u.y.u.y.y.u.u.b.O.u.y.y.y.b.O.M C.n.u.M M.M.V.V.B.V.*.m h b f l s g b h d d f b s m #X%.%.M.M.m.V.m.B.V.B.C.%.M.Y.C.B.C.V.%.U.U.Y.U.Y.Z.U.U.U.U.U.$Xn.O.$Xm ' -.MXNXNXNXnXnXmXbX;XOXeXzXyXyXfX,X[ [ 8XuXyXyXgXzXG t r c.Q %.6XFXW.0 y ` ! ! %XvX|.|.l.!.!.[.[.j.[.[.P.P.!.{.}.}.}.}.}.}.}.}.}.}.}.}.}.}.",
"f.l.F.J.K.K.K.K.K.K.K.K.K.K.K.K.J.J.K.K.K.K.K.K.K.K.K.F.K.K.K.K.K.K.F.v k.j.j.v r.g.a.g.a.a.g.g.a.a.g.a.e.g.s.4.s.D C H r.e.a.a.a.a.a.a.a.a.a.a.a.a.g.e.a.a.a.a.g.s.A _.i.o.i.n.i.i.i.i.@.o.i.y.y.y.y.u.y.u.t.w. .o.+.+.u.y.u.y.y.u.u.b.O.u.y.y.y.y.b.M y.n.n.M %.V.B.V.V.B.m.@XM @.@.f s f m +.l b l m s m M.%.%.M.M.m.V.m.B.V.V.V.*.#.Y.C.B.C.Y.%.m.U.Y.U.Y.Z.U.U.U.U.U.U.U.U.$Xm ' -.VXMXNXNXnXnXmXbX;XOXeXzXyXyXfX,X[ [ 8XuXyXyXgXzXG t r c.Q %.6XFXW.0 y ` ! ! %XvX3X{.A 8.8.j.8.D s.s.8.s.8.P.|.}.}.}.}.}.}.}.}.}.}.}.}.}.",
"8.8.8.F.K.K.K.K.K.K.K.K.K.K.K.K.J.J.K.K.K.K.K.K.K.K.K.F.K.K.K.K.J.P.H F J.J.H F g.a.a.g.a.a.g.g.a.a.g.a.e.g.s.4.s.D C H r.e.a.a.a.a.a.a.a.a.a.a.a.a.g.e.a.a.a.a.a.g.A x.+.@.i.n.i.i.i.i.o.u.y.y.y.y.y.u.y.u.t.w. .o.+.+.u.y.u.y.y.u.u.b.O.u.y.y.y.y.b.O.M C.).$...C.B.V.V.B.m.B.V.V.@Xf s g N @Xl b m m h o.=.%.%.M.M.m.V.m.B.V.V.B.B.#.N.C.B.C.Y.M.=.U.Y.U.Y.Z.U.U.U.U.U.U.U.Y.$Xm ' ;.1X:.NXNXnXnXmXbX;XOXeXzXyXyXfX,X[ [ 8XuXyXyXgXzXG t r c.Q %.6XFXW.0 y ` ! ! %XvX3XL.l.s.J.s.D f.s.j.f.s.f.I.3X}.}.}.}.}.}.}.}.}.}.}.}.}.",
"8.Z A 8.P.K.K.K.K.K.K.K.K.K.K.K.J.J.K.K.K.K.K.K.K.K.K.F.K.K.K.K.K.L.v g.j.l.v r.a.a.a.g.a.a.g.g.a.a.g.a.e.g.s.4.s.D C H r.e.a.a.a.a.a.a.a.a.a.a.a.a.g.e.a.a.a.a.a.g.H A o.y.i.n.i.i.i.+.o.y.y.y.y.y.y.u.y.u.t.w. .o.+.+.u.y.u.y.y.u.u.b.O.u.y.y.y.y.y.y.M b.n.%.n m.V.V.V.B.m.V.B.B.V.l h s l %Xg l m.+.l M.=.%.%.M.M.m.V.m.B.V.V.B.B.=.=.Y.B.C.C.B.#.Y.Y.U.Y.Z.U.U.U.U.U.U.U.Y.$XM @.:.1X-.CXNXnXnXmXbX;XOXeXzXyXyXfX,X[ [ 8XuXyXyXgXzXG t r c.Q %.6XFXW.0 y ` ! ! %XvX|.{.|.}.{.}.{.}.j.[.{.}.[.}.{.{.{.{.{.{.{.{.{.{.{.{.{.{.",
"A 4.Z d.L.K.K.K.K.K.K.K.K.K.K.K.J.J.K.K.K.K.K.K.K.K.K.F.K.K.K.K.P.e.v J.l.r.v g.e.a.a.a.a.e.a.a.a.a.g.a.e.g.s.4.8.D C H r.e.a.a.a.a.a.a.a.a.a.a.a.a.a.e.a.a.a.a.a.a.g.n @.i.y.n.i.i.i.o.u.u.y.y.y.y.y.u.y.u.t.w. .o.+.+.u.y.u.y.y.u.u.b.O.u.y.y.y.y.y.b.O.M M.$.+...V.B.V.B.m.V.B.B.@Xl g b @.%Xl l %Xm.b M.=.%.%.M.M.m.B.m.B.V.V.B.m.V.#.V.B.C.C.C.=.M.Y.U.Y.Z.U.U.U.U.U.U.U.Y.$XM i.:.<X&.<XNXnXnXmXbX;XOXeXzXyXyXfX,X[ [ 8XuXyXyXgXzXG t r c.Q %.6XFXW.0 y ` ! ! %XvXqX0X0X0X0X0X0X0XqXqX0X0X0X0X0XqXfXfXfXfXqXqXgXgXgXgXfXqX",
"q.f.d.F.L.K.L.L.L.L.L.L.L.L.K.L.J.J.L.K.L.L.L.L.L.L.L.F.L.L.L.K.P.v r.j.J.v H g.e.g.g.g.a.a.g.g.a.a.g.a.a.g.a.4.s.D C r.r.e.a.g.g.g.g.g.g.g.g.g.g.g.g.a.a.g.g.g.g.g.g. .7.n.i.n.n.n.+.o.i.u.b.y.y.b.y.y.b.y.u.w. .o.+.+.u.b.y.y.b.y.y.b.O.u.b.y.y.y.y.y.y.M %.m.m.n B.V.V.V.m.V.V.V.@X@.+.@XV.@Xl b @XN.M.M.=.%.%.M.M.m.V.m.V.V.V.V.m.C.=.=.Y.C.C.C.N.=.Y.U.Y.Z.$XU.U.U.U.U.U.U.$XM u.:.1X] &.CXnXnXmXbXbXOXeXzXyXyXfX,X[ [ 8XuXyXyXgXzXG t r c.Q %.6XFXW.0 y ` ! ! %XvXuXuXiXiXiXiXuXuXuXyXuXuXuXyXfX>X&.&.&.&.:.XXb b b b b 8X",
"A 4.8.8.5.5.5.5.5.5.5.5.5.5.5.9.3.3.9.5.5.5.5.5.5.5.5.3.5.5.5.9.D v 4.4.S v 4.D S D D D S S D D S S D D S D D S A C v F S S D D D D D D D D D D D D D S D D D D D D X. .e w.w.w.w.w. .X.O.O.O.O.O.O.O.O.O.O.O.n N  .X.X.O.O.O.O.O.O.O.O.n O.O.O.O.O.O.O.O.X.%.+.$.X.X.v.$.$.$.*.$.$.$.v.v.$.$.M.l l M.$.$.$.%.%.%.$.$.$.*.$.$.*.$.$.$.v.$.#.v.v.v.v.v.#.v.Z.Z.7.Z.Z.Z.Z.Z.Z.Z.Z.Z.N M &.[ ' [ -X$X$X%X%X=X+XaXzXyXyXfX,X[ [ 8XuXyXyXgXzXG t r c.Q %.6XFXW.0 y ` ! ! %XvXuX0X3X5X|.}.9X5XyXgXuXyXyXtXhX=.> > > ; } '.O O O O s  X",
"q.f.l.J.J.J.J.J.J.J.J.J.J.J.J.K.F.F.K.J.J.J.J.J.J.J.J.S.J.J.J.L.F r.k.F.v J g.a.e.a.a.a.a.e.a.a.e.e.a.a.e.a.s.4.8.A C H r.r.a.a.a.a.a.a.a.a.a.a.a.a.a.e.a.a.a.a.a.a. .t.A D i.i.i.+.o.i.u.u.y.y.y.y.u.u.y.u.t.w. .o.+.+.u.y.u.u.y.u.u.b.O.u.y.y.y.y.y.y.y.%.X.m.m.v.n B.B.B.m.B.B.B.B.N.B.B.N.@Xm m @XN.m.*.=.%.%.M.M.m.B.m.m.B.B.B.m.B.V.#.M.Y.C.B.Y.=.*.U.Y.Z.U.Y.Y.Y.Y.Y.Y.Y.$XM u.;.' ' } CXnXnXnXbX;XOXeXzXyXyXfX,X[ [ 8XuXyXyXgXzXG r r c.Q %.6XHXW.0 y ` ! ! %XvXgXK.d.8.J.4.|.F.l.J.qXuXyXtXhX;.> Y ' > &.'.O O O O s  X",
"q.l.l.J.K.K.K.K.K.K.K.K.K.K.K.K.J.J.L.K.K.K.K.K.K.K.K.F.K.K.L.j.v F.k.a.v g.a.a.e.g.a.g.a.a.g.g.a.a.g.a.e.g.s.4.s.D C H r.e.a.a.a.a.a.a.a.a.a.a.a.a.g.e.a.g.a.a.g.t. .a.p.Z i.n.i.o.+.y.y.u.y.y.y.y.y.u.y.u.u.w. .o.+.+.u.y.y.y.b.y.y.b.O.u.y.y.y.y.y.y.v.%.n +.m.N.X.+.V.B.m.V.V.V.V.V.V.V.B.V.+.+.V.B.m.M.=.%.%.M.M.m.V.m.B.V.V.V.m.V.V.=.=.Y.C.B.C.V.#.U.Y.Z.U.U.U.U.U.U.U.Y.$XO.u.;.' ] ] 1XBXnXmXbXbXOXeXzXyXyXfX,X[ [ 8XuXyXyXgXzXr t r <.E E 6XFXq.0 0 Q ~ ~ %XvXzXF.j.3.}.j.yXJ.3.3.{.iXyXtXhX;.> : : ; &.'.O O O O s  X",
"q.j.l.J.K.K.K.K.K.K.K.K.K.K.K.K.J.J.K.K.K.K.K.K.K.K.K.F.K.J.P.S H J.j.F J g.a.a.e.a.a.g.a.a.g.g.a.a.g.a.e.g.s.4.s.D C H r.e.a.a.a.a.a.a.a.a.a.a.a.a.g.e.a.a.a.a.g. .t.a.p.A 4._.u.o.y.y.y.u.y.y.y.y.y.u.y.u.t.w. .o.+.+.u.y.u.y.y.u.u.b.O.u.y.y.y.y.y.y.%.*.+.n m.m.v.X.V.B.m.V.V.V.V.V.V.V.V.B.B.V.B.V.m.M.=.%.%.M.M.m.V.m.B.V.V.B.m.V.V.B.#.C.C.B.C.Y.%.V.U.Z.U.U.U.U.U.U.U.Y.$XO.u.;.' ] { >XNXnXmXbX;XOXeXzXyXyXfX,X[ [ 8XuXyXyXgXzXr t t E E E 4XGXq.9 0 E ~ ~ %XvXiX|.9X}.uX[.yXP.P.}.5XuXyXtXhX=.> > > ; } '.O O O O s  X",
"q.f.l.J.K.K.K.K.K.K.K.K.K.K.K.K.J.J.K.K.K.K.K.K.K.K.K.F.K.L.J.v j.j.a.v a.a.a.a.e.a.a.g.a.a.g.g.a.a.g.a.e.g.s.4.s.D C H r.e.a.a.a.a.a.a.a.a.a.a.a.a.g.e.a.a.a.a.p. .a.p.p.r.Z _.o.+.y.y.y.u.y.y.y.y.y.u.y.u.t.w. .o.+.+.u.y.u.y.y.u.u.b.O.u.y.y.y.y.y.v.%.v.v.n +.m.N.X.v.V.m.V.V.V.V.V.V.V.V.V.m.B.V.V.m.M.=.%.%.M.M.m.V.m.B.V.V.B.m.V.V.C.%.=.Y.B.C.Y.*.=.U.Z.U.U.U.U.U.U.U.Y.$XO.O.#X:.&.=.>XNXnXmXbX;XOXeXzXyXyXfX,X[ [ 8XuXyXyXgXzXr t t E E E 4XGXq.9 0 E ~ ~ %XvXyXuXuXuXqXuXyXiXiXuXuXyXyXyXfX>X=.=.=.=.>XXXm m m m m 5X",
"f.l.F.K.K.K.K.K.K.K.K.K.K.K.K.K.J.J.K.K.K.K.K.K.K.K.K.F.J.P.J J J.J.F F k.a.a.a.e.a.a.g.a.a.g.g.a.a.g.a.e.g.s.4.s.D C H r.e.a.a.a.a.a.a.a.a.a.a.a.a.g.e.a.a.a.g.@.+.a.p.p.p.A 7.o.y.y.y.y.u.y.y.y.y.y.u.y.u.t.w. .o.+.+.u.y.u.y.y.u.u.b.O.u.y.y.y.y.y.$.$.v.v.+.n m.m.+.X.V.m.V.V.V.V.V.V.V.V.V.m.V.V.V.m.M.=.%.%.M.M.m.V.m.B.V.V.B.m.V.V.B.M.#.Y.B.C.C.B.%.Y.Z.U.U.U.U.U.U.U.Y.$Xu.m Y.nX&.=.#XNXnXmXbX;XOXeXzXyXyXfX,X[ [ 8XuXyXyXgXzXr t t E E E 4XGXq.9 0 E ~ ~ %XvXiXiXiXiXiXiXiXuXuXiXiXiXiXiXiXfXxXxXxXxXhXgXDXDXDXDXDXiX",
"8.A 8.f.L.K.K.K.K.K.K.K.K.K.K.K.J.J.K.K.K.K.K.K.K.K.K.F.K.J.v k.j.j.v a.g.a.a.a.e.a.a.g.a.a.g.g.a.a.g.a.e.g.s.4.s.D C H r.e.a.a.a.a.a.a.a.a.a.a.a.a.g.e.a.a.a.p. .p.p.p.p.p.4.n =.i.y.y.y.u.y.y.y.y.y.u.y.u.t.w. .o.+.+.u.y.u.y.y.u.u.b.O.u.y.y.y.y.b.%.v.v.v.v.n v.m.m.n v.m.V.V.V.V.V.V.V.V.V.m.V.V.V.m.M.=.%.%.M.M.m.V.m.B.V.V.B.m.V.V.B.B.#.N.C.C.C.C.=.m.Z.U.U.U.U.U.U.U.Y.$Xy.b M bX:.:.#XNXnXmXbX;XOXeXzXyXyXfX,X[ [ 8XuXyXyXgXzXr t t E E E 4XGXq.9 0 E ~ ~ %XvXzXzXzXzXzXzXzXzXzXzXzXzXzXzXzXzXzXzXzXzXzXzXzXzXzXzXzXzX",
"A 4 1 4.P.K.K.K.K.K.K.K.K.K.K.K.J.J.K.K.K.K.K.K.K.K.K.S.P.H F J.J.H v k.a.a.a.a.e.a.a.a.a.a.g.a.a.a.g.a.e.g.s.4.8.D C H r.e.a.a.a.a.a.a.a.a.a.a.a.a.g.e.a.a.g.....a.p.p.p.p.t. .t.b.y.y.y.u.y.y.y.y.y.u.y.u.t.w. .o.+.+.u.y.u.y.y.u.u.b.O.u.y.y.y.y.$.$.v.v.v.v.+.X.N.m.+.X.V.B.V.V.V.V.V.V.V.V.m.V.V.V.m.M.=.%.%.M.M.m.V.m.B.V.V.B.m.V.V.B.B.=.=.C.C.C.C.M.%.Z.U.U.U.U.U.U.U.Y.$Xy.l M bXeX@X:.CXnXmXbX;XOXeXzXyXyXfX,X[ [ 8XuXyXyXgXzXr t t E E E 4XGXq.9 0 E ~ ~ %XvXyXqXqXqXqXqXyXyXqXyXyXyXyXyXuX8X<X<X<X<X8X0X'.'.'.'.'.qX",
"A Z A d.L.K.K.K.K.K.K.K.K.K.K.L.J.J.L.K.K.K.K.K.K.K.K.F.L.v g.j.j.v r.g.a.a.a.a.e.g.a.g.a.a.g.g.a.a.g.a.e.g.s.4.s.D C H r.e.a.g.a.a.a.a.a.a.a.a.a.a.g.e.a.g.e. .p.p.p.p.p.e.@. .A b.y.y.y.u.y.y.y.y.y.u.y.u.u.w. .o.+.+.u.y.y.y.b.y.y.b.O.u.y.y.y.y.%.v.v.v.v.v.v.n v.m.m.n v.V.V.V.V.V.V.V.V.V.m.V.V.V.m.M.=.%.%.M.M.m.V.m.B.V.V.V.m.V.V.B.m.V.#.B.C.C.B.C.#.Z.U.U.U.U.U.U.U.U.$Xb.l M bXeX@X:.CXnXmXbXbXOXeXzXyXyXfX,X[ [ 8XuXyXyXgXzXr t t E E E 4XGXq.9 0 E ~ ~ %XvXyXuXiXiXiXgXuXuXgXuXyXuXiXtXhX;.Y Y Y Y &.'.s O s O s  X",
"f.l.F.J.J.J.J.J.J.J.J.J.J.J.J.K.F.F.K.J.J.J.J.J.J.J.J.G.r.F J.j.r.v g.a.a.a.a.a.e.a.a.a.a.e.a.a.e.e.a.a.e.a.s.4.8.A C H r.r.a.a.a.a.a.a.a.a.a.a.a.a.a.e.e.g.O.@.e.p.p.p.p.p. .t.Z t.y.y.y.u.y.y.y.y.u.u.y.u.t.w. . .+.+.u.y.u.u.y.u.u.y.O.u.y.y.y.$.%.v.v.v.v.v.v.X.X.m.m.....V.N.B.B.B.B.B.B.B.m.B.B.B.m.*.=.%.%.M.M.m.B.m.m.B.B.B.m.B.B.m.m.C.%.*.Y.C.B.Y.%...U.Y.Y.Y.Y.Y.Y.Y.$Xb.g m bXeX@X:.BXnXnX;X;XOXeXzXyXyXfX,X[ [ 8XuXyXyXgXzXr t t E E E 4XGXq.9 0 E ~ ~ %XvXiX{.J.L.L.d.}.3Xf.3XuX5X}.uXhX=.> : : ; &.'.O O O O s  X",
"8.f.f.l.F.F.F.F.F.F.F.F.F.F.F.J.S.j.J.F.F.F.F.F.F.F.F.F.v e.k.j.v H e.e.e.e.e.e.r.e.e.a.e.e.a.a.e.e.a.e.r.a.e.D 4.A v D H r.e.e.e.e.e.e.e.e.e.e.e.e.a.r.e.a. .w.r.p.p.p.e... .p.<.Z y.u.u.u.u.u.u.u.u.u.u.u.+.O. . .+.@.+.u.u.u.u.u.u.y.O.t.u.u.u.%.*.v.v.v.v.v.v.*.n v.v.v.n m.m.m.m.m.m.m.m.m.m.m.m.m.M.*.*.%.%.M.M.m.m.m.m.m.m.m.m.m.m.m.m.B.*.#.C.B.B.C.M.%.U.Y.Y.Y.Y.Y.Y.Y.U.b.g m eX,X@X:.nXeXbX;X%XOXeXzXyXyXfX,X[ [ 8XuXyXyXgXzXr t t E E E 4XGXq.9 0 E ~ ~ %XvXzXl.d.4.P.d.9Xf.[.4.P.4.f.iXhX;.> Y ' > &.'.O O O O s  X",
"f.l.l.J.K.K.K.K.K.K.K.K.K.K.K.L.J.J.L.K.K.K.K.K.K.K.P.e.v J.j.e.v g.e.a.g.g.g.a.e.g.g.g.a.a.g.g.a.a.g.a.e.g.s.4.s.D C r.r.e.a.a.a.a.g.g.g.g.g.g.g.g.g.e.g.+.o.a.p.p.p.p.p. .O.t.t.Z y.b.y.u.y.y.y.y.y.u.y.u.u.w. .o.+.+.u.b.y.y.b.y.y.b.O.u.b.y.v.%.v.v.v.v.v.v.v.v.X.O.N.N.X.+.V.B.V.V.V.V.V.V.m.V.V.V.N.M.=.%.%.M.M.m.V.m.B.V.V.V.m.V.V.B.m.V.V.#.V.C.B.C.C.#.Y.U.U.U.U.U.U.U.$Xn.f m bXeX%X:.NXnXmXbXbXOXeXzXyXyXfX,X[ [ 8XuXyXyXgXzXr t t E E E 4XGXq.9 0 E ~ ~ %XvXiXL.P.j.9XF.qXK.f.j.3.3.K.uXhX=.> ; > ; &.'.O O O O s  X",
"q.j.l.J.K.K.K.K.K.K.L.L.L.K.K.K.J.J.K.K.K.K.K.K.K.J.P.F e.J.J.F H g.e.a.a.a.a.a.e.a.a.a.a.a.g.g.a.a.g.a.e.g.s.4.8.D C H r.e.a.g.g.g.a.a.a.a.a.a.a.a.a.e.a. .t.p.p.p.p.a.+. .w.t.t.S 7.b.y.u.y.y.y.y.y.y.b.u.t.w. .o.+.+.u.y.u.y.y.u.u.b.O.y.b.y.%.*.v.v.v.v.v.v.v.v.+.n m.m.v.X.V.V.V.V.V.V.V.V.m.V.V.B.m.M.=.%.%.M.m.m.V.m.B.V.V.B.m.V.V.B.m.V.C.=.=.U.B.C.Y. .N.U.U.U.U.U.U.U.U.Y.h b bXeX%X:.BXnXmXbX;XOXeXzXyXyXfX,X[ [ 8XuXyXyXgXzXr t t E E E 4XGXq.9 0 E ~ ~ %XvXuXqXuXqXuXqXuXuX|.uX3X0X9XtXhX;.' ' ' Y &.'.s s s s s  X",
"q.j.l.J.K.K.K.K.K.L.S.d.f.J.K.K.J.J.K.K.K.K.K.K.K.L.k.v d.s.r.v g.a.e.a.a.a.a.a.e.a.a.a.a.e.4.r.r.a.g.a.e.g.s.4.s.D C H r.e.a.r.4.r.a.g.a.a.a.a.a.a.g.s.w. .a.p.p.7.w.r. .O.w.t.t.t.Z y.y.u.y.y.y.y.u.O.O.u.u.w. .o.+.+.u.y.u.y.y.u.u.b.O.O.u.v.%.v.v.v.v.v.v.v.v.v.v.X.+.m.v.n ..V.V.V.V.V.V.V.m.V.V.V.m.M.=.%.%.$.v.m.B.m.B.V.V.B.m.V.V.B.m.V.V.*.#.Z.B.C.C.$.=.U.U.U.U.U.U.U.U.U.h b bX<X%X;.BXnXmXbX;XOXeXzXyXyXfX,X[ [ 8XuXyXyXgXzXr t t E E E 4XGXq.9 0 E ~ ~ %XvXyXyXyXuXyXuXyXyXiXyXuXuXuXyXuX8X,X,X,X,X8X0X'.'.'.'.'.qX",
"q.l.l.J.K.K.K.K.K.L.3.k.4.d.L.K.J.J.K.K.K.K.K.K.J.P.F S 4.j.v J g.a.e.a.a.a.a.a.e.a.a.a.g.S r.r.S a.a.a.e.g.s.4.s.D C H r.e.a.S a.S r.g.a.a.a.a.a.a.g.s. .t.a.p.w.S 4.n o.w.w.t.t.t.Z 7.b.u.y.y.y.b.O.+.X.O.u.w. .o.+.+.u.y.u.y.y.u.u.b.X.+.n %.*.v.v.v.v.v.v.v.v.v.v.+.n v...v.n V.V.V.V.V.V.V.m.V.V.V.m.M.=.%.%.....B.B.m.B.V.V.B.m.V.V.B.m.V.B.v.#.X.Z.C.C.v.=.Y.U.U.U.U.U.U.Y.$Xh l bX<X<X;.BXnXmXbX;XOXeXzXyXyXfX,X[ [ 8XuXyXyXgXzXr t t E E E 4XGXq.9 0 E ~ ~ %XvXzXzXzXzXzXzXzXzXzXzXzXzXzXzXzXzXxXxXxXxXxXzXDXDXDXDXDXzX",
"q.f.l.F.K.K.K.K.K.L.d.d.4.k.L.K.J.J.K.K.K.K.K.K.L.j.v f.4.a.v g.a.a.e.a.a.a.a.a.e.a.a.a.a.D D S D a.a.a.e.g.s.4.8.D C H r.e.a.D r.S r.g.a.a.a.a.a.a.g.w. .a.p.p.r.S 4. .+.w.w.t.t.t.w.Z y.u.y.y.y.b.O.O.O.O.u.w. .o.+.+.u.y.u.y.y.u.u.b.X.O.X.%.v.v.v.v.v.v.v.v.v.v.v.v.n +...v.n v.V.B.V.V.V.V.m.V.V.V.m.M.=.%.%...$.m.B.m.B.V.V.B.m.V.V.B.m.V.V.v.%. .Z.C.B.Z.=.m.U.U.U.U.U.U.Y.$Xf l bX<X<X;.BXnXmXbX;XOXeXzXyXyXfX,X[ [ 8XuXyXyXgXzXr t t E E E 4XGXq.9 0 E ~ ~ %XvXiXiXiXuXiXzXxXgXiXuXiXiXiXuXuXiXuXuXuXuXuXiXuXuXuXuXuXiX",
"8.C Z j.L.K.K.K.K.K.K.J.K.K.K.L.J.J.L.K.K.K.K.K.P.J H j.J.F F k.a.g.e.a.g.g.a.g.e.a.g.g.a.a.a.a.e.a.g.a.e.g.s.4.s.D C H r.e.a.g.a.a.g.g.g.a.g.g.g.a.g. .+.a.p.p.p.p.t.o.t.t.w.t.t.t.t.Z w.y.y.y.y.y.y.u.y.y.u.w. .o.+.+.u.y.y.y.b.y.u.b.O.u.$.$.v.v.v.v.v.v.v.v.v.v.v.v.+.X.m.m.+.X.V.B.V.V.V.V.m.V.V.V.N.M.=.%.%.M.M.m.V.m.B.V.V.V.m.V.V.B.m.V.V.m.m.#.B.C.C.v.M.=.U.U.U.U.U.U.Y.$Xg g bXeX<X;.BXnXmXbX;XOXeXzXyXyXfX,X[ [ 8XuXyXyXgXzXr t t E E E 4XGXq.9 0 E ~ ~ %XvXyXyXyXfXyX<X@X,XfXfXyXyXyXuXiXqXqXyXqXyXuXyXqXyXuXyXqXyX",
"A 4 1 3.L.J.K.K.K.K.K.f.k.J.d.k.F.d.f.d.J.k.d.J.f.v g.e.s.v r.e.D e.r.4.D r.a.D r.a.D r.e.4.r.4.a.r.D a.r.r.D D D C C D S r.r.r.r.r.a.D r.s.4.4.D s.w. .r.w.7.p.w.r. .X.w.X.w.w.7.O.w.7.C t.u.O.t.u.+.t.O.u.O.O. . .@.X.+.u.O.u.u.O.u.u.O.+.%.v...+.v.......v.+...v.+...v.n +.*.v.n +.m.m.v.v.v.m.v.v.m.*.*.*.%.%.$.M.v.v.m.v.v.v.m.m.v.m.m.v.m.m.v.Z.#.*.Z.Z.B.v.#.Z.Y.Z.Z.Y.U.Y.$Xb g bX'.C.;.nXnXnXbX;XOXeXzXyXyXfX,X[ [ 8XuXyXyXgXzXr t t E E E 4XGXq.9 0 E ~ ~ %XvXuXyXfX<X#.#.&.#.#.,XfXyXuX3X!.iXiXuXgXuX0X0XiXqX9XuXiXuX",
"8.8.9.j.P.L.L.L.L.L.L.8.d.F.3.d.S.8.8.3.S.d.3.K.F v j.e.F v s.r.S r.r.D S D s.S D s.S 4.e.D D S s.D S s.D D S D D C C S F r.r.D D D s.S 4.e.D D S s.X.X.r.7.S r.7.7. .w.w.n w.w.X.n O.t.C 7.u.O.+.u.O.O.O.t.O.n  . .X.X.+.t.O.t.t.O.u.t.w...%.t.....t.......t.....v.....v.X.n ..v.O.n m.v.v.$.v.m.$.v.m.$.*.*.%.%.$.M.v.$.m.v.v.$.v.m...m.m.$.m.v.v.v.$.%.v.v.B.Z.%.$.Y.Z.t.C.$XU.,Xb f NX@.@.:.BXMXMXbXbXOXeXzXyXyXfX,X[ [ 8XuXyXyXgXzXr t t E E E 4XGXq.9 0 E ~ ~ %XvXtXfX<X[ >XzXxXkX#X[ 8XuXgXf.A j.j.K.j.j.4.j.P.F.4.f.L.5X",
"8.8.9.d.d.d.d.d.d.d.d.3.d.F.8.f.S.d.d.8.S.d.8.F.v D k.e.v S r.r.S r.r.D D D s.D 4.s.S r.e.D 4.D s.D D s.D D S D D C C S F r.r.4.D D s.D 4.e.D D D r. .S r.7.S p.4. . .w.w.n w.w.X.X.O.t.n Z y.O.t.u.O.O.O.t.O.n  . .X.X.+.t.O.t.t.O.u.t.O.%...t.....t.......v.....v.....v...n ..v.v.n v.m.v.v.v.m.v.v.m.$.*.*.%.%.$.M.v.v.m.v.v.$.v.m.$.m.m.$.m.v.v.v.v.#.v.Z.B.Z.$.%.Y.Z.Z.Z.Z.Z.R.N f %XM M -.$X$X$X%X%X+XaXzXyXyXfX,X[ [ 8XuXyXyXgXzXr t t E E E 4XGXq.9 0 E ~ ~ %XvXuXuX#.>XKXzXzXxXKX=.&.fXiXj.4.A D A w J.d.d.A d.3.j.A uX",
"8.8.f.j.j.j.j.j.j.j.j.8.d.J.8.f.F.d.d.8.F.d.d.r.v 3.j.S v D r.r.S e.r.D D 4.a.D 4.s.S r.e.D 4.D a.4.D a.4.D S D D C C D F r.r.D D D a.D 4.e.D D D .. .S p.7.S r.7. .n w.w.n w.w.X.X.7.w.O.w t.O.t.u.O.O.O.u.O.n  . .X.X.+.u.O.u.t.O.u.t...%.+.v.....v.......v.....v.....v.+.X.X.v.v.n +.m.v.v.v.m.v.v.m.$.*.*.%.%.$.M.v.v.m.v.v.$.m.m.$.m.m.$.m.v.v.v.v.=.%.Z.B.v.v.#.Y.Z.Z.Z.Y.C.Y.Y.b m M M :.eXeX;X%X%X+XeXzXyXyXfX,X[ [ 8XuXyXyXgXzXr t t E E E 4XGXq.9 0 E ~ ~ %XvXfX,X#.kXzXzXzXiXDXrX#.8XuX5X5X}.}.[.|.[.[.3X|.3X3Xj.J.gX",
"f.l.F.K.L.L.L.L.L.L.L.d.d.k.3.d.k.8.d.8.k.d.9.v S 4.d.v S D r.r.S r.4.D D D r.S D r.S D r.D 4.S r.D D r.D D S D D C v S F D D 4.D D r.S D r.D D D  .7.S w.S S r.X. .S 7.7.n w.7.X.X.O.w.X.n Z O.O.t.O.O.O.+.O.n  . .X.X.+.+.O.t.t.O.t.O.%.....+.....+.......+.....+.....+.....n v.v...n v.v.v.v.M.$.v.v.$.$.*.%.%.$.v.$.*.m.v.v.$.v.v.$.v.v.$.v.v.v.v.v.*.#.Z.Z.v.Z.#.m.Z.Z.C.$XU.$XY.b g b @.:.nXMXmXbXbXOXeXzXyXyXfX,X[ [ 8XuXyXyXgXzXr t t E E E 4XGXq.9 0 E ~ ~ %XvXfX<X&.zXzXzXzXC w 2X#.4XfXuXuXiXuXuXgXiXiXuXgXzXzX0XuXuX",
"q.j.l.J.K.K.K.K.K.K.K.8.3.8.3.8.8.3.d.3.s.8.S v 4.4.S v r.S D S S D S D S D D S D D S D S D 4.S D S S D S D S D A C v F F S S 4.D D D S D D S D X. .S S S S S S  .O.n X.n n X.n X.X.X.X.n X.w X.O.O.O.O.O.O.X.n m  .X.X.O.O.O.O.O.O.O...%...................................+.n X.....n X.v.$.$.v.$.v.$...$.%.%.%.$.$.$.$.v.$.v.$.v.$.$.v.$.$.v.$.v.v.$.v.#.*.v.v.Z.%.%.Z.Z.Z.U.U.U.U.b s s @.:.eXnXmXbX;XOXeXzXyXyXfX,X[ [ 8XuXyXyXgXzXr t t E E E 4XGXq.9 0 E ~ ~ %XvXuX8X[ pXxXzXzXuXwXU., 0XuXuXj.j.qXf.d.f.8.P.5XL.!.3X{.uX",
"q.j.l.J.K.K.K.K.K.K.K.d.d.d.d.d.d.d.d.d.d.f.v D 3.s.v F r.D 4.D D r.D 4.D D 4.D D D D D D D r.D 4.D D 4.D r.D D D C v S S D D r.4.D 4.D D D D D  .7.S 7.7.S D X. .w.X.7.O.X.7.O.O.O.O.7.X.O.Z n +.O.O.t.O.O.O.n m  .@.X.O.O.O.O.O.O.O.%...........................+.........+.X.n *.+.+.n v.v.v.v.v.v.v.*.$.$.%.%.$.$.$.v.v.v.v.v.v.v.v.v.v.v.v.v.v.v.v.v.%.%.Z.v.Z.v.#.Z.Z.Y.U.U.U.$Xg l s M :.eXnXnXbX;XOXeXzXyXyXfX,X[ [ 8XuXyXyXgXzXr t t E E E 4XGXq.9 0 E ~ ~ %XvXyXfX&.=.DXzXzXSXFX3 X.xXyX0Xk.d.9Xj.d.4.4.K.J.A 3.d.d.iX",
"f.l.l.J.K.K.K.K.K.K.K.K.K.K.K.L.J.J.P.L.P.g.v J.j.a.v a.g.g.g.a.a.g.e.a.g.a.a.a.e.g.g.g.a.a.g.g.a.a.g.a.e.g.s.4.s.D C r.r.a.g.a.a.a.a.a.a.a.g.t. .a.p.p.p.p.g.o.+.t.t.t.t.w.w.t.t.t.t.t.t.w.t.Z y.b.y.y.b.y.u.w. .o.+.+.u.y.y.y.b.y.v.%...v.v.v.v.v.v.v.v.v.v.v.v.v.v.v.v.v.v.m.X.+.m.N.X.v.V.V.m.V.V.V.m.M.=.%.%.M.M.m.V.m.V.V.V.V.m.V.V.B.m.V.V.m.V.V.m.m.#.v.@XC.Y.%.C.U.U.U.U.Y.$Xg m h M :.eXMXMXbXbXOXeXzXyXyXfX,X[ [ 8XuXyXyXgXzXr t t E E E 4XGXq.9 0 E ~ ~ %XvXyXuX8X[ @XxXiXDXX., yXuXyXiXJ.j.J.8.K.j.k.!.}.P.!.P.j.uX",
"8.f.l.J.K.K.K.K.K.K.K.K.K.K.K.K.J.S.f.d.K.F H J.J.F J a.4.4.r.g.a.a.e.a.a.a.a.a.e.4.r.r.a.e.g.a.a.a.g.a.e.g.s.4.8.D v S S D r.g.a.a.a.a.a.a.g. .t.a.p.p.w.4.X. .w.t.t.t.t.t.w.7.7.7.7.t.t.w.t.Z 7.b.y.t.t.w.O.O. .o.+.+.u.y.u.y.b.y.%.*.+...+.v.v.v.v.v.v.v.v.v.v.v.v.v.v.v.+.....n m.m.+.X.V.B.m.v.v.V.m.M.=.%.%.M.M.m.B.m.v.v.V.V.m.V.V.B.m.V.V.m.B.V.m.V.#...Z.Z.Z.=.M.U.U.U.U.Y.$Xg m f h ;.nXeX$X$X$XOXeXzXyXyXfX,X[ [ 8XuXyXyXgXzXr t t E E E 4XGXq.9 0 E ~ ~ %XvXuXyXfX8X8XuXyXuX,X6XfXyXuXuXuXiXuXuXuXiXiXuXuXuXuXuXiXuX",
"w C A k.L.K.K.K.K.K.K.K.K.K.K.K.J.J.A Z D F j.j.g.v g.a.C 4 F a.a.a.e.a.a.a.a.g.r.v C F a.e.g.g.a.a.g.a.e.g.s.4.8.D v 4 v 1 F g.a.a.a.a.a.g.t. .a.p.p.p.w.v 3 3 n t.t.t.t.t.w.1 n 1 n t.t.w.t.w.Z y.b.O.n n 1 n  .o.+.+.u.y.u.y.y.v.%.v...X.n X.v.v.v.v.v.v.v.v.v.v.v.v.v.v.v.n 5 n v.m.m.X.v.V.N.v.5 X.N.M.=.%.%.M.M.m.B.m.X.n X.V.m.V.V.B.m.V.V.m.B.V.m.C.=.%.<...4 X.=.U.U.U.U.Y.$Xb M f s &.bXeX6.6.<.c.aXzXyXyXfX,X[ [ 8XuXyXyXgXzXr t t E E E 4XGXq.9 0 E ~ ~ %XvXuXyXyXuXuXtXyXtXiXuXyXuXuXuXyXyXyXyXyXyXyXyXyXyXyXyXyXuX",
"A A C l.L.K.K.K.K.K.K.K.K.K.K.K.K.k.Z 4.v H J.J.J F j.e.S v S g.a.g.a.a.g.g.g.g.e.F v S g.a.g.g.a.a.g.a.a.g.s.4.s.D v C v v S g.a.g.g.g.g.x.@.+.a.p.p.p.S n 3 n n t.t.t.t.t.w.n n n n t.t.w.t.t.Z w.b.t.n n n n  .o.+.+.u.b.y.y.i.$.$.v.....n n v.v.v.v.v.v.v.v.v.v.v.v.v.v...n n n X.N.m.+.X.@Xm.v.n n N.M.=.%.$.M.m.m.V.B.t.5 X.V.m.V.V.B.m.V.V.m.V.V.m.V.m.=.t.7.n X.=.Y.U.U.U.Y.$Xb O.g s &.VXT.0.h.<.c.aXzXyXyXfX,X[ [ 8XuXyXyXgXzXr t t E E E 4XGXq.9 0 E ~ ~ %XvXuXyXuXtXuXhXhXhXuXtXuXuXuXuXuXuXuXyXyXyXuXyXyXyXuXuXuXuX",
"8.f.d.F.J.J.J.J.J.J.J.J.J.J.J.J.F.j.S.k.v k.j.g.v e.a.r.r.e.e.a.e.a.r.e.a.e.e.e.r.r.e.e.e.r.a.a.r.e.a.e.r.a.r.D D F v D D r.r.a.e.e.e.e.a.w. .r.p.p.p.w.r. .X.w.w.w.w.w.w.w.7.w.w.w.w.w.w.w.w.w.7.C u.t.u.t.O.O.m  .@.@.+.u.u.u.u.%.+.*...+.*.*.*.*.*.*.*.*.*.*.*.*.*.*.*.*.+.+.*.*.n *.M.M.n v.m.v.m.m.M.*.=.%.%.M.M.M.N.M.v.m.m.m.M.N.N.m.M.N.N.M.m.N.M.m.B. .M.C.B.C.%.m.U.Y.Y.Y.$XM b.f s &.bXeXeX;X;X+XeXzXyXyXfX,X{ [ 8XuXyXyXgXzXr t t E E E 4XGXq.9 0 E ~ ~ %XvXuXyXyXfX8X@X=.@XtXfXyXuXuXuXuXuXyXiXiXiXyXuXiXuXyXuXuXuX",
"P.P.!.!.!.!.!.!.!.!.!.!.!.!.!.[.!.!.{.J.g.P.P.x.a.P.I.I.I.I.I.I.I.I.I.I.I.I.I.I.I.I.I.I.I.I.I.I.I.I.I.I.I.I.I.J.I.x.j.J.I.I.I.I.I.I.I.I.I.n.n.I.H.H.H.H.H.v.H.H.H.H.H.H.H.H.H.H.H.H.H.H.H.H.H.H.H.d.H._._._.H.H.n.n.n.n.H._.H._.C.B.Y.Y.n.Y.Y.Y.Y.Y.Y.Y.Y.Y.Y.Y.Y.Y.Y.Y.Y.Y.Y.Y.Y.Y.n.n.U.U.n.n.$X$XU.U.U.U.Y.C.Y.U.U.U.U.U.$XU.U.U.U.U.U.U.U.U.U.U.U.U.U.U.U.m.C.,X'.,XC.C.,X,X,X,X,X,X,XM M =.eXpXpXnXeX-XuXzXyXyXuX8X#.&.8XuXyXyXgXzXr t t E E E 4XGXq.9 0 E ~ ~ %XvXuXyXfX@X[ &.=.&.[ <XfXyXuXuXuXyXuX[.L.P.iX[.k.5XuXyXuXuX",
"zXzXzXzXzXzXzXzXzXzXzXzXzXzXzXzXzXzXzXxXDXzXzXSXDXzXxXxXzXzXzXxXzXzXxXxXxXxXxXxXxXzXzXzXxXxXxXxXxXxXzXxXxXzXxXSXSXSXDXSXSXxXzXxXzXzXzXxXzXxXxXxXxXxXxXxXxXxXxXxXxXxXxXxXxXSXxXxXxXxXxXxXxXxXxXxXxXDXxXxXxXxXxXxXDXxXxXxXxXxXxXxXxXxXxXxXDXxXxXxXxXxXxXxXxXxXxXxXxXxXxXxXxXxXxXxXxXxXDXxXxXxXDXxXxXxXxXxXxXxXxXxXxXxXxXxXxXxXxXxXxXxXxXxXxXxXxXxXxXxXxXxXxXxXxXDXxXxXxXxXxXxXzXxXxXxXxXxXzXFXKXxXzXzXzXzXzXcXzXiXyXuXuXuXuXuXuXuXuXyXgXzXG t r <.E E 6XFXq.9 0 E ~ ~ %XvXtXfX@X[ <XDXKXJX<XY Y.gXyXuXuXyXiXf.j.A j.8.Z k.gXqXuXuX",
"yXyXyXuXuXuXyXuXuXuXuXuXuXuXuXuXuXuXuXuXuXuXuXuXyXuXuXuXuXuXuXuXyXyXuXuXuXuXyXyXyXyXuXyXuXuXuXuXuXuXuXuXuXuXyXyXuXuXyXuXuXyXuXyXuXuXuXuXuXuXuXyXuXuXuXuXuXyXqXqXqXqXqXqXqXqXqXqXqXqXyXuXuXyXyXyXyXyXuXuXuXuXuXuXyXpXpXpXpXpXpXyXyXyXyXyXyXyXyXuXuXuXuXuXuXuXuXuXuXuXuXuXuXuXuXyXqXyXqXqXyXyXqXqXyXyXyXyXyXyXiXzXuXqX0X0X0X0X0X0X0X0X0X0X0X0X0X0X0X0X0X0X0X0X0X0X0X0X0X0X0X0X0X0X0X0X0X0X0X0X0X0X0X0X0X0XqXuXzXiXyXuXd.!.{.d.f.J.iXqXgXgX0XtXqXtXtXtXuXzXqXqXtXtXtXtXyXzXuXtX[ <XKXzXDXj.x.v., fXyXyXuXyXuX[.A J.8.d.l.J.iXqXuXuX",
"uXuXiXuXyXyXiXyXyXyXiXzXzXzXzXzXzXzXzXzXzXzXzXzXzXzXzXzXzXzXgXzXSXzXzXuXyXyXuXiXuXiXuXuXqXyXyXyXyXuXuXyXuXzXxXzXzXzXzXzXzXxXzXSXzXzXzXzXzXgXzXSXzXzXuXyXuX3X5X9X5X9X9X5X5X5X5X9X5X5X3XqXyXuXiXuXiXuXyXyXyXyXyXuXtX} ] ] ] ] ] rXb h h h h h `.gXqXyXyXyXyXyXyXyXyXyXyXyXyXuXqX3X5X5X5X5X9X9X5X5X9X5X5X5X5X5XiXzXuX5X5X9X9X9X9X9X9X9X9X9X9X9X9X9X9X9X0X0XqX0X0X0X0X0X9X9X9X9X9X9X9X9X9X9X9X9X9X9X9X9X9X9X3XyXzXiXuX3Xd.F.K.3.D j.qXyXgXgXpXoXwXoXoXoXiXzXpXoXoXoXoXoXwXzXfX,X#.zXzXDX9Xw 9X8X, 4XuXyXyXuXuX|.9X0X0X9X0X5XuXuXyXuX",
"|.9X|.qXiXiX!.uXiXyXiXzXzXgXFXDXSXuXFXFXDXFXSXzXzXzXzXzXzXzXzXDX3XqXSXuXyXuX3X{.3XP.9X[.zXuXiXuXiXuX9XyXuXzXuXzXSXFXqXSXzXyXuX0XgXzXzXzXzXzXSX|.iXzXyXuXyX5XuX0XqX0X0XqXyXuXqX0XyXyX5XqXuX3X!.3X!.qXiXiXuXuXyXuXrX' ; ; ; ; Y rXh O O O O O _.hXqXuXuXuXuXuXuXuXuXuXuXuXuXuXqX5XuXyXqXuX0X0XuXqX0XuXuXqXqX5XiXzXuX9XqXuXuXuXuXuXuXuXuXuXuXuXuXuXuXuX9X0X{.5X0X9X5X0XuXuXuXuXuXuXuXuXuXuXuXuXuXuXuXuXuXuX5XyXzXiXyXuXf.l.K.d.f.J.iXqXgXgXwXP oXoXP oXiXzXwXoXoXoXoXoXwXzXhX<X&.zXzXzXzXzXFXtX, 2XfXyXuX0X9XgX0XyX9XiXiX9X5XqXuXuX",
"d.d.A f.F.F.4.f.f.3XSX8.!.8.[.3XL.k.{.!.{.L.9XSXzXzXzXzXzXzXzXSXD l.FXuXqXgXl.f.f.3X|.A K.j.J.j.F.f.4.[.gX}.A P.[.!.j.3X0X4.l.3.uXxXzXzXzXzXgXC [.DXyXuXyX9X0Xf.l.j.f.3XP.F.j.J.l.0X9X0XzXF.8.J.D 8.f.8.l.f.9XuXrX' > Y Y > ' rXf O O O O O _.hXqXuXuXuXuXuXuXuXuXuXuXuXuXuXqX0X}.l.l.[.j.}.{.}.s.F.j.I.uX5XiXzXuX5XqXuXyXyXyXyXyXyXyXyXyXyXyXyXuX0XI.5Xf.8.I.s.f.iXuXuXyXyXyXyXyXyXyXyXyXyXyXyXyXyXuXyX5XyXzXiXyXuXuXuXiXzXgXuXuXyXgXgXqXwXXXwXwXwXiXzXyXwXwXwXXXoXuXzXfX8X[ rXDXzXzXzXKXY., uXuXyXiXj.f.|.8.8.d.0XJ.4.4.j.iXyX",
"L.Z 4.3.8.3.3.Z d.5XzXd.A A f.3.d.4.A D P.d.K.FXzXzXzXzXzXzXzXzX4.l.FXuXyXuX3X4.4.5X3X4.4.d.4.8.d.4.8.}.zXP.j.L.4.l.C l.qXA J.L.zXzXzXzXzXzXiXA !.DXyXuXyX9X5Xl.P.s.j.{.J.8.l.F.f.0X9X0XzXJ.J.d.8.d.A A [.8.!.fXrX' > ' Y ; ' rXf O O O O O _.hXqXuXuXuXuXuXuXuXuXuXuXuXuXuXqX0X3X8.f.P.!.I.P.P.j.8.D J.uX5XiXzXuX5XqXuXyXuXuXuXuXuXuXuXuXuXuXyXuXqXl.[.j.J.8.f.f.|.}.5XuXyXuXuXuXuXuXuXuXuXuXuXuXyXuXyX5XyXzXiXyXyXuXuXP.L.[.uXyXyXgXgXpXwXwXwXXXXXiXzXuXwXXXuXXXXXuXzXuXfX=.&.zXzXzXxXtX, ..zXqXyXuXj.f.J.f.A j.P.8.4.A d.iXyX",
"0X3X5X}.|.3X{.3X}.5XgX3X!.3XP.|.P.[.[.}.qX5X9XxXzXzXzXzXzXzXgXFXI.}.DXuXyXuX|.}.3X!.uXP.9X[.9X[.3X{.{.}.iX9XiXqX{.9X[.|.uXJ.|.3XzXzXzXzXzXzXSXl.0XSXyXuXyX5XqXqXyX0X|.9XqX5X9X|.0XqX9XqXuX9XyX5X3X}.}.3X0X[.9XuXrX' ; > > ; ' rXf O O O O O _.hXqXuXuXuXuXuXuXuXuXuXuXuXuXuXqX9XuX5X5X0X5X9X3X{.5X0X5X0XqX5XiXzXuX9XqXuXuXuXuXuXuXuXuXuXuXuXuXuXuXuX}.[.|.qX5X0X9X|.3X9XuXuXuXuXuXuXuXuXuXuXuXuXuXuXuXuX5XyXzXiXyXuXuXj.4.D 3.uXuXyXgXgXwXP oXoXoXoXiXzXqXoXoXoXP oXwXzXuXuXyX#.@XxXiXxXX.E fXuXyXyXiX[.F.{.J.P.J.yXJ.L.l.P.uXyX",
"uXiXuXiXiXiXiXuXiXuXiXDXFXDXFXDXFXFXDXDXSXSXSXzXzXzXzXzXzXzXzXzXFXDXzXuXuXyXiXiXuXiXuXgXuXiXuXiXuXiXiXiXuXSXzXxXDXSXFXDXzXFXDXDXzXzXzXzXzXzXzXGXSXzXuXuXuX3X9X9X9X0X0X0X0X0X0X0X0X0X3XqXuXuXuXuXuXiXiXiXuXiXuXuXrX] Y Y Y Y ' rXf O s s O s _.hXqXuXuXuXuXuXuXuXuXuXuXuXuXuXqX3X0X0X0X0X0X0X0XqX0X0X0X0X9X3XiXzXuX5X9XqX0X0X0X0X0X0X0X0X0X0X0X0X0X0XuXuXyXqXyXqXqXyXyXqX0X0X0X0X0X0X0X0X0X0X0X0X0X0X0X0X3XyXzXiXyXuXqX8.8.4.3.qXuXyXgXgXwXoXoXwXoXoXiXzXyXoXoXoXoXoXwXzXuXyXuXyX0XuXyXuX6XuXuXyXuXuXyXiXgXiXiXiXiXuXiXiXiXiXuXuX",
"yXqXqXqXqXqXqXqXqXqXuXuXyXuXyXuXyXyXyXuXuXuXuXuXuXuXuXuXuXuXuXuXyXuXuXyXyXyXqXqXqXqXyXqXqXqXqXqXqXqXqXqXyXuXuXuXyXuXyXuXuXyXuXuXuXuXuXuXuXuXuXyXuXuXyXyXyX0X0X0X0X0X0X0X0X0X0X0X0X0X0XyXyXqXyXqXqXqXqXqXyXqXyXyXqX<X<X<X<X<X<XtX'.'.'.'.'.`.9XuXyXyXyXyXyXyXyXyXyXyXyXyXyXyXyX0X0X0X0X0X0X0X0X0X0X0X0X0X0X0XuXzXyX0X5X9X5X5X5X5X5X5X5X5X5X5X5X5X5X5X5X5X5X5X5X5X5X5X5X5X5X5X5X5X5X5X5X5X5X5X5X5X5X5X9X5X0XqXgXiXqXyXuX|.}.}.|.uXyXqXiXgXyXpXyXyXyXtXuXzXyXuXuXuXpXyXuXzXuXyXyXyXuXyXyXyXuXyXqXyXyXyXyXqXqXqXqXqXqXyXqXqXqXqXyXyX",
"zXzXzXzXzXzXzXzXzXzXzXzXzXzXzXzXzXzXzXzXzXzXzXzXzXzXzXzXzXzXzXzXzXzXzXzXzXzXzXzXzXzXzXzXzXzXzXzXzXzXzXzXzXzXzXzXzXzXzXzXzXzXzXzXzXzXzXzXzXzXzXzXzXzXzXzXzXzXzXzXzXzXzXzXzXzXzXzXzXzXzXzXzXzXzXzXzXzXzXzXzXzXzXzXzXxXxXxXxXxXxXzXDXDXDXDXDXDXzXzXzXzXzXzXzXzXzXzXzXzXzXzXzXzXzXzXzXzXzXzXzXzXzXzXzXzXzXzXzXzXzXzXzXzXzXzXzXzXzXzXzXzXzXzXzXzXzXzXzXzXzXzXzXzXzXzXzXzXzXzXzXzXzXzXzXzXzXzXzXzXzXzXzXzXzXzXzXzXzXzXzXzXzXSXSXSXSXzXzXzXzXzXzXzXzXzXzXzXzXzXzXzXzXzXzXzXzXxXzXzXzXzXzXzXzXzXzXzXzXzXzXzXzXzXzXzXzXzXzXzXzXzXzXzXzXzX",
"9XqX9X9X9X0X9X9X0X9X9X9X0X0X9X0X9X9X9X9X9X9X9X9X9X9X9X9X9X9X9X9X9X9X9X9X9X9X9X9X9X9X9X9X9X9X9X9X9X9X9X9X9X9X9X9X9X9X9X9X9X9X9X9X9X9X9X9X9X9X9X9X9X9X9X9X9X9X9X9X9X9X9X9X9X9X9X9X9X9X9X9X9X9X9X9X9X9X9X9X9X9X9X9X9X9X9X9X9X9X9X9X9X9X9X9X9X9X9X9X9X9X9X9X9X9X9X9X9X9X9X9X9X9X9X9X9X9X9X9X9X9X9X9X9X9X9X9X9X9X9X9X9X9X9X9X9X9X9X9X9X9X9X9X9X9X9X9X9X9X9X9X9X9X9X9X9X9X9X9X9X9X9X9X9X9X9X9X9X9X9X9X9X9X9X9X9X9X9X9X9X9X9X9X9X9X9X9X9X9X9X9X9X9X9X9X9X9X9X9X9X9X9X9X9X9X9X9X9X9X9X9X9X9X9X9X9X9X9X9X9X9X9X9X9X9X9X9X9X9X9X9X9X9X9X9X",
"{.j.[.{.{.P.}.|.P.[.}.{.!.!.|.!.}.|.{.{.{.{.{.{.{.{.{.{.{.{.{.{.{.{.{.{.{.{.{.{.{.{.{.{.{.{.{.{.{.{.{.{.{.{.{.{.{.{.{.{.{.{.{.{.{.{.{.{.{.{.{.{.{.{.{.{.{.{.{.{.{.{.{.{.{.{.{.{.{.{.{.{.{.{.{.{.{.{.{.{.{.{.{.{.{.{.{.{.{.{.{.{.{.{.{.{.{.{.{.{.{.{.{.{.{.{.{.{.{.{.{.{.{.{.{.{.{.{.{.{.{.{.{.{.{.{.{.{.{.{.{.{.{.{.{.{.{.{.{.{.{.{.{.{.{.{.{.{.{.{.{.{.{.{.{.{.{.{.{.{.{.{.{.{.{.{.{.{.{.{.{.{.{.{.{.{.{.{.{.{.{.{.{.{.{.{.{.{.{.{.{.{.{.{.{.{.{.{.{.{.{.{.{.{.{.{.{.{.{.{.{.{.{.{.{.{.{.{.{.{.{.{.{.{.{.{.{.{.{.{.{.{.{.{.{.{.",
"P.w I.3XF.f.J.l.f.j.j.P.8.L.J.8.J.I.|.}.}.}.}.}.}.}.}.}.}.}.}.}.}.}.}.}.}.}.}.}.}.}.}.}.}.}.}.}.}.}.}.}.}.}.}.}.}.}.}.}.}.}.}.}.}.}.}.}.}.}.}.}.}.}.}.}.}.}.}.}.}.}.}.}.}.}.}.}.}.}.}.}.}.}.}.}.}.}.}.}.}.}.}.}.}.}.}.}.}.}.}.}.}.}.}.}.}.}.}.}.}.}.}.}.}.}.}.}.}.}.}.}.}.}.}.}.}.}.}.}.}.}.}.}.}.}.}.}.}.}.}.}.}.}.}.}.}.}.}.}.}.}.}.}.}.}.}.}.}.}.}.}.}.}.}.}.}.}.}.}.}.}.}.}.}.}.}.}.}.}.}.}.}.}.}.}.}.}.}.}.}.}.}.}.}.}.}.}.}.}.}.}.}.}.}.}.}.}.}.}.}.}.}.}.}.}.}.}.}.}.}.}.}.}.}.}.}.}.}.}.}.}.}.}.}.}.}.}.}.}.}.}.}.}.}.}.",
"P.C I.3X!.s.4.8.8.4.f.}.s.D 8.8.A s.|.}.}.}.}.}.}.}.}.}.}.}.}.}.}.}.}.}.}.}.}.}.}.}.}.}.}.}.}.}.}.}.}.}.}.}.}.}.}.}.}.}.}.}.}.}.}.}.}.}.}.}.}.}.}.}.}.}.}.}.}.}.}.}.}.}.}.}.}.}.}.}.}.}.}.}.}.}.}.}.}.}.}.}.}.}.}.}.}.}.}.}.}.}.}.}.}.}.}.}.}.}.}.}.}.}.}.}.}.}.}.}.}.}.}.}.}.}.}.}.}.}.}.}.}.}.}.}.}.}.}.}.}.}.}.}.}.}.}.}.}.}.}.}.}.}.}.}.}.}.}.}.}.}.}.}.}.}.}.}.}.}.}.}.}.}.}.}.}.}.}.}.}.}.}.}.}.}.}.}.}.}.}.}.}.}.}.}.}.}.}.}.}.}.}.}.}.}.}.}.}.}.}.}.}.}.}.}.}.}.}.}.}.}.}.}.}.}.}.}.}.}.}.}.}.}.}.}.}.}.}.}.}.}.}.}.}.}.",
"{.8.[.|.P.l.4.l.I.I.J.[.j.J.J.l.J.L.}.{.{.{.{.{.{.{.{.{.{.{.{.{.{.{.{.{.{.{.{.{.{.{.{.{.{.{.{.{.}.{.}.}.}.}.}.}.}.}.}.}.}.}.}.}.}.}.}.}.}.}.}.}.}.}.}.}.}.}.}.}.{.}.{.{.{.{.{.{.{.{.{.{.{.{.{.{.{.{.{.{.{.{.{.{.{.{.{.{.}.{.}.}.}.}.}.}.}.}.}.}.}.}.}.}.}.}.}.}.}.}.}.}.}.}.}.}.}.}.}.{.{.{.{.{.{.{.{.{.{.{.{.{.{.{.{.{.{.{.{.{.{.{.{.{.{.{.{.}.{.}.}.}.}.}.}.}.}.}.}.}.}.}.}.}.}.}.}.}.}.}.}.}.}.}.}.}.}.}.{.{.{.{.{.{.{.{.{.{.{.{.{.{.{.{.{.{.{.{.{.{.{.{.{.{.{.{.}.{.}.}.}.}.}.}.}.}.}.}.}.}.}.}.}.}.}.}.}.}.}.}.}.}.}.}.}.}.",
"|.9X3X|.3X3X[.3X3X3X3X|.3X3X3X3X3X3X|.3X|.|.|.|.|.|.|.|.|.|.|.|.|.|.|.|.|.|.|.|.|.|.|.|.|.|.|.|.|.3X}.[.[.[.[.[.[.[.[.[.[.[.[.[.[.[.[.[.[.[.[.[.[.[.[.[.[.[.[.}.3X|.|.|.|.|.|.|.|.|.|.|.|.|.|.|.|.|.|.|.|.|.|.|.|.|.|.|.|.3X}.[.[.[.[.[.[.[.[.[.[.[.[.[.[.[.[.[.[.[.[.[.[.[.[.[.[.[.[.|.3X|.|.|.|.|.|.|.|.|.|.|.|.|.|.|.|.|.|.|.|.|.|.|.|.|.|.|.3X|.[.[.[.[.[.[.[.[.[.[.[.[.[.[.[.[.[.[.[.[.[.[.[.[.[.[.[.[.3X|.|.|.|.|.|.|.|.|.|.|.|.|.|.|.|.|.|.|.|.|.|.|.|.|.|.|.|.3X|.[.[.[.[.[.[.[.[.[.[.[.[.[.[.[.[.[.[.[.[.[.[.[.[.[.[.[.",
"uXyXuXuXuXyXuXyXyXyXyXuXyXyXyXyXyXyXuXzXuXuXpXpXpXpXpXpXpXpXpXpXpXpXpXpXpXpXpXpXpXpXpXpXpXpXpXpXqXzX2Xh.D.S.S.S.S.S.S.S.S.S.S.S.S.S.S.S.S.S.S.S.S.S.S.S.S.S.h.3XzXqXiXiXiXiXiXiXiXiXiXiXiXiXiXiXiXiXiXiXiXiXiXiXiXiXiXiXqXzX2Xh.D.S.S.S.S.S.S.S.S.S.S.S.S.S.S.S.S.S.S.S.S.S.S.S.S.S.A.uXiXyXfXfXfXfXfXfXfXfXfXfXfXfXfXfXfXfXfXfXfXfXfXfXfXfXfXyXzX0Xh.S.S.S.S.S.S.S.S.S.S.S.S.S.S.S.S.S.S.S.S.S.S.S.S.S.S.S.iXiXyXuXuXuXuXuXuXuXuXuXuXuXuXuXuXuXuXuXuXuXuXuXuXuXuXuXyXzX6Xh.S.S.S.S.S.S.S.S.S.S.S.S.S.S.S.S.S.S.S.S.S.S.S.S.S.S.",
"uXuXuXuXyXuXuXyXyXyXyXyXuXyXuXuXuXuXuXzXiXqX^.^.^.^.^.^.^.^.^.^.^.^.^.^.^.^.^.^.^.^.^.^.^.^.^..XyXzX2Xh.h.h.h.h.h.h.h.h.h.h.h.h.h.h.h.h.h.h.h.h.h.h.h.h.h.h.h.3XzXyXXXXXXXXXXXXXXXXXXXXXXXXXXXXXXXXXXXXXXXXXXXXXXXXXXXXXyXzX2Xh.h.h.h.h.h.h.h.h.h.h.h.h.h.h.h.h.h.h.h.h.h.h.h.h.h.h.S.uXgX0X<X<X<X<X<X<X<X<X<X<X<X<X<X<X<X<X<X<X<X<X<X<X<X<X<XqXzX0Xh.h.h.h.h.h.h.h.h.h.h.h.h.h.h.h.h.h.h.h.h.h.h.h.h.h.h.S.iXiXtXbXbXbXbXbXbXbXbXbXbXbXbXbXbXbXbXbXbXbXbXbXbXbXbXeXqXzX6Xh.h.h.h.h.h.h.h.h.h.h.h.h.h.h.h.h.h.h.h.h.h.h.h.h.h.A.",
"uXuXuXuXuXqXqXiXiXgXiXuX0XuXyXuXuXuXuXzXiXdXy 8 8 8 8 8 8 8 8 8 8 8 8 8 8 8 8 8 8 8 8 8 8 8 8 i pXzX2Xh.2.2.5.5.5.5.5.5.5.5.5.5.2.5.2.2.5.5.5.5.5.5.5.5.2.5.h.3XzXuXj % % % % % % % % % % % % % % % % % % % % % % % % j iXzX2Xh.2.2.5.5.5.5.5.5.5.2.5.5.5.5.2.5.5.5.5.5.5.5.5.5.2.5.S.uXhX<X] Y Y Y Y Y Y Y Y Y Y Y Y Y Y Y Y Y Y Y Y Y Y Y ] rXgX0XA.5.2.5.5.5.5.5.5.5.5.5.5.5.2.2.2.5.5.5.5.5.5.5.5.2.5.D.iXfXeX^ W W W W W W W W W W W W W W W W W W W W W W W ` uXzX6Xh.5.2.5.5.5.5.5.5.5.5.5.5.5.5.2.2.5.5.5.5.5.5.5.5.2.d.",
"uXuXuXyXuXd.d.|.{.P.9Xf.L.gXqXuXuXuXuXzXiXdX8 7 7 7 7 7 7 7 7 7 7 8 8 7 8 7 7 7 7 7 7 7 7 7 7 i iXzX2Xh.5.9.9.9.9.9.9.9.9.0.5.Z A 1.Z 9.9.9.9.9.9.9.9.9.5.5.h.3XzXuXj o $ $ $ $ $ $ $ $ $ % % $ % $ $ $ $ $ $ $ $ $ o j iXzX2Xh.5.9.9.9.9.9.9.9.9.h.2.Z A A 1.h.9.9.9.9.9.9.9.0.5.5.S.uXfX1X' ; : > > > > > > ; Y Y Y Y : ; > > > > > > : ; ] rXgX0XA.5.5.0.9.9.9.9.9.9.0.5.C Z 4.Z 0.9.9.9.9.9.9.9.0.5.5.D.iXfXnXW R R R R R R R R R R W W W R R R R R R R R R R ` iXzX6Xh.5.5.0.9.9.9.9.9.9.0.5.C C 1.A 0.9.9.9.9.9.9.9.0.5.d.",
"uXuXuXyXuX4.4.3.C 8.4.4.L.gXqXuXuXuXuXzXiXdXy 7 7 7 7 7 7 7 7 7 8 y 8 8 8 7 7 7 7 7 7 7 7 7 7 i iXzX2Xh.5.5.5.5.5.5.5.5.5.9.2.4 Z 1.Z 5.9.5.5.5.5.5.5.5.5.5.h.3XzXuXj o $ $ $ $ $ $ $ $ $ % % % % $ $ $ $ $ $ $ $ $ o j iXzX2Xh.5.5.5.5.5.5.5.5.5.h.1.4 w 1.Z 5.5.5.5.5.5.5.5.5.5.5.S.uXfX<X' : : : : : : : : : Y ' Y Y Y : : : : : : : : : ] rXgX0XA.5.5.5.5.5.5.5.5.5.9.2.4 4 1.Z 5.5.5.5.5.5.5.5.9.5.5.D.iXfXnXW R R R R R R R R R W W R W W R R R R R R R R R ` uXzX6Xh.5.5.5.5.5.5.5.5.5.0.4.4 4 1.Z 5.5.5.5.5.5.5.5.9.5.d.",
"uXuXuXyXuXj.f.d.f.{.L.f.{.iXyXuXuXuXuXzXiXdX8 7 7 7 7 7 7 7 7 7 7 7 7 7 7 7 7 7 7 7 7 7 7 7 7 i iXzX2Xh.5.9.9.9.9.9.9.9.9.9.5.5.2.5.2.5.9.9.9.9.9.9.9.9.5.5.h.3XzXuXj o o o o o o o o o o o o o $ o o o o o o o o o o j iXzX2Xh.5.5.9.9.9.9.9.9.9.9.5.5.5.5.5.9.9.9.9.9.9.9.9.0.5.5.S.uXhX<X' ; > ; ; ; ; ; ; ; > > : : : ; ; ; ; ; ; ; > ; ] rXgX0XA.5.5.9.9.9.9.9.9.9.9.5.5.5.5.2.5.9.9.9.9.9.9.5.0.5.5.D.iXfXnXW R R R R R R R R R R R R R R R R R R R R R R / ` iXzX6Xh.5.5.9.9.9.9.9.9.9.9.5.5.5.5.2.9.9.9.9.9.9.9.5.0.5.d.",
"uXuXuXuXuXuXiXgXiXuXiXiXuXyXuXuXuXuXuXzXiX.Xy y y y y y y y y y y y y y y y y y y y y y y y y i pXzX2Xh.2.2.2.2.2.2.2.2.2.2.2.2.5.5.5.2.2.2.2.2.2.2.2.2.2.5.h.3XzXuXj j j j j j j j j j j j j j j j j j j j j j j j j V iXzX2Xh.5.2.2.2.2.2.2.2.2.2.2.2.5.5.5.2.2.2.2.2.2.2.2.5.2.5.S.uXfX,X] ] ] ] ] ] ] ] ] ] ] ] ] ] ] ] ] ] ] ] ] ] ] ] } tXzX0XA.5.2.2.2.2.2.2.2.2.2.2.2.5.5.5.2.2.2.2.2.2.2.2.5.2.9.D.iXfXeX^ ^ ^ ^ ^ ^ ^ ^ ^ ^ ^ ^ ^ ^ ^ ^ ^ ^ ^ ^ ^ ^ ^ ^ &XuXzX6Xh.5.2.2.2.2.2.2.2.2.2.2.2.5.5.5.2.2.2.2.2.2.2.2.5.2.h.",
"uXuXuXuXuXyXyXyXyXyXyXyXyXuXuXuXuXuXuXzXuXqXqXjXjXjXjXjXjXjXjXjXjXjXjXjXjXjXjXjXjXjXjXjXjXjXjXqXyXzX2Xh.A.h.h.h.h.h.h.h.h.h.h.h.h.h.h.h.h.h.h.h.h.h.h.h.h.A.h.3XzXqX9XwXwXwXwXwXwXwXwXwXwXwXwXwXwXwXwXwXwXwXwXwXwXwXwX0XyXzX2Xh.A.h.h.h.h.h.h.h.h.h.h.h.h.h.h.h.h.h.h.h.h.h.h.h.h.A.A.uXiXqXrXrXrXrXrXrXrXrXrXrXrXrXrXrXrXrXrXrXrXrXrXrXrXrXrXqXzX0Xh.S.h.h.h.h.h.h.h.h.h.h.h.h.h.h.h.h.h.h.h.h.h.h.h.h.A.S.iXiXyXpXpXpXpXpXpXpXpXpXpXpXpXpXpXpXpXpXpXpXpXpXpXpXpXpXqXzX6Xh.S.h.h.h.h.h.h.h.h.h.h.h.h.h.h.h.h.h.h.h.h.h.h.h.h.S.",
"uXuXuXuXuXyXuXuXuXuXuXuXuXuXuXuXuXuXuXzXuXyXuXuXuXuXuXuXuXuXuXuXuXuXyXuXuXuXuXuXuXuXuXuXuXuXuXuXqXzX2Xh.S.S.S.S.S.S.S.S.S.S.S.S.S.S.S.S.S.S.S.S.S.S.S.S.S.S.h.3XzXqXuXuXuXuXuXuXuXuXuXuXuXuXuXuXuXuXuXuXuXuXuXuXuXuXuXuXqXzX2Xh.S.S.S.S.S.S.S.S.S.S.S.S.S.S.S.S.S.S.S.S.S.S.S.S.S.S.A.uXiXyXuXqXuXqXqXqXuXuXuXuXuXuXuXuXuXuXqXqXqXqXqXuXuXqXuXqXzX0Xh.S.S.S.S.S.S.S.S.S.S.S.S.S.S.S.S.S.S.S.S.S.S.S.S.S.S.S.iXiXyXuXyXyXyXyXyXyXyXyXyXyXyXyXyXyXqXqXqXqXqXyXqXyXyXuXqXzX6Xh.S.S.S.S.S.S.S.S.S.S.S.S.S.S.S.S.S.S.S.S.S.S.S.S.S.S.",
"uXuXuXyXuXuXyXyXqXyXyXyXyXyXuXuXuXuXuXzXuXyXyXyXyXyXyXyXyXyXyXyXyXyXiXuXyXyXyXyXyXyXyXyXyXyXyXuXqXzX2Xh.S.S.A.S.D.D.A.A.S.S.S.S.S.S.S.S.S.S.D.S.S.D.S.S.S.S.h.3XzXqXyXyXqXuXgXgXqXqXyXyXyXyXyXyXyXyXyXuXuXiXuXuXqXyXyXyXqXzX2Xh.S.S.A.S.G.D.A.A.S.S.S.S.S.S.S.S.S.D.D.D.D.S.S.S.S.S.A.uXiXyXyXyXtXuXfXuXtXyXyXyXyXyXyXyXyXyXuXuXiXuXiXyXyXyXyXqXzX0Xh.S.S.A.S.D.D.S.A.S.S.S.S.S.S.S.S.D.D.D.D.D.D.D.S.S.S.S.iXiXyXuXyXyXuXuXuXyXyXuXyXyXyXyXuXyXuXuXiXuXiXuXuXyXuXuXqXzX6Xh.S.S.A.S.D.D.S.A.S.S.S.S.S.S.S.D.S.D.D.D.D.S.D.S.S.S.",
"uXuXuXuXqXqXiXiXgXiXgXiXiXuXyXuXuXuXuXzXuXyXuXuXuXuXuXuXuXuXuXuXyXuX|.9XuXyXuXuXuXuXuXuXuXuXuXuXqXzX2Xh.S.A.K.A.1.2.D.D.A.S.S.S.S.S.S.S.S.h.5.h.S.3.S.S.S.S.h.3XzXqXuXqXzXqXI.`.gXgXqXuXuXuXuXuXuXyXuX3X0X|.5X|.uXyXuXuXqXzX2Xh.S.A.G.h.1.2.D.D.A.S.S.S.S.S.S.S.h.3.9.5.5.h.S.S.S.S.A.uXiXyXuXuXhX8X<X4XzXuXyXuXuXuXuXuXyXuX0X3X|.3X}.uXyXuXuXqXzX0Xh.S.A.D.S.6.6.S.D.A.S.S.S.S.S.S.S.d.d.5.d.5.2.d.S.S.S.S.iXiXyXyXuXcXaX;XaXcXuXyXuXuXuXuXyXuX3X3X3X5X|.qX5XuXyXuXqXzX6Xh.S.A.D.S.5.5.S.D.A.S.S.S.S.S.S.d.h.5.d.9.5.h.5.S.S.S.",
"uXuXqXgXj.3.}.{.P.3XP.}.!.9XuXyXuXuXuXzXuXyXuXuXuXuXuXuXuXuXuXyXuX0X8.l.iXyXuXuXuXuXuXuXuXuXuXuXqXzX2Xh.S.J.w < < < < 5.D.A.S.S.S.S.S.D.h.1 4 Z 2.4 5.D.A.S.h.3XzXqXqXgXe.& 1 & & [.gXqXuXuXuXuXuXyXiXf.f.d.4.f.0XuXyXuXqXzX2Xh.S.F.<.6 < < < 6.D.A.S.S.S.S.S.S.S.Z 1 Z 4.Z D.A.S.S.A.uXiXyXuXfX;.} -.[  .tXuXyXuXuXuXuXyXiX8.F.f.J.f.3XuXyXuXqXzX0Xh.S.D.6.3 3 3 3 6.F.A.S.S.S.S.S.S.w Z w 4 w Z A G.A.S.S.iXiXyXuXuXOX&X&X` OXuXuXyXuXuXuXyXuX{.A 3.4.A J.3.iXyXuXqXzX6Xh.S.D.2.5 5 5 5 6.D.A.S.S.S.A.D.C Z 4 4 4 4 4 4 5.D.A.",
"uXuXqXgX8.A j.w 3.4.d.A C !.iXyXuXuXuXzXuXyXuXuXuXuXuXuXuXuXuXyXuX9Xd.j.uXyXuXuXuXuXuXuXuXuXuXuXqXzX2Xh.K.Z < 2.S.S.w < h.D.S.S.S.S.A.D.Z 6 4 Z Z 4 2.D.A.S.h.3XzX0XzXa.& uXJXDXg.& 3XiXyXuXuXuXuXqXgXP.d.d.A f.5XuXyXuXqXzX2Xh.G.<.3 1.4.D.4 < h.D.A.S.S.S.S.S.h.w 2.C 4 4.D.A.S.S.A.uXiXtXhX;.-.SX|.{.%.T fXyXuXuXuXuXyXuX3.8.j.8.k.qXuXyXuXqXzX0Xh.D.6.3 7.A.D.6.< 1.F.A.S.S.S.A.G.Z 3.C 1 C Z h.S.S.S.S.iXiXyXfXOX&XzXvXzX&X&XfXyXuXuXuXyXuX|.4.8.Z A Z A uXyXuXqXzX6Xh.D.6.2 2.S.A.2.2 5.D.A.S.S.A.G.1.C w 4 4 4 1 w 2.D.A.",
"uXuXyXuX[.P.d.d.[.P.4.8.J.5XuXyXuXuXuXzXuXyXuXuXuXuXuXuXuXuXuXuXyXuXP.}.uXyXuXuXuXuXuXuXuXuXuXuXqXzX2Xh.D.< 2.T.h.h.L.1 5 K.A.S.S.S.S.S.A.5.4.4.5.1.A.S.S.S.h.3XzXqXuXj `.8.9XzXIXF F SXqXuXuXuXuXyXuX3X3XP.[.P.uXyXuXuXqXzX2Xh.D.3 6.3.& A.L.5 5 K.A.S.S.S.S.D.d.Z 4.4.Z 2.D.S.S.S.A.uXiXfX,X} zXLXC f.IXT C.hXyXuXuXuXyXuX}.P.!.L.J.qXuXyXuXqXzX0Xh.J.5 X.F.S.Z 1 <.6 J.A.S.S.S.S.S.d.3.4.2.4.5.S.S.S.S.S.iXiXuXeX&XvXxXzXDXvX&XeXuXyXuXuXyXuX[.!.[.}.P.5X{.yXuXuXqXzX6Xh.D.5 1.D.h.A.G.<.5 F.A.S.S.S.D.d.9.1.2.2.4.3.1.A.S.S.",
"uXuXuXyXuXiXgXzXiXgXL.5XgXyXuXuXuXuXuXzXuXyXuXuXuXuXuXuXuXuXuXyXuXuXzXgXiXuXuXuXuXuXuXuXuXuXuXuXqXzX}.A.5.< 1.1 4.A.S.<.6 K.A.S.S.S.S.S.S.G.K.G.K.K.S.S.S.S.h.3XzXuX Xj zX4.P.FXFX`.1 zXqXuXuXuXuXuXyXiXgXzXzXzXyXuXuXuXqXzX2Xh.h.3 h.h.4.h.S.<.< J.A.S.S.S.S.S.S.K.K.G.K.G.A.S.S.S.A.uXiXhX>X-.KXzX9XuXKX*.%.xXqXuXuXuXyXuXgXzXgXzXgXiXuXuXuXqXzX0Xh.S.3 6.h.S.C 1.h.< h.S.S.S.S.S.S.S.G.K.G.K.G.A.S.S.S.S.iXuXfX*X=XvXzXzXC s.OXOXcXyXuXuXyXuXzXiXgXzXzXgXgXuXyXuXqXzX6Xh.A.5 0.h.A.4.h.5.5 S.S.S.S.S.S.D.S.K.G.G.K.G.D.S.S.S.",
"uXuXuXuXyXuX3XP.9X{.9X|.uXyXuXuXuXuXuXzXuXyXuXuXuXuXuXuXuXuXyXuX9X5X}.3X{.qXuXuXuXuXuXuXuXuXuXuXqXzX}.h.h.1 4.C 5.h.G.w 6 K.A.S.S.S.S.S.D.5.2.h.Z 2.D.S.S.S.h.3XzXuX9Xj kXLXSXzXLXx.1 SXqXuXuXuXuXyXuX5X|.}.}.}.uXyXuXuXqXzX2Xh.h.3 h.A.S.h.G.n 6 K.A.S.S.S.S.S.D.5.2.h.Z 4.D.S.S.S.A.uXiXfX>X-.KXzXDXzXPX%.*.xXtXuXuXyXuX3X}.|.3X}.0X3XuXuXuXqXzX0Xh.F.3 6.S.h.D.G.6.< S.S.S.S.S.S.S.D.5.3.d.Z 2.D.A.S.S.S.iXuXfX%X&XvXzXzX3XvXW +XcXyXuXyXuX5X[.qX3X{.3X}.|.3XuXyXqXzX6Xh.D.5 5.A.D.4 1 5.5 D.S.S.S.S.S.A.D.3.5.9.Z 3.S.A.S.S.",
"uXuXuXuXyXiXK.4.3.d.8.k.uXyXuXuXuXuXuXzXuXyXuXuXuXuXuXuXuXuXyXiX!.8.j.4.8.!.iXyXuXuXuXuXuXuXuXuXqXzX2Xh.K.4 w K.A.h.h.< <.G.A.S.S.S.S.S.h.Z Z 4 1 Z G.A.S.S.h.3XzXqXzXV V FXzXzXzX& x.zXqXuXuXuXyXuXqXD P.8.L.d.qXuXuXuXqXzX2Xh.K.5 5 S.h.h.h.< <.J.A.S.S.S.S.S.h.Z A 4 1 Z G.A.S.S.A.uXiXyXuX} >XDXzXDX,XY 4XuXyXuXuXyXuX|.A 3.4.A J.4.uXyXuXqXzX0Xh.G.<.3 h.h.h.S.6 5 K.A.S.S.S.S.D.h.Z Z 4 1 Z G.A.S.S.S.iXiXyXtX` bXvXzXJX%XR tXuXyXuXyXuX0Xf.j.A f.4.8.4.j.uXyXqXzX6Xh.J.( 5 A.h.A.3.2 <.J.A.S.S.S.S.D.9.Z Z 4 1 A G.A.S.S.",
"uXuXuXuXyXiXJ.d.L.4.j.j.uXyXuXuXuXuXuXzXuXyXuXuXuXuXuXuXuXuXyXuX9Xd.j.A 8.P.gXqXuXuXuXuXuXuXuXuXqXzX2Xh.D.h.1 5.A.D.4 5 K.A.S.S.S.S.S.S.h.Z A 4 Z 4.D.A.S.S.h.3XzXqXuX0Xj  XzXFXD F zXqXuXuXuXuXyXuX9X4.f.f.8.l.iXyXuXuXqXzX2Xh.D.A.3 6.A.D.5 5 K.A.S.S.S.S.S.S.h.Z 1.4 Z 4.D.A.S.S.A.uXiXtXfX<X&.iXzXxX .B.zXyXuXuXuXyXuX3X4.d.A D A Z qXuXuXqXzX0Xh.S.D.5 <.S.D.<.6 D.S.S.S.S.S.S.D.d.Z A 4 Z 2.D.A.S.S.S.iXiXyXfX$X&XgXzXzXW %XcXyXuXuXyXiX{.d.4.C f.A 8.4.j.uXuXqXzX6Xh.S.S.5 2.S.D.<.2 D.S.S.S.S.S.S.D.5.Z Z w Z 5.D.A.S.S.",
"uXuXuXuXyXiX|.}.iX5X[.[.iXyXuXuXuXuXuXzXuXyXuXuXuXuXuXuXuXuXuXuX0X5X[.}.P.0XuXyXuXuXuXuXuXuXuXuXqXzX2Xh.S.S.D.A.S.S.A.D.S.S.S.S.S.S.S.A.D.3.1.h.5.h.S.S.S.S.h.3XzXqXyXuXiXqXyXyXqXgXuXuXuXuXuXuXuXyXuX{.!.[.L.P.uXuXuXuXqXzX2Xh.S.S.S.A.S.S.A.D.S.S.S.S.S.S.S.A.D.3.1.h.5.h.S.S.S.S.A.uXiXyXyXfXuXyXyXyXyXfXyXuXuXuXuXyXuX}.[.}.3XP.9X|.yXuXuXqXzX0Xh.S.S.D.A.S.S.A.D.S.S.S.S.S.S.S.S.D.2.4.h.5.h.S.S.S.S.S.iXiXyXyXuXuXyXyXyXyXfXyXuXuXuXyXiX[.K.0X|.P.}.[.[.}.iXyXqXzX6Xh.S.S.D.A.S.S.h.D.S.S.S.S.S.S.S.S.D.4.4.h.5.h.S.S.S.S.",
"uXuXuXuXuXyXuXuXyXuXiXuXyXuXuXuXuXuXuXzXuXyXqXqXqXqXqXqXqXqXqXqXyXuXuXuXiXyXqXqXqXqXqXqXqXqXqXyXqXzX2Xh.S.h.A.A.A.A.A.h.A.A.A.A.A.A.A.A.h.S.D.S.S.S.h.A.A.S.h.3XzXqXqXqXqXqXqXqXyXqXqXqXqXqXqXqXqXqXqXuXuXuXiXiXqXqXqXqXqXzX2Xh.S.A.A.A.A.A.A.A.A.A.A.A.A.A.A.A.A.D.D.S.S.S.A.A.A.S.A.uXiXyXyXtXyXyXyXyXyXtXyXtXyXyXyXyXtXuXiXuXuXiXuXuXyXtXyXqXzX0Xh.S.A.A.A.A.A.A.A.A.A.A.A.A.A.A.A.A.D.D.S.D.S.A.A.A.A.S.iXiXyXyXtXyXyXyXyXyXtXyXyXyXyXyXyXiXiXuXuXiXuXiXiXuXyXyXqXzX6Xh.S.A.A.A.A.A.S.A.A.A.A.A.A.A.A.A.A.D.D.S.S.S.A.A.A.S.",
"uXuXuXuXuXuXyXyXuXyXyXyXuXuXuXuXuXuXuXzXuXuXkXkXkXkXkXkXkXkXkXkXkXkXkXkXkXkXkXkXkXkXkXkXkXkXkXiXqXzX2Xh.D.G.G.G.G.G.G.G.G.G.G.G.G.G.G.G.G.D.D.D.D.G.G.G.G.D.h.3XzXqXgXgXgXgXgXgXgXgXgXgXgXgXgXgXgXgXgXgXgXgXgXgXgXgXgXgXqXzX2Xh.G.G.G.G.G.G.G.G.G.G.G.G.G.G.G.G.G.G.G.G.G.G.G.G.G.D.A.uXiXyXhXhXhXhXhXhXhXhXhXhXhXhXhXhXhXhXhXhXhXfXhXhXhXhXhXqXzX0Xh.F.F.F.F.F.F.F.F.F.F.F.F.F.F.F.F.F.F.F.F.F.F.F.F.F.S.S.iXiXyXfXfXfXfXfXfXfXfXfXfXfXzXzXzXfXuXfXfXfXfXfXfXfXzXuXqXzX6Xh.D.F.D.F.F.F.D.D.F.F.F.F.F.F.F.F.F.D.D.D.D.D.F.F.D.S.",
"uXuXuXuXuXuXuXuXuXuXuXuXuXuXuXuXuXuXuXzXiX7Xi i i i i i i i i i i i i i i i i i i i i i i i i /.uXzX2Xh.q 9 9 9 9 9 9 9 9 9 9 9 9 9 9 9 9 9 9 9 9 9 9 9 9 C A.3XzXyXV V V V V V V V V V V V V V V V V V V V V V V V V K uXzX2Xh.N z z z z z z z z z z z z z z z z z z z z z z z z X.G.uXfX8X-.-.-.-.-.-.-.-.-.-.-.-.-.-.-.-.-.-.-.-.-.-.-.-.-.tXzX0Xj.%.{ { { { { { { { { { { { { { { { { { { { { { { { $.F.iXfXaX&XOX&X&X&X&X&X&X&X&XOXOXOXOX&X&X&X&X&X&X&X&X&XOX*XyXzX6Xh.( ( ( ( ( ( ( ( ( ( ( ( ( ( ( ( ( ( ( ( ( ( ( ( ( q.",
"uXuXuXuXuXuXuXuXuXuXuXuXuXuXuXuXuXuXuXzXkXdX8 7 7 7 7 7 7 7 7 7 7 7 7 7 7 7 7 7 7 7 7 7 7 7 7 i iXzX2Xk.9 .                 .                           . 9 D.3XzXuXj o o o o o o o o o o o $ o o o o o o o o o o o o j iXzX2XA., + + + + + + + + + + + + + + + + + + + + + + + + N G.tXhX<X' ; : : : : : : : : : Y Y : : : : : : : : : : ; ] rXgX0Xl.{ I I I I I I I I I I U U U I I I I I I I I I I U #.l.pXfXnXW R R R R R R R R R R R R R R R R R R R R R R / ^ iXzX6XS.( = * * * * * * * * * * * * * * * * * * * * * * = ) ",
"uXuXuXyXyXuXuXuXyXyXuXuXuXyXuXuXuXuXuXzXiXdX0 7 7 7 7 7 7 7 7 7 7 8 8 y 8 7 7 7 7 7 7 7 7 7 7 i iXzX2Xk.9                                                 9 D.3XzXuXj o $ $ $ $ $ $ $ $ $ % % j % $ $ $ $ $ $ $ $ $ o V iXzX2XA., + @ + + + + + + + + @ @ @ @ + + + + + + + + + + N G.tXfX<X' > : : : : : : : : Y Y ' ' : : : : : : : : : > ] rXgX0Xl.#.I I I I I I I I I I U U U U I I I I I I I I ; U %.l.pXfXnXW R R R R R R R R R W W ^ W R R R R R R R R R R ` iXzX6XS.( * * * * * * * * * * * a a * * * * * * * * * * * ) ",
"uXuXyXiXiXyXyXyXuXuXyXyXyXiXyXuXuXuXuXzXiXdX0 7 7 7 7 7 7 7 7 7 7 8 8 8 7 7 7 7 7 7 7 7 7 7 7 i iXzX2Xk.9                                                 9 D.3XzXuXj o $ $ $ $ $ $ $ $ $ % % % $ $ $ $ $ $ $ $ $ $ o V iXzX2XA., + + + + + + + + + + @ @ @ @ + + + + + + + + + + N G.tXfX<X' ; : : : : : : : : : Y Y Y : : : : : : : : : ; ] rXgX0Xl.#.I ; I I I I I I I I U U U I ; I I I I I I I ; U %.l.pXfXnXW R R R R R R R R R R W W W R R R R R R R R R R ` iXzX6XS.( * * * * * * * * * * * * * * * * * * * * * * * * ) ",
"uXyXiX[.[.iXuXuXqX0XiXuXuX[.uXyXuXuXuXzXkXdX8 7 7 7 7 7 7 7 7 7 7 7 7 7 7 7 7 7 7 7 7 7 7 7 7 i iXzX2Xh.9 .                                             . 9 D.3XzXuXj o o o o o o o o o o o o o o o o o o o o o o o o j iXzX2XA., + + + + + + + + + + + + + + + + + + + + + + + + N G.tXhX<X' : : : : : : : : : : : : : : : : : : : : : : : ] rXgX0Xl.{ U I I I I I I I I I I I I I I I I I I I I I I U #.l.pXfXbXW R R R R R R R R R R R R R R R R R R R R R R R ` uXzX6XS.( = * = = = = = = = = = = = = = = = = = = = = * = ) ",
"yXuX3Xd.3Xf.J.d.d.3.l.J.j.d.f.9XuXyXuXzXiX7X/./././././././././././././././././././././././././.uXzX2Xh.G q q q q q q q q q q q q q q q q q q q q q q q q G A.3XzXyXK V K V V V V V V V V V V V V V V V V V V V V K V (.uXzX2Xh.n N N N N N N N N N N N N N N N N N N N N N N N N O.F.uXgX8X;.;.;.;.;.;.;.;.;.;.;.;.;.;.;.;.;.;.;.;.;.;.;.;.;.tXzX0Xj.%.,.#.#.#.#.#.#.#.#.#.,.#.#.,.#.#.#.#.#.#.#.#.#.>.M.F.iXiXaX*X*X*X*X*X*X*X*X*X*X*X*X*X*X*X*X*X*X*X*X*X*X*X*X*XyXzX6Xh.) ( ( ( ( ( ( ( ( ( ( ( ( ( ( ( ( ( ( ( ( ( ( ( ( q.",
"yXuX3Xf.!.8.4.j.8.8.J.j.3.d.3.[.iXyXuXzXuXyXpXpXpXpXpXpXpXpXpXpXpXpXkXpXpXpXpXpXpXpXpXpXpXpXpXpXqXzX2Xh.A.A.A.A.A.A.A.A.A.A.A.A.D.D.A.A.A.A.A.A.D.D.A.A.A.A.h.3XzXqXuXiXiXiXiXiXiXiXiXuXiXuXgXiXuXiXiXiXiXiXiXiXiXiXiXuXqXzX2Xh.S.j.j.A.A.A.j.A.A.j.j.A.G.S.j.j.j.j.A.j.S.S.j.j.j.A.A.uXiXqXjXjXjXfXfXfXjXfXjXjXwXfXhXjXjXjXjXfXjXfXfXfXjXwXfXqXzX0XA.j.f.f.f.f.f.f.f.f.f.f.f.l.l.f.f.f.f.f.f.f.f.f.f.f.k.D.iXiXqXwXwXwXwXwXwXwXwXwXwXwXwXfXwXwXwXwXwXwXwXwXwXwXwXwXqXzX6Xh.k.h.h.k.k.k.h.k.k.h.h.h.H.k.h.h.h.h.h.k.k.k.h.h.h.k.",
"uXyXiX{.{.{.3X9X5X[.0X3X}.9X[.0XuXyXuXzXiX0X3X0X0X5X5X5X0X5X5X0X0X3X0X3X0X0X5X9X5X5X|.3X5X0X9X3XyXzX2Xh.2.2.2.2.2.4.2.2.4.2.2.4.d.3.2.2.2.2.2.2.4.4.2.2.2.2.h.3XzXqX3X9X9X5X3X3X9X5X3X0X9X3X9X3X9X9X9X9X9X9X|.|.5X9X9X3XqXzX2Xh.2.2.6.2.2.2.6.4.2.6.2.2.h.2.2.2.2.2.2.2.1.4.2.6.2.5.S.uXgX0X3X0X9X3X3X3X0X3X9X0X9X3X0X3X0X9X9X9X9X3X3X3X0X0X3XqXzX0XA.5.2.6.2.2.2.6.2.2.6.6.2.h.6.2.6.2.6.2.2.1.2.2.6.2.5.D.iXiX0X3X0X9X5X3X6X0X3X0X0X9X3X0X3X0X9X0X6X9X3X3X5X0X0X3XqXzX6Xh.2.2.2.2.2.2.2.2.2.2.2.2.h.2.2.2.2.2.2.2.1.2.2.5.2.0.",
"uXuXyXiXiXiXuXuXuXiXuXuXiXuXiXuXyXuXuXzXiX0X9XuXuXP.I.I.{.P.[.iXuX9X0X9XuXiXP.f.I.[.l.l.qXuXuX5XqXzX2Xh.5.5.h.1.Z Z A A Z 5.0.5.h.5.5.h.1.w C 1.Z w 4.h.5.5.h.3XzXqX5XuXiX{.J.I.!.[.I.yXuX0X0X9XqXiX|.j.l.{.I.f.|.iXuX5XqXzX2Xh.5.9.0.Z Z Z 1.Z A 0.9.5.h.5.5.h.Z w Z 1.C w 5.h.5.5.S.uXgX0X9XiX0XJ.L.I.}.I.|.iXuX9X0X9XiX9Xl.j.[.P.f.[.iXuX9X0XzX0XA.5.5.h.A Z Z A A Z 9.0.5.h.5.5.h.Z 4 Z 1.C C 5.0.5.9.D.iXiX0X9XiX0XJ.L.I.}.I.3XiXyX9X0X0XiX5Xl.l.{.I.f.{.iXuX5XqXzX6Xh.5.5.h.A Z Z 1.A Z 0.0.5.h.5.5.h.Z 4 Z A C Z 5.0.5.d.",
"uXuXuXyXyXyXyXyXyXyXyXyXyXyXyXyXuXuXuXzXiX0X9XuXuXP.l.I.J.I.[.uXuX5X0X5XyXuX!.s.I.P.{.l.0XuXyX5XqXzX2Xh.5.5.0.1.w Z Z Z Z 5.9.2.h.5.5.0.2.4 Z Z 1.C 1.0.5.5.h.3XzXqX5XyXuX|.j.I.J.L.L.qXuX0X0X9XqXuX3Xs.J.I.}.F.}.uXqX5XqXzX2Xh.5.5.0.Z w Z Z Z A 0.5.2.h.5.5.0.A 4 Z Z 1.C 5.0.5.5.S.uXgX0X9XuXyXJ.J.J.I.I.|.uXqX5X0X9XuX0Xf.l.I.}.I.!.iXyX5XqXzX0XA.5.5.0.1.w Z Z Z Z 5.9.2.h.5.5.h.Z 4 Z Z 1.C 5.0.5.5.D.iXiX0X9XuXqXl.J.J.I.I.3XuXqX9X0X9XuX9Xf.F.I.}.J.[.iXyX5XqXzX6Xh.5.5.0.1.w Z Z Z Z 5.9.2.h.5.5.0.Z 4 Z A 1.C 5.9.5.d.",
"uXuXuXuXuXuXuXuXuXuXuXuXuXuXuXuXuXuXuXzXiX0X9XuXuXqXqX0XqX0XyXuXuX5X0X5XuXuXuXuXqXqXuX0XyXuXuX5XqXzX2Xh.5.5.5.5.5.5.5.5.5.9.9.2.h.5.5.5.5.5.5.5.5.5.5.9.5.5.h.3XzXqX5XuXuXqXqX0XqX0XqXuXuX0X0X9XqXuXuXyXyX0XuXqXqXuXuX5XqXzX2Xh.5.5.5.5.5.5.5.5.5.5.9.2.h.5.5.5.5.5.5.5.5.5.5.9.5.5.S.uXgX0X9XuXyXqX0XqX0X0XuXuXuX5X0X9XuXuXyXuX0XuXqX0XuXuX5X0XzX0XA.5.5.9.5.5.5.5.5.5.9.9.2.h.5.5.5.5.5.5.5.5.5.5.9.5.5.D.iXiX0X9XuXqXqX0XqX0X0XuXuXyX9X0X0XuXuXyXuX0XuXqXqXuXuX5XqXzX6Xh.5.5.9.5.5.5.5.5.5.9.9.2.h.5.5.5.5.5.5.5.5.5.5.9.5.d.",
"uXuXuXuXuXuXuXuXuXuXuXuXuXuXuXuXuXuXuXzXiX0X3X5X5X9X9X9X9X9X5X5X5X3XqX3X5X5X5X5X5X5X5X9X5X5X5X5XyXzX2Xh.5.2.2.5.5.5.5.5.5.2.5.2.h.5.2.5.2.5.5.5.2.5.5.2.2.5.h.3XzXqX3X5X5X9X5X9X9X9X9X5X5X3X0X9X3X5X5X5X5X9X5X9X5X5X5X5XyXzX2Xh.5.2.5.5.5.5.5.5.5.2.2.2.h.5.2.2.5.5.5.5.2.5.5.5.2.9.S.uXiX0X3X5X5X9X9X9X9X9X5X5X5X5XqX3X5X5X5X5X9X5X5X9X5X5X3XqXzX0XA.5.2.5.5.5.5.5.5.5.2.5.2.h.5.2.5.5.5.5.5.2.5.5.5.2.d.D.iXiX0X3X5X5X9X9X9X9X9X5X5X3X5XqX3X5X5X5X5X9X5X5X9X5X5X3XqXzX6Xh.5.2.5.5.5.5.5.5.5.2.5.2.h.5.2.5.5.5.5.5.2.5.2.5.2.h.",
"uXuXuXuXuXuXuXuXuXuXuXuXuXuXuXuXuXuXuXzXuXyXyXqXqXqXqXqXqXqXqXqXqXyXuXyXqXqXqXqXqXqXqXqXqXqXqXyXqXzX2Xh.S.A.A.A.A.A.A.A.A.A.A.A.S.S.A.A.A.A.A.A.A.A.A.A.A.S.h.3XzXqXyXqXqXqXqXqXqXqXqXqXqXyXuXyXqXqXqXqXqXqXqXqXqXqXqXyXqXzX2Xh.S.A.A.A.A.A.A.A.A.A.A.S.S.S.A.A.A.A.A.A.A.A.A.A.A.S.A.uXiXyXyXqXqXqXqXqXqXqXqXqXqXyXuXyXqXqXqXqXqXqXqXqXqXqXyXqXzX0Xh.S.A.A.A.A.A.A.A.A.A.A.A.S.S.A.A.A.A.A.A.A.A.A.A.A.S.S.iXiXyXyXqXqXqXqXqXqXqXqXqXqXyXuXyXqXqXqXqXqXqXqXqXqXqXyXqXzX6Xh.S.A.A.A.A.A.A.A.A.A.A.A.S.S.A.A.A.A.A.A.A.A.A.A.A.S.",
"uXuXyXyXuXyXyXuXuXyXyXuXuXyXuXuXuXuXuXzXuXyXuXuXuXuXuXuXuXuXuXuXuXyXuXuXuXuXuXuXuXuXuXuXuXyXuXuXqXzX2Xh.S.S.S.S.S.S.S.S.S.S.S.S.S.S.S.S.S.S.S.S.S.S.S.S.S.S.h.3XzXqXuXuXuXuXuXuXuXuXuXuXuXuXyXuXuXuXuXuXuXuXuXuXuXyXuXuXqXzX2Xh.S.S.S.S.S.S.S.S.S.S.S.S.S.S.S.S.S.S.S.S.S.S.S.S.S.S.A.uXiXyXuXuXuXuXuXuXuXuXuXuXuXyXuXuXuXuXuXuXuXuXuXuXyXuXuXqXzX0Xh.S.S.S.S.S.S.S.S.S.S.S.S.S.S.S.S.S.S.S.S.S.S.S.S.S.S.S.iXiXyXuXuXuXuXuXuXuXuXuXuXuXyXuXuXuXuXuXuXuXuXuXuXyXuXuXqXzX6Xh.S.S.S.S.S.S.S.S.S.S.S.S.S.S.S.S.S.S.S.S.S.S.S.S.S.S.",
"uXyXiXiXqXuXuXyXyXiXuXyXyXyXyXyXuXuXuXzXuXuXzXzXzXzXzXzXzXzXzXzXzXzXzXzXzXzXzXzXzXzXzXgXzXDXzXgXqXzX2Xh.A.A.h.h.h.h.h.h.h.h.h.A.A.h.h.h.h.h.h.h.h.h.A.D.h.A.h.3XzXqXzXzXzXzXzXzXzXzXzXzXzXzXzXzXzXzXzXzXzXzXzXgXzXDXzXgXqXzX2Xh.A.A.h.h.h.h.h.h.h.h.h.h.A.h.h.h.h.h.h.A.h.h.A.S.h.A.A.uXiXuXzXSXzXzXzXzXzXzXzXzXzXzXzXzXzXzXzXzXzXzXgXzXSXzXzXyXzX0Xh.A.A.h.h.h.h.h.h.h.h.h.h.A.h.h.h.h.h.h.A.h.h.A.S.h.A.S.iXiXuXzXzXzXzXzXzXzXzXzXzXzXzXzXzXzXzXzXzXzXzXgXzXSXzXzXqXzX6Xh.A.A.h.h.h.h.h.h.h.h.h.h.A.h.h.h.h.h.h.A.h.h.A.S.h.A.",
"yXuX{.{.uX3X3XzXgX[.5XiXuX0XuXuXuXuXuXzXuXuXzXiXFXDXDXFXFXDXFXSXFXuXiXxXzXzXzXzXzXzXzXzXzX}.zXzXqXzX2Xh.A.5.S.D.A.S.D.S.D.S.A.h.5.A.h.h.h.h.h.h.h.h.h.1.h.A.h.3XzXqXzXuXFXFXSXFXFXFXFXFXDXzXuXSXzXzXzXzXzXzXzXzXzX}.zXzXqXzX2Xh.A.5.S.D.A.S.D.S.D.S.A.h.5.A.h.h.h.h.h.h.h.h.d.1.A.A.S.uXiXuXzXqXSXFXDXFXFXFXFXDXFXiXiXxXzXzXzXzXzXzXzXDX|.uXxXqXzX0Xh.A.5.A.D.A.S.D.D.S.D.A.A.5.A.h.h.h.h.h.h.h.A.9.4.A.A.S.iXuXuXgXiXGXDXDXFXFXDXFXSXFXuXiXzXzXzXzXzXzXzXzXSX}.iXzXqXzX6Xh.A.5.A.D.A.S.D.S.S.D.A.A.5.A.h.h.h.h.h.h.h.A.5.4.A.A.",
"uXuX3.J.J.3.d.d.F.8.4.{.f.F.8.K.iXyXuXzXuXgX5Xj.!.P.J.{.!.{.L.3X3Xj.0XDXzXzXzXzXzXzXzXzX0XC 5XzXqXzX2Xh.h.4 Z Z w 1.Z 1.Z 1.5.Z 1.D.h.h.h.h.h.h.h.A.5.1 2.D.h.3XzXyXgXj.P.!.l.{.!.[.P.[.qXJ.!.FXzXzXzXzXzXzXzXzXqXC 3XSXqXzX2Xh.h.4 Z Z w 1.Z 1.Z 1.5.Z Z D.h.h.h.h.h.h.h.S.A 1 h.A.A.uXuXzX!.f.3XP.l.{.!.{.L.3X5Xj.5XDXzXzXzXzXzXzXzXzXA P.FXqXzX0Xh.D.Z Z A C A A 1.1.Z 5.Z Z S.h.h.h.h.h.h.h.D.Z 1 h.A.S.iXuXgX3Xj.!.L.J.{.!.{.L.5X3Xj.0XDXzXzXzXzXzXzXzXgXC [.DXqXzX6Xh.S.w Z A w 1.A 1.1.Z 5.Z Z D.h.h.h.h.h.h.h.D.C 1 A.A.",
"yXuXP.A 4.s.A A 3.F.j.4.C A f.j.uXyXuXzXuXiX0Xd.k.8.d.A A P.f.f.4.Z yXSXzXzXzXzXzXzXzXzX0XA 3XxXqXzX2Xh.h.4 4 4 4 1 1 C w 4 4 6 1.D.h.h.h.h.h.h.h.A.5.1 4.D.h.3XzXqXzXj.d.d.s.4.Z F.l.d.8.w [.FXzXzXzXzXzXzXzXzX0XA |.SXqXzX2Xh.A.w 4 4 4 1 1 w C 4 4 6 A D.h.h.h.h.h.h.h.S.A 1 d.S.A.uXuXzXK.J.d.4.f.A A L.f.f.4.C 0XDXzXzXzXzXzXzXzXzXD P.DXqXzX0Xh.D.Z 4 4 4 1 1 4 Z 4 4 6 w D.h.h.h.h.h.h.h.S.Z 1 h.A.S.iXuXiX0Xd.k.8.d.A A P.f.f.D Z uXSXzXzXzXzXzXzXzXiXA [.DXqXzX6Xh.S.Z 4 4 4 1 1 4 Z 4 4 6 Z D.h.h.h.h.h.h.h.S.C 1 h.A.",
"uXuX[.|.5X!.5X|.|.[.0X{.{.3X5X5XuXyXuXzXuXiXqXL.0X|.[.!.}.qX9X{.J.P.iXzXzXzXzXzXzXzXzXzXzXf.iXzXqXzX2Xh.h.Z 2.2.1.A 1.5.5.2.Z Z 5.A.h.h.h.h.h.h.h.h.h.w d.S.h.3XzXyXgXP.3X5X[.!.[.0X0X3XJ.L.0XSXzXzXzXzXzXzXzXzXzXj.uXzXqXzX2Xh.h.Z 4.2.1.A 1.5.5.2.Z Z 5.A.h.h.h.h.h.h.h.A.3.w A.A.A.uXiXiX5XL.{.}.[.!.{.qX9X}.J.P.uXxXzXzXzXzXzXzXgXDXl.5XSXqXzX0Xh.S.Z 1.5.1.1.A 2.5.2.Z Z 4.A.h.h.h.h.h.h.h.A.2.C S.h.S.iXuXiX0XL.0X|.[.!.}.qX9X{.J.P.iXzXzXzXzXzXzXzXzXSXl.0XSXqXzX6Xh.A.Z 1.2.1.1.A 5.5.2.Z Z 2.A.h.h.h.h.h.h.h.S.1.Z S.A.",
"uXuXiXiXuXiXuXiXiXiXuXiXiXuXuXuXuXuXuXzXuXuXxXFXSXDXDXDXDXSXSXDXFXFXzXzXzXzXzXzXzXzXzXzXzXGXxXzXqXzX2Xh.A.S.A.A.S.S.A.A.A.A.D.D.A.h.h.h.h.h.h.h.h.h.A.D.A.A.h.3XzXqXzXFXDXSXDXDXDXSXSXDXFXFXSXzXzXzXzXzXzXzXzXzXzXGXSXzXqXzX2Xh.A.S.A.A.S.S.A.A.A.A.D.D.A.h.h.h.h.h.h.h.h.h.A.D.h.A.S.uXiXyXSXDXDXDXDXDXDXSXSXDXFXFXzXzXzXzXzXzXzXzXzXzXFXDXzXyXzX0Xh.A.S.S.A.S.S.A.A.A.A.D.D.A.h.h.h.h.h.h.h.h.h.A.D.h.A.S.iXiXuXSXFXSXDXDXDXDXSXSXDXFXFXzXzXzXzXzXzXzXzXzXzXFXSXzXqXzX6Xh.A.S.S.A.S.S.A.A.A.A.D.D.A.h.h.h.h.h.h.h.h.h.S.D.h.A.",
"uXuXyXyXyXyXyXyXyXyXyXyXyXyXyXyXuXuXuXzXuXyXuXuXuXuXuXuXuXuXuXuXuXuXuXuXuXuXuXuXuXuXuXuXuXuXuXuXqXzX2Xh.S.A.A.A.A.A.A.A.A.A.A.A.A.S.A.A.A.A.A.S.A.A.A.A.A.S.h.3XzXqXuXuXuXuXuXuXuXuXuXuXuXuXuXuXuXuXuXuXuXuXuXuXuXuXuXuXqXzX2Xh.S.A.A.A.A.A.A.A.A.A.A.A.A.S.A.A.A.A.A.S.A.A.A.A.S.S.A.uXiXyXuXuXuXuXuXuXuXuXuXuXuXuXuXuXuXuXuXuXuXuXuXuXuXuXuXqXzX0Xh.S.A.A.A.A.A.A.A.A.A.A.A.A.S.A.A.A.A.A.S.A.A.A.A.S.A.S.iXiXyXuXuXuXuXuXuXuXuXuXuXuXuXuXuXuXuXuXuXuXuXuXuXuXuXuXqXzX6Xh.S.A.A.A.A.A.A.A.A.A.A.A.A.S.A.A.A.A.A.S.A.A.A.A.S.S.",
"uXuXuXuXuXuXuXuXuXuXuXuXuXuXuXuXuXuXuXzXuXyXyXyXyXyXyXqXqXyXyXyXyXyXyXyXyXyXyXyXyXqXqXyXyXyXyXuXqXzX2Xh.S.S.S.S.A.A.S.S.S.S.S.S.S.S.S.S.S.S.S.A.A.S.S.S.S.S.h.3XzXqXyXyXyXyXqXqXyXyXyXyXyXyXyXyXyXyXyXyXqXqXqXyXyXyXyXuXqXzX2Xh.S.S.S.S.A.A.S.S.S.S.S.S.S.S.S.S.S.S.A.A.S.S.S.S.S.S.A.uXiXyXyXyXyXyXqXyXyXyXyXyXyXyXyXyXyXyXyXyXtXyXyXyXyXyXyXqXzX0Xh.S.S.S.S.A.A.S.S.S.S.S.S.S.S.S.S.S.S.A.A.S.S.S.S.S.S.S.iXiXyXyXyXyXyXyXyXyXyXyXyXyXyXyXyXyXyXyXyXyXyXyXyXyXyXyXqXzX6Xh.S.S.S.S.A.A.S.S.S.S.S.S.S.S.S.S.S.S.A.A.S.S.S.S.S.S.",
"uXyXyXyXuXyXyXuXuXuXuXuXuXuXuXuXuXuXuXzXuXyXuXuXyXyXiXkXkXuXyXuXuXuXuXuXuXuXuXyXuXkXkXiXqXyXuXuXqXzX2Xh.S.S.A.D.G.G.S.A.S.S.S.S.S.S.S.S.A.S.D.K.D.A.S.S.S.S.h.3XzXqXuXuXqXiXzXgXuXqXuXuXuXuXuXuXuXuXyXyXgXSXgXqXyXuXuXuXqXzX2Xh.S.S.A.S.G.G.S.A.S.S.S.S.S.S.S.S.A.S.G.K.D.A.S.S.S.S.A.uXiXyXuXyXyXfXxXfXyXyXuXuXuXuXuXuXuXyXyXfXhXgXyXyXuXuXuXqXzX0Xh.S.S.A.S.F.F.S.A.S.S.S.S.S.S.S.S.A.S.F.K.D.A.S.S.S.S.S.iXiXyXuXyXyXuXcXuXyXyXuXuXuXuXuXuXuXyXyXuXcXcXyXyXuXuXuXqXzX6Xh.S.S.A.S.D.D.S.A.S.S.S.S.S.S.S.S.A.S.D.K.D.A.S.S.S.S.",
"uXiXuXgXuXiXiXqXyXyXyXyXyXyXyXyXyXuXuXzXuXyXuXyXuXkXQ./.~.uXpXqXuXuXuXuXuXuXqXiXuX~.W.Q.kXuXyXuXqXzX2Xh.S.S.G.d.1.1.A.D.A.S.S.S.S.S.S.A.D.D.2.Z 2.G.S.A.S.S.h.3XzXqXuXyXgX|.x.x.0XgXqXuXuXuXuXuXuXqXiXiX`.a.P.gXuXyXuXuXqXzX2Xh.S.S.G.h.<.7.A.D.A.S.S.S.S.S.S.A.D.A.7.n 5.K.S.S.S.S.A.uXiXyXyXuXfXU.m.U.fXfXyXuXuXuXuXuXyXuXhX<XN.Y.uXfXyXuXuXqXzX0Xh.S.A.F.A.7.7.h.F.A.S.S.S.S.S.S.A.D.A.7.<.5.K.A.S.S.S.S.iXiXyXyXuXuXeX%X-XuXuXyXuXuXuXuXuXyXuXuXeX=X%XfXuXyXuXuXqXzX6Xh.S.A.D.h.1.1.h.D.A.S.S.S.S.S.S.A.D.h.1.<.h.J.A.S.S.S.",
"qX{.9XP.qX}.|.gXuXiXuXiXiXiXiXiXuXyXuXzXuXyXyXuXuXi p i i p 7XiXyXuXuXuXuXqXkX^.p i u 7 r iXyXuXqXzX2Xh.S.D.w 1 4 1 1 2.D.A.S.S.S.S.A.D.h.1 4 5 < 6 A.S.S.S.h.3XzXqXyXgXJ j V v & J.gXqXuXuXuXuXyXiX5Xj v F & 1 qXuXyXuXqXzX2Xh.S.D.n 3 5 3 3 2.F.A.S.S.S.S.A.D.2.3 5 3 < 5 G.A.S.S.A.uXiXyXuXuX&. . .T T 4XfXyXuXuXuXyXuXuX&.} =.E T 2XfXyXuXqXzX0Xh.S.F.7.3 5 5 3 <.F.A.S.S.S.S.A.F.7.3 5 3 < 5 G.A.S.S.S.iXiXyXuXtX&X&X&X&X&XtXuXyXuXuXuXyXuXtX&X&X&XW W 6XuXyXuXqXzX6Xh.S.D.1.2 5 5 2 1.D.A.S.S.S.S.A.D.1.2 5 2 < w J.A.S.S.",
"[.8.j.L.uX4.4.l.J.j.P.j.d.d.P.f.{.iXyXzXuXyXqXkXi i HXUXUX/.0 qXuXyXuXuXyXuX7Xy ^.8XI.FX0 r zXqXqXzX2Xh.K.Z 1 h.D.G.1.< 5.D.A.S.S.S.S.S.1 Z h.w D.2 6 K.A.S.h.3XzX0XzXH j SXyXP. X$ {.iXyXuXuXyXuXuXj g.SXl.GXF 1 zXqXuXqXzX2Xh.G.<.3 h.D.G.1.< 6.D.A.S.S.A.D.5.6 6.3.Z S.< 5 K.A.S.A.uXiXtXfX&.;.{.xXPXM.T uXuXyXuXuXyXhX&.;.KXl.cXB.Y yXuXyXqXzX0Xh.F.6.3 6.S.G.5.< <.J.A.S.S.A.D.6.3 5.4.A A.< X.K.A.S.S.iXiXyXuX&X*XvXKXvXOXW uXyXuXuXuXyXuX&X*XcXx.vX+XW uXyXuXqXzX6Xh.D.2.2 0.D.G.5.< 1.G.A.S.S.A.D.2.2 h.A A h.< <.J.A.S.",
"qXd.A {.uX8.[.j.d.Z D w d.d.8.4.j.uXyXzXuXqXiX.Xp SXSXgXw '.r q.kXqXuXuXqXkXW./.IX!.C LXqX0 0XuXqXzX2Xh.S.1 5.S.A.1 w 5 1 K.A.S.S.A.G.1.4 K.2.& h.D.< 2.D.S.h.3XzXyXqXj 9XIXf.A IXH v SXqXuXuXqXgXx.V IX9X4 zXGX& `.gXyXqXzX2Xh.S.3 6.S.A.1 w 5 3 K.A.S.S.A.G.5 n T.C 1 K.2.< S.S.S.A.uXiXfX<X} PXA s.FXPX .B.zXyXuXyXfX,X} xXxXw 3XIX .m.xXyXqXzX0Xh.G.5 <.S.S.4 1 <.< F.A.S.S.A.F.5 <.L.4 1 T.1.< D.S.S.S.iXuXuX$X&XvXSXyX4 XXW %XcXyXuXyXuX;X&XvXgX4 0XPXW =XcXyXqXzX6Xh.D.5 2.D.S.4 1 <.6 K.A.S.S.A.D.5 1.T.4 1 T.<.6 J.A.S.",
"9XP.3XK.0X3XuX5X9X[.P.[.3X5XP.d.!.}.iXzXuXqXkX~.i HXzXuXJ.GXW.r HXqXuXuXqXkXi ^.HXgXiXzXSX0 ~.kXqXzX}.A.0.1 h.h.h.Z h.<.6 K.A.S.S.A.K.w w D.h.h.h.D.6 Z K.S.h.3XzXuX Xj zXzXuXiXFX`.1 zXqXuXuXqXSXK J GXzXiXzXJXv e.SXqXqXzX2Xh.h.3 h.h.h.Z h.<.< G.A.S.S.A.G.3 7.S.h.h.h.h.< 5.D.S.A.uXiXhX#X-.KXiX0XzXKX*.%.xXqXuXyXhX>X-.KXzXiXkXKXM.%.xXtXqXzX0Xh.S.3 6.h.A.Z 3.h.< h.S.S.S.S.D.3 6.A.h.h.A.h.< h.S.A.S.iXuXfX*X=XvXSX0XL.PX^ +XcXtXuXyXcX%X&XvXzXiXgXKX+X` cXtXqXzX6Xh.A.5 0.h.A.Z 5.5.< S.S.S.S.S.S.5 5.A.h.h.A.5.< A.S.S.",
"uXiXuXzXuXiXiXuXuXzXzXgXiXzXuXyXiXuXuXzXuXqXiX^.p HXzXzXDXIXr q.SXqXuXuXqXkXi /.UXzXzXSXgX0 7XiXqXzX}.h.h.1 h.A.h.D.K.4 6 K.A.S.S.A.G.Z 4 G.h.A.h.G.< 1.G.S.h.3XzXyX0Xj wXDXzXzXIXa.v SXqXuXuXqXzXa.V IXzXxXzXJX1 x.gXqXqXzX2Xh.A.3 5.S.h.D.K.4 6 K.A.S.S.A.G.5 X.G.h.A.S.5.< h.S.S.A.uXiXfX<X} KXzXSXzXPX .v.xXtXuXyXfX<X} vXzXzXzXPX%.*.xXtXqXzX0Xh.F.5 7.S.h.D.G.2.< D.S.S.S.A.F.5 <.D.h.A.S.6.< S.S.A.S.iXuXfX%X&XvXzXSXFXPXW OXcXyXuXyXfX$X&XvXzXxXzXPXW +XcXyXqXzX6Xh.D.5 6.D.h.D.K.<.6 D.A.S.S.A.D.5 2.D.h.h.D.1.< D.A.S.",
"yXqXiXd.[.d.5XJ.P.3X[.5X5XP.9XuXyXuXuXzXuXyXyXkXi /.HXzXSX~.7 5XuXyXuXuXyXiXQ.y dXSXzXFXr r zXqXqXzX2Xh.K.w 4 A.h.h.5.< 2.D.A.S.S.S.S.h.1 1.A.h.D.4 < D.A.S.h.3XzX0XzXK V DXzXSX0X& I.gXqXuXuXyXuX0Xj (.FXzXGXr.& gXyXuXqXzX2Xh.K.n 3 A.h.h.5.< 1.G.A.S.S.A.D.6.6 5.A.h.S.6 5 K.A.S.A.uXiXyXfX} :.xXzXFXU.Y 0XuXyXuXuXyXfX} :.xXzXFX,XY 6XuXyXqXzX0Xh.F.7.3 h.h.h.h.< 5 K.A.S.S.A.F.7.3 5.h.h.A.< 5 K.A.S.S.iXiXyXuX` *XvXzXvX=XW uXuXyXuXuXyXuX&X*XvXzXFX%XR yXuXyXqXzX6Xh.J.<.2 h.h.h.h.< Z J.A.S.S.A.D.1.2 h.h.h.h.< w K.A.S.",
"uXyXgX4.A D 8.w A 4.C k.8.4.j.iXyXuXuXzXuXyXyXpX7Xi qXiXzXr ~.kXqXuXuXuXuXqXkX/./.kXzX.Xr yXuXyXqXzX2Xh.S.S.4 5.S.D.4 4 K.A.S.S.S.S.A.D.2.w S.A.h.6 5.D.A.S.h.3XzXqXuXuXV  XzXDXH H zXqXuXuXuXuXqXgX`.V gXgXuXv  XiXyXuXqXzX2Xh.S.S.5 6.S.D.5 5 K.A.S.S.S.S.A.G.n n D.S.2.6 S.S.S.S.A.uXiXyXfX8X&.pXgXzX .U.hXyXuXuXuXyXfX8X&.pXgXzX%.Y.hXyXuXqXzX0Xh.S.F.E 7.S.D.<.5 F.A.S.S.S.S.A.F.X.<.S.D.<.3 D.S.S.S.S.iXiXyXuXeXOXiXgXgX^ $XzXyXuXuXuXyXuXeXOXiXgXzX^ $XzXyXuXqXzX6Xh.S.D.e 2.S.D.<.5 J.A.S.S.S.S.A.D.e 1.S.D.<.5 J.A.S.S.",
"uXyXuXP.f.F.3.d.l.k.J.f.8.A !.iXyXuXuXzXuXyXuXyXuXkXyXyXyXiXiXyXuXuXuXuXuXuXyXiXuXyXyXyXkXuXyXuXqXzX2Xh.S.S.D.S.S.S.D.D.A.S.S.S.S.S.S.A.D.D.S.S.S.D.D.A.S.S.h.3XzXqXyXuXgXuXyXyXuXgXyXuXuXuXuXuXuXqXiXiXyXyXyXgXiXyXuXuXqXzX2Xh.S.S.F.S.S.S.D.G.A.S.S.S.S.S.S.S.D.S.S.S.S.G.S.S.S.S.A.uXiXyXyXuXfXyXyXyXfXfXyXuXuXuXuXuXyXuXfXyXyXyXfXfXyXuXuXqXzX0Xh.S.S.D.S.S.S.S.G.S.S.S.S.S.S.S.S.D.S.S.S.S.G.S.S.S.S.S.iXiXyXyXuXuXyXyXyXfXuXyXuXuXuXuXuXyXuXuXyXyXyXfXuXyXuXuXqXzX6Xh.S.S.D.S.S.S.S.D.S.S.S.S.S.S.S.S.D.S.S.S.S.D.S.S.S.S.",
"uXuXyXiXgXgXzXzXiXuXuXzXqX|.zXyXuXuXuXzXuXyXuXuXyXqXuXyXyXqXqXuXuXuXuXuXuXuXuXqXqXuXyXyXqXyXuXuXqXzX2Xh.S.S.A.S.A.A.A.A.S.S.S.S.S.S.S.S.A.A.S.A.A.A.A.S.S.S.h.3XzXqXuXyXqXyXyXuXqXqXyXuXuXuXuXuXuXuXqXqXuXyXyXqXyXuXuXuXqXzX2Xh.S.S.A.S.A.A.A.A.S.S.S.S.S.S.S.S.A.A.S.A.A.A.S.S.S.S.A.uXiXyXuXyXyXyXyXyXyXqXyXuXuXuXuXuXuXyXqXuXyXyXqXyXuXuXuXqXzX0Xh.S.S.A.A.S.A.A.A.S.S.S.S.S.S.S.S.A.A.S.A.A.A.S.S.S.S.S.iXiXyXuXyXyXuXyXyXqXyXuXuXuXuXuXuXuXyXyXuXyXyXqXyXuXuXuXqXzX6Xh.S.S.A.A.S.A.A.A.S.S.S.S.S.S.S.S.A.A.S.A.A.A.S.S.S.S.",
"uXyXuX3X9X!.L.P.qXiX5XK.L.[.9XuXyXuXuXzXuXyXuXyXuXgXuXiXiXiXuXyXuXuXuXuXuXuXyXiXiXuXiXiXiXuXuXuXqXzX2Xh.S.S.G.S.D.D.D.D.S.S.S.S.S.S.S.S.D.D.S.D.D.D.S.S.S.S.h.3XzXqXyXuXiXiXuXuXiXiXiXuXuXuXuXuXuXyXuXiXuXiXiXiXuXyXuXuXqXzX2Xh.S.S.G.S.D.D.D.D.S.S.S.S.S.S.S.S.D.D.S.D.D.D.S.S.S.S.A.uXiXyXyXuXiXiXuXiXiXiXiXyXuXuXuXuXyXuXgXuXiXiXiXuXyXuXuXqXzX0Xh.S.S.D.D.S.D.D.D.S.S.S.S.S.S.S.S.D.D.S.D.D.D.S.S.S.S.S.iXiXyXyXuXgXuXiXiXiXuXyXuXuXuXuXuXyXuXgXuXiXiXiXuXyXuXuXqXzX6Xh.S.S.D.D.D.D.D.D.S.S.S.S.S.S.S.S.D.D.S.D.D.D.S.S.S.S.",
"uXyXiXJ.d.4.4.A qX9X8.4.A 4.L.iXqXuXuXzXuXyXyXuX5Xf.0XL.K.j.3XuXyXuXuXuXuXyXiXP.K.qXj.L.F.uXuXuXqXzX2Xh.S.A.Z d.2.Z Z 2.D.A.S.S.S.S.A.D.3.Z S.Z 1.Z h.S.S.S.h.3XzXqXiX9XL.J.P.qXj.L.F.uXyXuXuXuXyXiX{.j.yXl.L.j.0XuXyXuXqXzX2Xh.S.A.Z 9.2.Z Z 2.D.A.S.S.S.S.A.D.1.1.h.Z 1.Z D.S.S.S.A.uXiXqXgX[.J.J.{.!.J.L.P.iXyXuXuXyXuX5Xf.qXL.K.j.3XuXyXuXqXzX0Xh.S.D.Z 4.d.Z A 1.D.S.S.S.S.S.S.D.A 4.h.Z 1.A D.S.S.S.S.iXiXqXiX3Xk.yXJ.L.j.9XuXyXuXuXuXyXuX3Xf.qXJ.L.j.5XuXyXuXqXzX6Xh.S.D.Z 3.5.Z A 1.D.A.S.S.S.S.S.D.Z 2.9.Z A 1.D.A.S.S.",
"uXyXiXl.3.8.4.D }.|.3.8.4.8.J.iXqXuXuXzXuXyXyXgXP.d.L.J.A 8.K.gXqXuXuXuXuXuXyXk.j.L.f.A k.|.iXyXqXzX2Xh.G.3.w A 1.4 4 Z D.A.S.S.S.S.A.D.Z C 1.Z 1 C 4.G.A.S.h.3XzXuX3X}.d.F.j.[.d.A k.3XiXyXuXuXyXiXJ.f.L.j.A d.!.gXyXuXqXzX2Xh.D.5.w A 1.4 4 Z S.A.S.S.S.S.S.h.Z Z 1.w 1 Z 9.D.S.S.A.uXiXyX|.}.3.P.L.|.4.8.k.qXuXuXuXqXgXP.d.L.J.A 8.K.gXqXuXqXzX0Xh.D.h.w Z 1.4 1 Z h.S.S.S.S.S.S.h.C Z 1.4 1 Z h.S.S.S.S.iXiXqXiXK.d.L.F.A d.P.gXqXuXuXuXqXiXL.d.L.F.A d.L.gXqXuXqXzX6Xh.D.d.w Z 1.4 4 Z h.S.S.S.S.S.D.h.w Z 1.4 1 Z h.S.S.S.",
"uXyXiX{.[.3X3X{.P.uX}.3X|.!.}.iXyXuXuXzXuXyXyXiX}.3.J.j.8.8.!.iXyXuXuXuXuXyXiXF.8.K.d.8.d.0XuXuXqXzX2Xh.D.h.4 Z Z 4 4 A D.A.S.S.S.S.A.D.1.4 A C 4 4 5.D.S.S.h.3XzXuX3X9XK.{.d.J.d.8.d.0XuXyXuXuXyXiXP.3.K.d.8.8.3XiXyXuXqXzX2Xh.D.h.4 Z Z 4 4 Z D.A.S.S.S.S.S.D.Z w A 4 4 C h.S.S.S.A.uXiXyX3XP.8.4.J.{.f.3.j.uXyXuXuXyXiX}.3.J.k.8.8.!.iXyXuXqXzX0Xh.S.S.Z C A 4 4 Z S.S.S.S.S.S.S.S.Z C A 4 4 Z S.S.S.S.S.iXiXqXiX!.3.J.f.8.8.{.iXyXuXuXuXyXiX[.3.J.f.8.8.[.iXyXuXqXzX6Xh.S.A.w Z Z 4 4 Z D.S.S.S.S.S.S.A.C Z Z 4 4 Z S.S.S.S.",
"uXuXyXuXuXiXuXiXiXyXiXuXiXuXuXyXuXuXuXzXuXyXuXuXuX9XqX0XqX0XuXuXuXuXuXuXuXyXuXqX0XqX0XyX0XuXyXuXqXzX2Xh.S.S.h.h.h.h.h.A.S.S.S.S.S.S.S.S.A.h.A.h.S.h.S.S.S.S.h.3XzXqXuXuXyX5X0XqX0XyX0XuXyXuXuXuXuXuXyX9XqX0XyX0XuXyXuXuXqXzX2Xh.S.S.h.h.h.h.h.A.S.S.S.S.S.S.S.S.h.h.A.h.A.h.S.S.S.S.A.uXiXqXiX9X0X5X5X5X0XqX0XuXyXuXuXuXuXuX9XqX0XqX0XuXuXuXuXqXzX0Xh.S.S.h.h.h.h.A.h.S.S.S.S.S.S.S.S.h.h.A.h.A.h.S.S.S.S.S.iXiXyXuXuX9XqX0XyX0XuXyXuXuXuXuXuXuXuX9XqX0XyX0XuXuXuXuXqXzX6Xh.S.S.h.h.h.h.h.h.S.S.S.S.S.S.S.S.h.h.h.h.A.h.S.S.S.S.",
"uXuXuXyXyXyXyXyXyXuXyXyXyXyXyXuXuXuXuXzXuXyXuXuXuXuXuXuXuXuXuXuXuXuXuXuXuXuXyXuXuXuXuXuXuXyXuXuXqXzX2Xh.S.S.S.S.S.S.S.S.S.S.S.S.S.S.S.S.S.S.S.S.S.S.S.S.S.S.h.3XzXqXyXyXuXuXuXuXuXuXuXyXuXuXuXuXuXuXuXuXuXuXuXuXyXuXuXuXqXzX2Xh.S.S.S.S.S.S.S.S.S.S.S.S.S.S.S.S.S.S.S.S.S.S.S.S.S.S.A.uXiXyXyXuXuXuXuXuXuXuXuXyXuXuXuXuXuXuXuXuXuXuXuXuXuXuXuXqXzX0Xh.S.S.S.S.S.S.S.S.S.S.S.S.S.S.S.S.S.S.S.S.S.S.S.S.S.S.S.iXiXyXuXuXuXuXuXuXuXyXuXuXuXuXuXuXuXuXuXuXuXuXuXuXuXuXuXqXzX6Xh.S.S.S.S.S.S.S.S.S.S.S.S.S.S.S.S.S.S.S.S.S.S.S.S.S.S.",
"uXuXuXuXuXuXuXuXuXuXuXuXuXuXuXuXuXuXuXzXuXyXuXuXuXyXuXyXyXyXuXuXuXuXuXuXuXuXuXyXyXuXyXyXyXuXuXuXqXzX2Xh.S.S.S.S.S.S.S.S.S.S.S.S.S.S.S.S.S.S.S.S.S.S.S.S.S.S.h.3XzXqXuXuXuXyXyXuXyXyXyXuXuXuXuXuXuXuXuXyXuXyXyXyXuXuXuXuXqXzX2Xh.S.S.S.S.S.S.S.S.S.S.S.S.S.S.S.S.S.S.S.S.S.S.S.S.S.S.A.uXiXyXuXyXyXyXyXyXyXyXyXuXuXuXuXuXuXuXyXuXyXyXyXuXuXuXuXqXzX0Xh.S.S.S.S.S.S.S.S.S.S.S.S.S.S.S.S.S.S.S.S.S.S.S.S.S.S.S.iXiXyXuXuXyXuXyXyXyXuXuXuXuXuXuXuXuXuXyXuXyXyXyXuXuXuXuXqXzX6Xh.S.S.S.S.S.S.S.S.S.S.S.S.S.S.S.S.S.S.S.S.S.S.S.S.S.S.",
"uXuXuXuXuXuXuXuXuXuXuXuXuXuXuXuXuXuXuXzXuXyXuXuXuXyXyXyXyXyXuXuXuXuXuXuXuXuXuXuXyXqXqXqXyXuXuXuXqXzX2Xh.S.S.S.A.A.A.A.S.S.S.S.S.S.S.S.S.S.A.A.A.A.S.S.S.S.S.h.3XzXqXuXuXuXyXyXyXyXuXuXuXuXuXuXuXuXuXuXyXqXqXqXyXuXuXuXuXqXzX2Xh.S.S.S.A.A.A.A.S.S.S.S.S.S.S.S.S.S.A.A.A.A.S.S.S.S.S.A.uXiXyXuXuXyXyXyXyXyXuXuXuXuXuXuXuXuXuXyXqXqXqXyXuXuXuXuXqXzX0Xh.S.S.S.A.A.A.A.S.S.S.S.S.S.S.S.S.S.A.A.A.A.S.S.S.S.S.S.iXiXyXuXuXyXyXyXyXyXuXuXuXuXuXuXuXuXuXyXqXqXqXyXuXuXuXuXqXzX6Xh.S.S.S.A.A.A.A.S.S.S.S.S.S.S.S.S.S.A.A.A.A.S.S.S.S.S.",
"uXuXuXuXyXyXyXyXyXyXyXyXuXuXuXuXuXuXuXzXuXyXuXuXyXuXkXkXkXuXyXuXuXuXuXuXuXuXuXqXfXhXhXhXuXyXuXuXqXzX2Xh.S.A.S.J.K.K.D.A.S.S.S.S.S.S.S.S.A.D.K.K.K.S.A.S.S.S.h.3XzXqXuXyXuXkXkXkXiXyXuXuXuXuXuXuXuXuXqXfXhXhXhXuXyXuXuXuXqXzX2Xh.S.S.S.J.K.K.D.A.S.S.S.S.S.S.S.S.A.D.K.K.K.S.A.S.S.S.A.uXiXyXuXyXuXkXkXkXuXyXuXuXuXuXuXuXuXyXuXhXhXhXfXqXuXuXuXqXzX0Xh.S.S.A.D.K.K.J.A.S.S.S.S.S.S.S.S.A.G.K.K.G.S.S.S.S.S.S.iXiXyXuXyXuXkXkXkXuXyXuXuXuXuXuXuXuXyXuXhXhXhXfXqXuXuXuXqXzX6Xh.S.S.A.G.K.K.G.A.S.S.S.S.S.S.S.S.A.G.K.K.G.A.S.S.S.S.",
"uXuXuXyXiXiXiXiXuXuXuXuXuXuXuXuXuXuXuXzXuXyXuXyXuXqX/././.7XkXyXuXuXuXuXuXuXyXhX'.@.o.y.uXuXyXuXqXzX2Xh.S.D.S.Z 5 5 2.J.A.S.S.S.S.S.S.A.G.5.5 3 5 h.D.A.S.S.h.3XzXqXyXuXuX~././.Q.kXyXuXuXuXuXuXuXyXhX8X@.o.+.8XfXyXuXuXqXzX2Xh.S.S.D.<.5 5 1.J.A.S.S.S.S.S.S.S.G.2.5 3 n D.S.A.S.S.A.uXiXyXyXiX0X/././.7XkXyXuXuXuXuXuXyXfX0X+.o.@.,XhXqXuXuXqXzX0Xh.S.S.D.1.5 5 <.D.S.S.S.S.S.S.S.S.G.1.5 5 <.D.S.S.S.S.S.iXiXyXyXiX0X/././.9XkXyXuXuXuXuXuXyXfX8X+.o.@.8XhXqXuXuXqXzX6Xh.S.S.D.1.5 5 1.D.S.S.S.S.S.S.S.S.G.<.5 5 <.G.S.S.S.S.",
"uXuXyXiX}.}.|.{.0XuX9XL.qXyXuXuXuXuXuXzXuXyXyXuX7X) /.~./.) ~.kXyXuXuXuXuXyXhX+.x ].).o.x 0XuXyXqXzX2Xh.D.A.2 2 e 4 < e G.A.S.S.S.S.A.G.<.< 5 n 3 < 6.D.A.S.h.3XzXqXuXqX) ) ~.~.) /.kXyXuXuXuXuXyXhX).x +.).@.x '.fXyXuXqXzX2Xh.S.A.2 2 e 4 < 4 G.A.S.S.S.S.A.G.5 < 4 n 6 6 A.S.S.S.A.uXiXqXuX7X) /.~./.) ~.kXyXuXuXuXyXfX,Xx @.).@.x ).hXyXuXqXzX0Xh.S.D.5 6 e e 6 2 D.S.S.S.S.S.A.D.5 < n n 6 6 S.S.S.S.S.iXiXqXiXQ.) /.~./.) Q.iXyXuXuXuXyXfX'.x @.).@.x ).hXyXuXqXzX6Xh.S.D.2 2 e e 6 5 D.S.S.S.S.S.S.D.5 6 n n < 3 D.S.S.S.",
"uXuXqXzX4.A 4.3.K.A J.A K.zXqXuXuXuXuXzXuXyXyXuX) ~.UXHXIXfX) 7XuXyXuXuXyXfX'.x kXKXKXIXu.o.hXyXqXzX2Xh.K.5 5 K.D.K.S.< 1.D.A.S.S.S.S.h.< 2.G.D.T.<.< D.S.S.h.3XzXqXkX/./.UXHXLXFX) ~.kXyXuXuXyXuX8Xx ,XPXKXIX'.x uXuXuXqXzX2Xh.K.5 5 K.D.K.D.< 1.G.A.S.S.A.G.<.< A.G.G.T.5 5 K.A.S.A.uXiXyXuX) Q.UXHXIXsX) 6XuXyXuXyXyXfXx ).PXKXIXrXx 8XuXyXqXzX0Xh.K.e 6 D.D.K.K.2 4 K.A.S.S.A.G.Z 6 S.D.G.T.3 5 K.A.S.S.iXiXuXqX) -XGXHXIX7X) qXuXyXuXyXuXuXx '.PXKXIX,Xx 0XuXyXqXzX6Xh.K.e 2 F.D.K.K.6 e K.A.S.S.A.K.n 6 D.D.G.T.6 n K.A.S.",
"uXyXuX5Xd.8.d.k.4.C l.4.d.9XuXyXuXuXuXzXuXyXiXQ.) HXzXxXA a.q.q.zXqXuXuXqXhXo.).KXkXuXl.|.x 4XuXqXzX}.h.h.6 h.h.A.4 1 4 6 K.A.S.S.A.K.n 3 G.h.h.C 4.6 1.G.S.h.3XzXyX0X) gXzXDXf.D ~.( zXqXuXuXqXhXu.@.KXkXkXJ..Xo._.hXyXqXzX2Xh.h.6 0.h.A.4 1 w 6 K.A.S.S.A.K.3 n D.h.5.C 4.6 h.S.S.A.uXiXiX~.) HXgXzXA g.q.q.zXqXuXyXhX'.x KXkXzXP.Q.@.+.hXqXqXzX0Xh.D.2 1.S.A.Z 1 <.< S.S.S.S.A.G.6 <.D.h.5.C 1.6 A.S.A.S.iXuXkX~.) HXgXzXC x.( l.zXqXuXyXhX).o.KXkXzXI..X@.b.hXyXqXzX6Xh.D.6 2.A.A.Z 1 Z < D.A.S.S.A.D.6 1.S.h.2.C <.6 D.S.S.",
"uXuXuXqXiXuX3X9X3XqX3XqX}.[.iXyXuXuXuXzXuXqXkX~.) HXzXzXJ.uXq.( zXqXuXuXqXhXo.).DXSX9XC }.z '.gXqXzX}.A.9.6 A.h.A.Z 2.<.< K.A.S.S.A.K.5 5 D.h.d.1 Z 6 4 K.A.h.3XzXuX7X) zXzXDXP.3XQ.e zXqXuXuXqXhX@.+.KXzXiXC !.n t.xXqXqXzX2XA.0.6 h.h.A.Z 4.<.< K.A.S.S.A.G.6 <.S.S.4.1 1.< 6.D.S.A.uXiXkX~./.HXzXzXl.kXq.( zXqXuXyXhX).o.KXzXSXD f.t.n xXqXqXzX0Xh.D.2 6.A.S.1.Z 5.< h.S.S.S.A.D.6 2.A.S.1.1 1.< h.D.A.S.iXuXkX~./.HXzXiXl.zXq.q.zXqXuXqXhXb.@.KXzXzXA l.O.X.xXqXqXzX6Xh.A.6 5.h.S.A A 6.< S.S.S.S.S.S.6 6.A.D.Z 1 1.< h.S.S.",
"uXyXuX0X|.iXgX3XzXiXzXgXgXzXuXyXuXuXuXzXuXyXuX7X) zXSXzXFXIXe l.zXqXuXuXqXhX@.@.PXzXzXIXtX, qXuXqXzX2Xh.S.6 2.D.h.S.T.2 2 K.A.S.S.A.G.<.6 G.h.h.G.D.< 2.D.S.h.3XzXqXuX) 7XHXzXDXIXq.( zXqXuXuXyXhX).x KXzXzXLXJX, '.gXyXqXzX2Xh.D.6 2.D.h.S.T.2 2 K.A.S.S.A.K.5 5 K.h.A.T.2.< S.S.S.A.uXiXuX7X) zXzXzXFXLXe G.zXyXuXyXfX4Xx zXDXzXFXIXz t.xXqXqXzX0Xh.K.2 e K.h.A.T.Z < J.A.S.S.A.K.3 5 K.h.A.T.<.< G.A.S.S.iXuXuXQ.) HXzXzXGXJXt ~.kXyXuXyXfX'.x DXxXzXGXIX, n.gXyXqXzX6Xh.J.2 <.G.h.A.T.4 < K.A.S.S.A.G.6 n G.h.A.T.n < K.A.S.",
"uXqXgXJ.A L.j.f.J.!.L.J.P.j.0XuXyXuXuXzXuXyXyXkX/.) zXzXFXq.t uXuXyXuXuXyXuX0Xx ).FXzXiX, t.xXqXqXzX2Xh.K.Z < h.h.S.Z - h.D.A.S.S.S.S.D.6 5 S.h.A.< 6 K.A.S.h.3XzXqXkX~.) fXzXDX~.t 5XuXyXuXuXuXyXfXx @.FXzXDXN n xXqXuXqXzX2Xh.K.<.< 0.h.S.Z - 0.D.A.S.S.S.D.h.< <.S.h.5.< n K.A.S.A.uXiXqXkX/.) SXzXFXq.e iXyXuXuXuXqXhX@.m DXzXFXO., fXyXuXqXzX0Xh.D.5.< 2.A.A.2.- 1.J.A.S.S.A.D.5.< 1.S.A.6.< <.K.A.S.S.iXiXqXkX) /.SXzXDX( e zXyXuXuXuXyXhXo.o.DXzXFXX.z gXyXuXqXzX6Xh.G.2.< 6.A.A.1.- 2.D.A.S.S.A.D.2.< 2.A.A.2.< 1.G.A.S.",
"uXqXgXF.A A Z 4.C 4.C 4.Z Z 3XuXyXuXuXzXuXyXuXuXuX~.qXiXiXq.5XiXyXuXuXuXuXyXfX'.).gXgX2Xt.gXyXuXqXzX2Xh.S.D.Z 5.S.D.Z 1.J.A.S.S.S.S.S.D.h.n S.S.h.5 S.S.S.S.h.3XzXqXyXiX~.7XiXzXG.!.kXyXuXuXuXuXyXfX8Xb.iXiXqXt.yXuXyXuXqXzX2Xh.S.D.<.5.S.D.Z 1.J.A.S.S.S.S.A.G.2.<.D.S.2.4 G.A.S.S.A.uXiXyXuXyX~.yXiXiXq.5XiXyXuXuXuXyXuXuXb.0XiXgXt.4XfXyXuXqXzX0Xh.S.G.1.1.D.D.1.Z K.A.S.S.S.S.A.G.1.<.D.D.2.n K.A.S.S.S.iXiXyXuXqX~.uXiXuXq.0XuXyXuXuXuXyXuXqXb.yXiXuXt.6XiXyXuXqXzX6Xh.S.G.<.2.D.D.<.<.K.A.S.S.S.S.A.G.<.7.D.D.1.Z K.A.S.S.",
"uXyXuX3X}.P.P.{.P.P.J.P.P.P.qXuXuXuXuXzXuXyXuXyXuXkXuXyXyXzXuXyXuXuXuXuXuXuXyXfXhXyXyXuXzXyXuXuXqXzX2Xh.S.A.G.D.S.S.G.D.A.S.S.S.S.S.S.A.S.G.S.S.S.K.S.S.S.S.h.3XzXqXuXyXkXuXyXyXkXiXyXuXuXuXuXuXuXyXuXhXyXyXuXxXuXyXuXuXqXzX2Xh.S.A.G.D.S.A.G.D.A.S.S.S.S.S.S.A.D.D.S.S.D.K.A.S.S.S.A.uXiXyXuXuXkXuXyXyXzXuXyXuXuXuXuXuXyXuXhXuXyXyXhXuXyXuXuXqXzX0Xh.S.A.D.D.S.S.D.J.A.S.S.S.S.S.S.A.D.D.S.S.D.G.A.S.S.S.S.iXiXyXyXuXkXyXyXyXzXuXyXuXuXuXuXuXyXuXhXuXyXyXzXuXyXuXuXqXzX6Xh.S.A.D.D.S.S.D.D.A.S.S.S.S.S.S.A.G.D.S.S.D.G.A.S.S.S.",
"uXuXuXiXgXzXiXgXiXiXzXzXzXgXiXuXuXuXuXzXuXyXuXuXuXyXyXuXyXyXyXuXuXuXuXuXuXuXuXyXqXuXuXyXqXuXuXuXqXzX2Xh.S.S.S.A.S.S.A.A.S.S.S.S.S.S.S.S.S.A.S.S.S.A.S.S.S.S.h.3XzXqXuXuXuXyXuXuXyXyXuXuXuXuXuXuXuXuXyXqXuXuXuXqXyXuXuXuXqXzX2Xh.S.S.S.A.S.S.A.A.S.S.S.S.S.S.S.S.A.A.S.S.S.A.S.S.S.S.A.uXiXyXuXuXyXyXuXyXyXyXuXuXuXuXuXuXuXyXqXyXuXyXyXyXuXuXuXqXzX0Xh.S.S.S.A.S.S.A.A.S.S.S.S.S.S.S.S.A.A.S.S.S.A.S.S.S.S.S.iXiXyXuXuXyXyXuXyXyXyXuXuXuXuXuXuXuXyXqXyXuXyXyXyXuXuXuXqXzX6Xh.S.S.S.A.S.S.A.A.S.S.S.S.S.S.S.S.A.A.S.S.A.A.S.S.S.S.",
"uXuXqXP.|.}.9X|.qXqX}.{.9X|.P.qXuXuXuXzXuXyXuXuXqXqXuXqXuXqXuXuXuXuXuXuXuXuXuXuXuXyXuXyXuXuXuXuXqXzX2Xh.S.S.h.D.A.S.S.S.S.S.S.S.S.S.S.S.S.S.S.S.S.S.S.S.S.S.h.3XzXqXuXuX0XuXyXuXuXyXuXyXuXuXuXuXuXuXuXuXuXuXuXuXuXuXuXuXqXzX2Xh.S.S.h.S.A.S.S.S.S.S.S.S.S.S.S.S.S.S.S.S.S.S.S.S.S.S.A.uXiXyXuXqXqXuXqXuXqXuXyXuXuXuXuXuXuXuXuXuXqXuXqXuXyXuXuXqXzX0Xh.S.S.h.D.A.S.S.S.S.S.S.S.S.S.S.S.S.S.S.S.S.S.S.S.S.S.S.iXiXyXuXqXqXuXyXuXqXuXyXuXuXuXuXuXuXuXuXuXqXuXqXuXyXuXuXqXzX6Xh.S.S.h.D.A.D.S.S.S.S.S.S.S.S.S.S.S.S.S.S.S.S.S.S.S.S.",
"yXiX3X8.4.4.f.3.uX3XA 4.f.d.f.3XiXyXuXzXuXyXyXuX0Xf.d.j.5X3.{.iXyXuXuXuXuXyXiX|.f.J.d.8.[.iXyXuXqXzX2Xh.S.D.1.w 4 5.A Z S.S.S.S.S.S.S.S.h.C A w w 1.D.A.S.S.h.3XzXqXyXuXP.d.8.}.K.f.uXuXuXuXuXuXyXuX0Xf.K.d.d.K.iXyXuXuXqXzX2Xh.S.D.4.w 4 5.1.C S.S.S.S.S.S.S.S.h.C A w w A D.A.S.S.A.uXiXqXuX9Xf.d.j.5X3.}.iXyXuXuXuXuXyXgXK.F.k.f.d.9XuXyXuXqXzX0Xh.S.D.1.w 4 5.Z Z D.S.S.S.S.S.S.S.h.C A w w 1.D.A.S.S.S.iXiXqXuX5Xd.s.J.3X3.3XuXyXuXuXuXuXyXgXJ.J.f.f.d.0XuXyXuXqXzX6Xh.S.S.A w 4 d.Z Z D.S.S.S.S.S.S.D.d.C A w 4 4.D.A.S.S.",
"yXuX3X8.L.L.L.d.L.5XJ.L.L.f.3.5XuXyXuXzXuXyXuXuXuXj.8.j.J.f.J.gXqXuXuXuXuXuXuXqX8.F.A 8.J.iXqXuXqXzX2Xh.S.D.5.4 Z Z Z w h.D.S.S.S.S.S.A.D.Z Z 4 4 Z S.S.S.S.h.3XzXqXyXuX}.4.f.F.F.d.5XuXyXuXuXuXuXyXuXf.j.3.4.l.uXyXuXuXqXzX2Xh.S.D.5.4 Z Z Z w h.D.S.S.S.S.S.A.D.Z Z 4 4 Z S.S.S.S.A.uXiXyXuXyXk.8.j.J.d.K.gXqXuXuXuXuXyXiX{.3.F.Z f.[.iXyXuXqXzX0Xh.S.D.2.4 Z Z Z C h.S.S.S.S.S.S.S.S.C Z 4 4 Z D.A.S.S.S.iXiXyXuXqXd.8.j.J.d.P.gXqXuXuXuXuXyXiX!.8.j.Z f.{.iXyXuXqXzX6Xh.S.D.4.4 Z Z Z C A.S.S.S.S.S.S.S.A.w Z 4 4 Z D.A.S.S.",
"uXuXyX|.uXuXyX0X}.uXuXuXyXqX|.uXuXuXuXzXuXyXyXiX{.8.L.f.!.d.}.iXyXuXuXuXuXuXuXqX!.K.j.f.{.iXyXuXqXzX2Xh.S.D.4 Z Z 1.Z Z D.S.S.S.S.S.S.S.D.2.1.Z Z 1.D.A.S.S.h.3XzXqXyXuXd.J.k.L.J.j.uXyXuXuXuXuXuXyXuX[.P.j.j.P.iXyXuXuXqXzX2Xh.S.D.w Z Z 1.A Z D.S.S.S.S.S.S.A.D.2.1.Z Z 1.D.A.S.S.A.uXiXqXiX!.8.K.k.!.d.|.uXyXuXuXuXuXyXuX3X!.j.J.f.0XuXyXuXqXzX0Xh.S.S.4 A Z 1.Z Z D.S.S.S.S.S.S.S.S.2.1.Z Z 4.D.A.S.S.S.iXiXqXgXP.d.J.j.P.d.3XuXyXuXuXuXuXyXiX3X!.j.J.k.qXuXyXuXqXzX6Xh.S.A.4 1.Z 1.Z A D.A.S.S.S.S.S.S.S.4.1.Z Z 2.D.A.S.S.",
"uXuXuXuXyXyXuXuXiXuXuXyXuXuXuXuXuXuXuXzXuXyXuXyXuXuXuXiXuXiXuXyXuXuXuXuXuXuXuXuXuXuXiXiXuXyXuXuXqXzX2Xh.S.S.D.S.D.D.D.D.S.S.S.S.S.S.S.S.S.D.D.D.D.D.S.S.S.S.h.3XzXqXuXyXiXuXiXuXuXiXuXuXuXuXuXuXuXuXyXuXuXiXiXuXyXuXuXuXqXzX2Xh.S.S.D.S.D.D.D.D.S.S.S.S.S.S.S.S.S.D.D.D.D.D.S.S.S.S.A.uXiXyXyXuXuXuXiXuXiXuXyXuXuXuXuXuXuXyXuXiXuXiXiXuXyXuXuXqXzX0Xh.S.S.D.S.D.D.D.D.S.S.S.S.S.S.S.S.S.D.D.D.D.D.S.S.S.S.S.iXiXyXyXuXuXuXiXuXiXuXyXuXuXuXuXuXuXyXuXiXiXiXiXuXyXuXuXqXzX6Xh.S.S.D.S.D.D.D.D.S.S.S.S.S.S.S.S.S.D.D.D.D.D.S.S.S.S.",
"uXuXuXyXuXuXuXyXyXuXuXuXuXuXyXuXuXuXuXzXuXyXuXuXyXyXyXyXyXyXyXuXuXuXuXuXuXuXuXuXyXyXyXyXyXuXuXuXqXzX2Xh.S.S.S.S.A.S.S.A.S.S.S.S.S.S.S.S.S.S.S.A.A.S.S.S.S.S.h.3XzXqXuXuXyXyXyXyXyXyXuXuXuXuXuXuXuXuXuXyXyXyXyXyXuXuXuXuXqXzX2Xh.S.S.S.S.A.S.S.A.S.S.S.S.S.S.S.S.S.S.S.A.A.S.S.S.S.S.A.uXiXyXuXyXyXyXyXyXyXyXuXuXuXuXuXuXuXuXyXyXyXyXyXyXuXuXuXqXzX0Xh.S.S.S.S.A.S.S.A.S.S.S.S.S.S.S.S.S.S.S.A.A.S.S.S.S.S.S.iXiXyXuXyXyXyXyXyXyXyXuXuXuXuXuXuXuXuXyXyXyXyXyXyXuXuXuXqXzX6Xh.S.S.S.S.A.S.A.A.S.S.S.S.S.S.S.S.S.S.S.A.A.S.S.S.S.S.",
"uXuXuXuXuXuXuXuXuXuXuXuXuXuXuXuXuXuXuXzXuXyXuXuXuXuXuXuXuXuXuXuXuXuXuXuXuXuXuXuXuXuXuXuXuXuXuXuXqXzX2Xh.S.S.S.S.S.S.S.S.S.S.S.S.S.S.S.S.S.S.S.S.S.S.S.S.S.S.h.3XzXqXuXuXuXuXuXuXuXuXuXuXuXuXuXuXuXuXuXuXuXyXuXuXuXuXuXuXqXzX2Xh.S.S.S.S.S.S.S.S.S.S.S.S.S.S.S.S.S.S.S.S.S.S.S.S.S.S.A.uXiXyXuXuXuXuXuXuXuXuXuXuXuXuXuXuXuXuXuXuXuXuXuXuXuXuXuXqXzX0Xh.S.S.S.S.S.S.S.S.S.S.S.S.S.S.S.S.S.S.S.S.S.S.S.S.S.S.S.iXiXyXuXuXuXuXuXuXuXuXuXuXuXuXuXuXuXuXuXuXuXuXuXuXuXuXuXqXzX6Xh.S.S.S.S.S.S.S.S.S.S.S.S.S.S.S.S.S.S.S.S.S.S.S.S.S.S.",
"uXuXuXuXuXyXuXuXuXuXuXyXuXuXuXuXuXuXuXzXuXyXuXuXuXyXyXuXyXyXuXuXuXuXuXuXuXuXuXuXqXyXuXqXyXuXuXuXqXzX2Xh.S.S.A.A.S.S.A.S.S.S.S.S.S.S.S.S.S.A.A.S.A.A.S.S.S.S.h.3XzXqXuXuXyXyXuXyXyXuXuXuXuXuXuXuXuXuXuXqXqXuXqXqXuXuXuXuXqXzX2Xh.S.S.A.A.S.S.A.S.S.S.S.S.S.S.S.S.S.A.S.S.A.S.S.S.S.S.A.uXiXyXuXuXyXyXuXyXyXuXuXuXuXuXuXuXuXuXyXyXuXyXyXuXuXuXuXqXzX0Xh.S.S.S.A.S.S.A.S.S.S.S.S.S.S.S.S.S.A.S.S.A.S.S.S.S.S.S.iXiXyXuXuXyXyXuXyXyXuXuXuXuXuXuXuXuXuXyXyXuXyXyXuXuXuXuXqXzX6Xh.S.S.S.A.S.S.A.S.S.S.S.S.S.S.S.S.S.A.S.S.A.S.S.S.S.S.",
"uXuXuXuXuXuXyXyXyXyXyXuXyXyXuXuXuXuXuXzXuXyXuXuXyXuXlXyXuXlXyXuXuXuXuXuXuXuXyXuXkXpXuXkXiXqXuXuXqXzX2Xh.S.A.D.K.S.D.K.S.S.S.S.S.S.S.S.S.A.G.D.S.G.D.A.S.S.S.h.3XzXqXuXyXuXlXuXuXlXuXyXuXuXuXuXuXuXuXqXgXgXyXgXgXqXuXuXuXqXzX2Xh.S.A.D.K.S.D.K.S.S.S.S.S.S.S.S.S.S.G.D.S.G.D.A.S.S.S.A.uXiXyXuXyXlXlXyXuXlXyXuXuXuXuXuXuXuXyXfXhXyXfXhXyXuXuXuXqXzX0Xh.S.A.S.K.S.S.K.S.A.S.S.S.S.S.S.S.S.G.S.S.G.S.A.S.S.S.S.iXiXyXuXyXlXlXyXlXlXyXuXuXuXuXuXuXuXyXfXfXyXfXfXyXuXuXuXqXzX6Xh.S.A.S.K.S.S.K.S.A.S.S.S.S.S.S.A.S.G.S.S.J.S.A.S.S.S.",
"uXuXuXqXqXqXiXiXuXiXiXyXiXuXuXuXuXuXuXzXuXyXuXyXlX-X_ _ _ :XlXyXuXuXuXuXuXyXuXuX/.i p i Q.kXqXuXqXzX2Xh.S.D.5.5 2 2 5 S.S.S.S.S.S.S.S.S.D.1.1 1 1 2.G.A.S.S.h.3XzXqXyXuXaX_ _ _ :XuXuXyXuXuXuXuXuXyXgXx.v j v (.gXqXuXuXqXzX2Xh.S.D.0.5 2 2 5 S.S.S.S.S.S.S.S.S.S.n 3 3 5 9.D.A.S.S.A.uXiXyXyXlX-X_ _ _ :XlXyXuXuXuXuXuXyXhX<X&.} } #XfXyXuXuXqXzX0Xh.S.D.A.5 2 2 5 h.D.A.S.S.S.S.S.S.A.E 3 3 5 h.D.A.S.S.S.iXiXyXyXlX-X_ _ _ :XlXyXuXuXuXuXuXyXfX$X&X&X&X%XfXyXuXuXqXzX6Xh.S.D.h.5 2 2 5 h.D.A.S.S.S.S.A.D.h.e 5 5 e h.D.A.S.S.",
"uXyXiXP.4.8.3X|.3X}.3Xk.K.uXyXuXuXuXuXzXuXyXyXlX-X_ -XgXaX_ :XlXyXuXuXuXuXyXiXi i dXsX/.y ^.iXyXqXzX2Xh.D.6.< e 5.2.2 2 D.S.S.S.S.S.A.G.w 1 2.5.1.1 1.G.A.S.h.3XzXqXuXaX_ :XgXaX_ _ uXuXuXuXuXuXqXgXJ j  XwX(.j g.gXqXuXqXzX2Xh.D.5.6 e 5.2.5 2 S.S.S.S.S.S.S.S.3 5 6.6.n 6 5.D.A.S.A.uXiXyXlX:X_ -XgX-X_ :XlXyXuXuXuXyXfX>X} >XrX<X} ;.hXyXuXqXzX0Xh.S.A.2 5 6.6.5 6 h.D.S.S.S.S.S.A.3 5 6.6.X.3 h.S.S.S.S.iXiXyXlX:X_ -XgX-X_ :XlXyXuXuXuXyXfX%X` bXpXeX&X=XfXyXuXqXzX6Xh.D.h.6 5 6.6.5 2 h.S.S.S.S.S.S.h.5 e 5.5.e 2 h.S.S.S.",
"uXyXiX3Xj.d.4.8.d.Z 3.4.4.|.iXyXuXuXuXzXuXyXuXyX_ aXvXzXGXcX_ -XuXyXuXuXqXkX/.i UXHXSXUX^.p iXyXqXzX2Xh.F.2 <.K.A.D.J.2 ( J.A.S.S.A.D.5.1 A.D.A.D.5.1 h.S.S.h.3XzXqXlX_ :XvXzXFXLX_ :XlXyXuXuXyXiX Xj zXGXSXLXwXj 9XuXyXqXzX2Xh.J.2 ( K.A.D.K.2 e J.A.S.S.A.G.<.3 G.A.A.G.<.3 G.A.S.A.uXiXyXtX_ gXvXzXGXzX_ -XuXyXuXyXuXtX} rXKXxXKXxX} <XfXyXqXzX0Xh.K.5 5 K.A.D.K.5 5 J.A.S.S.A.G.X.5 J.A.A.J.X.5 F.A.S.S.iXiXuXaX_ gXvXxXGXgX_ aXuXyXuXyXuXaX` iXvXxXvXzX` eXuXyXqXzX6Xh.K.5 5 K.A.D.K.5 5 K.A.S.S.A.F.e e G.A.A.J.e e G.A.S.",
"uXyXuX5XL.!.J.P.!.k.J.d.[.l.qXuXuXuXuXzXuXyXlX-X_ vXgXzXA D E.( cXyXuXuXqXkXi ^.HXzXgXxXHXi .XiXqXzX}.h.0.2 h.h.S.4 1 w 6 K.A.S.S.A.K.Z w D.h.h.h.G.4 1.G.S.h.3XzXyXaX_ zXzXSX|.9X-X_ lXyXuXuXqXSXJ J UXzXzXzXIXV x.gXqXqXzX2Xh.h.2 h.h.S.4 1 Z 6 K.A.S.S.A.G.3 <.S.h.h.A.A.3 h.S.S.A.uXiXlX:X_ vXgXzXZ H E.E.cXyXuXyXhX>X-.KXkXzXiXPX:.;.hXtXqXzX0Xh.D.2 2.A.S.Z & <.< h.S.S.S.A.D.3 6.A.h.h.D.h.3 A.S.A.S.iXuXlX:X:XvXzXgXC a._ E.cXyXuXyXcX%X&XvXzXzXgXPX=X=XfXyXqXzX6Xh.S.2 5.h.D.Z & <.< S.S.S.S.S.S.5 5.A.h.h.D.5.5 S.S.S.",
"uXuXuXuXuXiXzXuXuXuXqXiXuX3XqXuXuXuXuXzXuXyXlX-X_ vXzXzX{.cXE.( cXyXuXuXqXkXi ^.HXDX!.w uXi Q.iXqXzX}.h.0.2 h.h.A.1.d.<.< K.A.S.S.A.K.Z w D.A.2.& 2.4 1.G.S.h.3XzXyXaX_ zXzXFXf.C -X_ kXyXuXuXqXSXJ J UXzX9X1 6XV x.zXqXqXzX2Xh.h.2 h.h.A.4.9.<.< K.A.S.S.A.G.5 7.S.D.Z & d.3 0.D.S.A.uXiXlX:X_ vXzXzX[.cXE.( cXyXuXyXhX>X-.KXzXzXC ~.>X;.hXtXqXzX0Xh.D.2 6.S.A.2.4.5.< A.S.S.S.A.D.3 6.A.D.C 1 5.3 h.S.A.S.iXuXlX:X:XvXzXzX[.cX( E.cXyXuXyXcX%X&XvXSXuXw [.*X=XfXyXqXzX6Xh.S.2 5.A.A.2.3.2.< D.S.S.S.S.S.5 5.A.D.4 1 0.5 S.S.S.",
"uXuXuXyXuX}.F.0XuXuXuXuXuXuXuXuXuXuXuXzXuXyXuXyX_ aXvXzXFXFX( !.kXyXuXuXqXkX/.i HXzXzX XW.p iXyXqXzX2Xh.D.2 <.D.h.A.K.< 5 K.A.S.S.A.D.5.1 h.h.A.4.Z 6 h.S.S.h.3XzXqXlX_ :XvXzXDXLX( E.cXyXuXuXqXgX[.j zXSXzX|.P.j 9XuXyXqXzX2Xh.J.2 ( D.h.A.K.6 5 K.A.S.S.A.G.n 3 D.h.h.1.4 3 F.A.S.A.uXiXuXaX_ gXcXzXFXSX( -XkXyXuXyXuXtX} rXxXSX5X[.[ <XfXyXqXzX0Xh.K.5 5 D.h.A.L.5 6 K.A.S.S.A.G.X.5 S.h.h.A 5 5 G.A.S.S.iXiXuXaX_ gXcXzXGXgX( 4XuXyXuXyXuXaX` pXxXSX|.!.^ eXuXyXqXzX6Xh.K.5 5 D.h.A.L.2 2 K.A.S.S.A.F.e e D.h.h.A 5 5 J.A.S.",
"uXuXuXyXuX3X3.j.j.8.j.3.L.iXyXuXuXuXuXzXuXyXyXlX:X_ gXzXvX( ( zXyXuXuXuXuXyXiXu /.HXzXfX0 ~.kXqXqXzX2Xh.D.6.< 5.A.D.5 < D.S.S.S.S.S.A.G.w 4 D.h.D.< 4 K.A.S.h.3XzXqXuX-X_ aXzXvXE.( uXuXyXuXuXuXqXzXV V DXzXFX1 H zXqXuXqXzX2Xh.D.6.< 6.A.D.5 < D.S.S.S.S.S.S.S.3 n S.A.5.< 2.D.A.S.A.uXiXyXlX:X_ zXzXcX( ( zXyXuXuXuXyXhX#X} zXzXKX%. .zXyXuXqXzX0Xh.S.h.6 <.S.S.<.< 0.D.A.S.S.S.S.A.3 <.S.S.6.< 5.D.A.S.S.iXiXyXlX:X_ zXzXcX( E.cXyXuXuXuXyXcX=X&XzXzXGX^ ^ cXyXuXqXzX6Xh.D.h.< 1.S.S.<.< h.S.S.S.S.S.S.h.2 1.A.D.2.< h.D.A.S.",
"uXuXuXqXgXj.f.f.3.j.d.C P.iXyXuXuXuXuXzXuXyXuXyXuXaXyXuXuX-XuXuXuXuXuXuXuXyXuXqXQ.uXuX5XQ.kXqXuXqXzX2Xh.S.D.5.h.S.D.2.h.D.A.S.S.S.S.S.S.S.5.S.S.h.2.D.A.S.S.h.3XzXqXyXuXaXaXuXuX-X0XuXyXuXuXuXuXuXuXuX XuXuX0X`.gXyXuXuXqXzX2Xh.S.D.5.h.S.D.6.h.D.A.S.S.S.S.S.D.h.5.S.S.5.5.G.A.S.S.A.uXiXyXuXuXaXyXuXuX-XuXuXuXuXuXuXuXyXfX,XtXuXuX'.uXuXyXuXqXzX0Xh.S.D.h.5.S.D.5.5.D.A.S.S.S.S.S.S.h.5.S.S.5.5.F.A.S.S.S.iXiXyXuXuX-XyXuXyX-XuXuXuXuXuXuXuXyXuXeXyXuXyX$XuXuXuXuXqXzX6Xh.S.D.0.0.S.D.5.0.D.A.S.S.S.S.A.D.h.0.S.S.5.0.D.A.S.S.",
"uXuXuXyXuX|.{.3X3X0X0X3X0XuXyXuXuXuXuXzXuXyXuXuXyXuXuXyXyXuXyXyXuXuXuXuXuXuXyXuXpXyXyXuXiXqXuXuXqXzX2Xh.S.A.S.S.S.S.D.S.A.S.S.S.S.S.S.S.S.D.S.S.S.D.A.S.S.S.h.3XzXqXuXyXuXuXyXyXuXuXyXuXuXuXuXuXuXyXyXiXyXyXuXgXqXuXuXuXqXzX2Xh.S.A.S.S.S.S.D.S.A.S.S.S.S.S.S.S.S.S.A.S.S.D.A.S.S.S.A.uXiXyXuXyXuXuXyXyXiXyXyXuXuXuXuXuXuXyXfXuXyXyXfXyXyXuXuXqXzX0Xh.S.A.S.D.A.S.D.D.A.S.S.S.S.S.S.A.S.S.S.S.S.S.A.S.S.S.S.iXiXyXuXyXuXuXyXuXiXyXyXuXuXuXuXuXuXyXuXyXyXyXfXyXyXuXuXqXzX6Xh.S.A.S.S.A.S.D.S.A.S.S.S.S.S.S.A.S.S.S.A.D.S.A.S.S.S.",
"uXuXuXyXuXyX0XqXiXuXiX0X0XqXuXuXuXuXuXzXuXyXuXyXuXuXuXuXuXuXuXuXyXuXuXuXuXuXuXyXuXuXuXuXuXuXyXuXqXzX2Xh.S.S.D.S.S.S.D.S.D.S.S.S.S.S.S.S.S.S.S.S.D.S.D.S.S.S.h.3XzXqXuXuXuXuXiXuXuXuXiXuXuXuXuXuXuXuXyXuXuXuXiXuXuXyXuXuXqXzX2Xh.S.S.D.S.S.S.D.S.D.S.S.S.S.S.S.S.A.S.S.S.D.S.D.S.S.S.A.uXiXyXyXuXuXuXuXuXuXuXuXyXuXuXuXuXuXuXyXuXyXiXuXiXuXuXuXqXzX0Xh.S.S.D.S.D.S.D.S.D.S.S.S.S.S.S.S.A.S.S.S.D.S.D.S.S.S.S.iXiXyXyXuXuXuXuXuXuXuXuXyXuXuXuXuXuXyXyXuXyXiXuXiXyXuXuXqXzX6Xh.S.S.D.S.D.S.D.S.D.S.S.S.S.S.S.S.A.D.S.S.D.D.S.S.S.S.",
"uXyXiXP.L.8.3.4.0XuXl.4.4.8.[.iXyXuXuXzXuXyXyXuX3X3XyX9XqX3X5X3XuXyXuXuXuXuXyXuX3XqX9X3X3X0XuXuXqXzX2Xh.S.S.3.A.h.S.5.h.5.S.S.S.S.S.S.S.D.h.h.h.5.d.d.D.S.S.h.3XzXqXuXuX5X9X|.uX5X0X}.uXuXuXuXuXuXyXuX9X9XqX3X5X5XuXyXuXqXzX2Xh.S.S.3.A.h.S.5.h.5.S.S.S.S.S.S.S.D.h.h.h.5.d.d.D.S.S.A.uXiXqXuX3X3XyX9X0X3X5X5XuXyXuXuXuXuXuXuX3XuX|.9X|.uXuXuXqXzX0Xh.S.A.3.S.h.S.5.h.5.S.S.S.S.S.S.S.D.h.h.h.9.d.h.D.S.S.S.iXiXyXuX3X3XqX0X0X3X3X9XuXyXuXuXuXuXuXyX3XuX|.9X|.uXyXuXqXzX6Xh.D.h.3.S.h.S.5.h.5.S.S.S.S.S.S.S.D.d.h.h.9.9.h.S.S.S.",
"uXyXiXj.3.3.D A 0X}.4.4.A 3.J.iXqXuXuXzXuXyXuXyX3Xf.k.F.{.4.4.j.yXuXuXuXuXyXuX3XA 9XJ.4.4.K.iXyXqXzX2Xh.S.S.Z Z 4 d.C 4 4 3.D.A.S.S.S.S.h.4 3.4.4 4 Z S.S.S.h.3XzXqXqXyXd.f.3.zXf.j.8.{.iXyXuXuXuXuXqX4.{.P.4.4.j.uXyXuXqXzX2Xh.S.S.Z Z 4 d.C 4 4 2.D.A.S.S.S.S.A.4 2.4.4 4 Z S.S.S.A.uXiXqXyX3Xf.f.J.[.4.4.j.uXyXuXuXuXyXiXJ.8.0Xd.4.8.{.iXyXqXzX0Xh.S.S.Z Z 4 d.w 4 4 5.D.A.S.S.S.S.h.1 5.1.4 4 Z D.S.S.S.iXiXyXuX}.f.d.L.P.4.4.F.uXyXuXuXuXyXiXl.d.0X8.4.8.|.iXyXqXzX6Xh.S.A.Z Z 4 d.4 4 4 9.D.S.S.S.S.S.h.1 d.A 4 4 Z D.A.S.",
"uXyXiXL.j.J.J.k.K.qXj.K.l.k.P.iXyXuXuXzXuXyXuX[.P.f.A 4.K.3.D j.qXuXuXuXyXuX9Xj.D j.F.4.4.F.iXyXqXzX}.A.d.4.Z 4 1 A Z 1 w 4.G.A.S.S.S.h.A 4 Z Z 4 4 Z A.S.S.h.3XzXuX3X}.J.[.d.[.!.d.d.P.gXyXuXyXuX0XK.4.f.J.3.4.j.qXuXuXqXzX2XA.h.4.Z w 1 A Z 1 4 4.G.A.S.S.S.h.1.4 Z Z 4 4 Z A.S.S.A.uXiXyX[.P.f.A 3.K.4.4.j.qXuXuXuXyXuX}.d.4.J.j.A d.!.iXyXqXzX0XA.9.4.Z 4 1 1.Z 1 w 2.D.A.S.S.S.h.A 4 Z Z 4 4 Z S.S.S.S.iXiXqX[.L.f.Z d.J.4.4.j.uXyXuXuXyXuX{.8.4.J.k.A d.[.iXyXqXzX6XA.5.4.Z 4 1 1.Z 1 w 3.D.A.S.S.S.h.Z 4 Z Z 4 4 Z D.A.S.",
"uXuXuXqXyXgXiXiX0XuXiXiXiXqXqXuXuXuXuXzXuXyXyXgXP.J.9XP.{.P.!.!.iXyXuXuXuXyXuXuXP.[.!.!.P.|.uXyXqXzX2Xh.D.h.Z 9.2.2.1.2.1.h.S.S.S.S.S.S.D.4.4.2.1.4.2.D.S.S.h.3XzXqXuXiX3X}.P.}.3X3XK.0XuXyXuXuXuXuXiX!.P.{.P.!.[.iXyXuXqXzX2Xh.D.h.Z 5.3.2.1.2.1.h.S.S.S.S.S.S.D.2.4.3.1.4.2.D.S.S.A.uXiXqXgXP.K.5XP.[.P.!.[.iXyXuXuXuXyXiX9XL.}.P.[.L.qXuXuXqXzX0Xh.D.h.Z 9.2.2.1.2.1.A.S.S.S.S.S.S.D.4.4.2.4.4.2.D.S.S.S.iXiXqXiXK.P.5XP.[.P.P.{.iXyXuXuXuXyXiX3XL.}.P.{.L.yXuXuXqXzX6Xh.D.d.Z d.2.3.1.2.1.S.S.S.S.S.S.S.D.1.2.2.4.1.5.D.S.S.",
"uXuXyXuXuXqXyXyXuXyXyXyXqXuXuXyXuXuXuXzXuXyXuXyXiXgXuXiXiXiXiXiXyXuXuXuXuXuXuXuXiXiXiXiXgXuXyXuXqXzX2Xh.S.S.K.D.D.D.G.D.G.S.S.S.S.S.S.S.S.D.G.D.G.G.D.S.S.S.h.3XzXqXuXyXuXiXiXiXuXuXgXuXuXuXuXuXuXuXyXiXiXiXiXiXiXyXuXuXqXzX2Xh.S.S.K.D.D.D.G.D.G.S.S.S.S.S.S.S.S.D.G.D.G.G.D.S.S.S.S.uXiXyXyXgXgXuXiXiXiXiXiXyXuXuXuXuXuXyXuXgXiXgXiXgXuXuXuXyXzX0XA.S.D.K.D.D.D.G.D.G.S.S.S.S.S.S.S.S.G.G.D.G.G.D.S.S.S.D.iXiXyXyXgXiXuXiXiXiXiXiXyXuXuXuXuXuXyXuXgXiXgXiXgXuXuXuXqXzX6Xh.S.D.K.D.G.D.G.D.G.S.S.S.S.S.S.S.S.G.D.D.G.G.D.S.S.S.",
"uXuXuXyXyXuXuXuXyXuXuXuXuXyXyXuXuXuXuXzXuXqXyXyXqXqXqXqXqXqXqXqXyXyXyXyXyXyXyXyXqXqXqXqXqXqXyXyXqXzX{.d.h.h.h.h.h.h.h.h.h.h.h.h.h.h.h.h.h.h.h.h.h.h.h.h.h.h.d.3XzXqXyXyXqXqXqXqXqXqXqXyXyXyXyXyXyXyXyXqXqXqXqXqXqXyXyXyXqXzX}.d.h.h.h.h.h.h.h.h.h.h.h.h.h.h.h.h.h.h.h.h.h.h.h.h.h.h.h.uXiXqXyXqXqXqXqXqXqXqXqXyXyXyXyXyXyXyXqXqXqXqXqXqXyXyXyXqXgX0Xh.h.h.h.h.h.h.h.h.h.h.h.h.h.h.h.h.h.h.h.h.h.h.h.h.h.h.h.iXuXqXyXqXqXqXqXqXqXqXqXyXyXyXyXyXyXyXqXqXqXqXqXqXyXyXyXqXzX3Xh.h.h.h.h.h.h.h.h.h.h.h.h.h.h.h.h.h.h.h.h.h.h.h.h.h.h.",
"uXuXuXuXuXuXuXuXuXuXuXuXuXuXuXuXuXuXuXzXzXgXgXgXgXgXgXgXgXgXgXgXgXgXgXgXgXgXgXgXgXgXgXgXgXgXgXzXgXzXuX3X3X3X3X3X3X3X3X3X3X3X3X3X3X3X3X3X3X3X3X3X3X3X3X3X3X3X3XuXzXgXzXgXgXgXgXgXgXgXgXgXgXgXgXgXgXgXgXgXgXgXgXgXgXgXgXzXgXzXuX3X3X3X3X3X3X3X3X3X3X3X3X3X3X3X3X3X3X3X3X3X3X3X3X3X3X3X3XzXzXgXgXgXgXgXgXgXgXgXgXgXgXgXgXgXgXgXgXgXgXgXgXgXgXgXzXgXzXiX3X3X3X3X3X3X3X3X3X3X3X3X3X3X3X3X3X3X3X3X3X3X3X3X3X3X3X3XzXzXgXgXgXgXgXgXgXgXgXgXgXgXgXgXgXgXgXgXgXgXgXgXgXgXgXzXgXzXiX3X3X3X3X3X3X3X3X3X3X3X3X3X3X3X3X3X3X3X3X3X3X3X3X3X3X3X",
"uXuXuXuXuXuXuXuXuXuXuXuXuXuXuXuXuXuXuXzXzXiXgXgXgXgXgXgXgXgXgXgXgXgXgXgXgXgXgXgXgXgXgXgXgXgXgXgXgXiXzXzXzXzXzXzXzXzXzXzXzXzXzXzXzXzXzXzXzXzXzXzXzXzXzXzXzXzXzXgXiXgXgXgXgXgXgXgXgXgXgXgXgXgXgXgXgXgXgXgXgXgXgXgXgXgXgXgXgXiXgXzXzXzXzXzXzXzXzXzXzXzXzXzXzXzXzXzXzXzXzXzXzXzXzXzXzXzXzXgXiXgXgXgXgXgXgXgXgXgXgXgXgXgXgXgXgXgXgXgXgXgXgXgXgXgXgXgXiXgXzXzXzXzXzXzXzXzXzXzXzXzXzXzXzXzXzXzXzXzXzXzXzXzXzXzXzXzXiXiXgXgXgXgXgXgXgXgXgXgXgXgXgXgXgXgXgXgXgXgXgXgXgXgXgXgXgXiXgXzXzXzXzXzXzXzXzXzXzXzXzXzXzXzXzXzXzXzXzXzXzXzXzXzXzXzX",
"uXuXuXuXuXuXuXuXuXuXuXuXuXuXuXuXuXuXuXzXuXqXyXyXyXyXyXyXyXyXyXyXyXyXyXyXyXyXyXyXyXyXyXyXyXyXyXyXyXyXyXqXqXqXqXqXqXqXqXqXqXqXqXqXqXqXqXqXqXqXqXqXqXqXqXqXqXqXqXyXyXyXyXyXyXyXyXyXyXyXyXyXyXyXyXyXyXyXyXyXyXyXyXyXyXyXyXyXyXyXyXqXqXqXqXqXqXqXqXqXqXqXqXqXqXqXqXqXqXqXqXqXqXqXqXqXqXqXqXyXyXyXyXyXyXyXyXyXyXyXyXyXyXyXyXyXyXyXyXyXyXyXyXyXyXyXyXyXyXyXqXqXqXqXqXqXqXqXqXqXqXqXqXqXqXqXqXqXqXqXqXqXqXqXqXqXqXqXyXyXyXyXyXyXyXyXyXyXyXyXyXyXyXyXyXyXyXyXyXyXyXyXyXyXyXyXyXyXyXqXqXqXqXqXqXqXqXqXqXqXqXqXqXqXqXqXqXqXqXqXqXqXqXqXqXqX",
"uXuXuXuXuXuXuXuXuXuXuXuXuXuXuXuXuXuXuXzXuXyXuXuXuXuXuXuXuXuXuXuXuXuXuXuXuXuXuXuXuXuXuXuXuXuXuXuXuXuXuXuXuXuXuXuXuXuXuXuXuXuXuXuXuXuXuXuXuXuXuXuXuXuXuXuXuXuXuXuXuXuXuXuXuXuXuXuXuXuXuXuXuXuXuXuXuXuXuXuXuXuXuXuXuXuXuXuXuXuXuXuXuXuXuXuXuXuXuXuXuXuXuXuXuXuXuXuXuXuXuXuXuXuXuXuXuXuXuXuXuXuXuXuXuXuXuXuXuXuXuXuXuXuXuXuXuXuXuXuXuXuXuXuXuXuXuXuXuXuXuXuXuXuXuXuXuXuXuXuXuXuXuXuXuXuXuXuXuXuXuXuXuXuXuXuXuXuXuXuXuXuXuXuXuXuXuXuXuXuXuXuXuXuXuXuXuXuXuXuXuXuXuXuXuXuXuXuXuXuXuXuXuXuXuXuXuXuXuXuXuXuXuXuXuXuXuXuXuXuXuXuXuXuXuXuX",
"uXuXuXuXuXuXuXuXuXuXuXuXuXuXuXuXuXuXuXzXuXyXuXuXuXuXuXuXuXuXuXuXuXuXuXuXuXuXuXuXuXuXuXuXuXuXuXuXuXuXuXuXuXuXuXuXuXuXuXuXuXuXuXuXuXuXuXuXuXuXuXuXuXuXuXuXuXuXuXuXuXuXuXuXuXuXuXuXuXuXuXuXuXuXuXuXuXuXuXuXuXuXuXuXuXuXuXuXuXuXuXuXuXuXuXuXuXuXuXuXuXuXuXuXuXuXuXuXuXuXuXuXuXuXuXuXuXuXuXuXuXuXuXuXuXuXuXuXuXuXuXuXuXuXuXuXuXuXuXuXuXuXuXuXuXuXuXuXuXuXuXuXuXuXuXuXuXuXuXuXuXuXuXuXuXuXuXuXuXuXuXuXuXuXuXuXuXuXuXuXuXuXuXuXuXuXuXuXuXuXuXuXuXuXuXuXuXuXuXuXuXuXuXuXuXuXuXuXuXuXuXuXuXuXuXuXuXuXuXuXuXuXuXuXuXuXuXuXuXuXuXuXuXuXuXuX",
"uXuXuXuXuXuXuXuXuXuXuXuXuXuXuXuXuXuXuXzXuXyXuXuXuXuXuXuXuXuXuXuXuXuXuXuXuXuXuXuXuXuXuXuXuXuXuXuXuXuXuXuXuXuXuXuXuXuXuXuXuXuXuXuXuXuXuXuXuXuXuXuXuXuXuXuXuXuXuXuXuXuXuXuXuXuXuXuXuXuXuXuXuXuXuXuXuXuXuXuXuXuXuXuXuXuXuXuXuXuXuXuXuXuXuXuXuXuXuXuXuXuXuXuXuXuXuXuXuXuXuXuXuXuXuXuXuXuXuXuXuXuXuXuXuXuXuXuXuXuXuXuXuXuXuXuXuXuXuXuXuXuXuXuXuXuXuXuXuXuXuXuXuXuXuXuXuXuXuXuXuXuXuXuXuXuXuXuXuXuXuXuXuXuXuXuXuXuXuXuXuXuXuXuXuXuXuXuXuXuXuXuXuXuXuXuXuXuXuXuXuXuXuXuXuXuXuXuXuXuXuXuXuXuXuXuXuXuXuXuXuXuXuXuXuXuXuXuXuXuXuXuXuXuXuXuX",
"uXuXuXuXuXuXuXuXuXuXuXuXuXuXuXuXuXuXuXzXuXyXuXuXuXuXuXuXuXuXuXuXuXuXuXuXuXuXuXuXuXuXuXuXuXuXuXuXuXuXuXuXuXuXuXuXuXuXuXuXuXuXuXuXuXuXuXuXuXuXuXuXuXuXuXuXuXuXuXuXuXuXuXuXuXuXuXuXuXuXuXuXuXuXuXuXuXuXuXuXuXuXuXuXuXuXuXuXuXuXuXuXuXuXuXuXuXuXuXuXuXuXuXuXuXuXuXuXuXuXuXuXuXuXuXuXuXuXuXuXuXuXuXuXuXuXuXuXuXuXuXuXuXuXuXuXuXuXuXuXuXuXuXuXuXuXuXuXuXuXuXuXuXuXuXuXuXuXuXuXuXuXuXuXuXuXuXuXuXuXuXuXuXuXuXuXuXuXuXuXuXuXuXuXuXuXuXuXuXuXuXuXuXuXuXuXuXuXuXuXuXuXuXuXuXuXuXuXuXuXuXuXuXuXuXuXuXuXuXuXuXuXuXuXuXuXuXuXuXuXuXuXuXuXuXuX",
"uXuXuXuXuXuXuXuXuXuXuXuXuXuXuXuXuXuXuXzXuXyXuXuXuXuXuXuXuXuXuXuXuXuXuXuXuXuXuXuXuXuXuXuXuXuXuXuXuXuXuXuXuXuXuXuXuXuXuXuXuXuXuXuXuXuXuXuXuXuXuXuXuXuXuXuXuXuXuXuXuXuXuXuXuXuXuXuXuXuXuXuXuXuXuXuXuXuXuXuXuXuXuXuXuXuXuXuXuXuXuXuXuXuXuXuXuXuXuXuXuXuXuXuXuXuXuXuXuXuXuXuXuXuXuXuXuXuXuXuXuXuXuXuXuXuXuXuXuXuXuXuXuXuXuXuXuXuXuXuXuXuXuXuXuXuXuXuXuXuXuXuXuXuXuXuXuXuXuXuXuXuXuXuXuXuXuXuXuXuXuXuXuXuXuXuXuXuXuXuXuXuXuXuXuXuXuXuXuXuXuXuXuXuXuXuXuXuXuXuXuXuXuXuXuXuXuXuXuXuXuXuXuXuXuXuXuXuXuXuXuXuXuXuXuXuXuXuXuXuXuXuXuXuXuXuX",
"uXuXuXuXuXuXuXuXuXuXuXuXuXuXuXuXuXuXuXzXuXyXuXuXuXuXuXuXuXuXuXuXuXuXuXuXuXuXuXuXuXuXuXuXuXuXuXuXuXuXuXuXuXuXuXuXuXuXuXuXuXuXuXuXuXuXuXuXuXuXuXuXuXuXuXuXuXuXuXuXuXuXuXuXuXuXuXuXuXuXuXuXuXuXuXuXuXuXuXuXuXuXuXuXuXuXuXuXuXuXuXuXuXuXuXuXuXuXuXuXuXuXuXuXuXuXuXuXuXuXuXuXuXuXuXuXuXuXuXuXuXuXuXuXuXuXuXuXuXuXuXuXuXuXuXuXuXuXuXuXuXuXuXuXuXuXuXuXuXuXuXuXuXuXuXuXuXuXuXuXuXuXuXuXuXuXuXuXuXuXuXuXuXuXuXuXuXuXuXuXuXuXuXuXuXuXuXuXuXuXuXuXuXuXuXuXuXuXuXuXuXuXuXuXuXuXuXuXuXuXuXuXuXuXuXuXuXuXuXuXuXuXuXuXuXuXuXuXuXuXuXuXuXuXuXuX",
"uXuXuXuXuXuXuXuXuXuXuXuXuXuXuXuXuXuXuXzXuXyXuXuXuXuXuXuXuXuXuXuXuXuXuXuXuXuXuXuXuXuXuXuXuXuXuXuXuXuXuXuXuXuXuXuXuXuXuXuXuXuXuXuXuXuXuXuXuXuXuXuXuXuXuXuXuXuXuXuXuXuXuXuXuXuXuXuXuXuXuXuXuXuXuXuXuXuXuXuXuXuXuXuXuXuXuXuXuXuXuXuXuXuXuXuXuXuXuXuXuXuXuXuXuXuXuXuXuXuXuXuXuXuXuXuXuXuXuXuXuXuXuXuXuXuXuXuXuXuXuXuXuXuXuXuXuXuXuXuXuXuXuXuXuXuXuXuXuXuXuXuXuXuXuXuXuXuXuXuXuXuXuXuXuXuXuXuXuXuXuXuXuXuXuXuXuXuXuXuXuXuXuXuXuXuXuXuXuXuXuXuXuXuXuXuXuXuXuXuXuXuXuXuXuXuXuXuXuXuXuXuXuXuXuXuXuXuXuXuXuXuXuXuXuXuXuXuXuXuXuXuXuXuXuXuX",
"uXuXuXuXuXuXuXuXuXuXuXuXuXuXuXuXuXuXuXzXuXyXuXuXuXuXuXuXuXuXuXuXuXuXuXuXuXuXuXuXuXuXuXuXuXuXuXuXuXuXuXuXuXuXuXuXuXuXuXuXuXuXuXuXuXuXuXuXuXuXuXuXuXuXuXuXuXuXuXuXuXuXuXuXuXuXuXuXuXuXuXuXuXuXuXuXuXuXuXuXuXuXuXuXuXuXuXuXuXuXuXuXuXuXuXuXuXuXuXuXuXuXuXuXuXuXuXuXuXuXuXuXuXuXuXuXuXuXuXuXuXuXuXuXuXuXuXuXuXuXuXuXuXuXuXuXuXuXuXuXuXuXuXuXuXuXuXuXuXuXuXuXuXuXuXuXuXuXuXuXuXuXuXuXuXuXuXuXuXuXuXuXuXuXuXuXuXuXuXuXuXuXuXuXuXuXuXuXuXuXuXuXuXuXuXuXuXuXuXuXuXuXuXuXuXuXuXuXuXuXuXuXuXuXuXuXuXuXuXuXuXuXuXuXuXuXuXuXuXuXuXuXuXuXuXuX",
"uXuXuXuXuXuXuXuXuXuXuXuXuXuXuXuXuXuXuXzXuXyXuXuXuXuXuXuXuXuXuXuXuXuXuXuXuXuXuXuXuXuXuXuXuXuXuXuXuXuXuXuXuXuXuXuXuXuXuXuXuXuXuXuXuXuXuXuXuXuXuXuXuXuXuXuXuXuXuXuXuXuXuXuXuXuXuXuXuXuXuXuXuXuXuXuXuXuXuXuXuXuXuXuXuXuXuXuXuXuXuXuXuXuXuXuXuXuXuXuXuXuXuXuXuXuXuXuXuXuXuXuXuXuXuXuXuXuXuXuXuXuXuXuXuXuXuXuXuXuXuXuXuXuXuXuXuXuXuXuXuXuXuXuXuXuXuXuXuXuXuXuXuXuXuXuXuXuXuXuXuXuXuXuXuXuXuXuXuXuXuXuXuXuXuXuXuXuXuXuXuXuXuXuXuXuXuXuXuXuXuXuXuXuXuXuXuXuXuXuXuXuXuXuXuXuXuXuXuXuXuXuXuXuXuXuXuXuXuXuXuXuXuXuXuXuXuXuXuXuXuXuXuXuXuXuX",
"uXuXuXuXuXuXuXuXuXuXuXuXuXuXuXuXuXuXuXzXuXyXuXuXuXuXuXuXuXuXuXuXuXuXuXuXuXuXuXuXuXuXuXuXuXuXuXuXuXuXuXuXuXuXuXuXuXuXuXuXuXuXuXuXuXuXuXuXuXuXuXuXuXuXuXuXuXuXuXuXuXuXuXuXuXuXuXuXuXuXuXuXuXuXuXuXuXuXuXuXuXuXuXuXuXuXuXuXuXuXuXuXuXuXuXuXuXuXuXuXuXuXuXuXuXuXuXuXuXuXuXuXuXuXuXuXuXuXuXuXuXuXuXuXuXuXuXuXuXuXuXuXuXuXuXuXuXuXuXuXuXuXuXuXuXuXuXuXuXuXuXuXuXuXuXuXuXuXuXuXuXuXuXuXuXuXuXuXuXuXuXuXuXuXuXuXuXuXuXuXuXuXuXuXuXuXuXuXuXuXuXuXuXuXuXuXuXuXuXuXuXuXuXuXuXuXuXuXuXuXuXuXuXuXuXuXuXuXuXuXuXuXuXuXuXuXuXuXuXuXuXuXuXuXuXuX",
"uXuXuXuXuXuXuXuXuXuXuXuXuXuXuXuXuXuXuXzXuXyXuXuXuXuXuXuXuXuXuXuXuXuXuXuXuXuXuXuXuXuXuXuXuXuXuXuXuXuXuXuXuXuXuXuXuXuXuXuXuXuXuXuXuXuXuXuXuXuXuXuXuXuXuXuXuXuXuXuXuXuXuXuXuXuXuXuXuXuXuXuXuXuXuXuXuXuXuXuXuXuXuXuXuXuXuXuXuXuXuXuXuXuXuXuXuXuXuXuXuXuXuXuXuXuXuXuXuXuXuXuXuXuXuXuXuXuXuXuXuXuXuXuXuXuXuXuXuXuXuXuXuXuXuXuXuXuXuXuXuXuXuXuXuXuXuXuXuXuXuXuXuXuXuXuXuXuXuXuXuXuXuXuXuXuXuXuXuXuXuXuXuXuXuXuXuXuXuXuXuXuXuXuXuXuXuXuXuXuXuXuXuXuXuXuXuXuXuXuXuXuXuXuXuXuXuXuXuXuXuXuXuXuXuXuXuXuXuXuXuXuXuXuXuXuXuXuXuXuXuXuXuXuXuXuX",
"uXuXuXuXuXuXuXuXuXuXuXuXuXuXuXuXuXuXuXzXuXyXuXuXuXuXuXuXuXuXuXuXuXuXuXuXuXuXuXuXuXuXuXuXuXuXuXuXuXuXuXuXuXuXuXuXuXuXuXuXuXuXuXuXuXuXuXuXuXuXuXuXuXuXuXuXuXuXuXuXuXuXuXuXuXuXuXuXuXuXuXuXuXuXuXuXuXuXuXuXuXuXuXuXuXuXuXuXuXuXuXuXuXuXuXuXuXuXuXuXuXuXuXuXuXuXuXuXuXuXuXuXuXuXuXuXuXuXuXuXuXuXuXuXuXuXuXuXuXuXuXuXuXuXuXuXuXuXuXuXuXuXuXuXuXuXuXuXuXuXuXuXuXuXuXuXuXuXuXuXuXuXuXuXuXuXuXuXuXuXuXuXuXuXuXuXuXuXuXuXuXuXuXuXuXuXuXuXuXuXuXuXuXuXuXuXuXuXuXuXuXuXuXuXuXuXuXuXuXuXuXuXuXuXuXuXuXuXuXuXuXuXuXuXuXuXuXuXuXuXuXuXuXuXuXuX",
"uXuXuXuXuXuXuXuXuXuXuXuXuXuXuXuXuXuXuXzXuXyXuXuXuXuXuXuXuXuXuXuXuXuXuXuXuXuXuXuXuXuXuXuXuXuXuXuXuXuXuXuXuXuXuXuXuXuXuXuXuXuXuXuXuXuXuXuXuXuXuXuXuXuXuXuXuXuXuXuXuXuXuXuXuXuXuXuXuXuXuXuXuXuXuXuXuXuXuXuXuXuXuXuXuXuXuXuXuXuXuXuXuXuXuXuXuXuXuXuXuXuXuXuXuXuXuXuXuXuXuXuXuXuXuXuXuXuXuXuXuXuXuXuXuXuXuXuXuXuXuXuXuXuXuXuXuXuXuXuXuXuXuXuXuXuXuXuXuXuXuXuXuXuXuXuXuXuXuXuXuXuXuXuXuXuXuXuXuXuXuXuXuXuXuXuXuXuXuXuXuXuXuXuXuXuXuXuXuXuXuXuXuXuXuXuXuXuXuXuXuXuXuXuXuXuXuXuXuXuXuXuXuXuXuXuXuXuXuXuXuXuXuXuXuXuXuXuXuXuXuXuXuXuXuXuX",
"uXuXuXuXuXuXuXuXuXuXuXuXuXuXuXuXuXuXuXzXuXyXuXuXuXuXuXuXuXuXuXuXuXuXuXuXuXuXuXuXuXuXuXuXuXuXuXuXuXuXuXuXuXuXuXuXuXuXuXuXuXuXuXuXuXuXuXuXuXuXuXuXuXuXuXuXuXuXuXuXuXuXuXuXuXuXuXuXuXuXuXuXuXuXuXuXuXuXuXuXuXuXuXuXuXuXuXuXuXuXuXuXuXuXuXuXuXuXuXuXuXuXuXuXuXuXuXuXuXuXuXuXuXuXuXuXuXuXuXuXuXuXuXuXuXuXuXuXuXuXuXuXuXuXuXuXuXuXuXuXuXuXuXuXuXuXuXuXuXuXuXuXuXuXuXuXuXuXuXuXuXuXuXuXuXuXuXuXuXuXuXuXuXuXuXuXuXuXuXuXuXuXuXuXuXuXuXuXuXuXuXuXuXuXuXuXuXuXuXuXuXuXuXuXuXuXuXuXuXuXuXuXuXuXuXuXuXuXuXuXuXuXuXuXuXuXuXuXuXuXuXuXuXuXuXuX",
"uXuXuXuXuXuXuXuXuXuXuXuXuXuXuXuXuXuXuXzXuXyXuXuXuXuXuXuXuXuXuXuXuXuXuXuXuXuXuXuXuXuXuXuXuXuXuXuXuXuXuXuXuXuXuXuXuXuXuXuXuXuXuXuXuXuXuXuXuXuXuXuXuXuXuXuXuXuXuXuXuXuXuXuXuXuXuXuXuXuXuXuXuXuXuXuXuXuXuXuXuXuXuXuXuXuXuXuXuXuXuXuXuXuXuXuXuXuXuXuXuXuXuXuXuXuXuXuXuXuXuXuXuXuXuXuXuXuXuXuXuXuXuXuXuXuXuXuXuXuXuXuXuXuXuXuXuXuXuXuXuXuXuXuXuXuXuXuXuXuXuXuXuXuXuXuXuXuXuXuXuXuXuXuXuXuXuXuXuXuXuXuXuXuXuXuXuXuXuXuXuXuXuXuXuXuXuXuXuXuXuXuXuXuXuXuXuXuXuXuXuXuXuXuXuXuXuXuXuXuXuXuXuXuXuXuXuXuXuXuXuXuXuXuXuXuXuXuXuXuXuXuXuXuXuXuX",
"yXyXyXyXyXyXyXyXyXyXyXyXyXyXyXyXyXyXyXzXuXqXyXyXyXyXyXyXyXyXyXyXyXyXyXyXyXyXyXyXyXyXyXyXyXyXyXyXyXyXyXyXyXyXyXyXyXyXyXyXyXyXyXyXyXyXyXyXyXyXyXyXyXyXyXyXyXyXyXyXyXyXyXyXyXyXyXyXyXyXyXyXyXyXyXyXyXyXyXyXyXyXyXyXyXyXyXyXyXyXyXyXyXyXyXyXyXyXyXyXyXyXyXyXyXyXyXyXyXyXyXyXyXyXyXyXyXyXyXyXyXyXyXyXyXyXyXyXyXyXyXyXyXyXyXyXyXyXyXyXyXyXyXyXyXyXyXyXyXyXyXyXyXyXyXyXyXyXyXyXyXyXyXyXyXyXyXyXyXyXyXyXyXyXyXyXyXyXyXyXyXyXyXyXyXyXyXyXyXyXyXyXyXyXyXyXyXyXyXyXyXyXyXyXyXyXyXyXyXyXyXyXyXyXyXyXyXyXyXyXyXyXyXyXyXyXyXyXyXyXyXyXyXyXyXyX",
"gXgXgXgXgXzXzXgXgXzXzXzXzXzXzXgXzXgXiXzXgXgXzXzXgXgXzXzXzXzXzXzXzXgXgXgXgXgXzXzXgXgXzXzXzXzXzXzXzXzXzXzXzXzXzXzXzXzXzXzXzXzXzXzXzXzXzXzXzXzXzXzXzXzXzXzXzXzXzXzXzXzXzXzXzXzXzXzXzXzXzXzXzXzXzXzXzXzXzXzXzXzXzXzXzXzXzXzXzXzXzXzXzXzXzXzXzXzXzXzXzXzXzXzXzXzXzXzXzXzXzXzXzXzXzXzXzXzXzXzXzXzXzXzXzXzXzXzXzXzXzXzXzXzXzXzXzXzXzXzXzXzXzXzXzXzXzXzXzXzXzXzXzXzXzXzXzXzXzXzXzXzXzXzXzXzXzXzXzXzXzXzXzXzXzXzXzXzXzXzXzXzXzXzXzXzXzXzXzXzXzXzXzXzXzXzXzXzXzXzXzXzXzXzXzXzXzXzXzXgXgXgXgXgXgXgXgXzXzXgXgXgXgXgXzXzXgXgXgXgXgXgXiXgXgXgX",
"gXzXzXzXgXgXiXiXiXgXiXiXiXgXgXgXiXzXxXzXzXgXiXgXiXiXgXiXiXiXgXgXgXgXzXzXzXzXiXgXiXiXgXgXiXiXgXgXgXgXgXgXgXgXgXgXgXgXgXgXgXgXgXgXgXgXgXgXgXgXgXgXgXgXgXgXgXgXgXgXgXgXgXgXgXgXgXgXgXgXgXgXgXgXgXgXgXgXgXgXgXgXgXgXgXgXgXgXgXgXgXgXgXgXgXgXgXgXgXgXgXgXgXgXgXgXgXgXgXgXgXgXgXgXgXgXgXgXgXgXgXgXgXgXgXgXgXgXgXgXgXgXgXgXgXgXgXgXgXgXgXgXgXgXgXgXgXgXgXgXgXgXgXgXgXgXgXgXgXgXgXgXgXgXgXgXgXgXgXgXgXgXgXgXgXgXgXgXgXgXgXgXgXgXgXgXgXgXgXgXgXgXgXgXgXgXgXgXgXgXgXgXgXgXgXgXgXgXgXgXgXzXiXzXzXgXgXiXiXzXzXgXgXgXiXgXgXzXzXzXgXgXxXgXzXzX",
"2XG.D.D.0XyXuXuXuXyXuXiXuXyXyXqXuX{.6.h.0.0XuXyXuXuXyXuXiXuXyXyXuX0XG.G.D.2XuXqXuXuXuXyXuXuXyXyXyXyXyXyXyXyXyXyXyXyXyXyXyXyXyXyXyXyXyXyXyXyXyXyXyXyXyXyXyXyXyXyXyXyXyXyXyXyXyXyXyXyXyXyXyXyXyXyXyXyXyXyXyXyXyXyXyXyXyXyXyXyXyXyXyXyXyXyXyXyXyXyXyXyXyXyXyXyXyXyXyXyXyXyXyXyXyXyXyXyXyXyXyXyXyXyXyXyXyXyXyXyXyXyXyXyXyXyXyXyXyXyXyXyXyXyXyXyXyXyXyXyXyXyXyXyXyXyXyXyXyXyXyXyXyXyXyXyXyXyXyXyXyXyXyXyXyXyXyXyXyXyXyXyXyXyXyXyXyXyXyXyXyXyXyXyXyXyXyXyXyXyXyXyXyXyXyXyXyXyXyXqX0X0XuX2X6X0X0XuXuX X X9X0X0XyXyX0XT.Z.D.2XuX6.T.Z.'.",
"{.E 0.6.9XuXuXZ.T.fX0X2X4XuXuXyXzXD.<.<.E 4XuXuXZ.Y.fX0X2X4XuXyXuX0X6.E E T.iXuXT.Z.uXqX2X2XyXuXuXuXuXuXuXuXuXuXuXuXuXuXuXuXuXuXuXuXuXuXuXuXuXuXuXuXuXuXuXuXuXuXuXuXuXuXuXuXuXuXuXuXuXuXuXuXuXuXuXuXuXuXuXuXuXuXuXuXuXuXuXuXuXuXuXuXuXuXuXuXuXuXuXuXuXuXuXuXuXuXuXuXuXuXuXuXuXuXuXuXuXuXuXuXuXuXuXuXuXuXuXuXuXuXuXuXuXuXuXuXuXuXuXuXuXuXuXuXuXuXuXuXuXuXuXuXuXuXuXuXuXuXuXuXuXuXuXuXuXuXuXuXuXuXuXuXuXuXuXuXuXuXuXuXuXuXuXuXuXuXuXuXuXuXuXuXuXuXuXuXuXuXuXuXuXuXuXuXuXyXiX4XT.A.T.T.T.A.2XyX9X]._.M p.`.iXuX0XT.Z.7.2X0X7.Z.6.T.",
"T.6.<.3 0XuX6XE 6.gX'.6.Y.uXyXyXzXK.<.0.T.4XiX0XE 7.gX2X6.D.uXyXuX4X0XA.6.9XuXuX7.E qX0XZ.Z.0XuXyXuXuXuXuXuXuXuXuXuXuXuXuXuXuXuXuXuXuXuXuXuXuXuXuXuXuXuXuXuXuXuXuXuXuXuXuXuXuXuXuXuXuXuXuXuXuXuXuXuXuXuXuXuXuXuXuXuXuXuXuXuXuXuXuXuXuXuXuXuXuXuXuXuXuXuXuXuXuXuXuXuXuXuXuXuXuXuXuXuXuXuXuXuXuXuXuXuXuXuXuXuXuXuXuXuXuXuXuXuXuXuXuXuXuXuXuXuXuXuXuXuXuXuXuXuXuXuXuXuXuXuXuXuXuXuXuXuXuXuXuXuXuXuXuXuXuXuXuXuXuXuXuXuXuXuXuXuXuXuXuXuXuXuXuXuXuXuXuXuXuXuXuXuXuXuXuXuXuXyXuX9Xh.h.6.2XT.6.2XuX X]._.].M ].gXuX6X4XD.Y.2X0XZ.Z.Z.T.",
"{.6.<.E qXuXiX6XqXuXuXzXfXyXuXyXgXT.6.G.{.6XuXiX6X0XuXuXzXfXyXyXuX6XT.A.6.6XuXuXqX6XiXuXgXgXuXyXuXuXuXuXuXuXuXuXuXuXuXuXuXuXuXuXuXuXuXuXuXuXuXuXuXuXuXuXuXuXuXuXuXuXuXuXuXuXuXuXuXuXuXuXuXuXuXuXuXuXuXuXuXuXuXuXuXuXuXuXuXuXuXuXuXuXuXuXuXuXuXuXuXuXuXuXuXuXuXuXuXuXuXuXuXuXuXuXuXuXuXuXuXuXuXuXuXuXuXuXuXuXuXuXuXuXuXuXuXuXuXuXuXuXuXuXuXuXuXuXuXuXuXuXuXuXuXuXuXuXuXuXuXuXuXuXuXuXuXuXuXuXuXuXuXuXuXuXuXuXuXuXuXuXuXuXuXuXuXuXuXuXuXuXuXuXuXuXuXuXuXuXuXuXuXuXuXuXuXyXiX2XG.uX4XT.2X6X{.qXiX`.`.9X|.'.iXuX0XT.D.Y.{.uX..T.7.T.",
"uXuXuXgXuXuXyXuXuXyXyXqXyXuXuXuXyXuXuXqX0XuXuXyXuXuXyXyXqXyXuXuXuXuXqXyXuXyXuXyXuXuXyXuXyXyXyXuXuXuXuXuXuXuXuXuXuXuXuXuXuXuXuXuXuXuXuXuXuXuXuXuXuXuXuXuXuXuXuXuXuXuXuXuXuXuXuXuXuXuXuXuXuXuXuXuXuXuXuXuXuXuXuXuXuXuXuXuXuXuXuXuXuXuXuXuXuXuXuXuXuXuXuXuXuXuXuXuXuXuXuXuXuXuXuXuXuXuXuXuXuXuXuXuXuXuXuXuXuXuXuXuXuXuXuXuXuXuXuXuXuXuXuXuXuXuXuXuXuXuXuXuXuXuXuXuXuXuXuXuXuXuXuXuXuXuXuXuXuXuXuXuXuXuXuXuXuXuXuXuXuXuXuXuXuXuXuXuXuXuXuXuXuXuXuXuXuXuXuXuXuXuXuXuXuXuXuXyXuX3XqXuXuXgXuXuXiXuXyXgXgXuXuXfXyXuXuXqXyX0XyXuXfX0XuXuX"
};
