/* XPM */
static char *mb_gate_ms[] = {
/* columns rows colors chars-per-pixel */
"256 256 256 2 ",
"   c #040404",
".  c #0C0C0C",
"X  c #07060A",
"o  c #160908",
"O  c #0A140D",
"+  c #0D0D14",
"@  c #090513",
"#  c #170C14",
"$  c #0F1016",
"%  c #0C171A",
"&  c #131314",
"*  c #14151B",
"=  c #1C151B",
"-  c #16191E",
";  c #1A1A1D",
":  c #1A1615",
">  c #15130E",
",  c #360606",
"<  c #2A191D",
"1  c #35181C",
"2  c #2E0914",
"3  c #1A2717",
"4  c #123211",
"5  c #252B1A",
"6  c #22321E",
"7  c #2A361A",
"8  c #323517",
"9  c #1B1C22",
"0  c #171923",
"q  c #1D1E35",
"w  c #1D1E39",
"e  c #0E1927",
"r  c #2B1E26",
"t  c #261A25",
"y  c #35172B",
"u  c #1E2126",
"i  c #19272A",
"p  c #1A2634",
"a  c #1B3232",
"s  c #183839",
"d  c #103030",
"f  c #232324",
"g  c #22242A",
"h  c #2D222A",
"j  c #292A2D",
"k  c #272928",
"l  c #32262C",
"z  c #243521",
"x  c #2A3927",
"c  c #2C2D32",
"v  c #282837",
"b  c #372B33",
"n  c #2B3637",
"m  c #323335",
"M  c #34353A",
"N  c #3A3A3D",
"B  c #393839",
"V  c #353628",
"C  c #4E0B0D",
"Z  c #700A0B",
"A  c #4F162D",
"S  c #4C322E",
"D  c #592626",
"F  c #114B11",
"G  c #2D4A17",
"H  c #0C710C",
"J  c #346B15",
"K  c #1A5231",
"L  c #284827",
"P  c #3B4A2D",
"I  c #2C5423",
"U  c #325525",
"Y  c #365929",
"T  c #385929",
"R  c #244B33",
"E  c #295438",
"W  c #384F35",
"Q  c #196A35",
"!  c #286639",
"~  c #346A2C",
"^  c #465729",
"/  c #494C31",
"(  c #496F2E",
")  c #5E5F1E",
"_  c #341C48",
"`  c #361950",
"'  c #163946",
"]  c #103A4C",
"[  c #36214B",
"{  c #39234D",
"}  c #352644",
"|  c #3C3D42",
" . c #353E45",
".. c #3B2854",
"X. c #2E3552",
"o. c #363A67",
"O. c #323471",
"+. c #331D5F",
"@. c #422B56",
"#. c #473256",
"$. c #441C68",
"%. c #452568",
"&. c #5E1A4C",
"*. c #0C484B",
"=. c #194444",
"-. c #184649",
";. c #164855",
":. c #185559",
">. c #0F5653",
",. c #27454D",
"<. c #3F4045",
"1. c #284955",
"2. c #26555A",
"3. c #2B5849",
"4. c #1C6C47",
"5. c #1D7247",
"6. c #166E52",
"7. c #296B46",
"8. c #22744B",
"9. c #27774A",
"0. c #27695A",
"q. c #287856",
"w. c #34724C",
"e. c #12556C",
"r. c #265962",
"t. c #2A5C65",
"y. c #285966",
"u. c #324E73",
"i. c #156668",
"p. c #097677",
"a. c #0E6C6E",
"s. c #2B6566",
"d. c #2D6E6E",
"f. c #424345",
"g. c #44454A",
"h. c #494A4E",
"j. c #47484C",
"k. c #4C4D52",
"l. c #4D4656",
"z. c #4F5055",
"x. c #525356",
"c. c #54555A",
"v. c #5A5B5D",
"b. c #57585B",
"n. c #4D504A",
"m. c #546A50",
"M. c #5C5D61",
"N. c #5C5E6C",
"B. c #454A6F",
"V. c #5A6467",
"C. c #626265",
"Z. c #66696B",
"A. c #6C7469",
"S. c #6C6D71",
"D. c #696C75",
"F. c #6F7075",
"G. c #717276",
"H. c #77787C",
"J. c #7B7B7D",
"K. c #767679",
"L. c #706C6F",
"P. c #62675C",
"I. c #8D080A",
"U. c #A80811",
"Y. c #C90608",
"T. c #8E1348",
"R. c #982E59",
"E. c #A2245B",
"W. c #8E535A",
"Q. c #058505",
"!. c #0F910E",
"~. c #288D1C",
"^. c #0DB00D",
"/. c #1A9130",
"(. c #278E2E",
"). c #1AB02A",
"_. c #23AA2F",
"`. c #28A819",
"'. c #4D8E29",
"]. c #63971D",
"[. c #0FCE0F",
"{. c #1DC928",
"}. c #188654",
"|. c #2B8B53",
" X c #1A9373",
".X c #2B8C6C",
"XX c #26A763",
"oX c #668955",
"OX c #4D936C",
"+X c #5F9E65",
"@X c #17C954",
"#X c #66CA5B",
"$X c #A29F0A",
"%X c #89A775",
"&X c #9DC943",
"*X c #51158A",
"=X c #653C8E",
"-X c #53339E",
";X c #355386",
":X c #0F6F8D",
">X c #2F6D90",
",X c #2073A6",
"<X c #7B7C80",
"1X c #64758D",
"2X c #55539A",
"3X c #3063CA",
"4X c #078587",
"5X c #099697",
"6X c #178D8D",
"7X c #27898F",
"8X c #1291AF",
"9X c #2B89B4",
"0X c #0EAAAD",
"qX c #23A994",
"wX c #548A8F",
"eX c #70B38C",
"rX c #77AFB1",
"tX c #66979C",
"yX c #6CCB9E",
"uX c #0A9AC9",
"iX c #2695CA",
"pX c #13A8D1",
"aX c #23A8D7",
"sX c #08B5ED",
"dX c #1DA9E9",
"fX c #03C9C9",
"gX c #14C8F5",
"hX c #3DBCB3",
"jX c #858687",
"kX c #979899",
"lX c #8D8F90",
"zX c #92B689",
"xX c #ACACAC",
"cX c #A4A5A6",
"vX c #B3B3B3",
"bX c #BBBBBC",
"nX c #ADB3AD",
"mX c #94A8AA",
"MX c #85CFB0",
"NX c #99C59A",
"BX c #87BBC5",
"VX c #BDBEC1",
"CX c #A4C2C8",
"ZX c #C3C3C4",
"AX c #C9CACB",
"SX c #D6D7D9",
"DX c #CECFD1",
"FX c #EAEBED",
"GX c #E4E5E7",
"HX c #EEEFF0",
"JX c #FBFCFD",
"KX c #F3F4F6",
"LX c #EFF0F2",
"PX c #DEDFE1",
"IX c #C0C0BF",
"UX c #8A579B",
/* pixels */
"9 9 9 9 9 9 9 9 9 9 9 9 9 9 9 9 9 9 9 9 9 9 9 9 9 9 9 9 9 9 9 9 9 9 9 9 9 9 9 9 9 9 9 9 9 9 9 9 9 9 9 9 9 9 9 9 9 9 9 9 9 9 9 9 9 9 9 9 9 9 9 9 9 9 9 9 9 9 9 9 9 9 9 9 9 9 9 9 9 9 9 9 9 9 9 9 9 9 9 9 9 9 9 9 9 9 9 9 9 9 9 9 9 9 9 9 9 9 9 9 9 9 9 9 9 9 9 9 9 9 9 9 9 9 9 9 9 9 9 9 9 9 9 9 9 9 9 9 9 9 9 9 9 9 9 9 9 9 9 9 9 9 9 9 9 9 9 9 9 9 9 9 9 9 9 9 9 9 9 9 9 9 9 9 9 9 9 9 9 9 9 9 9 9 9 9 9 9 9 9 9 9 9 9 9 9 9 9 9 9 9 9 9 9 9 9 9 9 9 9 9 9 9 9 9 9 9 9 9 9 9 9 9 9 9 9 9 9 9 9 9 9 9 9 9 9 9 9 9 9 9 9 9 9 9 9 ",
"9 9 9 9 9 9 9 9 9 9 9 9 9 9 9 9 9 9 9 9 9 9 ; = = ; 9 9 9 9 9 9 9 9 9 9 9 9 9 9 9 9 9 9 9 9 9 9 9 9 9 9 9 9 9 9 9 9 9 9 9 9 9 9 9 9 9 9 9 9 9 9 9 9 9 9 9 9 9 9 9 9 9 9 9 9 9 9 9 9 9 9 9 9 9 9 9 9 9 9 9 9 9 9 9 9 9 9 9 9 9 9 9 9 9 9 9 9 9 9 9 9 9 9 9 9 9 9 9 9 9 9 9 9 9 9 9 9 9 9 9 9 9 9 9 9 9 9 9 9 9 9 9 9 9 9 9 9 9 9 9 9 9 9 9 9 9 9 9 9 * 9 * - - - - 9 * & * * * * 9 * - * - - * $ - 9 - & 0 - * - $ * * - 9 * 9 * * - * & 9 * * * - & * - * 9 - * - * * 9 9 9 9 ; = 9 = = = 9 = = 9 = ; = 9 = ; = ; 9 9 9 9 9 9 9 ",
"= 9 9 9 9 ; = = = = = 9 ; = = = = : ; 9 9 9 s e.a.] 9 ; 9 9 9 9 9 9 9 9 9 9 9 9 9 9 9 9 9 9 9 9 9 9 9 9 9 9 9 9 9 9 9 9 9 9 9 9 9 9 9 9 9 9 9 9 9 9 9 9 9 9 9 9 9 9 9 9 9 9 9 9 9 9 9 9 9 9 9 9 9 9 9 9 9 9 9 9 9 9 9 9 9 9 9 9 9 9 9 9 9 9 9 9 9 9 9 9 9 9 9 9 9 9 9 9 9 9 9 9 9 9 9 9 9 9 9 9 9 9 9 9 9 9 9 9 9 9 9 9 9 9 9 9 9 9 9 9 9 9 9 9 0 g c.u c.f.c | f.g k.F.M.j.k.C.9 f.m h.m N x.S.j * m Z.c c g.<.K.k.Z.M 9 b.u x.c.f.M.C.9 v.j.v.N F.g.c S.c m f.<.j.b.9 u M = s ] p ;.;.e.9 ;.;.i e.p ;.u ;.' e.p ; 9 9 3 H !.F ",
"uX] = 9 ; p ,XuXuXuX8X: e.uXuXuXuX:Xi ; 9 e.pX0X0XpX8Xp ; 9 9 9 9 9 9 9 9 9 9 9 9 9 9 9 9 9 9 9 9 9 9 9 9 9 9 9 9 9 9 9 9 9 9 9 9 9 9 9 9 9 9 9 9 9 9 9 9 9 9 9 9 9 9 9 9 9 9 9 9 9 9 9 9 9 9 9 9 9 9 9 9 9 9 9 9 9 9 9 9 9 9 9 9 9 9 9 9 9 9 9 9 9 9 9 9 9 9 9 9 9 9 9 9 9 9 9 9 9 9 9 9 9 9 9 9 9 9 9 9 9 9 9 9 9 9 9 9 9 9 9 9 9 9 9 9 9 9 9 - c xXb.cXG.| S.G.g N <Xx.C.H.xXM kXF.J.lXZ.K.b.G.+ J.Z.f.C.xXj jXk.kXm g xXb.kXZ.M.S.M.S.jXf.G.M.C.Z.S.kXc - cXc.K.cXf 9 | : ;.:Xe.:X:X:Xe.e.;.] 8X;.:Xe.:Xe.:Xi 9 9 0 6 !.H !.",
"gX;.: u : :XgXuXuXuX8X# :XgXuXuXuXgX:X# e.pX:X9 = ' 8X:Xp ; 9 9 9 9 9 9 9 9 9 9 9 9 9 9 9 9 9 9 9 9 9 9 9 9 9 9 9 9 9 9 9 9 9 9 9 9 9 9 9 9 9 9 9 9 9 9 9 9 9 9 9 9 9 9 9 9 9 9 9 9 9 9 9 9 9 9 9 9 9 9 9 9 9 9 9 9 9 9 9 9 9 9 9 9 9 9 9 9 9 9 9 9 9 9 9 9 9 9 9 9 9 9 9 9 9 9 9 9 9 9 9 9 9 9 9 9 9 9 9 9 9 9 9 9 9 9 9 9 9 9 9 9 9 9 9 9 9 9 - c lXkXK.S.F.Z.K.c.c Z.k.Z.K.lXS.lXlXG.H.lXF.Z.S.+ K.S.<XjXcXk.Z.g.kXj j lXkXK.G.M.G.S.c.M.jXG.M.G.S.Z.jXg g kXC.H.kXc 9 | : ] :X:Xe.:X:Xe.e.:Xe.:Xe.e.:X:X' :X;.: 9 0 6 !.H !.",
"sX;.: u : 8XsXu : : : : :XsXp o 9 sX,X9 8X:Xo 9 i ] i 8X;.; 9 9 9 9 9 9 9 9 9 9 9 9 9 9 9 9 9 9 9 9 9 9 9 9 9 9 9 9 9 9 9 9 9 9 9 9 9 9 9 9 9 9 9 9 9 9 9 9 9 9 9 9 9 9 9 9 9 9 9 9 9 9 9 9 9 9 9 9 9 9 9 9 9 9 9 9 9 9 9 9 9 9 9 9 9 9 9 9 9 9 9 9 9 9 9 9 9 9 9 9 9 9 9 9 9 9 9 9 9 9 9 9 9 9 9 9 9 9 9 9 9 9 9 9 9 9 9 9 9 9 9 9 9 9 9 9 9 9 0 g | | M j M.j | M.j M | g.f.x.| g c g.g <.g.M.f * c M.f.m g | M j M.m 9 | | M k.N z.x.u c.N k.m C.N g M.j m m N f.k.9 9 c ; p ' ' p ] ;.9 ' ;.p ;.p p ' s ' ;.i 9 9 9 u F H F ",
"sX;.: u : :XsXpXuXuXe.o :XsX] i ' sX8X= e.uX;.= p s : :X:X9 9 9 9 9 9 9 9 9 9 9 9 9 9 9 9 9 9 9 9 9 9 9 9 9 9 9 9 9 9 9 9 9 9 9 9 9 9 9 9 9 9 9 9 9 9 9 9 9 9 9 9 9 9 9 9 9 9 9 9 9 9 9 9 9 9 9 9 9 9 9 9 9 9 9 9 9 9 9 9 9 9 9 9 9 9 9 9 9 9 9 9 9 9 9 9 9 9 9 9 9 9 9 9 9 9 9 9 9 9 9 9 9 9 9 9 9 9 9 9 9 9 9 9 9 9 9 9 9 9 9 9 9 9 9 9 9 9 9 9 9 * * - - + - * $ 0 - - * * * * 9 - * 0 * * + 9 9 - $ * - 9 * - 0 $ - 9 * * - * - * * 9 & - * - + * 0 $ 0 - - - * * 9 9 9 9 9 ; ; ; = = 9 = = ; = ; ; = ; ; = 9 9 9 9 9 0 0 9 ",
"gX;.: 9 9 9 :X8X8XpXsXu :XsXsXsXsXsXe.9 8XgX:Xo = 9 = :Xe.9 9 9 9 9 9 9 9 9 9 9 9 9 9 9 9 9 9 9 9 9 9 9 9 9 9 9 9 9 9 9 9 9 9 9 9 9 9 9 9 9 9 9 9 9 9 9 9 9 9 9 9 9 9 9 9 9 9 9 9 9 9 9 9 9 9 9 9 9 9 9 9 9 9 9 9 9 9 9 9 9 9 9 9 9 9 9 9 9 9 9 9 9 9 9 9 9 9 ; 9 9 9 9 9 9 9 9 9 9 9 9 9 9 9 9 9 9 9 9 - - 9 9 9 9 9 9 - 0 9 0 9 9 9 9 9 9 9 - - 9 9 9 9 9 9 9 9 9 9 9 9 9 9 9 9 9 9 9 9 9 9 9 9 9 9 9 9 9 9 9 9 9 9 9 9 9 u 9 9 9 9 9 u u 9 9 9 9 9 9 9 9 9 9 ; ; 9 - - 0 - - 0 - 9 0 9 - 9 9 9 9 ; 9 9 - 9 - - - * - 0 9 - * ",
"sX;.= 9 9 9 = = o e.sXa e.sX:X:X:Xe.= p :X8XsXe.' # ' 8X] ; 9 9 9 9 9 9 9 9 9 9 9 9 9 9 9 9 9 9 9 9 9 9 9 9 9 9 9 9 9 9 9 9 9 9 9 9 9 9 9 9 9 9 9 9 9 9 9 9 9 9 9 9 9 9 9 9 9 9 9 9 9 9 9 9 9 9 9 9 9 9 9 9 9 9 9 9 9 9 9 9 9 9 9 9 9 9 9 9 9 9 9 9 9 9 9 9 9 i 9 9 9 9 9 9 9 9 9 9 9 9 9 9 9 9 9 9 9 - c | 9 9 N 9 0 9 m j 0 g 9 u 9 9 u 9 9 c j 0 9 9 9 9 9 9 9 9 9 9 9 9 9 9 9 9 9 9 i 9 ; 9 9 9 9 9 9 9 9 0 i !.9 9 9 ; : = = 9 9 ; 4X5Xa = 9 9 9 9 9 9 9 i ' ' i c m j | | N M j M g c 0 9 p ' s i - M g g.m j j.c c j N k.",
"gXsXpXsXe.s sXsXsXsXsX9 :XgXi o : : 9 = 9 uXuXsXuX] ,Xa.p ; 9 9 9 9 9 9 9 9 9 9 9 9 9 9 9 9 9 9 9 9 9 9 9 9 9 9 9 9 9 9 9 9 9 9 9 9 9 9 9 9 9 9 9 9 9 9 9 9 9 9 9 9 9 9 9 9 9 9 9 9 9 9 9 9 9 9 9 9 9 9 9 9 9 9 9 9 9 9 9 9 9 9 9 9 9 9 9 9 9 9 9 9 9 9 9 ; ' ' ; 9 9 9 9 9 9 9 9 9 9 9 9 9 9 9 9 9 9 * f.g.g.M.c.v.b.f.b.M m x.k.k.c.v.z.f.M.Z.M - 9 9 9 9 9 9 9 9 9 9 9 9 9 9 9 9 9 9 i ;.9 9 9 9 9 9 9 9 9 = H [.F 0 ; ' p.4X4X= 9 9 5X0X-.= 9 9 9 9 9 9 ; p e.a.d S M.k.M.x.<.Z.j.x.c h.- 9 p ] ' i 9 Z.g.M.x.k.j M.| N | k.",
"8X8X8X8X;.p 8X8X8X8X;.# e.8Xp 9 9 9 9 9 p ;.;.uX:X,X:Xp ; 9 9 9 9 9 9 9 9 9 9 9 9 9 9 9 9 9 9 9 9 9 9 9 9 9 9 9 9 9 9 9 9 9 9 9 9 9 9 9 9 9 9 9 9 9 9 9 9 9 9 9 9 9 9 9 9 9 9 9 9 9 9 9 9 9 9 9 9 9 9 9 9 9 9 9 9 9 9 9 9 9 9 9 9 9 9 9 9 9 9 9 9 9 9 9 9 ; p ' ; 9 9 9 9 9 9 9 9 9 9 9 9 9 9 9 9 9 9 9 g c.Z.h.c.C.z.g.f.c M x.v.| v.g.h.C.x.k.m - 9 9 9 9 9 9 9 9 9 9 9 9 9 9 9 9 9 ; i ' 9 9 9 9 9 9 9 9 9 9 H H H 0 9 i ' -.;.; 9 9 4X5X' = 9 9 9 9 9 9 ; p e.e.d b M.b.h.z.| g.C.j.j.f.- 9 p ] ' e N v.M.b.k.k.| z.j.k.c j.",
"= = : : ; 9 : : : : = 9 ; = 9 9 9 9 9 9 9 : s ;.i ;.9 9 9 9 9 9 9 9 9 9 9 9 9 9 9 9 9 9 9 9 9 9 9 9 9 9 9 9 9 9 9 9 9 9 9 9 9 9 9 9 9 9 9 9 9 9 9 9 9 9 9 9 9 9 9 9 9 9 9 9 9 9 9 9 9 9 9 9 9 9 9 9 9 9 9 9 9 9 9 9 9 9 9 9 9 9 9 9 9 9 9 9 9 9 9 9 9 9 9 9 9 u 9 9 9 9 9 9 9 9 9 9 9 9 9 9 9 9 9 9 9 9 c m g m g c j m m g | k.g g j c m j c c c 9 9 9 9 9 9 9 9 9 9 9 9 9 9 9 9 9 9 9 u 9 9 9 9 9 9 9 9 9 9 9 u 0 u 9 9 9 = = = 9 9 9 i p ; 9 9 9 9 9 9 9 9 i p p i f j j g M c u c g N g 9 9 i p p u j 9 j N j f | 9 c m 9 j ",
"* * * * * & * * * * * & * * & & & & & & & * $ . & . & * & & & & & & & & & & & & & & & & & & & & & & & & & & & & & & & & & & & & & & & & & & & & & & & & & & & & & & & & & & & & & & & & & & & & & & & & & & & & & & & & & & & & & & & & & & & & & & & & & & * & & & & & & & & & & & & & & & & & & & & & + + $ + $ + + + + + 9 * + & + + + + + + + & & & & & & & & & & & & & & & & & & & & & & & & & & & & & & & & & & & & & * * * & & & $ $ * & & & & & & & & & $ $ & $ + + $ + + & + $ + & & & & $ $ & + & + + + & + & + + & + ",
"h.h.h.h.h.h.h.h.h.h.h.h.h.h.h.h.h.h.h.h.h.h.k.k.h.k.h.h.h.h.h.h.h.h.h.h.h.h.h.h.h.h.h.h.h.h.h.h.h.h.h.h.h.h.h.h.h.h.h.h.h.h.h.h.h.h.h.h.h.h.h.h.h.h.h.h.h.h.h.h.h.h.h.h.h.h.h.h.h.h.h.h.h.h.h.h.h.h.h.h.h.h.h.h.h.h.h.h.h.h.h.h.h.h.h.h.h.h.h.h.h.h.h.h.h.h.h.h.h.h.h.h.h.h.h.h.h.h.h.h.h.h.h.h.h.h.h.h.h.k.h.k.h.k.h.h.h.k.j.h.k.h.h.k.k.h.k.h.h.h.h.h.h.h.h.h.h.h.h.h.h.h.h.h.h.h.h.h.h.h.h.h.h.h.h.h.h.h.h.h.h.h.h.h.h.h.h.h.h.h.h.h.h.h.h.h.h.h.h.h.h.h.k.k.k.k.k.k.k.k.k.k.k.k.k.k.k.k.k.k.k.k.k.k.k.k.k.k.k.k.k.k.k.k.k.k.",
"G.G.G.G.G.G.G.G.G.G.G.G.G.G.G.G.G.G.G.G.G.G.G.G.G.G.G.G.G.G.G.G.G.G.G.G.G.G.G.G.G.G.G.G.G.G.G.G.G.G.G.G.G.G.G.G.G.G.G.G.G.G.G.G.G.G.G.G.G.G.G.G.G.G.G.G.G.G.G.G.G.G.G.G.G.G.G.G.G.G.G.G.G.G.G.G.G.G.G.G.G.G.G.G.G.G.G.G.G.G.G.G.G.G.G.G.G.G.G.G.G.G.G.G.G.G.G.G.G.G.G.G.G.G.G.G.G.G.G.G.G.G.G.G.G.G.G.G.G.G.G.G.G.G.G.G.G.G.G.G.G.G.G.G.G.G.G.G.G.G.G.G.G.G.G.G.G.G.G.G.G.G.G.G.G.G.G.G.G.G.G.G.G.G.G.G.G.G.G.G.G.G.G.G.G.G.G.G.G.G.G.G.G.G.G.G.G.G.G.G.G.G.S.C.C.C.C.C.C.C.C.C.C.C.C.C.Z.Z.Z.Z.Z.Z.Z.Z.Z.Z.Z.Z.Z.Z.Z.Z.Z.Z.Z.C.",
"+ + + + + + + + + + + + + + + + + + + + + + + + + + + + + + + + + + + + + + + + + + + + + + + + + + + + + + + + + + + + + + + + + + + + + + + + + + + + + + + + + + + + + + + + + + + + + + + + + + + + + + + + + + + + + + + + + + + + + + + + + + + + + + + + + + + + + + + + + + + + + + + + + + + + + + + + + + + + + + + + + + + + + + + + + + + + + + + + + + + + + + + + + + + + + + + + + + + + + + + X X @ + + + + + + + + + + + + + + + + + + $ X M tXH.<XH.H.H.H.H.H.<XH.H.H.S.S.S.S.S.S.S.S.S.S.S.S.S.S.S.S.S.S.S.S.",
"g g g g g c j j g 9 u f 9 f 9 g g g u 9 u g 9 9 9 9 9 9 9 9 9 9 9 9 9 9 9 9 9 9 9 9 9 9 9 9 9 9 9 9 9 9 9 9 9 9 9 9 9 9 9 9 9 9 9 9 9 9 9 9 9 9 9 9 9 9 9 9 9 9 9 9 9 9 9 9 9 9 9 9 9 9 9 9 9 9 9 9 9 9 9 9 9 9 9 9 9 9 9 9 9 9 9 9 9 9 9 9 9 9 9 9 9 9 9 9 9 9 9 9 9 9 9 9 9 9 9 9 9 9 9 9 9 9 9 9 9 9 9 9 9 9 9 9 9 9 9 9 9 9 9 9 9 9 9 9 9 9 9 9 9 9 9 9 9 9 9 9 9 9 9 9 9 9 9 9 9 9 9 9 9 9 9 9 9 9 u 9 c z.x.| u 9 9 9 9 9 g u - 9 9 9 9 9 j 9 9 9 9 $ S.JXJXKXJXJXJXJXJXJXKXJXJXKXk.| | | | | | | | | | | | | | | | | | f.",
"k.C.v.g.k.f.M.v.M.f.M S.| v.g x.N Z.| x.f.Z.x.| | - 9 9 9 9 9 9 9 9 9 9 9 9 9 9 9 9 9 9 9 9 9 9 9 9 9 9 9 9 9 9 9 9 9 9 9 9 9 9 9 9 9 9 9 9 9 9 9 9 9 9 9 9 9 9 9 9 9 9 9 9 9 9 9 9 9 9 9 9 9 9 9 9 9 9 9 9 9 9 9 9 9 9 9 9 9 9 9 9 9 9 9 9 9 9 9 9 9 9 9 9 9 9 9 9 9 9 9 9 9 9 9 9 9 9 9 9 9 9 9 9 9 9 9 9 9 9 9 9 9 9 9 9 9 9 9 9 9 9 9 9 9 9 9 9 9 9 9 9 9 9 9 9 9 9 9 9 9 9 9 9 9 9 9 9 9 9 9 9 9 9 9 * k.J.Z.M.9 9 9 9 9 * | h.<.g 9 9 - M x.j.g | k.@ Z.JXxXbXDXVXAXbXSXVXvXFXFXSXg $ * * * * * * * * * * * * * * * * * & ",
"Z.| M.c.g.9 j.v.Z.k.j.S.S.b.N k.b.G.b.S.Z.k.k.Z.h.* 9 9 9 9 9 9 9 9 9 9 9 9 9 9 9 9 9 9 9 9 9 9 9 9 9 9 9 9 9 9 9 9 9 9 9 9 9 9 9 9 9 9 9 9 9 9 9 9 9 9 9 9 9 9 9 9 9 9 9 9 9 9 9 9 9 9 9 9 9 9 9 9 9 9 9 9 9 9 9 9 9 9 9 9 9 9 9 9 9 9 9 9 9 9 9 9 9 9 9 9 9 9 9 9 9 9 9 9 9 9 9 9 9 9 9 9 9 9 9 9 9 9 9 9 9 9 9 9 9 9 9 9 9 9 9 9 9 9 9 9 9 9 9 9 9 9 9 9 9 9 9 9 9 9 9 9 9 9 9 9 9 9 9 9 9 9 9 9 9 9 9 & b.C.M.jX* 9 9 9 9 - M M.M.N * 9 * k.N M.x.Z.k.X Z.JXAXkXkXcXkXcXcX<XcXLXFXSXg 9 9 9 9 9 9 9 9 9 9 9 9 9 9 9 9 9 9 u ",
"N & | m f.c c c c | | c | c 0 f.g.c f.g | 9 g g j * - - - - - - - - - - - - - - - - - - - - - - - - - - - - - - - - - - - - - - - - - - - - - - - - - - - - - - - - - - - - - - - - - - - - - - - - - - - - - - - - - - - - - - - - - - - - - - - - - - - - - - - - - - - - - - - - - - - - - - - - - - - - - - - - - - - - - - - - - - - - - - - - - - - - - - - - - - - - - - - - - - - - - 9 9 9 9 9 9 - | Z.kXkX* 9 9 9 9 - m f.c j - 9 0 g k.c g.<.N + Z.JXSXZXSXcXbXFXZXVXSXKXJXkX& 9 9 9 9 9 9 9 9 9 9 9 9 9 9 9 9 9 9 9 ",
"f c g j g j j j g g g g g g j g g j g j g j j j j j j j j j j j j j j j j j j j j j j j j j j j j j j j j j j j j j j j j j j j j j j j j j j j j j j j j j j j j j j j j j j j j j j j j j j j j j j j j j c j j j j j j j j j j j j j j j j j j j j j j j j j j j j j j j j j j j j j j j j j j j j j j j j j j j j j j j j j j j j j j j j j j j j j j j j j j j j j j j j j j j j j j j j f & 9 9 9 9 9 9 0 * 9 9 9 9 9 9 9 - - - 0 9 9 9 0 * - * * 9 + Z.SXZXAXZXcXVXAXAXAXAXVXjX9 0 9 9 9 9 9 9 9 9 9 9 9 9 9 9 9 9 9 9 9 ",
"<XK.H.K.K.K.K.K.H.H.H.K.H.H.K.H.K.H.J.H.J.H.H.H.H.H.K.H.H.H.H.H.H.K.H.H.J.J.H.H.J.J.J.K.H.J.J.H.J.J.H.J.J.H.H.H.K.H.H.J.J.J.J.J.J.J.J.J.J.J.J.J.J.J.J.J.J.J.J.J.J.J.J.J.J.J.J.J.J.J.J.J.J.J.J.J.J.J.J.J.J.H.K.J.J.J.J.J.J.<XJ.J.<XJ.<X<X<X<X<X<X<XtXtXtXtXtXtXtXtXtX<XtXjXjXjXjXjXjXjXjXtXjXjXjXjX<X<XJ.oXoXjXjXjXjXjXjXjXjXjXjXjXjXjXjXjXjXjXjXjXjXjXjXjXjXjXjXjXjXjXjXjXjXjXjXjXjXjXjXjXjXjXjXC.* 9 9 9 9 g N.lXD.* 9 9 9 9 9 9 9 9 9 9 9 9 9 9 9 9 9 f + S.k.@ - - 9 - * * * - * + 9 9 9 9 9 9 9 9 9 9 9 9 9 9 9 9 9 9 9 9 9 ",
", o                                                 X             X           .       e.e % % e % e.e     o o o G 4 > O . X X X X X X X X X X X X & . . . . . . . . . & . . . . . . & . . . . . & . > > 3 R *.i i * . : & . : & & ; & & & & & & & & & & & & & & & & ; & & & & & & & & : ; & : : u i d X._ t 9 ; ; ; : ; : ; ; : ; f ; ; f ; ; f ; ; f ; ; ; ; ; ; ; ; ; ; ; ; ; ; ; ; k t r v ` kXn.* 9 9 - v bXFXD.* 9 9 9 9 < 1 < < 1 < 9 9 < 1 < < 1 r + S.x.& 9 9 9 9 9 9 9 9 9 u 9 9 9 9 9 9 9 9 9 9 9 9 9 9 9 9 9 9 9 9 9 ",
"C 2 1 o X X X X X X X X X X . X : . X . . . . . . X : & . . . . . ; & . . . . ; . . . ,Xs d d s i :Xs > . 1 1 C ].J 7 3 > & & & & & & & & & & & & f & & & & & & & & & f ; & & : : & f ; & : : ; f & 3 7 G |.6X=.,.i : f ; : k ; ; j ; ; ; ; ; ; ; ; ; ; ; ; ; u u ; j u u u u u u ; u f j ; ; u n ,.>.2X$.} v g f j ; f f j k f f m f f j k f m k f m f f f f f f f f k f f k f k k k m c } ..$.=XA.+ 9 9 - v vXSXc.* 9 9 9 9 < 1 < < 1 < 9 9 < 1 < < 1 r + S.x.$ 9 9 9 9 9 : ; u 9 : ; 9 9 9 9 9 9 9 9 9 9 9 9 9 9 9 9 9 9 9 9 ",
"D S b o                   X X   & X X X X X X X X X & . X . . . X : . . . . . ; . . . :Xd e e s e :Xs o . < 1 C ) G 7 3 > . . . & & & & & & & & & ; & & & & & & & & & ; : & & & & & f : & & & : f & 3 5 G w.4Xs ,.i * f ; & f : > < o o o o o o o o o o o o o o o o < # # # # # # : : ; j ; ; u a ' -.-X$.} v t f j ; f ; j f ; f j f ; j f ; j f f m f f f f f f f f f f f f f f f f m j } } $.=XA.+ 9 9 - v kXvXl.* 9 9 9 9 < 1 < < 1 < 9 9 < 1 < < 1 r + S.x.$ 9 9 9 ; i :XuXuXuX:Xi = 9 9 9 9 9 9 - 9 9 9 9 9 9 9 9 9 9 9 9 ",
"D l l o                   X X   & X X X X X X X X X & . X . . . X : . . . . . : X . $ :Xd e e s e :X' o . < 1 C ) G 7 3 > . . . & & & & & & & & & ; & & & & & & & & & ; : & & & & & f : & & & : f & 3 6 G w.6Xs ,.i & < # & c s =.2.:.:.:.i.i.i.i.i.i.i.i.i.i.i.i.i.d.i.i.i.:.:.:.=.s a j # # ; a ' -.-X$._ v t f j ; f ; j f ; f j f ; j f ; j f f m f f f f f f f f f f f f f f f f m j } { $.=XA.+ 9 9 - c m 9 <.- 9 9 9 9 < 1 < < 1 < 9 9 < 1 < < 1 r + S.x.$ 9 9 ; s uXuX:X;.:XuXpX] = 9 9 9 9 g j * - - - - 9 9 9 9 9 9 9 ",
"C , o X                   X X   & X X X X X X X X X & . X . . . X : . . . . % i $   . :Xd e e s e :X' o . < 1 C ) G 7 3 > . . . & & & & & & & & & ; & & & & & & & & & ; : & & & & & f : & & & : f & 3 6 G w.6X' ,.; - i.6X6XqX6X6X7Xp.p.a.a.a.a.i.i.i.i.i.i.i.i.i.i.d.a.a.p.p.p.6X6X6X6X7X6Xi.i u ' >.-X$._ v t f j ; f ; j f ; f j f ; j f ; j f f m f f f f f f f f f f f f f f f f m j } { $.=XA.+ 9 9 * M m . h.- 9 9 9 9 < 1 < < 1 < 9 9 < 1 < < 1 r + S.x.$ 9 9 u uXuX* o : o & 8XuXi ; 9 9 - c x.k.<.h.| c M.M - 9 9 9 9 ",
"C , o X                   X X   & X X X X X X X X X & . X . . . X : . .   *.8X:X:X:X:X,Xi d e s e :X' o . < 1 C ( I 7 3 > . . . & & & & & & & & & ; & & & & & & & & & ; : & & & & & f : & & & : f & 3 6 G w.6Xs ,.p.5X6X:.s n i u c u u u u u u u u u u u u u u u u c u u u u u u u i a ,.:.p.qX6X' =.-X$._ v t f j ; f ; j f ; f j f ; j f ; j f f m f f f f f f f f f f f f f f f f m j } { $.=XA.+ 9 9 - M m . h.- 9 9 9 9 < 1 < < 1 < 9 9 < 1 < < 1 r + S.x.$ u : e.pX* : B W N : . uX:X: 9 9 - c M.k.C.M.C.b.Z.c - 9 9 9 9 ",
"D 2 o X                   X X   & X X X X X X X X X & . X . . . X : . .   e.;.i d *.] s d e e s e a.;.> % h l y ( ! 6 3 > . . . & & & & & & & & & ; & & & & & & & & & ; : & & & & & f : & & & : f & 3 6 G w.p.:.0X6Xd k i i n a a n a a a a a a a a a a a a a a a a n a a a a a a a a a n i u a 6X0X6.-X$._ v t f j ; f ; j f ; f j f ; j f ; j f f m f f f f f f f f f f f f f f f f m j } { $.=XA.+ 9 9 - M m . h.- 9 9 9 9 < 1 < < 1 < 9 9 < 1 < < 1 r + S.x.$ 9 = 8X8Xo m B B c.v.> ,XuX= 9 9 0 g N u f.x.g | c j - 9 9 9 9 ",
"D 1 o .         X X X X X X X   & . X . X X . X . X : O X . . . X : .     e.*.d e e e d d e e s e a.e.i d n c l ( ! R 3 > + $ $ & & & & & & & & & ; & & & & & & & & & f : & & & & & f : & & & : f & 3 6 G w.0X0Xs.a d n a i n a a n a a a a a a a a a a a a a a a a n a a a a a a a a a R a s s a i.fX2X$.} v f f j 3 f 3 j k 3 f j f 3 j k 3 j f f m f f f f f f f f f f f f f f f f m j } } $.=XA.+ 9 9 * M m . h.- 9 9 9 9 < 1 < < 1 < 9 9 < 1 < < 1 r + S.x.$ 9 = 8Xa.o m B B cXbXS ;.,X9 9 9 9 9 * 9 9 9 - & 9 9 9 9 9 9 9 ",
"C , o X                         # X   X X X X X X   # @ X X X X X # e e e :X] q e e e p p e e s % e.e.- e v c y ( I R a - . . . . . . . . . . . . ; & . & & & & & & . ; & & & & & & ; & & & & & f & : 6 8 |.fX>.-.s i n a i n a i n i p p p p p p p p p p p p p p p  .p p p p p p p p p  .p p p ' -.i.aXO._ w t t h = = = h t = < h t = h t = h t t l t t t t t t t t t t t t t t t t l t _ ` $.=XA.+ 9 9 * M m . h.* 9 9 9 9 < 1 < < 1 < 9 9 < 1 < < 1 r + S.x.$ u : ,XuXo j B B B m o :X:X= 9 - c M.j k.x.b.j m M.M.h.- 9 9 9 ",
"!.H Q.Q.Q.Q.Q.Q.Q.Q.Q.Q.Q.Q.Q.Q.Q.Q.Q.Q.Q.Q.Q.Q.Q.Q.!.Q.Q.Q.Q.Q.Q.Q.).@X@X@X!.!.H H H I U V A S l r.8X:X' M M S '.! R R a : 9 ; ; ; ; ; ; ; ; ; ; k ; ; ; ; ; ; ; ; ; k f ; ; ; f ; j f ; f f f j ; k 7 T fX6X:.2.,.s ,.n s  .v n E K Q Q /./././././././././././././././././././././././././././._._.@X@X~.(.~.!.~.(.~.J ~.(././.(././.(.~.~.(.~.~.(.~.~.~.~.~.~.~.~.~.~.~.~.~.~.~.~.(.(.(.(.|.=XA.+ 9 9 * M m . h.* 9 9 9 9 < 1 < < 1 < 9 9 < 1 < < 1 r + S.x.$ u : ;.pXd o k m j > i :X;.= 9 * N c.j.j.S.c.| c.C.Z.v.0 9 9 9 ",
"8 8 8 8 8 8 8 8 8 8 8 8 8 G G 8 G G G G G G G G G G G G G G G 8 8 G  XG G G I ~ J J J ~.~.`.'.].D T.D N.8X,Xh b '.! R R a i a p - : : : : : ; ; ; k ; ; ; ; ; ; ; ; ; k 3 ; ; ; ; ; k 3 ; ; ; ; k ; 5 7 qX X6X:.2.=.a R n p ! /.).)./././.Q Q Q Q Q Q Q K K K K Q K ! Q K Q Q Q Q Q Q Q ! Q Q Q Q 5.}.d.d.qXL E B.2X=X>XaXhXqX7Xd.d.0.3.3.3.3.3.3.3.3.3.3.3.3.3.3.3.3.3.3.3.3.3.3.3.3.3.3.3.3.B.=XA.+ 9 9 * M m . k.* 9 9 9 9 < 1 < < 1 < 9 9 < 1 < < 1 r + S.x.$ 9 9 = 8XsXs . & . i 8X:X; 9 9 0 g k.M g.f.k.g <.j.k.f.0 9 9 9 ",
"Z C C , , , , , , , , , , , , , C , , , , , , , , , C , , , , 1 y } ,Xy y y y b y y y b l j L /.).!.S D Z 9X>Xy ( ! R a d d d d d % e + X @ @ @ X * @ @ @ @ @ @ @ @ @ * @ @ @ @ @ @ 0 + @ + & : f & o  X.Xw.6X>.:.s d v K !.).Q K n p p p p p p p p p p p p p p p p n p p p p p p p p p  .p p p ' ;.:.2X$.7X-X*X*X%.9XiX;Xo.` _ _ ..` ` ..` ` @.` ` @.` ` ` ` ` ` ` ` ` ` ` ` ` ` ` ` @.` $.$.*X=XA.+ 9 9 * M m . k.* 9 9 9 9 < 1 < < 1 < 9 9 < 1 < < 1 r + S.x.$ 9 9 9 u 8X' = ; ; p :Xu 9 9 9 9 9 - - - - - 9 - - - - 9 9 9 9 ",
"Z C C , , , , , , , , , , , , , C , , , , , , , , , C , , , X.8X:X,Xy.r j h l b h h h b b h y b b Q ^.K y D 1X:X( I R s d e e e d R R E I G J J J J J J J J J J J J J J J J J J J J T G 7 5 : & 0 o R qXU |.6X>.2.s p Q ).Q n p p n a a a a a a a a a a a a a a a a n a a a a a a a a a R a a s =.:.6.2X%.-X3X_ u.aX>X_ y { { [ [ @.[ [ @.{ [ @.{ { @.[ { { { { { { { { { { { { { { { #...%.%.*X=XA.+ 9 9 * N m + k.* 9 9 9 9 < 1 < < 1 < 9 9 < 1 < < 1 1 + S.x.$ 9 9 9 9 : # 9 i 9 # = 9 9 9 9 9 9 9 9 9 9 9 9 9 9 9 9 9 9 9 9 ",
"Z C C , , , , , , , , , , , , , C , , , , , , , , , C , , , y.2.2 l h h h h l b h l h b b h h m l y W ).J A S 1XhXa.R d d R ~ '.'.'.(.~ ~ J J J J J J J J J J J J J J J J J J J J J ( ( '.'.].'.( 5 5X:.U |.6X>.2.' /.).a i n a a n a a a a a a a a a a a a a a a a n a a a a a a a a a n a a a =.:.6.2X-X*X>X9XaXo.y [ [ ..{ _ [ @.[ _ @.{ _ @.{ { @.[ { { { { { { { { { { { { { { { @...%.%.*X=XA.+ 9 9 * N m + k.* 9 9 9 9 < 1 < < 1 < 9 9 < 1 < < 1 h + S.x.$ 9 9 9 ; p :XuXuXpX:Xp = 9 9 9 9 9 - 0 9 9 9 9 9 9 9 9 9 9 9 9 ",
"Z C C , , , , , , , , , , , , , C , , , , , , , , , C , , , y.2.< b l h h h l b h l h b b h h b l j b M ).~ A D W.9X>.~ '.'.~ R a d d d d d : > : k : : : : : : : : : 5 3 : : : : : k 3 : 3 5 G J XXhXU L |.6X>.2./.!.v a d n a a n a a a a a a a a a a a a a a a a n a a a a a a a a a n a a a =.:.i.-X-X..;XgXo.{ [ [ _ ..{ _ [ @.[ _ ..{ _ @.{ { @.[ { { { { { { { { { { { { { { { @...%.%.*X=XA.+ 9 9 * N B + k.* 9 9 9 9 5 8 7 7 8 7 9 9 5 8 7 7 8 V + S.x.$ 9 9 ; ' pXuX:X] :X8XsX;.= 9 9 9 - M j * 9 9 - - - 9 9 9 9 9 9 ",
"Z C C , , , , , , , , , , , , , C , , , , , , , , , C , , , y.1.< b l h h h l b h h h b b h h b l h m l m ).T A ) L.XX'.R d d a a s s s s s a 6 a R 6 3 3 3 3 3 3 3 3 7 5 3 5 5 5 5 x 5 5 5 5 5 k 5X~ ].'.q.6X;./.).p n a i n a a n a a a a a a a a a a a a a a a a n a a a a a a a a a n a a a =.>.-X-X*X;XdX>X>X_ [ [ _ ..{ _ [ @.[ _ ..{ _ @.{ { @.[ [ { { { { { { { { { { { { { { @...%.%.*X=XA.+ 9 9 * N B & z.* 9 9 9 9 k 8 5 5 8 5 9 9 5 8 7 7 8 V + S.x.$ 9 9 i uX8X& o : o o 8XuXp ; 9 - M k.x.N <.M.h.h.m k.x.* 9 9 9 ",
"Z D C C , , , , , , , , , , , , C , , , , , , , , , C , , , y.,.r b l h h h l b h l h b b h h b l h b b y W {.S ) +XOX6 s s a a a s s s s a s s s R z 3 3 3 3 3 3 3 3 7 5 3 3 3 5 3 x 5 3 5 5 3 .X X6 R ].#X:XQ ).s i n a i n a a n a a a a a a a a a a a a a a a a n a a a a a a a a a n a a s K u.-X2X-XdX;X{ 9Xo._ [ _ ..{ _ [ @.[ _ @.{ _ @.{ { @.[ [ [ { { { { { { { { { { { { { @...%.%.*X=XA.+ 9 9 * N B & x.* 9 9 9 9 8 8 8 8 8 8 9 9 5 8 7 7 8 V + S.x.$ u : e.pX& : N W N : . uX:X# 9 * N j.z.M.C.b.M.C.M.Z.j.- 9 9 9 ",
"Z C D , , , , , , , , , , , , , C , , , , , , , , , 1 h r 1 :XX.r b l h h h l b h h h b b h h b l h b b h A ! `.].'.9X0.z a a a a a a a a a a a a R a 3 3 3 3 3 3 3 3 7 5 3 3 3 3 3 7 5 3 3 5 z qXL L I Y #XXX).0.s d n a d n a i n i i i i i i i i i i i i i i i i n i i i i i i a a a ,.a a a ,.-Xu.-XiX,X%...;X>Xy [ _ ..{ _ _ @.[ _ ..{ _ @.{ [ @._ [ [ [ [ [ [ [ [ [ [ [ [ { { { @...%.%.*X=XA.+ 9 9 * N B & x.* 9 9 9 0 $X$X$X$X$X$Xf 0 5 8 7 7 8 V + S.x.$ 9 = 8X8Xo m B B v.C.< :XuX= 9 9 0 N j c m m M.j M c c 9 9 9 9 ",
"Z C C , , , , , , , , , , , , , C , , , , , , , , , ,X>X>X:X>Xl l b b l l l l b l l l b b l l b b l b b l S A _.{./ d.1Xx s s s s s s s s s s s s R R z 5 5 5 5 5 5 5 x 7 5 5 5 5 5 x 7 5 6 :  X.Xz R Y ~ |.{.(.;.=.a n i u n s s 2.-.:.:.:.:.:.:.:.:.:.:.:.:.:.:.:.s.:.:.:.:.:.-.=.s a n i j a -X-Xu.iXaX%.O.o...9X.._ [ @...[ { @.{ [ @...[ @...{ #.{ { { { { { { { { { { { { { { { #...%.%.*X=XA.+ 9 9 * N B & x.* 9 9 9 9 8 8 8 8 P 8 9 9 k 8 5 k 7 V + S.x.$ 9 = 8Xa.o m B B kXbXS ;.,X9 9 9 9 9 - 9 - 9 9 * 9 9 0 9 9 9 9 ",
"Z C C C , , , , , C C C C C C C A C C C C C C C C 1 ,Xl l l l b b B b b b b b B b b b B B b b B b b B B b S ( ( _.~.s.wXD K R R R R R R R R R R R ,.R R x x 7 7 7 7 7 V x 7 7 7 7 7 P x 7 7 L 0XW R E ~ ( )._.#X|.s n 2.7XqXqXqXqXqX6X6X6X6X6X6X6X6X6X6X6X6X6X6X6X6X7X6X6X6X6X6XqXqXqXqXqX7X0.o.-Xu.>XdX-X%.%.o...>X>X{ ..#.@.....#.@...#.@...#.@.@.#.@.@.@.@.@.@.@.@.@.@.@.@.@.@.@.@.#.@.%.%.*X=XA.+ 9 9 * N B & x.* 9 9 9 9 k 8 5 5 8 5 9 0 $X$X$X$X$X$X& S.x.$ u : ,XuXo k B B B j o :X:X= 9 - c M.c k.b.v.j M M.M.k.- 9 9 9 ",
"Z C C , , , , , , , , , , , , , C , , , , , , , , 1 >Xh h h h h h b l h h h h b h h h b l h h b l h b b r S ].D m.{.~ 8X1XV d d d d d d a a a a a R s s s a 3 3 3 3 3 7 5 3 3 3 3 3 6 3 : o  Xa.x L L L ~.{.6X7.].a.5XqXp.:.2.-.s ,.s s s s s s s s s s s s s s s s ,.s s s s s s =.=.;.s.p.5X3X2Xu.aX3X*XO.O...X.o.9X{ _ ..[ _ _ .._ _ ..{ _ ..[ [ @._ [ [ [ [ _ [ [ [ [ [ [ [ [ [ [ @.{ $.%.*X=XA.+ 9 9 * N B & x.* 9 9 9 9 < < < i a i 9 9 8 S S P W P $ S.x.$ u : ;.pX' o k j j > i ,X;.= 9 * N c.j.j.S.b.| c.C.Z.v.0 9 9 9 ",
"Z C C , , , , , , , , , , , , , C , , , , , , , , 1 >Xh h h h h h b l h h h l b h l h b b h l b l l b b h './ S ) |.{.T 9XD K ! ~ (.'.'.'.'.'.'.'.'.'.'.'.'.].].].].].].].].].].].].].].].'.hX~ E a x ~ `.|. X0.hXhX;.,.s s ,.=.=.2.=.=.=.=.=.-.-.-.-.-.-.-.-.-.-.-.2.-.-.-.-.-.-.-.=.=.1.s o.-X7XdX9X-X-X%.O.o.o...>X;Xy ..{ _ _ @.[ _ @.{ _ @.{ [ @.[ [ [ [ [ [ [ [ { { { { { { { { @...%.%.*X=XA.+ 9 9 * N B & x.* 9 9 9 9 t t t u i u 9 9 t < < p d p + S.x.$ 9 9 = 8XsX' . & . i 8X:X; 9 9 0 g k.M f.| j.g | g.j.| 0 9 9 9 ",
"Z C C , , , , , , , , , , , , , C , , , , , , , , h >Xr h h h h h b l h h h l b h h h b b h h b l h b l ^ '.S S ( ^ |.^.7XoX].(.~ ~ ~ E E E R R R E R R R R R G G G G G G G G G G G T U G XXXX'.].'.~ ^.~ |.qX0X7X'.E -.-.=.,.=.=.1.=.=.=.=.=.=.=.=.=.=.=.=.=.=.=.=.1.=.=.=.=.=.=.=.=.-.2.=.-Xo.,XdX9X2X-XO.O.o.o.o.o.9X_ ..{ _ _ @.[ _ @.{ _ @.{ [ @._ [ [ [ [ [ [ [ [ [ [ { { { { { @...%.%.*X=XA.+ 9 9 * | B & x.* 9 9 9 9 C Z Z :.a.i.9 9 < 1 1 a s s + S.x.$ 9 9 9 9 ,X' = 0 0 p a.9 9 9 9 9 9 * - - - * 9 - - - - 9 9 9 9 ",
"Z C C , , , , , , , , , , , , , C , , , , , , , , r >X1 h h h h h b l h h h l b h h h b b h h b l h b b './ S S ( ^ ^ {.@Xm.) R R R R R R R R R R E R R R R R R G 7 7 G G 7 7 7 7 7 G 7 L qXL R W (.{.`.^ |.gX X0.q.'.-.-.=.,.=.=.1.=.=.=.=.=.=.=.=.=.=.=.=.=.=.=.=.1.=.=.=.=.=.=.=.=.-.3.O.-X>XdXu.>XaX-X%.O.o.o.o.[ >Xu._ { _ _ @.[ _ ..{ _ @.{ [ @._ [ [ [ [ [ [ [ [ [ [ [ [ { { { @...%.%.*X=XA.+ 9 9 * | N & c.* 9 9 9 9 Z I.I.p.5Xp.u 9 t t t u i i + S.x.$ 9 9 9 9 # 0 9 5 f 0 = 9 9 9 9 9 9 9 9 9 9 9 9 9 9 9 9 9 9 9 9 ",
"Z C C , , , , , , , , , , 1 1.1.1.1.1.1.y.:X:X:Xd.:Xd.1 h h h h h b l h h h l b h h h b b h h b l l l ( ( S S S ) '.].( |.).) / K R R R R R R R R E R R R R R R R G 7 G G 7 7 7 G 7 U 8 .X.XG R ~ ^.~ '.].fXqX0.d.:.'.w.' =.,.=.=.1.=.=.=.=.=.=.=.=.=.=.=.=.=.=.=.=.1.=.=.=.=.=.=.=.-.-.1.-X,XaXu.u.;X3XiX%.O.o.o.o...u.,X{ { _ _ @.[ _ ..{ _ @.{ [ @._ [ [ [ [ [ [ [ [ [ [ [ [ [ [ { @...%.%.*X=XA.+ 9 9 * | N & c.* 9 9 9 9 Z I.Z a.4Xp.u 0 Z I.Z i.4Xp.$ S.x.$ 9 9 9 0 k ) $X$X$X) k 0 9 9 9 9 9 9 9 - - 9 9 9 9 9 9 9 9 9 9 ",
"Z D D C , , , , , , , , , e.:Xr.y.y.y.y.1. . . . .n b l h h h h h b l h h h l b h h h b b h h b l h B '.V / S D ].].^ ^ / |.{.) R R R R R R R R R E R R R R R R R G 7 G G 7 G L G G G G qXR L ~.).~ E U qXyXXXi.q.3.7.#X=.=.,.=.=.1.=.=.=.=.=.=.=.=.=.=.=.=.=.=.=.=.1.=.=.-.-.-.-.-.=.s B.iXpXu.u.;X>X2X3X>X+.o.o.o.X.{ ,Xu._ [ _ @.[ _ ..{ _ @.{ [ @._ [ [ [ [ [ [ [ [ [ [ [ [ [ [ [ @...%.%.*X=XA.+ 9 9 * | N & c.* 9 9 9 9 Z I.Z a.5Xp.u 0 U.Y.Y.0XfXpX% Z.x.$ 9 9 0 8 $X$X) 8 ) $X$XP 0 9 9 9 9 9 0 M m * 9 - 9 9 9 9 9 9 9 ",
"Z D D C , , , , , , , , , e.v 2 l 1 < 1 < r r r r r b l h h h h h b l h h h l b h l h b b h h b l y '.( b / S ) ].( ^ ^ P / q.@X).H R R R R R R R E R R R R R R R L 7 G 7 7 R R 7 7 8 .X XJ ).`.! R I .XqX|.#Xq.d.7.=.'.|.s ,.=.=.,.R =.=.=.=.=.=.=.=.=.=.=.=.=.=.=.,.R s s s s s R :.6XdX9Xo.o.u.;X>X2X-XiX;X..o.o.X...u.,X_ [ _ @.[ _ ..{ _ @.{ [ @._ [ [ [ [ [ [ [ [ [ [ [ [ [ [ [ @...%.%.*X=XA.+ 9 9 * | N & c.* 9 9 9 9 Z I.Z a.5Xp.u 0 I.Y.U.qXfX0X% Z.x.$ 9 0 f $X$X+ + ; $ @ ) $X5 0 9 9 9 9 9 x.k.v.j.f.g 0 9 9 9 9 9 ",
"Z C C 1 1.1.1.1.1.1.1.1.,.,Xj r b h h h h h h h h r b l h h h h h b l h h h l b h h h b b h h b h V '.m V S / ].].( ^ ^ P P S t.qX@X).)./.H Q I I ~ I I I I I I I I G G G G I I J H ~.).^.!.J L Y G ! qX(.XXqX#Xd.7.-.7.#X-.2.;.-.2.-.-.-.-.-.-.-.;.;.;.;.;.;.:.:.:.t.:.i.i.:X:X8XiXpXiX2XX.o.u.u.;X>X2X-X;X9X..X.o.X.X...9X.._ _ .._ _ ..{ _ ..[ [ @._ [ _ _ _ _ _ [ [ [ [ [ [ [ [ [ @.{ $.%.*X=XA.+ 9 9 * | N & b.* 9 9 9 9 Z I.Z a.5Xp.u 0 I.Y.Y.0XfX0X% Z.x.$ u e ) $X+ ; N / / f @ $X) e 9 9 9 9 9 x.z.M.M S.0 9 9 9 9 9 9 ",
"Z C C u.,Xy.y.y.y.y.y.y.d.1.l b B b b b b b b b b b B b b b b b b B b b b b b S b b b B B b b S b '.( S / S ].) ( ( ( ^ / / / / v.iX0X XXX@X@X@X@X@X@X@X@X@X@X@X@X@X@X@X@X@X@X@X@XqXfX0X8X8X8X8X0X8XpXaXpXaXdXaXaXpXpXpXaXpXpXpXpXpXpXpXpXpXpXpXpXpXpXpXpXpXpXpXpXpXpXpXiXiX9X9X7Xd.3.-X2Xu.u.u.u.;X>X2X2X%.9X>X#.B.o.o...>X>X{ @.#.@.@.#.@...#.@.@.#.@.@.@.@.@.@.@.@.@.@.@.@.@.@.@.@.#.@.%.%.*X=XA.+ 9 9 * | N & b.* 9 9 9 9 Z I.Z a.5Xp.u 0 I.Y.Y.0XfX0X% Z.x.$ 9 0 $X) @ V B m / / + ) $X0 9 9 9 9 - M m - N g.* 9 9 9 9 9 9 ",
"Z C C y.n 2 < < < < < < < < h r b h h h h h h h h h b l h h h h h b l h l h l b h l h b b l l b P '.B P b ( ].S ].( ^ ^ / P / P / P.:X8XR R 3.3.2.0.0.0.0.0.0.0.0.0.i.0.0.s.s.s.s.2.0Xd.d.d.0.0.0.6X0Xq..XqXqXd.#X|.:.0.0.+X2.:.:.2.-.-.-.-.-.-.-.-.-.-.-.-.-.-.-.=.1.=.s s s s s K o.-Xu.o.u.u.u.;X>X2X-X;X;X9Xo.o.X.X.X.o.9X[ _ @.[ _ ..{ _ @.{ [ @.[ [ [ [ [ [ [ [ [ [ [ [ [ { { { @...%.%.*X=XA.+ 9 9 * | N & b.* 9 9 9 9 Z I.Z a.5Xp.u 0 I.Y.Y.0XfX0X% Z.x.$ 9 0 $X) + j j.b.B / $ ) $X0 9 9 9 9 9 + * c u 9 g g 9 9 9 9 9 ",
"l. .X.,Xv r h h h h h h h h r r b h r h h h h h h r b l h h h h h b l h h h l b h h h b b h l b '.^ B B P ]./ / ].( ^ ^ P P P / P ) S p.8XL L L L E L L L L L L L L L E L L L L 7 ! qXG E E R I U qXq.9.|.XXqXq..X#XR 3.:.|.|.;.:.2.R =.=.=.=.=.=.=.=.=.=.=.=.=.=.=.1.=.=.-.-.-.-.K -XO.u.o.o.u.u.;X>X2X-X;XO.>X>X..X.X.X...>Xu.y .._ _ ..[ [ ;X_ [ @._ [ [ [ [ [ [ [ [ [ [ [ [ [ [ [ @.{ $.%.*X=XA.+ 9 9 * | N & b.* 9 9 9 9 Z I.Z a.5Xp.u 0 I.Y.Y.0XfX0X% Z.x.$ u e ) $X@ 5 bXJ.c V @ $X$X0 9 9 9 9 N f.h.b.9 c.M.C.j - 9 9 9 ",
"B.u.y.X.r r r r r r r r r r r r b h h h h h h h h h b l h h h h h b l h h h l b h h h b b h r / '.l P b '.( / / ].( ^ ^ / P P P P / ) L 6X:XL R R E R R R R R R R R R E E R R E L qXq.3.3.3.7.L .XqX! q.|.XXqX|.d.XX|.2.0.0.+X:.:.r.=.=.=.=.=.=.=.=.=.=.=.=.=.=.=.=.1.=.=.=.=.=.K o.-X1.u.o.o.u.u.;X>X2X-X;Xu.u.9Xo.X.X.X.o.u.,X_ .._ _ .._ ..9X_ [ @._ _ [ [ [ [ [ [ [ [ [ [ [ [ [ [ @.{ $.%.*X=XA.+ 9 9 * | N & b.* 9 9 9 9 Z I.Z a.5Xp.u 0 I.Y.Y.0XfX0X% Z.x.$ u 0 8 $X8 9 jXk k + 8 $X^ 0 9 9 u | C.b.C.N | C.C.S.m - 9 9 9 ",
"Z C 1 1 r r r r r r r r r r r r b h h h h h h h h h b l h h h h h b l h h h l b h h h b b l y '.^ V B ^ './ / / ].( ^ ^ / P P P / P ) / K 8X3.7 R 3.L R R R R R R R R E R R R L 0.qX3.7.3.3.3.E 0X7.7.q.|.XXqX.X.Xq.+X0.0.:.|.|.;.r.-.=.=.=.=.=.=.=.-.=.=.=.=.=.=.=.1.=.=.=.=.=.K -X;X1.u.o.o.u.u.;X>X2X-X;Xu.o.>X>X[ X.X.o...9Xo.{ [ _ .._ X.9X_ [ @._ _ _ _ [ [ [ [ [ [ [ [ [ [ [ [ @.{ $.%.*X=XA.+ 9 9 * | N & v.* 9 9 9 9 Z I.Z a.5Xp.u 0 I.Y.Y.0XfX0X% Z.x.$ 9 9 0 ) $X8 @ & + 5 $X) 0 9 9 9 9 9 N c M j g j.| j.g 0 9 9 9 ",
"D A y h r r r r r r r r r r r r b h h h h h h h h h b l h h h h h b l h h h l b h h h b b r V '.V V B '.^ / / / ].( ^ ^ / P P P / P / ) L 3.8Xi.8XpX3.R R R R R R R R E R R R L 6X0.7.7.3.7.E 6XqXE 8.q.|.XXqX.X.Xs.|.OX:.:.0.OX:.r.;.=.=.=.=.=.=.=.:.-.=.-.=.=.=.=.1.=.=.=.=.=.1.-X1.o.u.o.o.u.u.;X>X2X-X;Xu.o.u.9Xo.X.X.o...;X>X_ [ _ .._ o.iXy _ @._ _ _ _ _ _ [ [ [ [ [ [ [ [ [ [ @.{ $.%.*X=XA.+ 9 9 * | N & v.* 9 9 9 9 Z I.Z a.5Xp.u 0 I.Y.Y.0XfX0X% Z.x.$ 9 9 9 9 ) 8 = : = 5 ) 9 9 9 9 9 9 9 - - - 0 9 * - * 9 9 9 9 9 ",
"D S S h r r r r r r r r r r r r b h h h h h h h h h b l h h h h h b l h h h l b h h h b b t ( ( V V ( '.V / / / ].( ^ ^ / P P P P / P ) / L 3.6X3.d.8XL R R R R R R R E R R L 7.qXE 7.3.3.3.7.0Xd.7.8.q.|.XXqX.X.Xq.0.+X0.:.2.|.q.:.:.;.=.=.=.=.-.;.:.:.;.;.=.=.=.=.1.=.=.=.=.K -X-X1.o.u.o.o.u.u.;X>X2X-X;XO.u.o.>X>X{ X.o.o.X.9X.._ _ .._ o.iXu.u.iXX._ [ _ _ [ _ _ [ [ [ [ [ [ [ [ @.{ $.%.*X=XA.+ 9 9 * | f.& v.* 9 9 9 9 Z I.Z a.5Xp.u 0 I.Y.Y.0XfX0X% Z.x.$ 9 9 9 9 $ 0 ] e.] q # 9 9 9 9 9 9 9 9 9 9 9 9 9 9 9 9 9 9 9 9 ",
"D S j.b t r r r r r r r r r h r b h h h h h h h h h b l h h h h h b l h h h l b h l h b l V '.B V V '.^ P / / / ].( ^ ^ / P P P P / P / ) K L L L R 8X3.R R R R R R R E E R L 6Xd.E 7.3.3.E 6XqX0.0.q.q.|.XXqX.X.Xq.0.|.OX:.s.q._.r.:.:.-.=.-.;.:.:.:.:.:.:.=.=.=.=.1.=.=.=.' Q |.O.o.o.u.o.o.u.u.;X>X2X-X;XO.o.u.u.9XX.X.o.o.[ >X;Xy _ .._ u.aXaXiXaXo._ [ _ _ _ _ [ _ _ [ [ [ [ [ [ @.{ $.%.*X=XA.+ 9 9 * | f.& v.* 9 9 9 9 Z I.Z a.5Xp.u 0 I.Y.Y.0XfX0X% Z.x.$ 9 9 9 = e.uXdX8XdXuXe.; 9 9 9 9 9 9 9 - - - 9 - 0 9 9 9 9 9 9 ",
"D S S l t r r r r r r r r r r r l h r r r r r h h r l h r h h h r b l h h h h b h h h b y ( ( B V ( '.P P / / / ].( ^ ^ P P P P P P P P ) P K R R L p.:X7 R R R R R R E R L 3.qXE 3.7.3.3.3.0X0.0.0.q.q.|.XXqX.X.Xq.0.0.+X0.r.6.{.q.;.:.-.=.-.:.:.:.:.:.:.:.-.R -.;.,.=.=.=.' /._.u.o.o.u.o.o.o.u.u.;X2X-XO.O.o.u.o.,X>X[ o.X...u.9X_ _ ..y ,XgXiXiX9Xu._ [ _ [ ;X_ _ _ _ _ _ _ _ _ _ ..{ $.$.*X=XA.+ 9 9 * | f.& v.* 9 9 9 9 Z I.Z a.5Xp.u 0 I.Y.Y.0XfX0X% Z.x.$ 9 9 = e.sXe.e & e e.sX:X: 9 9 9 9 - j | | c 9 M g 0 9 9 9 9 9 ",
"D A A l l l l l l l l l l l l l b l l l l l l l l l b b l b b b l b b b b b b B b b b b B '.B / B '.^ / / / / / ].( ( ^ / / / / / / / W / ) K E E E E 8Xd.E E E E E E E E L 6X.X3.7.w.7.E 6XqX0.d.0.q.q.|.XXqX.X.Xd.q.d.|.XXt.9.{.XX:.r.:.:.:.:.:.:.:.:.:.r.:.,.:.r.2.2.2.2.1.|._.u.u.u.u.u.u.u.u.;X>X2X-X;XB.u.u.u.u.9X;X;Xo.o...9Xu._ #.{ >XaXaXiX,Xu._ { { ..9X,Xo._ ..............#.@.%.%.*X=XA.+ 9 9 * | f.& v.* 9 9 9 9 Z I.Z a.5Xp.u 0 I.Y.Y.0XfX0X% Z.x.$ 9 = ' uXe.o < j k o ;.uX] = 9 9 9 - c S.S.b.Z.G.c - 9 9 9 9 9 ",
"D A A l h h h h h h h h l l l h b l l l l l l l l l b b l l l l l b b l l l b b l b b b ( ( m B ( './ / / / / / ].( ^ ^ / / / / / / / / W W.W R E E R E 8X8XR E E E E E E 3.0X3.7.7.7.7.7.0Xq.0.q.0.q.q.|.XXqX.X.Xq.0.q.0.XXq.}.).#Xs.:.:.:.:.:.:.:.:.:.:.:.:.:.:.:.t.:.r.:.;X.X/.t.u.u.u.u.u.u.u.;X>X2X-X;Xu.u.u.u.o.>XaX;X..o.o.;X>X_ @.{ >XiXaXiX>X,Xu.>X{ ..9XiX9X_ ..{ { { { { { @...%.%.*X=XA.+ 9 9 * | f.& M.* 9 9 9 9 Z I.Z a.5Xp.u 0 I.Y.Y.0XfX0X% Z.x.$ 9 : :XuXo k W W B f   uX,X: 9 9 9 9 9 c.x.j.c.k.c 0 9 9 9 9 9 ",
"D A 1 r t r r r r r r r r r r r l h r r r r r h h r b h r h h h h b l h h h h b h h h b '.V V B '.T / P P / / / ].( ^ ^ P P P P P P P P P / ) K R E R R G 6Xi.L R R R E L  X XE 3.3.7.E  X6X7.0.q.0.q.q.|.XXqX.X.Xq.0.q.0./._.5.)._.|.;.:.:.:.:.:.:.:.:.:.:.:.:.:.:.r.:.:.:.-X|.|.s.u.u.u.o.u.u.u.u.;X2X-XO.O.o.u.u.o.>XgX>X_ u.iXo.9X[ { X.9XiXaXiXu.gXiXaX.._ iX9XdXo.y [ _ _ _ _ _ ..` +.$.*X=XA.+ 9 9 * <.f.& M.* 9 9 9 9 Z I.Z a.4Xp.u 0 I.Y.U.qXfX0X% Z.x.$ 9 = ,X:Xo m B B jXcXV e.,X; 9 9 9 * 9 * - * 9 9 9 * - 9 9 9 9 ",
"D A y r r r r r r r r r r r r r b h h h h h h h h h b l h h h h h b l h h h l b h l t ^ ( l V ( '.V / / P / / / ].( ^ ^ / P P P P P P P / P ) R R E R R L 3.8XR R R R E E qX7.3.3.3.7.3.0X0.0.0.q.0.q.q.|.XXqX.X.Xq.0.0.|./.{._././.OX0.;.:.:.:.:.:.:.:.:.:.:.:.:.:.r.:.>.;X2X/.|.s.u.u.u.u.u.u.u.;X>X2X-X;Xu.o.u.u.u.9XaX>Xo.aXdX>X>X;Xy >X,X9XaXiXu.aXiXiX>X;XdXaX>X;X{ _ [ _ _ _ _ @.{ $.$.*X=XA.+ 9 9 * <.f.& M.* 9 9 9 9 Z I.Z a.5Xp.u 0 U.Y.Y.0XfX0X% Z.x.$ 9 = ,X:Xo m B B K.jXl ;.:X; 9 9 9 | 9 M c N 9 - M N c 0 9 9 9 ",
"D A y r r r r r r r r r r r r r b h h h h h h h h h b l h h h h h b l h h h l b h l h '.P V V '.^ P / / P / / / ].( ^ ^ / P P P P P P P / P ) / K E R R R L d.8XR R R L .X6XE 3.3.3.3..XqX7.0.0.q.0.q.q.|.XXqX.X.Xq.0.s.).).|.{.5./.|.|.;.:.:.:.:.:.:.:.:.:.:.:.:.:.r.:.:.-Xu.|.|.s.u.u.u.u.u.u.u.;X>X3X-X;Xu.o.u.u.u.iXaX9X>XgX,X>Xo.,Xy ,Xu.9XaXiXo.o.aXiXiXiXdXaX;XgX,Xy [ _ _ _ _ @.{ $.$.*X=XA.+ 9 9 * <.f.& M.* 9 9 9 9 Z I.Z i.4Xa.9 0 I.Y.U.6X0X0X% Z.x.$ u : :XuXo ; B B c :   :Xe.: 9 - M v.M h.Z.v.M g.Z.Z.b.- 9 9 9 ",
"D A 1 r r r r r r r r r r r r r b h r h h h h h h h b l h h h h h b l h h h l b h r T '.m V ( '.V P / / P / / / ].( ^ ^ / P P P P P P P P P / ) R E R R R R L d.8XL R E qX0.3.3.3.3.7.0Xq.0.0.0.q.0.q.q.|.XXqX.X.Xq.0.s.).).9.{.5./.:.OX:.;.:.:.:.;.}.5.4._.:.:.:.:.r.>.u.-Xs.|.9.q.u.u.u.u.u.u.;X;X>X3X-X;X;Xu.u.u.>XdXaXgX9X,X>X,X[ ,Xu.aXX.qXiX9Xo.X.aX,XaXaXdXiX;XgXiXu._ _ _ _ _ ..{ $.$.*X=XA.+ 9 9 * f.f.& M.* 9 9 9 9 C Z Z :.p.i.9 0 Z U.I.4X0X5X% Z.x.$ 9 ; p uX:X. : 5 ; > ;.:Xp ; 9 - M M.j.k.C.v.M x.M.C.b.0 9 9 9 ",
"D S S h r r r r r r r r r r r r b h r h h h h h h h b l h h h h h b l h h h l b h r './ B V '.( P P / / P / / / ].( ^ ^ / P P P P P P P P / P ) / E R R R R R L 6Xi.7 d.6XR E 3.3.E .XqX7.0.0.0.q.0.q.q.|.XX X}..Xq.0.0.).).8.|.|./.:.|.|.] /.5.;.>.[./.5.).4.;.:.:.r.>.-X;X0.|.0.|.u.u.u.u.u.u.;X>X>X3X2X;X;Xu.u.u.dXdXaXgXdXu.u.9X>X,XiX,XX.@XiX9Xo.X.aX>XiXaXiX9X>XiXiX9Xy [ _ _ _ ..` $.$.*X=XA.+ 9 9 * f.f.& C.* 9 9 9 9 C Z Z :.p.i.9 0 Z U.I.6X0X5X% Z.x.$ 9 9 : e.sX] > * & p ,X] ; 9 9 9 9 m g c g c 9 j c c j 9 9 9 9 ",
"D #.j.b t r r r r r r r r h h r b h h h h r r r r r b l h h h h h b l h h h l b r P '.m m ^ './ P P / / P / / / ].( ^ ^ / P P P P Y T P P P P / ) E R R R R R L 0.6X7 qX0.3.8X8X0.E qXd.0.0.0.0.q.0.q.9.|.|. X}..Xq.0.q.)./.q.8.XX_.}.:.OX:./.).;.4.[./.5./.}.;.:.:.:.u.-Xu.q.9.y./.u.u.u.u.u.u.;X;X>X3X2X;X;Xu.u.>XaX9XiX,XdXu.u.9XiX9XgX;XX._.>X9X7.X.iX>XiXaXiX9X;XiXaXiXy [ _ _ _ ..` $.$.*X=XA.+ 9 9 * f.f.& C.* 9 9 9 9 C Z Z :.p.i.9 0 Z U.I.6X0X5X% Z.x.$ 9 9 9 = ] e 0 0 0 0 ' ; 9 9 9 9 9 - 0 - 0 - 9 - - - - 9 9 9 9 ",
"D S S l t r r r r r r r r r y t l y t y r k k k k k b y r y y h r b l h h h h b t '.T B b '.^ / P P T T P / / / ].( ^ ^ P P P P Y Y Y T P P / P ) ^ K R R R R R E 8Xi.qXR :X8X6Xd.0.qX7.0.0.0.0.q.0.q.9.|.qX X}.|.q.0././.8.9.8.|.{.)./._.|.).).;./.[././.Q /.:.:.:.:.-X;X)._.0.y.|.y.u.u.u.u.u.;X;X>X3X2X;X;Xu.u.9X>X>XiX;XgX;Xo.iXdX9XaX;X,.(.0.qX).X.iX>X9XaXiX9X_.7XaXgXo._ _ _ _ ..` +.$.*X=XA.+ 9 9 * f.f.& C.* 9 9 9 9 C Z Z :.p.i.9 0 Z U.I.6X0X5X% Z.x.$ 9 9 9 9 = G ) ].) G = 0 9 9 9 9 0 9 9 9 9 9 9 9 9 9 9 9 9 9 9 ",
"D A l h r r r r r r r r r k L L L L L L H !.H ~.H !.~.J H H H x k V l l l l l b V '.V I ~.`.J ~ Y U Y T U ^ / / ].( ^ ^ / / P Y T T T T T / / T ^ ) K R R R R E L s.pXq.E 8X0.d.7XqX.X0.0.0.0.0.q.8.q.9.|.gX X}.|.}.0._.Q 8.q.8.q._.{.).).[.)._.4./._.).{.4./.:.:.:.u.>X_.).{.0.y.|.s.u.u.u.u.u.;X>X>X3X2X;XiX9Xu.iXu.;X7Xd.gX9XX.iXdXiXaX,X,._.|.XX_.E qX;X,XiXqX@X[.d.iXgXu._ { [ [ @...$.%.*X=XA.+ 9 9 * f.f.& C.* 9 9 9 9 C Z Z :.p.i.9 0 Z U.I.6X0X5X% Z.x.$ 9 9 9 u ].].].) ].].].f 0 9 9 9 g - * - - 9 9 0 9 - * 0 9 9 9 ",
"D A A b x x x x x x x x m ~.!.H H H H H I x x x x x L I I L J !.H ~.J b b b P B ~.`.~.~.`.~.~.~.~.~.~.~.~ ( ^ ^ '.( ( ^ / / T T T T T T T T T T Y ) ^ E E E E E E 0.gX.X0.8X7.0.0XqXd.d.7Xd.q.q.q.8.q.|.0XgX X|.|.).|._. Xq.! .XpX|.{.).).[.).5.{.).0.}./.0./.0.y.:.-X.X[.q./.s.y.|.q.;X;Xu.|.u.;X>X>X3X2X>XgXdXdXiXu..X|..XdX9Xu.u.,XdXdXiX0.)._.|.|.(.qX;X>XiX@X{._.d.iXgXu.@.......#.@.%.%.*X=XA.+ 9 9 * f.g.& C.* 9 9 9 9 C Z Z :.p.i.9 0 Z U.I.6X0X5X% Z.x.$ 9 9 0 ].].5 @ + @ 5 ].].0 9 - M M.<.| c j c.x.x.| M z.c - 9 9 ",
"J J H !.H H H H H H H H H H k f j k k k k z z z z 6 x z z z k k z V ~.H H H !.~.`.I I Y '.P U T U U T ~ ~.~./ ^ '.( ~ T T U U U U U U U Y Y Y T U ^ ) K R R R R L 6X X8X8Xi.E E 0Xp.8X8X0XpX6X7.q.4.q.pXqXqXqXq.XX).).XXaX0X6X0X6X8X_.).)./.|.>./.).>.>.>.>././.5.4.|.|.|.0.y.r.y.0./.q.;Xt.).u.;X;X>X3X2X,XgX>X9X>Xy._./..XiX>X,XX.,XgX9X>XXX`.).(.|.`.@X>XX.,X@X`.7.(.qXgXu.y _ _ _ ..` +.$.*X=XA.+ 9 9 * f.g.& C.* 9 9 9 9 C Z Z :.p.i.9 0 Z U.I.6X0X5X% Z.x.$ u 0 G ].5 + V B B * 3 ].^ 0 * | f.S.k.c.M.h.S.S.v.G.S.j 0 9 9 ",
"P G G 7 k z z z z z z z z k z 6 x z 6 z z z z z z z x x z z z z z x x x L x k ( ~ x x '.~ U U Y U U T T U `.~ ^ '.( ~ T Y U Y Y Y Y Y Y Y T T Y T Y ) Y K R R R E qXE 0.6X3.3.7.pX6X8XpX6X0.pXd.9.! 6XqX9._.0XXXXXqX{.0X.X X0X X! 8XXX|.).Q |.9.>.>.>.>.4.>./.).[./.).).r.r.r.r.2.y.|.{.q.s.).y.;X>X>X2X-X,XiX;Xu.u.s.)._._.qXq.qXq.;X>Xu.u.XX_._._.w.).@X{. .,X@X`.9.)._.qX;Xy [ _ _ ..` +.$.*X=XA.+ 9 9 * f.g.& C.* 9 9 9 9 C Z Z :.p.i.9 0 Z U.I.6X0X5X% Z.x.$ 9 0 ].].@ V N N f.B @ ].].0 - c x.| g x.g.g | | M f.| c - 9 9 ",
"S 8 8 z 6 6 6 6 6 6 6 6 6 6 z 6 x z z z z z z z z z x x z z z z z x x z z z x '.L L U '.U U U T U U T Y U J `.^ '.( ~ T Y U Y Y Y Y Y Y Y Y Y Y T Y ^ ) K R R L  X}.K 7.E 4.E 6X6X8X X6X6X! 6XpX6X! 6X.X|.).{.{.).6X@XpX8.7.7.8.7..XqX|._./.8.|.>.6.i.>.>.-./.[./.).s.0.2.r.2.s.d.r.y.0.|.0._._.d.;X.XiX3XdX;Xu.u.;Xt.).).{.@X|..X|.O.o.u.u.|._.(._.3.{._._.7.q._._.7._._.@X;Xy _ _ _ ..` +.$.*X=XA.+ 9 9 * f.j.: C.* 9 9 9 9 C Z Z :.p.i.9 0 Z U.I.6X0X5X% Z.x.$ 9 0 ].J + m B N B P $ G ].0 9 0 - * - m * * * * * - - 9 9 9 9 ",
"S 8 7 6 6 6 6 6 6 6 6 6 6 6 z 6 x z z z z z z z z z x x z z z z z x x z x k ~ ( x x ~.( U U U T U U T Y U / ~.J ( ( ~ T Y U U Y Y Y Y Y Y Y Y Y Y T Y ) I K I K qXQ Q 7.! ! 7.qX0.8.8.7.5.5.q.pX0X8.6X.X(.).{.)._.8.}. X8.8.q.8.8.9.8XXX_.5.>.|.! a.sX6.>.a.4.).s._.0.y.r.r.2.,X8X1.t.y.|.{.|.[._..X{.@XgX0Xd.s.u.d./._.{.{.{.)./._.9.o.u.2.XX.X! _.2._._.(._.).(.(.7._._.{.d._ [ _ _ ..` +.$.*X=XA.+ 9 9 * f.j.: C.* 9 9 9 9 C Z Z :.p.i.9 0 Z U.I.6X0X5X% Z.x.$ 9 0 ].].@ V j G.kXk + ].].0 9 9 9 f g.M j.k.c N f.g 9 9 9 9 9 ",
"S 8 V z 6 6 6 6 6 6 6 6 6 6 6 6 x z z z z z z z z z x x z z z z z x x z z z '.Y L I '.Y Y U U T U U T Y U ^ J ~.'.( ~ T Y U U Y Y Y Y Y Y Y Y Y Y T U ^ ^ K I }. XK Q ! ! K  X X7.8.8.8.5.5.5.8.7X0XqXq._.XX{.}..Xq.8.9.8.8.9.8.8.9.6XqX|.4.6X.X|.8X6X8X8XpX-.4.;Xy.t.r.r.y.2.,XdXy.r.y.s.}.q.)./.@X0X{.7X_._./.O._.[.q./._.)._.[.@X_.o.u.2.|.>X7._.1.,.).(._.)._.(.7.(./.[.0X;Xy _ _ ..` +.$.*X=XA.+ 9 9 * g.j.: Z.* 9 9 9 9 C Z Z :.p.i.9 0 Z U.I.6X0X5X% Z.x.$ u 0 ^ ].& & j N bXm + ].) 0 9 9 9 9 c.k.C.C.<.j.jXk.- 9 9 9 9 ",
"S / / V 6 6 6 6 6 6 6 6 6 6 6 6 x z z z z z z z z z x x z z z z z x x z k ~ ~ L x ~ ~ U Y U U T U U Y Y U ^ ^ J `.( ~ T Y U U Y Y Y Y Y Y Y Y Y Y T T Y ) I K 6XQ Q Q ! ! Q qX5.8.4.8.8.5.5.5.8.9.0X0X! _.XX@X}.|.q.8.9.8.8.9.8.8.q.8.8XXX~ 8X0XaX8XK i.6X8X6.2.;X2.t.r.r.r.2.7XpX7X2.t.s.y.8._.XX@X9X_.q.{.).|.s.|.|.0.0._._._.{.{.).9.q.0.Q >Xq.(.1.,.).Q )._._.7.7.(./.[.fX>Xy _ _ ..` +.$.*X=XA.+ 9 9 * g.j.: Z.* 9 9 9 9 C Z Z :.p.i.9 0 Z U.I.6X0X5X% Z.x.$ 9 9 9 ].].: + > t f ].].u 9 9 9 9 - N g.x.c.N g x.k.0 9 9 9 9 ",
"S / / V 6 z 6 6 6 6 6 6 6 6 6 6 x z z z z z z z z z x x z z z z z x x z z '.U P L '.U Y Y U U T U U T Y U ^ ^ ^ `.( ~ T Y U U U Y Y Y Y Y Y Y T Y T T U ) ^ 6. XK Q Q 7.! }. XQ 5.5.8.8.5.5.5.8.9.5.q.9._.XXXX}.|.q.8.9.8.8.9.8.8.q.7.d.qX|.8X0X X(.>.>.K p.5Xu.9X8X2.2.2.s.s.8Xd.8X2.y.t.y.0XqXfX0Xd..X_.|.|.|.).s.r.t.0.q.0./.{.|.@X{.{.).7.d. X(.1.X._.! _./.(.X.7.(.3.`.@X>Xy _ _ ..` +.$.*X=XA.+ 9 9 * g.j.: Z.* 9 9 9 9 C Z Z :.p.i.9 0 Z U.I.6X0X5X% Z.x.$ 9 9 0 7 ].G 0 ; * 7 ].7 0 9 9 9 9 9 9 9 9 9 9 9 - 9 9 9 9 9 9 ",
"S V V z 6 6 6 6 6 6 6 6 6 6 6 6 x z 6 6 6 z z z z 6 x z z z z z z x x k Y ~.x L ~ '.L Y U U U T U U Y Y U ^ ^ ^ `.~ ~ T Y U U U U Y Y Y Y Y Y Y Y T Y Y T )  X4.Q Q Q ! ! qX5.4.5.4.8.8.5.5.5.8.8.5.8./._..X X}.|.8.8.9.8.5.9.8.8.q.8.8.0XgXdX4.4.|.4.>.>.>.9X2X8X8X9X7X8XaXiX>X2.8Xy.d.9X>X8X8X,X,Xd.>Xd.s.t.0.).t.r.t.r.t.y.0./.u.|.).{./.1.t.7X3.1.X.(.7./.(.(.X.3.3.,._.{.7.` _ _ ..` +.$.*X=XA.+ 9 9 * g.j.: Z.* 9 9 9 9 C Z Z :.p.i.9 0 Z U.I.6X0X5X% Z.x.$ 9 9 9 0 u 9 9 9 9 9 u 0 9 9 9 9 9 9 9 9 9 9 9 9 9 9 9 9 9 9 9 ",
"S V V x x x x x x x x x x x x x L x x x x x x x x x L x x x x x x P L x '.Y P P '.~ Y T T Y T T T T T T T ^ ^ ^ `.`.~ ~ T T T T T T T T T T T T T ^ T T T m. X! 7.! ! ! }. X7.8.8.8.q.9.8.8.8.9.q.8.9._.|.XX X|..Xq.9.q.q.9.q.q.q.q.q.9.7XqXXX0.0.|.|.:.0.4.9XaX>X2.iXiX9XiXaX2.t.>XpXdXaXaXd.2.s.d.d.>X;Xu.u.s.|.s.s.s.s.s.s.t.t.u.|._.{.|.u.t.7Xd.1.1.3.2.7.9.(.1.1.1.1.(.).9.` ....#.@.%.%.*X=XA.+ 9 9 * g.h.: Z.* 9 9 9 9 C Z Z :.p.i.9 0 Z U.I.6X0X5X% Z.x.$ 9 9 9 9 9 9 9 9 9 9 9 9 9 9 9 9 9 9 9 9 9 9 9 9 9 9 9 9 9 9 9 ",
"S 8 8 6 6 z z z z z z z z z z 6 x z z z z z z z z z x x z z z z z x z U '.x L ~ '.L U Y Y U U T U U T Y U ^ ^ ^ ( `.J T T U Y Y Y Y Y Y Y Y Y Y Y T T Y U  Xm.Q Q Q Q ! qXq.4.5.5.5.8.8.5.8.5.8.9.5.}._.|.XX X}.|.q.8.9.8.8.9.8.8.q.8.8.8.7._.8.4.4.|.>.>.:.2Xd.r.r.t.2.2.s.d.2.y.2.d.>Xd.pXt.t.s.d.d.>X;Xu.t.y.t.s.t.t.y.s.t.t.t.t.8.@X_.7.2.2.d.7X1.1.,.,.X.,.3.1.1.1.1.(./.9.` [ _ ..` +.$.*X=XA.+ 9 9 * g.h.: Z.* 9 9 9 9 C Z Z :.p.i.9 0 Z U.I.6X0X5X% S.z.* 9 9 9 9 9 9 9 9 9 9 9 9 9 9 9 9 9 9 9 9 9 9 9 9 9 9 9 9 9 9 u ",
"S 8 7 6 6 6 6 6 6 6 6 6 6 6 6 6 x z 6 z z z z z z z x z z z z z z x k ~.Y L L '.~ U U Y U U U T U U Y Y U ^ ^ ^ ( ~.~.~.~.~.Y U U U Y P Y Y Y Y Y T T U !  X) ! Q Q Q q.6XQ 5.5.5.5.8.5.5.5.5.8.8.4./._.9.XX X}.|.8.8.9.8.8.9.8.8.q.8.8.8.4.|.|.4.4.|.|.*.u.u.2.r.r.t.r.r.2.2.r.r.r.2.2.t.r.r.r.s.d.d.>X;Xu.y.y.t.s.r.t.r.s.t.r.r.s.2..X_.1.2.t.2.7X2.,.,.,.,.,.,.,.,.,.,.(.7.7.` _ _ ..` +.$.*X=XA.+ 9 9 * g.h.: Z.* 9 9 9 9 C Z Z :.p.i.9 0 Z U.I.6X0X5X% v.S.  * * * * * * * * * * * * * * * * * * * * * * * * * * * * * * + ",
"S 8 8 6 6 6 6 6 6 6 6 6 6 6 6 6 x z z z z z z z z z x x z z z z z x L '.L L Y '.L U U Y Y U U T U U T Y U T ^ ^ '.~.`.~.~ ~.~ P U ~.`.~.T Y Y Y Y ~ Y U .Xq.^ ( Q Q K  X}.4.5.5.5.5.8.5.5.5.5.8./.5././.9.XX X}.|.8.8.9.8.8.9.8.8.q.8.8.8.8.8.XX4.4.8.|.>.2Xr.r.r.r.t.r.r.r.r.r.r.r.r.r.t.r.r.r.s.d.d.>X;Xu.y.y.t.t.r.t.r.s.t.r.y.s.y.t.XX2.2.t.1.>Xd. .,.,.,.,.,.,.,.,.,.7.7.9.` _ _ ..` +.$.*X=XA.+ 9 9 * g.h.: Z.* 9 9 9 9 C Z Z :.p.i.9 0 Z U.I.6X0X5Xu 9 lXZ.<.g.g.g.g.g.g.g.g.g.g.g.g.f.f.f.f.f.f.f.f.f.f.f.f.f.f.f.f.f.g.",
"S 8 8 6 6 6 6 6 6 6 6 6 6 6 6 6 x z z z z z z z z z x x z z z z z x ~ ~ L x '.~ I U U Y Y U U T U U T Y U T ^ ^ '.( ~ T P ~ `.U J ~.U ~.~.T Y U ~.`.~.! qX~ ! ) ! Q 5.qX4.5.5.5.5.5.8.5.5.5.5.8.).[.).|.|.XX X}.|.8.5.9.8.8.9.8.8.q.8.8.8.8.4.|.|.4.4.|.d.;X2.r.r.r.t.r.r.r.r.r.r.r.r.r.t.r.r.r.s.d.d.>X;Xu.y.y.t.t.r.y.r.s.t.r.y.s.t.2.7Xs.1.t.1.s.7X .,.,.,.,.,.,.,.,.,.X.3.9._ _ _ ..` +.$.*X=XA.+ 9 9 * g.h.: Z.* 9 9 9 9 C Z Z :.p.i.9 0 Z U.I.6X0X5Xi & $ c.S.Z.Z.Z.Z.Z.Z.Z.Z.Z.Z.Z.Z.S.S.S.S.S.S.S.S.S.S.S.S.S.S.S.S.S.Z.",
"S 8 7 6 6 6 6 6 6 6 6 6 6 6 6 6 x z z z z z z z z z x x z z z z z L '.L L U '.U U U U Y Y U U T U U T Y U T ^ ^ '.( ~ Y Y P ~.J `.~ U U `.~ P ~ `.W ~.XXq.Y ! ( ( K  X.X4.5.5.5.5.5.8.5.5.5.8.5.).).).9.|.XX X}.|.8.5.8.8.8.9.8.8.9.8.8.8.8.8.9.XX4.4.8.1Xy.r.r.r.r.t.r.r.r.r.r.r.r.r.r.t.r.r.r.s.d.d.>X;Xu.y.y.t.t.r.r.r.t.t.r.y.s.t.2.d.7X1.t.2.1.7X1.,.,.,.,.,.,.,.,.,.,.3.9._ _ _ ..` +.$.*X=XA.+ 9 9 * g.h.: Z.* 9 9 9 9 C Z Z :.p.i.9 0 Z U.I.6X0X5X0 | <XZ.S.Z.Z.Z.S.S.Z.Z.S.Z.S.S.S.Z.Z.Z.Z.Z.Z.Z.Z.Z.Z.Z.Z.Z.Z.Z.Z.Z.C.",
"S S B x 6 6 6 6 6 6 6 6 6 6 6 6 x z 6 z z z z z z z x x z z z z f ~ ~ x x ~.~ U U U U Y Y U U T U U T Y U T ^ ^ '.( ~ T Y U ~.^.~ P Y P ~.~.P ~.J W J @X! ! ! ! ) 7.qX8.5.5.5.5.5.5.8.5.5.5./.5./.8.}.9.|.XX X}.|.8.5.8.8.8.9.8.8.9.8.8.8.8.8.4.|.|.4.y.1X0.r.r.r.r.t.r.r.r.r.r.r.r.r.r.t.r.r.r.s.d.d.>X;Xu.y.y.t.t.r.r.r.t.t.r.t.s.t.r.s.7X2.2.2.1.>Xd. .,.,.,.,.,.,.,.,.,.3.(._ _ _ ..` +.$.*X=XA.+ 9 9 * j.h.: S.* 9 9 9 9 C Z Z :.p.i.9 0 Z U.I.6X0X5X% S.JXJXJXJXJXJXJXJXJXJXJXJXJXJXJXZX| k.j.j.j.j.j.j.j.j.j.j.j.j.j.j.k.",
"S S B x 6 6 6 6 6 6 6 6 6 6 6 6 x z 6 z z z z z z z x x z z z z z '.L L I '.U T U U U Y Y U U T U U T Y U ^ ^ ^ '.( ~ T Y U Y J Y U U U ~ `.Y ~.~ T |.).~ ! W ! ^ OX X7.5.5.5.5.4.5.).5.4./.).5./.8.8.9.|.XX X}.|.8.5.8.8.8.9.8.8.q.8.8.8.8.8.8.9.|.4.;Xd.|.r.r.r.r.t.r.r.r.r.r.r.r.r.r.t.r.r.r.s.d.d.>X;Xu.y.y.t.t.r.r.r.t.t.r.r.s.t.t.t.7Xd.2.2.1.d.>X .,.,.,.,.,.,.,.,.,.3.(.` _ _ ..` +.$.*X=XA.+ 9 9 * j.h.: S.* 9 9 9 9 C Z Z :.p.i.9 0 Z U.I.6X0X5X% C.JXDXxXDXAXSXvXbXSXZXDXZXSXFXKXcXX * * * * * * * * * * * * * * * + ",
"S V V z 3 6 6 6 6 6 6 6 6 6 6 6 x 6 6 6 6 6 6 6 6 6 x z 6 z z f J '.x x J J L Y U U I Y U U U Y U I Y U U T ^ ^ '.( ~ Y U U U U U U U U U ~.~ ~.U T 6X/.~ ! ~.~ ! qX7.8.8.4.5.4.4./.^./.5./.)././.4.5.9.|.XX X}.|.8.5.8.8.5.9.8.8.9.8.8.8.8.8.8.4._.q.;X2.OXs.r.r.r.t.r.r.r.r.r.r.r.r.r.t.r.r.r.s.d.d.>X;Xu.y.y.r.t.r.r.r.t.t.r.r.t.r.r.t.d.7X2.2.2.2.7X1.,.,.,.,.,.,.,.,.,.3.(._ _ _ { ` +.$.*X=XA.+ 9 9 * j.h.: S.* 9 9 9 9 C Z Z :.p.i.9 0 Z U.I.6X0X5X% C.JXxXjXkXcXkXtXcXkXcXkXkXZXFXKXcX$ u 9 9 9 9 9 9 9 9 9 9 9 9 9 9 u ",
"S V V x z z z x x x x x x x x x x x x x x x x x x x L x x x x x '.T L U '.Y Y T Y Y Y T T Y Y T Y Y T T T ^ ^ ^ '.( ~ ~ T T T T T T T T T ~.~ ~.T |..X~.(.(.(.`.XXXX~ q./.5.8.5.8./._.)._./.).[./.8.9.|.|.XX X}.|.q.8.q.9.8.q.9.9.q.8.9.9.9.9.9.8.|.1Xu.s.d..Xy.t.t.s.t.t.t.t.t.t.t.t.t.s.t.t.t.s.d.d.>X;Xu.t.t.t.s.t.t.t.s.s.t.t.s.t.t.s.t.7Xs.2.r.2.>Xd.,.1.1.1.1.1.1.1.1.3.(.` { { @...%.%.*X=XA.+ 9 9 * j.h.: S.* 9 9 9 9 C Z Z :.p.i.9 0 Z U.I.6X0X5X% Z.JXDXSXAXSXvXZXVXbXDXVXAXDXJXJXM.& 9 9 9 9 9 9 9 9 9 9 9 9 9 9 9 9 ",
"S V V x z z z z z z z z z z x z x x z x x x x x x x x x x x z ~ ~.P L ~ '.U Y T U Y U T T Y Y T Y U T T Y ^ ^ ^ '.( ~ ~ T T T T T T T T T ~.`.~.T qXw.~ `.`.! ~ @X)._./.).).}.)./.).9.8./.)./.[.|.8.9.|.|.XX X}.|.q.8.q.9.8.q.9.8.q.8.8.8.8.8.9.9.0.1X0.s.s.OXs.y.t.s.t.t.t.t.t.t.t.t.t.s.t.t.t.s.d.d.>X;Xu.t.t.t.s.t.t.t.s.t.t.t.s.t.t.s.t.>X>X1.2.t.d.7X,.1.1.1.1.1.1.1.1.3.(.` [ [ @...$.$.*X=XA.+ 9 9 * j.h.: S.* 9 9 9 9 C Z Z :.p.i.9 0 Z U.I.6X0X5X% Z.GXDXSXSXSXSXSXbXAXSXSXDXSXZXS.* 9 9 9 9 9 9 9 9 9 9 9 9 9 9 9 9 9 ",
"S 8 7 6 6 6 6 6 6 6 6 6 6 6 6 6 x 6 6 6 6 6 6 6 6 6 x z 6 z z ~.I L L '.U I U Y U U I U U U U Y U I Y U U T ^ ^ '.( ~ Y U U U U U U U U U U ~ U 9. XY ! ^.(.Y |.XX! _.).4./././.).).8.4.5.).4.).|.4.8.9.|.XX X}.|.8.5.8.8.5.8.8.8.9.8.8.8.8.8.8.5.;XV.|.r.2.q.q.r.r.t.r.r.r.r.r.r.r.r.r.t.r.r.r.t.d.d.>X;Xu.y.y.r.t.r.r.r.t.t.r.r.t.r.r.t.r.s.7X1.2.2.2.7X1.,.,.,.,.,.,.,.,.,.(._ _ _ { ` +.$.*X=XA.+ 9 9 * j.h.: S.* 9 9 9 9 C Z Z :.p.i.9 0 Z U.I.6X0X5X% Z.x.$ 9 9 9 9 9 g u 9 9 9 9 - & 9 9 9 9 9 - = - - 9 9 - - - - 9 9 9 ",
"S 8 8 6 6 6 6 6 6 6 6 6 6 6 6 6 x z 6 6 z z z z z 6 x x z z I ~.z L ~ '.L U U T U U U Y U U U T U U Y Y U ^ ^ ^ '.( ~ T Y U U U U U U U U U Y U  Xw.~ ! ~ ! Y qXq.7.(.'.7./.)./.5.4.8.5.5.5.4.5.8.5.8.9.|.XX X}.|.8.5.8.8.5.8.8.8.9.8.8.8.8.8.8.0.2X0.OXs.r.s.OXr.r.t.r.r.r.r.r.r.r.r.r.t.r.r.r.s.d.d.>X;Xu.y.y.r.t.r.r.r.t.t.r.r.s.r.r.t.t.2.7Xs.1.t.,.>Xs. .,.,.,.,.,.,.,.,.(._ _ _ ..` +.$.*X=XA.+ 9 9 * j.x.: S.* 9 9 9 9 C C C *.>.>.9 0 Z I.Z a.4Xp.$ S.x.$ 0 - - - * - * 0 9 9 9 9 9 9 9 9 ; *.a.a.a.*.0 4 H H H F 3 9 9 ",
"S 8 8 6 6 6 6 6 6 6 6 6 6 6 6 6 x z 6 6 6 z z z z 6 x z z z ~.U x L '.Y I U U Y U U U Y U U U T U U Y U U T ^ ^ '.( ~ T Y U U U U U U U U Y U 7. X~ ! ! ! Y q. X! w.7.m.w./.^.5.4.5.8.5.5.5.5.5.8.5.5.9.|.XX X}.|.8.5.8.8.5.8.8.8.9.8.8.8.8.8.5.u.u.0..X.Xr.r..Xq.r.t.r.r.r.r.r.r.r.r.r.t.r.r.r.s.d.d.>X;Xu.y.y.r.t.r.r.r.t.t.r.r.s.r.r.t.t.2.>X>X1.t.1.s.>X .,.,.,.,.,.,.,.,.(._ _ _ { ` +.$.*X=XA.+ 9 9 * j.x.: S.* 9 9 9 9 C C C *.>.*.9 9 C Z Z i.p.a.$ S.x.+ N | <.<.k.j | g 9 9 9 9 9 9 9 9 = a.5Xp.4Xp.0 F ^.Q.Q.H 3 9 9 ",
"S 8 7 6 6 6 6 6 6 6 6 6 6 6 6 6 x z 6 6 6 z z z z 6 x z z I '.x x ~ '.L U U U Y U U U Y U U U T U U Y U U T ^ ^ '.( ~ Y Y U U U U U U U U Y U  Xq.~ ! ! ! Y  Xq.7.w.7.w.m./.).4.5.5.8.5.5.5.5.5.8.5.5.9.|.XX X}.|.8.5.8.8.5.8.8.8.9.8.8.8.8.8.8.2Xs.s.s.OXs.r.s.OXr.t.r.r.r.r.r.r.r.r.r.t.r.r.r.s.d.d.>X;Xu.y.y.r.t.r.r.r.t.t.r.r.t.r.r.t.t.r.s.7X2.2.1.2.7X,.,.,.,.,.,.,.,.,.(._ _ _ { ` +.$.*X=XA.+ 9 9 * h.x.: F.& 9 9 9 9 C C C *.>.*.9 9 Z I.Z i.4Xp.$ S.c.X c.x.C.N c.9 x.M.k.- 9 9 9 9 9 9 = a.0Xi.p.p.0 F ^.H Q.Q.3 9 9 ",
"S V V z 6 6 6 6 6 6 6 6 6 6 6 6 x z 6 6 6 6 z z z 6 x x f ~.~ x x '.~ I U U U Y U U U Y U U U T U U Y U U T ^ ^ '.( ~ Y Y U U U U U U U Y U !  XY ! ! ! Y 9.qX! w.7.7.w.m.w.5.5.5.5.8.5.5.5.5.5.8.5.5.9.|.XX X}.|.8.5.8.8.5.8.8.8.9.8.8.8.8.5.s.;X0.s.s..Xq.r.r..Xs.y.r.r.r.r.r.r.r.r.r.t.r.r.r.s.d.d.>X;Xu.y.y.r.t.r.r.r.t.t.r.r.t.r.r.t.t.r.t.7Xs.2.2.1.7Xr. .,.,.,.,.,.,.,.(._ _ _ { ` +.$.*X=XA.+ 9 9 * h.x.: G.& 9 9 9 9 C C C *.>.*.9 9 Z I.Z i.4Xa.$ S.x.@ g.M j.g g.9 v.j.g.9 9 9 9 9 9 9 = p.fX0X0X4X0 H [.^.^.Q.3 9 9 ",
"S / / V 3 6 6 6 6 6 6 6 6 6 6 6 x z 6 6 6 6 z z z 6 x z L '.L L U '.I U U U U Y U U U Y U U U T U U Y U U T ^ ^ '.( ~ Y U U U U U U U U Y G .X|.Y ! ! ! Y  X.X! 7.7.7.w.m.m.4.5.5.5.8.5.5.5.5.5.8.5.5.9.|.XX X}.|.8.5.8.8.5.8.8.8.9.8.8.8.8.8.2Xs.0.s.s.s.OXs.r.s..Xy.r.r.r.r.r.r.r.r.r.t.r.r.r.s.d.d.>X;Xu.y.y.r.t.r.r.r.t.t.r.r.t.r.r.t.y.r.t.d.7X1.2.1.d.d. .,.,.,.,.,.,.,.(._ _ _ { ` +.$.*X=XA.+ 9 9 * h.x.; G.& 9 9 9 9 C C C *.>.*.9 9 Z I.Z i.4Xa.$ S.x.$ 9 9 9 9 9 9 g 9 9 9 9 9 9 9 9 9 = a.5X4Xp.a.0 F !.Q.H H 3 9 9 ",
"S / / x 3 6 6 6 6 6 6 6 6 6 6 6 x z 6 6 6 6 6 z z 6 x k J J x x ~.~ I I U I U Y I U U Y U U U T U U Y U U T ^ ^ '.( ~ Y U U U U U U U U U Y  X! ! ! ! Y 7.qX7.7.7.7.7.w.7.m.7.4.5.4.8.5.5.5.5.5.8.4.5.9.|.XX X}.|.5.5.8.8.5.8.8.8.9.5.8.8.5.s.;X0.s.s.s.s..Xq.r.r..Xd.r.r.r.r.r.r.r.r.r.t.r.r.r.t.d.d.>X;Xu.y.r.r.t.r.r.r.t.y.r.r.t.r.r.t.r.r.t.y.7Xt.1.1.r.7X,.,.,.,.,.,.,.,.(._ _ _ { ` +.$.*X=XA.+ 9 9 * h.x.; G.& 9 9 9 9 C C C *.>.*.9 9 Z I.Z i.4Xa.$ S.x.+ 9 9 9 9 9 9 - 9 9 9 9 9 9 9 9 9 9 0 = = - - 9 ; - - - - 9 9 9 ",
"S 8 7 6 6 z z z z z z z z z z z x z z z z z z z z z x x '.L L I '.U U U U U U T U U U Y Y U U T U U T Y U T ^ ^ '.( ~ T Y U Y U U U U Y U .X.XY ! ! ! Y  X.X! w.7.w.w.w.7.m.m.4.8.5.8.5.5.5.5.5.8.5.8.9.|.XX X}.|.8.5.8.8.5.9.8.8.q.8.8.8.5.;Xs.0.s.s.s.s.d.OXt.t.d..Xr.r.r.r.r.r.r.r.r.t.r.r.r.s.d.d.>X;Xu.y.y.t.t.r.r.r.t.t.r.r.s.y.r.t.t.r.s.2.7Xd.1.2.1.7X2.,.,.,.,.,.,.,.(.} _ _ ..` +.$.*X=XA.+ 9 9 * h.x.; G.& 9 9 9 9 C C C *.>.*.9 9 Z I.Z i.4Xa.$ S.x.- g g g g g g g g g g g g g g g g g g g g g g g g g g g g g g g ",
"S V V x x x x x x x x x x x x x x x x x x x x x x x x ~ ~ L L '.~ T Y Y Y Y Y T Y Y Y T T Y Y T T Y T T T ^ ^ ^ '.( ~ ~ T T T T T T T T T qX! ! ! ! ! w.qXw.w.w.w.w.w.w.w.w.m.9.8.8.q.8.8.8.8.8.q.8.9.|.|.XX X}.|.q.8.q.9.8.q.9.9.q.8.8.9.d.2X0.d.d.d.d.d.s.OXd.s.s.OXs.y.t.t.t.t.t.t.t.s.t.t.t.s.d.d.>X;Xu.t.t.t.s.t.t.t.s.s.t.t.s.t.t.s.s.t.s.t.d.7X1.r.1.>Xd.,.1.1.1.1.1.1.(.{ { { @...%.%.*X=XA.+ 9 9 * h.x.; G.& 9 9 9 9 C C C *.>.*.9 9 Z I.Z i.4Xa.$ S.x.* u 9 9 9 9 9 9 9 9 9 9 9 9 9 9 9 9 9 9 9 9 9 9 9 9 9 9 9 9 9 u ",
"S 8 7 6 6 6 6 6 6 6 6 6 6 6 6 6 x 6 6 6 6 6 6 6 6 6 x '.L L L '.I U U I I I U Y I U I Y U U U Y U I Y U U T ^ ^ '.( ~ Y U U U U U U U G q..XY ! ! ! Y .X X! 7.7.7.7.7.w.w.7.m.m.4.4.8.5.4.5.4.5.8.4.5.9.|.XX X}.}.5.5.8.8.5.8.8.5.9.5.8.5.;Xs.0.0.0.0.0.0.0.q..X2.2.d..X2.2.2.2.2.2.r.r.t.r.r.r.t.s.d.>X;Xu.y.r.r.t.r.r.r.t.r.r.r.t.r.r.t.r.r.t.r.r.7X2.1.1.t.>X' ,.,.,.,.,.,.(.v _ _ { ` +.$.*X=XA.+ 9 9 & h.x.; G.& 9 9 9 9 C C C *.>.*.9 9 Z I.Z i.4Xp.$ S.x.$ 9 - 0 - - 9 9 0 9 9 9 9 9 9 9 9 9 d d d d d 0 3 4 4 4 4 - 9 9 ",
"S 8 8 6 6 6 6 6 6 6 6 6 6 6 6 6 x z 6 6 6 6 6 6 z f ~ J 7 7 J J L Y U I I U U Y U U I Y U U U T U U Y U U T ^ ^ '.( ~ Y U U U U U U U U  X! ! ! ! ! ! qX7.7.7.7.7.7.7.w.w.7.7.m.8.4.8.5.5.5.5.5.8.4.5.9.|.XX X}.}.5.5.8.8.5.8.8.5.9.5.5.0.2X0.s.0.0.s.s.s.s.s.OXs.r.s.OX2.r.r.r.r.r.r.r.t.r.r.r.t.d.d.>X;Xy.y.y.r.t.r.r.r.t.t.r.r.t.r.r.t.r.r.t.t.2.7Xd.1.2.1.7X1.,.,.,.,.,.,.(.} _ _ { ` +.$.*X=XA.+ 9 9 & k.x.; G.& 9 9 9 9 C C C *.>.*.9 9 Z I.Z i.4Xp.$ S.x.+ u g g g g 9 9 g - 0 * 9 9 9 9 9 = >.5X4X4Xa.0 F Q.Q.Q.H 3 9 9 ",
"S 8 7 6 6 6 6 6 6 6 z x x 6 6 6 x z 6 6 6 6 6 6 6 z ~.U L L '.U I Y U I I I U Y I U I U T T Y T U U Y U U T ^ ^ '.( ~ Y U U T T Y U U 9. XY ! ! ! Y .X X! 7.7.w.w.w.7.w.w.7.7.m.w.4.8.5.5.5.5.5.q.8.8.9.|.XX X}.}.5.5.8.8.5.8.8.5.q.8.9.;Xu.0.s.0.0.0.s.s.s.s.q..X2.s..Xd.r.2.r.r.r.r.r.t.r.r.r.t.d.d.>X;Xu.y.r.r.t.r.r.r.t.t.r.r.t.r.r.t.s.t.s.r.2.d.>X,.2.,.>Xt. .,.,.,.,.X.(.v _ _ { ` +.$.*X=XA.+ 9 9 & k.x.; K.& 9 9 9 9 C C C *.>.*.9 9 Z I.Z i.4Xp.$ S.c.X k.k.b.g.C.g k.z.M g x.j - 9 9 9 = a.5Xi.p.p.0 F ^.H Q.Q.3 9 9 ",
"S 8 7 6 6 6 6 6 6 6 x x P z 6 6 x z 6 6 6 6 6 6 6 I '.P L ( ~.L I Y U I I I U Y I U I U T U T T U U Y U U T ^ ^ '.~ ~ Y U T Y T T U U  X7.Y ! ! ! ~ qX9.7.7.w.w.w.w.7.w.w.7.7.w.m.4.8.5.5.5.4.9.q.9.9.9.|.XX X}.}.5.5.8.8.5.8.8.8.q.9.q.;X0.s.0.0.0.0.0.s.s.s.s.OXs.d.s.OXr.r.r.r.r.r.r.t.r.r.r.t.d.d.>X;Xd.t.r.r.t.r.r.r.t.t.r.r.t.r.r.s.t.d.d.r.r.t.7X2.1.1.d.d. .,.,.,.,.X.(.} _ _ { ` +.$.*X=XA.+ 9 9 & k.x.; K.& 9 9 9 9 C C C *.>.*.9 9 Z I.Z i.4Xp.$ S.c.X c.h.M.c j.g k.| Z.x.Z.g 0 9 9 9 = a.0Xp.4Xp.0 F ^.Q.Q.Q.3 9 9 ",
"S 8 8 6 6 6 6 6 6 6 x x x z 6 6 x z 6 6 6 6 6 6 3 ~.Y P L '.U I I Y U I I I U Y I U I U T T T T U U Y U U T ^ ^ '.~ ~ Y U T T T T U 7. XY ! ! ! Y |. X! 7.7.w.w.w.w.7.w.7.7.w.7.m.w.5.5.4.5.4.8.q.8.9.9.|.XX X}.}.5.5.8.8.5.8.8.5.q.9.;Xu.0.s.0.0.0.0.0.0.s.s.s..X|.s.s..X0.2.r.r.r.r.r.t.2.r.r.y.d.d.>X;Xd.y.r.r.t.r.r.r.t.y.r.r.t.r.r.s.s.s.s.r.r.t.7Xd.1.1.2.7X,.,.,.,.,.X.(.v _ _ { ` +.$.*X=XA.+ 9 9 & k.c.; K.& 9 9 9 9 C C C *.>.*.9 9 Z I.Z i.4Xp.$ S.x.+ m g c 9 M - | g.m k.| j - 9 9 9 = p.fX0X0X X0 H [.^.^.Q.4 9 9 ",
"S / / z 6 6 6 6 6 6 6 z 6 6 z 6 x z z 6 6 z 6 6 I ~.L L ~ ~.L I I Y U I I I U Y U U I Y U U U T U U Y U U T ^ ^ '.~ ~ Y U U U U U U  X9.Y ! ! ! Y qXq.7.7.7.7.7.7.7.7.w.7.7.7.7.w.m.8.5.4.5.5.5.8.5.5.9.|.XX X}.|.5.5.8.8.5.8.8.5.9.8.2X0.0.0.0.0.s.0.0.s.0.s.s.s.OXs.t.s.OXr.r.r.r.r.r.t.r.r.r.t.d.d.>X;Xu.y.r.r.t.r.r.r.t.y.r.r.t.r.r.t.t.r.t.r.r.t.d.7X1.2.1.7X2. .,.,.,.X.(.v _ _ { ` +.$.*X=XA.+ 9 9 & k.c.; K.& 9 9 9 9 C C C *.>.*.9 9 Z I.Z i.4Xp.$ S.x.$ 9 9 - 9 - 9 - - - * - 9 9 9 9 9 ; ' *.*.] d 0 4 F F 4 4 3 9 9 ",
"S / / V 6 6 6 6 6 3 x kXn.P cXL n.lXkXm.x cX/ W #XI m.%X#X'.U zX( ( %X%XoXG %XoXU zX( ( +X%XoXI %XoXY %X%XoXU oXoXJ +XoXT +X%X+XG +XqXY +XeX+XY OXhX! eX+X7.+XeXeX7.+XeX7.+XeXeXw.m.eX5.OXeX4.eXeXyX9.OXeX|.hXyXyX|..XyX8.OXyX5.OXeXtXu..XrXd.OXrXrXOXd.rXd.d.rXd.OXeXrX>X|.rXd.d.rXrXwXr.rX1Xt.rX>X>XtXtXwXy.rX1Xs.rXrXtX2.rXwX2.rX1Xs.rXrXtX2.rXwXr.rXhXtX1.tXBXd.' ,.,.,.X.(.v _ _ { ` +.$.*X=XA.+ 9 9 & k.c.; K.& 9 9 9 9 C C C *.>.*.9 9 Z I.Z i.4Xp.$ S.x.& u 9 9 9 u 9 9 9 u u 9 9 9 9 9 9 9 ; = = = ; 9 9 0 9 9 9 9 9 u ",
"S V V z 6 6 6 6 6 3 L nXn.W bXP m.nXnXP.x nXn.U #XW m.%X#XoXU NXm.( zXzX+XG zXoXU NXm.( zXzX+XG zXoXY zXzX%XU %XoXJ %XoXT zXzX%XG hXwXY zXzXzXY qXeX! eXeX7.eXeXeX7.+XeX! eXyXNXw.OX%X5.eXyXQ eXyXMXq.OXyX|.hXyXyX.X.XMX8.OXMX5.eXyX1Xd.V.MXd.wXrXMXOXd.MXd.V.MXd.OXeXBXwX0.yXd.d.BXBXtX2.BXwXt.BX>X7XtXrXwXy.BXwXs.BXBXrX:.BXtX2.BXwXs.rXBXrX:.rXtXr.BXrXrX1.tXBX>X' ,.,.,.X.(.n _ _ { _ ` +.*X=XA.+ 9 9 & k.b.; H.& 9 9 9 9 C C C *.>.*.9 9 Z I.Z i.4Xp.$ S.x.- g g g f < g v f < g g g g g g g g g g g g g g g g g g g g g g ",
"S V V x x x x x x z W nXn.W nXP m.cXnXP.x nXn.J zXW m.#XzXoXU NXm.( zXzX+XI zXoXY NXm.( %XzX+XI zXoXT zXzX%XU %XoXJ %XoXT %X%X%XI hX+X! eXzXzX7.hXeX! eXeX7.eXeXeX7.+XeX7.eXeXeXw.OX%X! eXyX4.eXyXMXq.OXyX|.hXyXyX.X.XMX9.OXMX4.eXtXtXOXd.BXd.wXrXrXOXd.MXd.V.MXd.wXeXrXwXd.eXd.d.BXBXwXr.BXwXs.BX>X7XtXrXwXy.BXwXs.BXBXtX2.rXtXr.BXwXs.rXrXrX2.rXtXr.BXrXhX1.tXBX7X,.1.1.1.1.(. .` { @...%.%.*X=XA.+ 9 9 & k.b.; H.& 9 9 9 9 C C C *.>.*.9 9 Z I.Z i.4Xp.$ S.x.+ 9 9 = i :XuXuXuX:X9 ; 9 9 9 9 - - - - - - * - 9 - 9 * - - 9 9 ",
"S 8 8 6 6 6 6 6 6 3 P nXn.L nXx n.cXnXm.z nXm.'.NXW ( #XzXoXI NX( T zXzXoXG zXoXI NX( T %XzX+XG zXoXU zXzX%XG %XoXJ %XoXY %XzX%X6.yX+XI eXzXzX XyXeX! eX+X! eXeXeX! +XeX! +XeXeX7.OXzX( eXyXQ eXyXMX9.OXyX|.hXyXyX|..XMX5.OXMX4.+XtXrXd.d.MXs.OXrXrXOXs.MXd.d.MXs.wXeXeXwXs.MXq.d.BXBXwX:.BX1Xr.BX>X>XtXrXwXr.BX1Xt.BXBXtX;.rXtX:.BXwXt.rXrXtX;.rXtX:.rXBXhX-.tXBXhX1.,.,.,.X.Q n _ _ { ` +.$.*X=XA.+ 9 9 & k.b.; H.& 9 9 9 9 C C C *.>.*.9 9 Z I.Z i.4Xa.$ S.x.$ 9 ; p uXuX:X] :XuXuXi ; 9 9 - f.c.j j j g | <.c u M g.g g 9 9 ",
"S 8 7 6 6 6 6 6 6 3 L nX+XoXnXoXjXkXcXjXoXnX+X+XNXoX+X+XzX+XoXzX+X+XzXzX%XoXzX+XoXzX+X+X%X%X%XoXzX%XoXzXzX%XoX%XoXoX%X+X+X%X%XzXqXzXeX+XzXzXzXhXeXeX+XeXeX+XeXeXeX+XeXeX+XeXeXeX+XeXyXoXeXyXOXyXeXMXeXeXyXXXhXyXyXeXeXMXeXeXMX+XtX1XrXtXtXrXwXtXrXrXtXtXrXtXtXrXtXtXrXeXtXtXBX+XtXrXBXrXtXBXtXtXBXtXtXtXtXtXwXBXtXtXrXBXrXwXBXrXtXBXtXtXrXrXrXwXBXrXtXrXBXhXwXmXBXtXi. .,.,.X.Q n _ _ { _ +.$.*X=XA.+ 9 9 & k.b.; H.$ 9 9 9 9 C C C *.>.*.9 9 Z I.Z i.4Xa.$ S.x.$ 9 ; :XuXe o : o p uX:X= 9 9 * c.S.Z.C.C.S.k.M.M.M.M.C.v.j.- 9 ",
"S 8 7 6 6 6 6 6 6 3 P nXnXnXnXnXvXcXnXnXnXnX#XNXnXzX#X%XzXNXNXNXzXNXzXzXNXNXNXzXNXNXzXNXzXzXNXNXNXzXNXzXzXzX%X%XoX%XzXzXNXzX%XyXyXNXNXNXNXzXyXyXNXMXNXMXNXNXNXeXMXNXMXNXNXMXeXMXNXMXMXzXzXMXMXMXyXMXyXMXyXyXhXyXyXyXMXMXMXMXMXMXrXtXMXrXMXBXrXMXrXBXrXMXMXrXMXMXrXMXrXrXeXBXBXrXyXBXBXBXBXBXBXBXBXrXBXtXrXBXBXBXBXBXBXBXBXBXBXBXBXBXBXBXBXrXBXBXBXBXBXBXBXBXBXCXCXwXd. .,.,.X.Q n _ _ { ` +.$.*X=XA.+ 9 9 & k.b.; J.$ 9 9 9 9 C C C *.>.*.9 9 Z I.Z i.4Xa.$ S.x.$ ; s sX] o B W m   ;.sXp ; 9 - N g.x.k.M.c.f.k.<.k.| <.M.M * 9 ",
"S 8 7 6 6 6 6 6 6 3 x A.P.P.A.P.A.P.A.P.C.oX'.A.A.oXoXm.oXoXoXoXoXoXoXoXoXoXoXoXoXoXoXoXoXoXoXoXoXoXoXoXoXoXm.P.].oXoXoXoXoXoXqXOX+X+XoX+X+XqXOXOXOXOXOXOXOXOXOXOXOXOXOXOXOXOX+XOXOX+XOXoXOXOXOXOXOXOXOX+XXXqXOXwXOXOXOXOXOXOXwX2XOXwXwXwXwXwXwXwXwXwXwXwXwXwXwXwXwXwXwXOXwXwXwXOXwXwXwXwXwXwXwXwXwXwX>X1X1X1XwXwXwXwXwXwXwXwXwXwXwXwXwXwXwXwXwXwXwXwXwXwXwXhXwXwXd.>X,.,.,.X.Q n _ _ { _ +.$.*X=XA.+ 9 9 & k.b.; J.$ 9 9 9 9 C C C *.>.*.9 9 Z I.Z i.4Xa.$ S.x.$ = ;.uXe f B f.cXv.d pX] = 9 9 0 * * - * & - * - - - 9 | 9 9 9 ",
"S 8 7 6 6 6 6 6 6 6 6 3 3 3 3 3 3 3 3 3 3 ~.G 6 7 ~.I G G G G G G I G G G G G I G G G I I G G I G G I I G U U P ( J U I I G 8. XI E E E I q. X! ! 7.! ! ! ! ! ! ! ! ! 7.! ! ! ! ! ! 7.7.m.! Q 4.5.Q Q Q Q |. X6.q.5.Q 4.4.Q Q u.u.0.0.0.0.0.0.0.0.0.0.0.0.0.0.0.0.0.0.2.q.|.:.:.q.0.;.:.2.;.:.:.:.i.i.>Xu.y.r.:.:.2.:.:.:.2.:.:.:.2.:.:.r.2.:.r.:.:.r.:.:.:.7X;.-.,.7X2.' ,.X.Q R _ _ { _ ` +.*X=XA.+ 9 9 & k.v.; J.$ 9 9 9 9 C C C *.>.*.9 9 Z I.Z i.4Xa.$ S.x.$ = ;.sXd : B W jXv.d 8X' = 9 9 - | M g f.| N f.g 9 g 9 9 9 9 9 ",
"S V V 6 6 6 6 6 6 6 6 6 z z z z x x P m U ~.z x ~ ~.I T W T I U I Y U I U U U T W T T U Y U U T U U Y Y U T ^ ^ '.( ( ( T U  X7.Y ! ! ! ! qX9.7.7.w.w.w.w.w.w.7.7.7.7.w.w.w.w.w.w.7.w.w.w.m.5.5.q.w.w.w.|.XX X}.|.8.5.8.8.5.q.2X0.s.s.s.s.0.0.0.0.0.0.0.0.0.0.0.s.s.d.s.s.OXs.r.s.OXr.r.t.t.t.r.t.d.d.>X;Xu.y.y.r.s.t.t.r.t.y.r.r.t.r.r.t.r.r.t.r.r.s.t.s.t.>Xd.1.1.d.s.' ,.X.Q R _ _ { ..#.%.*X=XA.+ 9 9 & k.v.; J.$ 9 9 9 9 C C C *.>.*.9 9 Z I.Z i.4Xa.$ S.x.$ 9 i pXe.o f j &   e.:X9 9 9 9 u x.k.- c.b.C.M.N k.Z.k.b.m - 9 ",
"/ / / z 3 6 6 6 6 6 6 6 6 6 6 6 x x W B '.I 7 L '.U U T n.W U I I U U I I I I T ^ / T U U I I Y U I Y U U T ^ ^ '.( ( m.^ 7. XY ! ! ! Y q. X! 7.7.w.w.m.m.m.w.7.7.7.7.w.w.m.m.m.w.7.w.w.7.m.w.4.9.w.w.m.w.XX X}.}.5.5.8.8.Q u.u.0.s.s.V.s.0.0.0.0.0.0.0.0.0.0.0.0.0.s.s.V.OXq.2.2.|.0.2.t.t.V.t.r.s.d.>X;Xy.y.r.r.t.s.V.r.t.r.2.r.t.r.2.t.r.2.t.r.r.t.t.s.V.d.>X,.1.s.>X' ,.X.Q R _ _ [ @.#.l.=X=XA.+ 9 9 & k.v.; J.$ 9 9 9 9 C C C *.>.*.9 9 Z I.Z i.4Xa.$ S.x.$ u = e.sXe.o % > e.8X] = 9 9 9 9 k.x.g.v.k.M.v.M g.j.g.c.| * 9 ",
"S V / z 6 6 z z z z z z z z z z x P m T '.x x ~ '.L Y T T T U U U T U U U U U T T ^ T Y Y U U T Y U T Y U ^ ^ ^ '.( ( ( ^  X9.Y ! ! ! Y qXq.7.w.7.w.w.w.w.w.w.7.w.w.w.w.w.w.w.w.w.w.w.w.w.w.m.5.q.w.w.w.|.XX X}.|.q.5.9.8.8.2Xs.s.d.s.s.s.s.s.s.s.s.s.s.s.s.s.s.s.s.d.V.d.d.OXs.t.s.OXr.s.t.t.t.s.d.d.>X;Xu.y.y.y.t.t.s.t.t.t.r.r.s.r.r.t.t.r.s.t.r.s.t.t.s.t.7X2.1.2.7X,.,.X.9.E ` _ ..#.%.%.*X=XA.+ 9 9 & k.v.; J.$ 9 9 9 9 C C C *.>.*.9 9 Z I.Z i.4Xp.$ S.x.$ 9 9 = :X;.# = : ;.e.= 9 9 9 9 0 g g j j g u g 9 9 9 9 g 9 9 9 ",
", 3 > > O O O O O O O O O O 3 O 3 3 O J F 4 4 J G 4 G F 4 F F F 4 G G F F F F G F F F G G F G G G G G G G G G G J J G G K  XG K L K L 4. XK Q K K ! Q K K K K K K Q Q ! Q Q Q Q Q Q ! ! E Q ^ ! Q Q Q Q Q }.}.4.4.Q Q Q Q 2.u.>.:.:.:.>.:.:.:.:.:.:.:.:.:.:.:.:.:.:.2.:.:.:.q.0.;.;.q.:.;.;.*.;.;.:.:.u.u.;.;.;.;.;.;.;.;.;.;.;.;.;.;.;.;.;.;.;.;.;.;.;.;.;.-.p.:.' ' p.' s p Q z w q w w ` ` +.UXv.+ 9 9 $ x.v.& jX+ 9 9 9 9 C C C *.>.*.9 9 Z I.Z i.4Xp.$ S.x.$ 9 9 9 # 9 ;.e.] 9 # 9 9 9 9 9 9 9 0 0 - * 9 9 - - 9 9 0 9 9 9 ",
"C.v.v.v.v.v.v.v.v.v.v.v.v.v.v.v.v.v.v.P.M.M.P.P.P.P.P.P.P.P.P.P.P.P.P.P.P.P.P.P.P.P.P.P.P.P.P.P.P.P.P.P.P.P.C.C.C.C.C.P.Z.Z.C.C.C.C.C.Z.Z.C.Z.Z.Z.Z.Z.Z.Z.Z.Z.Z.Z.Z.Z.Z.Z.Z.Z.Z.Z.Z.Z.Z.Z.Z.Z.Z.Z.Z.Z.Z.Z.Z.Z.Z.Z.Z.Z.Z.Z.D.Z.Z.Z.Z.Z.Z.Z.Z.Z.Z.Z.Z.Z.Z.Z.Z.Z.Z.Z.Z.Z.Z.Z.Z.Z.A.Z.Z.A.A.Z.Z.Z.Z.Z.Z.Z.Z.Z.Z.Z.Z.Z.Z.Z.Z.Z.Z.Z.Z.Z.Z.Z.Z.Z.Z.Z.Z.Z.Z.Z.Z.Z.S.Z.D.D.Z.Z.D.Z.Z.Z.A.Z.Z.Z.Z.Z.Z.C.K.jX9 9 9 9 - c jXjXb.* 9 9 9 9 C C C *.>.*.9 9 Z I.Z i.4Xa.$ S.x.$ 9 9 = ;.uXsXuXsXuX;.= 9 9 9 9 9 9 9 9 g m f - c c - 9 9 9 9 9 ",
"j.k.k.k.k.k.k.k.k.k.k.k.k.k.k.k.k.k.k.k.k.k.k.k.k.k.k.k.k.k.k.k.k.k.k.k.k.k.k.k.k.k.k.k.k.k.k.k.k.k.k.k.k.k.k.k.k.k.k.k.k.k.k.k.k.k.k.h.h.k.k.k.k.k.k.k.k.k.k.k.k.k.k.k.k.k.k.k.k.k.k.k.k.k.k.k.k.h.h.k.k.k.k.k.k.h.h.h.h.h.h.h.h.h.h.h.h.h.h.h.h.h.h.h.h.h.h.h.h.h.h.h.h.k.h.h.h.k.k.k.k.k.k.k.k.k.h.h.h.h.h.k.k.k.k.k.k.k.k.k.k.k.k.k.k.k.k.k.k.k.k.k.k.k.k.h.h.k.k.h.k.k.k.k.k.z.k.k.k.k.z.g.- - 9 9 9 9 * c <.* - 9 9 9 9 C C C *.>.*.9 9 Z I.Z i.4Xp.$ S.x.$ u = ;.sX:Xe * e :XsXs ; 9 9 9 9 9 9 9 b.k.M.M M.S.m - 9 9 9 9 ",
"& $ $ $ $ & $ $ $ & + X @ @ @ @ @ @ @ . @ @ @ . @ @ @ @ + X X $ & $ $ $ $ $ $ & & $ $ $ $ $ $ $ $ & + X X X X X X X X X @ @ X @ + @ X + * $ $ $ + + + + + + + + + + + + + $ & $ & & & $ $ $ & & $ $ & $ $ $ $ $ & & $ $ $ $ $ * $ $ $ $ $ $ $ $ $ $ $ $ $ $ $ $ $ $ $ $ + + + + + + + + + + + + + + $ * * $ + @ @ @ @ @ @ @ @ @ @ @ @ @ @ @ @ @ @ @ @ X X X X @ X X X X X X X X X X X X X X X @ 9 9 9 9 - j m - c c c - 9 9 9 C C C *.>.*.9 9 Z I.Z i.4Xa.$ S.x.$ 9 9 uX:Xo < k V h e.:X9 9 9 9 9 9 9 0 <.Z.k.C.c.b.m - 9 9 9 9 ",
"9 9 9 9 9 9 9 9 9 9 m f.| <.<.| <.<.<.| <.<.<.<.<.<.f.| N f.| 9 9 9 9 9 9 9 9 9 9 9 9 9 9 9 9 9 9 0 c f.<.| <.<.<.| | | <.<.<.f.N | g.M - 9 9 u m m m m m M M M M M M B N g 9 9 9 9 9 9 9 9 9 9 9 9 9 d d i i i i 9 4 4 3 3 3 3 9 9 9 9 9 9 9 9 9 9 9 9 9 9 9 9 9 9 9 9 c m m m M M M M M M M M B N u g g 0 N x.k.x.x.x.x.x.x.x.x.x.x.x.c.c.c.c.b.c.b.b.b.b.b.b.v.v.v.v.v.v.v.v.v.v.v.M.M.M.C.b.f 9 9 9 0 k.k.M M.C.z.g 9 9 9 9 9 0 0 0 0 9 9 t 9 t u i i + S.x.$ = ] sXd : B v.DXS d 8Xp ; 9 9 9 9 9 9 M M j m c c c - 9 9 9 9 ",
"0 0 - - - u - 0 & x.LXLXKXLXHXLXHXLXLXLXLXFXHXHXHXFXKXSXZXKXKXlX$ 9 9 9 9 9 u 9 0 - - - - - * - * f.FXKXFXLXHXHXHXKXKXKXLXFXFXKXbXPXLXFXg.* 9 9 jXxXxXnXvXvXvXbXbXZXZXAXxXg 0 9 u f u * - - - - 9 9 0 p.5X4Xp.p.d : H Q.Q.H H 4 9 9 9 9 9 9 9 9 9 9 9 9 9 9 9 9 9 9 9 - K.xXxXxXnXvXvXbXbXZXIXZXAXcXf u g * C.vXxXxXxXnXvXvXvXvXvXvXvXbXbXbXbXbXbXZXZXZXZXZXZXZXZXZXZXAXAXAXAXAXAXDXDXDXDXDXSXvXu 9 9 9 0 h.c.j.b.C.x.g 9 9 9 0 P P 8 P P 0 9 0 ^ 8 8 ^ V @ S.x.$ = ;.uX% f m h.v.< e :X' = 9 9 9 9 9 9 * - - - * - 9 9 9 9 9 9 ",
"<.x.N c M x.c M * F.DXDXAXGXLXbXSXFXGXPXGXHXFXFXFXFXLXSXDXlXjXAX& 9 - k.<.k.m | h.g M j M c g.f.& C.ZXbXGXGXAXSXFXvXVXxXSXLXFXKXVXSXc.DXH.+ 9 9 lXcXlXkXkXkXvXcXcXkXcXZXvXg * m b.M c.g.c m M M 9 9 0 4X5X4Xp.4X] : Q.^.H Q.Q.4 0 9 9 9 9 9 9 9 9 9 9 9 9 9 9 9 9 9 9 * J.cXkXkXcXlXxXxXcXkXvXcXZXxX9 u g * v.xXcXcXcXcXxXxXxXxXxXxXxXvXvXvXkXcXjX<XkXlXlXvXbXbXbXbXbXbXIXZXZXZXZXZXZXZXAXZXDXcX9 9 9 9 - j M g c j c - 9 9 9 k ^ 8 ) ) ) 0 9 k ) ) 8 ) ^ @ S.x.$ ; ' sX' o B m m > ' 8Xp ; 9 9 9 - h.g.c b.x.h.9 k.b.M.c - 9 9 ",
"S.S.M.M.M.C.K.x.& Z.kXkXlXxXcXkXkXlXcXxXcXGXFXFXFXFXLXSXZXcXcXvX* 9 - N Z.z.+ f.C.C.b.C.b.v.Z.j.* M.kXcXcXcXkXkXFXlXcXxXGXHXFXKXVXZXjXAXG.+ 9 9 lXlXK.G.G.jXcXS.H.lXH.xXvXg * N v.k.C.M.S.G.g.M.c - 0 5X5X>.a.5X*.: Q.^.H Q.Q.4 0 9 9 9 9 9 9 9 9 9 9 9 9 9 9 9 9 9 9 * J.kXC.G.lXjXkXkXkXG.G.Z.vXxX9 u g * M.xXcXcXcXxXxXxXxXxXxXxXvXvXvXbXjXcXjXH.G.K.G.bXvXbXbXbXbXZXZXZXZXZXZXZXZXAXAXAXDXcX9 9 9 9 9 9 * 9 f 9 - 9 9 9 9 9 f 9 7 8 k 9 9 9 k k f 5 V + S.x.$ 9 9 8X8X% & 5 : % :Xa.; 9 9 9 9 9 z.k.g.b.Z.j.f.C.C.S.N * 9 9 ",
"h.| g.| g.j.g.| * G.bXcXxXxXvXcXcXcXAXAXbXGXFXFXFXFXLXDXAXjXjXAX& 9 - M g.j.M c z.| g.| g.| k.g.- M.DXGXcXAXcXcXGXkXvXVXGXFXFXLXVXDXx.DXH.+ 9 9 lXcXcXkXkXkXxXkXcXkXkXvXxXg - c c M <.<.j.f.g j.c - 0 5X0X4X4X5X*.: ^.^.Q.Q.Q.F 0 9 9 9 9 9 9 9 9 9 9 9 9 9 9 9 9 9 9 * H.xXjXlXcXkXcXkXkXcXkXkXvXcX9 u g * v.xXcXcXcXcXxXxXxXxXxXxXxXxXxXvXlXjXlXcXlXkXkXkXkXxXbXbXbXbXbXZXZXZXZXZXZXZXZXZXDXcX9 9 9 9 9 9 c M.M.M.f 9 9 9 9 0 8 8 8 7 k 0 9 0 8 k 8 8 V + S.z.* u = ' sX:Xo * # e.8Xp ; 9 9 9 9 - | h.N k.j.<.g z.g.x.c 0 9 u ",
"* - - - - - - 9 & c.KXKXKXFXKXFXKXHXKXLXKXKXLXKXKXLXKXSXAXKXKXkX$ 9 9 9 - - 9 0 - - - - - 0 * 9 * f.FXKXKXLXKXKXLXFXLXKXLXKXLXJXVXGXFXFXk.* 9 9 jXnXxXvXvXvXvXbXbXbXbXZXcXg 9 9 9 - - - - - 9 - 0 9 0 0XfX0X5X5X*.: ^.[.^.^.Q.F 0 9 9 9 9 9 9 9 9 9 9 9 9 9 9 9 9 9 9 - K.nXxXnXvXvXvXbXbXbXZXIXZXcXu u g * C.vXxXxXnXvXvXvXvXvXvXvXbXbXbXbXbXbXZXZXZXZXZXZXZXZXZXZXAXAXAXAXAXAXAXDXDXDXDXDXSXxX9 9 9 9 9 - k.C.C.Z.g - 9 9 9 f ^ 8 ) ) ) 0 9 f ) ^ ^ ) ) @ M.Z.  - - # s i * - * i p # * * * * * * & $ & $ $ & * $ & & * * * & ",
"f u u u u f u u u 9 | k.h.k.k.k.h.k.k.k.k.k.k.k.k.k.k.g.f.k.h.f 9 9 9 9 u u 9 u u u u u u u u u u 9 | k.h.k.h.h.k.k.k.h.k.k.h.k.f.g.z.| 9 u 9 f M N N N N N N N N | | | | g 9 u 9 u u u u u 9 u u 9 u ' ' s s s i u F 4 4 4 4 3 9 9 9 9 9 9 9 9 9 9 9 9 9 9 9 9 9 9 9 9 m N B N N N N N N N N | | | f g g 9 | v.b.b.b.b.v.v.v.v.v.v.v.v.v.v.v.M.M.M.M.M.C.C.C.C.C.C.C.C.C.C.C.C.Z.Z.Z.Z.Z.Z.Z.M.g 9 9 9 u 9 M j.f.j.g 9 9 9 9 f V k / ^ / 9 u f V V / / V 0 g lXC.N | | B N | | | N N | | | | | | | | | | | | | | | | | | | | | ",
"+ + + + + + + + + + X X X X X X X X X X X X X X X X X X X   X + + + + + + + + + + + + + + + + + + + X X X X X X X X X X X X X X X X   X + + + + @ @ @ @ X X X X X X X X X + + + + + + + + + + + + + + . . . . + + + + + + + + + + + + + + + + + + + + + + + + + + + + + @ @ @ @ X X X X X X X X X X + $ + + @ X X X X X X X X X X X X X X X X X X X X X X X X X X X X X X X X X X X X X X X X X + + + + + + @ X X X + + + + + + @ + @ @ @ + + + @ @ @ @ @ + X * M.S.S.S.F.F.S.S.S.S.F.S.S.S.S.S.S.S.S.S.S.S.S.S.S.S.S.S.S.S.S.S.",
"G.S.S.F.F.S.S.S.S.S.G.G.G.G.G.G.G.G.G.G.G.G.G.G.G.G.G.G.G.G.G.G.F.F.F.F.F.F.F.F.F.F.F.F.F.F.F.F.F.F.G.G.G.G.G.G.G.G.G.G.G.G.G.G.G.G.G.G.F.F.F.F.G.G.G.G.G.G.G.G.G.G.G.G.G.F.F.F.F.F.F.F.F.F.F.F.F.F.F.F.F.F.F.F.F.F.F.F.F.F.F.F.F.F.F.F.F.F.F.F.F.F.F.F.F.F.F.F.F.F.F.F.G.G.G.G.G.G.G.G.G.G.G.G.G.G.F.F.F.F.G.G.G.G.G.G.G.G.G.G.G.G.G.G.G.G.G.G.G.G.G.G.G.G.G.G.G.G.G.G.G.G.G.G.G.G.G.G.G.G.G.G.F.F.F.F.F.F.G.G.G.G.F.F.F.F.F.F.G.G.G.G.G.F.F.F.G.G.G.G.G.F.G.S.C.C.C.C.C.C.C.C.C.C.C.C.C.C.C.C.C.C.C.C.C.C.C.C.C.C.C.C.C.C.C.C.",
"FXJXJXJXJXJXJXJXJXJXKXJXKXJXJXFXc.h.k.k.k.k.k.k.k.k.k.k.k.k.k.k.k.k.k.k.k.k.k.k.k.k.k.k.k.k.k.k.k.k.k.k.k.k.k.k.k.k.k.k.k.k.k.k.k.k.k.k.k.k.k.k.k.k.k.k.k.k.k.k.k.k.k.k.k.k.k.k.k.k.k.k.k.k.k.k.k.k.k.k.k.k.k.k.k.k.k.k.k.k.k.k.k.k.k.k.k.k.k.k.k.k.k.k.k.k.k.k.k.k.k.k.k.k.k.k.k.k.k.k.k.k.k.k.k.k.k.k.k.k.k.k.k.k.k.k.k.k.k.k.k.k.k.k.k.k.k.k.k.k.k.k.k.k.k.k.k.k.k.k.k.k.k.k.k.k.k.k.k.k.k.k.k.k.k.k.k.k.k.k.k.k.k.k.k.k.k.k.k.k.k.k.k.k.k.k.k.k.k.k.k.k.k.k.k.k.k.k.k.k.k.k.k.k.k.k.k.k.k.k.k.k.k.k.k.k.k.k.k.k.k.k.k.k.k.x.",
"M.DXKXxXcXSXDXZXGXcXSXxXVXHXFXSX9 + & & & & & & & & & & & & & & & & & & & & & & & & & & & & & & & & & & & & & & & & & & & & & & & & & & & & & & & & & & & & & & & & & & & & & & & & & & & & & & & & & & & & & & & & & & & & & & & & & & & & & & & & & & & & & & & & & & & & & & & & & & & & & & & & & & & & & & & & & & & & & & & & & & & & & & & & & & & & & & & & & & & & & & & & & & & & & & & & & & & & & & & & & & & & & & & & & & & & & & & & & & & & & & & & & & & & & & & & & & & & & & & & & & & & & & & & & & & & & + ",
"G.AXKXkXlXkX<XcXkXkXDXDXcXFXHXSXg 9 9 9 9 9 9 9 9 9 9 9 9 9 9 9 9 9 9 9 9 9 9 9 9 9 9 9 9 9 9 9 9 9 9 9 9 9 9 9 9 9 9 9 9 9 9 9 9 9 9 9 9 9 9 9 9 9 9 9 9 9 9 9 9 9 9 9 9 9 9 9 9 9 9 9 9 9 9 9 9 9 9 9 9 9 9 9 9 9 9 9 9 9 9 9 9 9 9 9 9 9 9 9 9 9 9 9 9 9 9 9 9 9 9 9 9 9 9 9 9 9 9 9 9 9 9 9 9 9 9 9 9 9 9 9 9 9 9 9 9 9 9 9 9 9 9 9 9 9 9 9 9 9 9 9 9 9 9 9 9 9 9 9 9 9 9 9 9 9 9 9 9 9 9 9 9 9 9 9 9 9 9 9 9 9 9 9 9 9 9 9 9 9 9 9 9 9 9 9 9 9 9 9 9 9 9 9 9 9 9 9 9 9 9 9 9 9 9 9 9 9 9 9 9 9 9 9 9 9 9 9 9 9 9 9 9 9 9 f ",
"lXGXJXZXvXvXbXSXAXvXGXSXZXKXJXcX& 9 9 9 9 9 9 9 9 9 9 9 9 9 9 9 9 9 9 9 9 9 9 9 9 9 9 9 9 9 9 9 9 9 9 9 9 9 9 9 9 9 9 9 9 9 9 9 9 9 9 9 9 9 9 9 9 9 9 9 9 9 9 9 9 9 9 9 9 9 9 9 9 9 9 9 9 9 9 9 9 9 9 9 9 9 9 9 9 9 9 9 9 9 9 9 9 9 9 9 9 9 9 9 9 9 9 9 9 9 9 9 9 9 9 9 9 9 9 9 9 9 9 9 9 9 9 9 9 9 9 9 9 9 9 9 9 9 9 9 9 9 9 9 9 9 9 9 9 9 9 9 9 9 9 9 9 9 9 9 9 9 9 9 9 9 9 9 9 9 9 9 9 9 9 9 9 9 9 9 9 9 9 9 9 9 9 9 9 9 9 9 9 9 9 9 9 9 9 9 9 9 9 9 9 9 9 9 9 9 9 9 9 9 9 9 9 9 9 9 9 9 9 9 9 9 9 9 9 9 9 9 9 9 9 9 9 9 9 9 ",
"GXSXSXSXSXPXSXSXSXSXSXSXSXSXkXg - 9 9 9 9 9 9 9 9 9 9 9 9 9 9 9 9 9 9 9 9 9 9 9 9 9 9 9 9 9 9 9 9 9 9 9 9 9 9 9 9 9 9 9 9 9 9 9 9 9 9 9 9 9 9 9 9 9 9 9 9 9 9 9 9 9 9 9 9 9 9 9 9 9 9 9 9 9 9 9 9 9 9 9 9 9 9 9 9 9 9 9 9 9 9 9 9 9 9 9 9 9 9 9 9 9 9 9 9 9 9 9 9 9 9 9 9 9 9 9 9 9 9 9 9 9 9 9 9 9 9 9 9 9 9 9 9 9 9 9 9 9 9 9 9 9 9 9 9 9 9 9 9 9 9 9 9 9 9 9 9 9 9 9 9 9 9 9 9 9 9 9 9 9 9 9 9 9 9 9 9 9 9 9 9 9 9 9 9 9 9 9 9 9 9 9 9 9 9 9 9 9 9 9 9 9 9 9 9 9 9 9 9 9 9 9 9 9 9 9 9 9 9 9 9 9 9 9 9 9 9 9 9 9 9 9 9 9 9 9 ",
"g g g g f f g g f g g g f f & - 9 9 9 9 9 9 9 9 9 9 9 9 9 9 9 9 9 9 9 9 9 9 9 9 9 9 9 9 9 9 9 9 9 9 9 9 9 9 9 9 9 9 9 9 9 9 9 9 9 9 9 9 9 9 9 9 9 9 9 9 9 9 9 9 9 9 9 9 9 9 9 9 9 9 9 9 9 9 9 9 9 9 9 9 9 9 9 9 9 9 9 9 9 9 9 9 9 9 9 9 9 9 9 9 9 9 9 9 9 9 9 9 9 9 9 9 9 9 9 9 9 9 9 9 9 9 9 9 9 9 9 9 9 9 9 9 9 9 9 9 9 9 9 9 9 9 9 9 9 9 9 9 9 9 9 9 9 9 9 9 9 9 9 9 9 9 9 9 9 9 9 9 9 9 9 9 9 9 9 9 9 9 9 9 9 9 9 9 9 9 9 9 9 9 9 9 9 9 9 9 9 9 9 9 9 9 9 9 9 9 9 9 9 9 9 9 9 9 9 9 9 9 9 9 9 9 9 9 9 9 9 9 9 9 9 9 9 9 9 9 ",
"9 * 9 0 - 0 - - - - - - 9 * 9 9 9 9 9 9 9 9 9 9 9 9 9 9 9 9 9 9 9 9 9 9 9 9 9 9 9 9 9 9 9 9 9 9 9 9 9 9 9 9 9 9 9 9 9 9 9 9 9 9 9 9 9 9 9 9 9 9 9 9 9 9 9 9 9 9 9 9 9 9 9 9 9 9 9 9 9 9 9 9 9 9 9 9 9 9 9 9 9 9 9 9 9 9 9 9 9 9 9 9 9 9 9 9 9 9 9 9 9 9 9 9 9 9 9 9 9 9 9 9 9 9 9 9 9 9 9 9 9 9 9 9 9 9 9 9 9 9 9 9 9 9 9 9 9 9 9 9 9 9 9 9 9 9 9 9 9 9 9 9 9 9 u g 9 9 * - 9 9 9 9 9 9 9 9 - 9 9 g 9 9 9 9 9 9 9 9 9 9 9 0 9 0 9 - 9 9 9 9 9 9 9 9 9 9 9 g u 9 9 9 9 9 9 9 9 9 9 - 9 9 - 9 9 9 9 9 9 9 9 9 9 9 9 9 - - 9 9 9 9 ",
"9 k.N g k.M g j c.c g c c m 9 9 9 9 9 9 9 9 9 9 9 9 9 9 9 9 9 9 9 9 9 9 9 9 9 9 9 9 9 9 9 9 9 9 9 9 9 9 9 9 9 9 9 9 9 9 9 9 9 9 9 9 9 9 9 9 9 9 9 9 9 9 9 9 9 9 9 9 9 9 9 9 9 9 9 9 9 9 9 9 9 9 9 9 9 9 9 9 9 9 9 9 9 9 9 9 9 9 9 9 9 9 9 9 9 9 9 9 9 9 9 9 9 9 9 9 9 9 9 9 9 9 9 9 9 9 9 9 9 9 9 9 9 9 9 9 9 9 9 9 9 9 9 9 9 9 9 9 9 9 9 9 9 9 9 9 9 9 9 9 9 9 u g - g M c - 0 * - - - * 9 c - u g 9 9 9 9 9 9 9 9 9 9 u g f j - c 9 9 9 9 9 9 9 9 9 9 9 g u 9 9 9 9 9 9 9 9 9 u c g 0 c * - 9 9 9 9 9 9 9 9 9 9 - j m - 9 9 - ",
"9 k.b.M.M.S.G.x.b.M.x.S.M.C.M - 9 9 9 9 9 9 9 9 9 9 9 9 9 9 9 9 9 9 9 9 9 9 9 9 9 9 9 9 9 9 9 9 9 9 9 9 9 9 9 9 9 9 9 9 9 9 9 9 9 9 9 9 9 9 9 9 9 9 9 9 9 9 9 9 9 9 9 9 9 9 9 9 9 9 9 9 9 9 9 9 9 9 9 9 9 9 9 9 9 9 9 9 9 9 9 9 9 9 9 9 9 9 9 9 9 9 9 9 9 9 9 9 9 9 9 9 9 9 9 9 9 9 9 9 9 9 9 9 9 9 9 9 9 9 9 9 9 9 9 9 9 9 9 9 9 9 9 9 9 9 9 9 9 9 9 9 9 9 9 9 u g 9 z.N Z.N | k.k.g.h.| v.f.* g g 9 9 9 9 9 9 9 9 9 - m C.x.M.N C.f 9 9 9 9 9 9 9 9 9 9 g u 9 9 9 9 9 9 9 9 * | c.N k.M.k.m - 9 9 9 9 9 9 9 9 9 g c.N M h.g.x.",
"9 | c.j.x.k.k.k.f.| M.v.j.| m - 9 9 9 9 9 9 9 9 9 9 9 9 9 9 9 9 9 9 9 9 9 9 9 9 9 9 9 9 9 9 9 9 9 9 9 9 9 9 9 9 9 9 9 9 9 9 9 9 9 9 9 9 9 9 9 9 9 9 9 9 9 9 9 9 9 9 9 9 9 9 9 9 9 9 9 9 9 9 9 9 9 9 9 9 9 9 9 9 9 9 9 9 9 9 9 9 9 9 9 9 9 9 9 9 9 9 9 9 9 9 9 9 9 9 9 9 9 9 9 9 9 9 9 9 9 9 9 9 9 9 9 9 9 9 9 9 9 9 9 9 9 9 9 9 9 9 9 9 9 9 9 9 9 9 9 9 9 9 9 9 u g 9 c.c x.c.S.G.k.C.k.G.S.<.* g g 9 9 9 9 9 9 9 9 9 - j Z.Z.C.M.M.g 9 9 9 9 9 9 9 9 9 9 g u 9 9 9 9 9 9 9 9 9 g v.Z.v.C.K.| - 9 9 9 9 9 9 9 9 0 g x.c.S.K.M.b.",
"9 9 - - 9 - 0 9 9 - - - - - - 9 9 9 9 9 9 9 9 9 9 9 9 9 9 9 9 9 9 9 9 9 9 9 9 9 9 9 9 9 9 9 9 9 9 9 9 9 9 9 9 9 9 9 9 9 9 9 9 9 9 9 9 9 9 9 9 9 9 9 9 9 9 9 9 9 9 9 9 9 9 9 9 9 9 9 9 9 9 9 9 9 9 9 9 9 9 9 9 9 9 9 9 9 9 9 9 9 9 9 9 9 9 9 9 9 9 9 9 9 9 9 9 9 9 9 9 9 9 9 9 9 9 9 9 9 9 9 9 9 9 9 9 9 9 9 9 9 9 9 9 9 9 9 9 9 9 9 9 9 9 9 9 9 9 9 9 9 9 9 9 9 u g - c | g c | c g c g c m g 0 u g 9 9 9 9 9 9 9 9 9 9 u c c c c N 9 9 9 9 9 9 9 9 9 9 9 g u 9 9 9 9 9 9 9 9 0 j N j M m m g 9 9 9 9 9 9 9 9 9 9 - m | B M c j ",
"g g g g g g g g g g g g g g g g g g g g g g g g g g g g g g g g g g g g g g g g g g g g g g g g g g g g g g g g g g g g g g g g g g g g g g g g g g g g g g g g g g g g g g g g g g g g g g g g g g g g g g g g g g g g g g g g g g g g g g g g g g g g g g g g g g g g g g g g g g g g g g g g g g g g g g g g g g g g g g g g g g g g g g g g g g g g g g g g u g 9 - * - - * - - - - - - - 9 9 g 0 9 9 9 9 9 9 9 9 9 9 - - - - * 9 9 9 9 9 9 9 9 9 9 0 u u 0 9 9 9 9 9 9 9 9 - * - * - - 0 9 9 9 9 9 9 9 9 9 9 9 * * * * * 0 ",
"u 9 9 9 9 9 9 9 9 9 9 9 9 9 9 9 9 9 9 9 9 9 9 9 9 9 9 9 9 9 9 9 9 9 9 9 9 9 9 9 9 9 9 9 9 9 9 9 9 9 9 9 9 9 9 u 9 9 9 9 9 9 9 9 9 9 9 9 9 9 9 9 9 9 9 9 9 u 9 9 9 9 9 9 9 9 9 9 9 9 9 9 9 9 9 9 9 9 9 9 9 9 9 9 9 9 9 9 9 9 9 9 9 9 9 9 9 9 9 9 9 9 9 9 9 9 9 9 9 9 9 9 9 9 9 9 9 9 9 9 9 9 9 9 9 9 9 9 9 9 9 9 9 9 9 9 9 9 9 9 9 9 9 9 9 9 9 9 9 9 9 9 9 9 9 9 9 g 9 g g u u g g u g u g g u 9 g g 9 u u u u u u u u u u u u u u g u u u u u u u u u u 9 g g 9 u u u u u u u u u g u g u f u u u u u u u u u u 9 9 k k k k k k ",
"9 9 9 9 9 9 9 9 9 9 9 9 9 9 9 9 * * g 9 * 9 9 9 9 9 9 9 9 9 9 9 9 9 9 9 9 9 9 9 9 9 9 - * - - g - - g - * - - * g 9 9 9 9 9 9 9 9 9 9 9 9 9 j 0 * * - - * * - * - 9 9 9 9 9 9 9 9 9 9 9 9 g - * - * - - 9 - 9 - * - 9 9 9 9 9 9 9 9 9 9 9 9 9 9 9 9 9 9 9 9 9 c g g 9 9 9 9 9 9 9 9 9 9 9 9 9 9 9 9 9 9 9 9 9 9 9 9 9 9 9 9 9 j g g 9 9 9 9 9 9 9 9 9 9 9 9 9 9 9 g g g g g g g g g g g g g g g g g g g g g g g g g g g g g g g g g g g g g g g g g g g g g g g g g g g g g g g g g g g g g g g g g g g g g g g u 0 $X$X$X$X$X$X",
"9 9 9 9 9 9 9 9 9 9 9 - c M.k.c.N m M.f.| 0 9 9 9 9 9 9 9 9 9 9 9 9 9 9 9 9 9 9 - M M c | M | c.c N C.f.N N N M C.g - 9 9 9 9 9 9 9 9 9 - j S.k.N <.M N <.k.N | | 0 9 9 9 9 9 9 9 9 9 * | Z.| | M N g.c.<.c | b.| m 9 9 9 9 9 9 9 9 9 9 9 9 9 9 9 9 9 * N m g.| C.M - 9 9 9 9 9 9 9 9 9 9 9 9 9 9 9 9 9 9 9 9 9 9 9 9 9 h.g.v.| M.| - 9 9 9 9 9 9 9 9 9 9 9 9 9 u u - 9 9 9 9 9 9 9 9 9 9 9 9 0 9 g - 9 0 0 0 0 0 0 0 0 0 0 0 0 0 0 0 0 0 - - - - - - 0 0 u u 0 ; - - - - - - - - - - - - - - - - - - - - - - 9 9 9 g v v j v v ",
"9 9 9 9 9 9 9 9 9 9 9 - j S.Z.Z.b.C.v.K.M.- 9 9 9 9 9 9 9 9 9 9 9 9 9 9 9 9 9 9 * M j.k.C.C.c.J.z.G.Z.c.H.C.G.S.M.j - 9 9 9 9 9 9 9 9 9 - m b.g.k.S.C.K.Z.v.b.M.M.9 9 9 9 9 9 9 9 9 9 * g.S.Z.Z.Z.<Xg.v.M.Z.M.M.b.c.* 9 9 9 9 9 9 9 9 9 9 9 9 9 9 9 9 * <.f.x.g C.j 0 9 9 9 9 9 9 9 9 9 9 9 9 9 9 9 9 9 9 9 9 9 9 9 9 9 v.M.S.u M.c - 9 9 9 9 9 9 9 9 9 9 9 9 9 u g 9 9 9 - - 0 9 - 9 - 9 9 9 9 u g = *.0X5X5X5X5X5X5X5X4X4X4X4Xp.p.p.p.a.a.a.>.>.>.>.d ; g u 0 F ^.Q.Q.Q.Q.Q.Q.Q.Q.Q.Q.H H H H H H H H F F 4 0 9 9 q w q q w w ",
"9 9 9 9 9 9 9 9 9 9 9 9 u M M M | m f.M M 0 9 9 9 9 9 9 9 9 9 9 9 9 9 9 9 9 9 9 0 g h.N N M N m | g.M c N N g.N f.9 9 9 9 9 9 9 9 9 9 9 0 g g g g M | g.M c c M.N 0 9 9 9 9 9 9 9 9 9 0 j c N N f.| | | m M c m c.N * 9 9 9 9 9 9 9 9 9 9 9 9 9 9 9 9 - c j.M f.c - 9 9 9 9 9 9 9 9 9 9 9 9 9 9 9 9 9 9 9 9 9 9 9 9 9 9 c g M f.c 0 9 9 9 9 9 9 9 9 9 9 9 9 9 9 u g 9 9 9 k.| g g c 9 k.g 0 9 9 u g = >.fXfXfXfX0X0X5X5X4X5X5X4X5X4Xp.p.p.p.a.p.a.a.a.d = u u 0 H [.[.^.^.^.^.!.Q.Q.Q.Q.Q.Q.Q.H H H H H H H F 0 9 9 q w q q w p ",
"9 9 9 9 9 9 9 9 9 9 9 9 9 - - - * - * - - 9 9 9 9 9 9 9 9 9 9 9 9 9 9 9 9 9 9 9 9 0 * - - - * - * * - - - - * * * 9 9 9 9 9 9 9 9 9 9 9 9 0 0 9 - - - * - - - g * 9 9 9 9 9 9 9 9 9 9 9 - - * - * * - * - * - - c 9 9 9 9 9 9 9 9 9 9 9 9 9 9 9 9 9 9 9 - * - * - 9 9 9 9 9 9 9 9 9 9 9 9 9 9 9 9 9 9 9 9 9 9 9 9 9 9 9 - 9 - * - 9 9 9 9 9 9 9 9 9 9 9 9 9 9 9 u g 9 9 9 Z.M.v.S.v.b.C.j - 9 9 u g = >.fXfX0XfX4Xa.5X5Xp.a.p.i.4Xi.>.a.a.>.>.p.a.a.a.d ; u u 0 H [.^.^.^.H H !.Q.H H H H Q.F H H H H H H H F 0 9 9 q w q q w q ",
"f 9 9 9 9 9 9 9 9 9 9 9 9 9 9 9 u 9 u 9 9 9 9 9 9 9 9 9 9 9 9 9 9 9 9 9 9 9 9 9 9 9 u 9 u 9 u 9 u u 9 9 u u u u u 9 9 9 9 9 9 9 9 9 9 9 9 9 9 9 9 9 u u 9 9 9 9 u 9 9 9 9 9 9 9 9 9 9 9 9 9 u 9 u u u u 9 9 9 u 9 9 9 9 9 9 9 9 9 9 9 9 9 9 9 9 9 9 9 9 9 u 9 u 9 9 9 9 9 9 9 9 9 9 9 9 9 9 9 9 9 9 9 9 9 9 9 9 9 9 9 9 9 9 9 u 9 9 9 9 9 9 9 9 9 9 9 9 9 9 9 9 u g 9 9 9 b.b.C.b.N x.c.g 0 9 9 u g = >.fXfXfX0X5X4X4X5X4X:Xp.p.4Xa.p.a.p.>.a.p.a.a.a.d = u u 0 H [.[.[.^.Q.Q.!.!.Q.H H H Q.H H H H H H H H F 0 9 9 q w q q w q ",
"g g g g g g g g g g g g g g g g g g g g g g g g g g g g g g g g g g g g g g g g g g g g g g g g g g g g g g g g g g g g g g g g g g g g g g g g g g g g g g g g g g g g g g g g g g g g g g g g g g g g g g g g g g g g g g g g g g g g g g g g g g g g g g g g g g g g g g g g g g g g g g g g g g g g g g g g g g g g g g g g g g g g g g g g g g g g g g g u u g 9 9 9 9 9 9 0 9 9 9 9 9 9 9 u g = >.fXfXfXfXfXfX0X0X0X0X0X5X5X5X5X4X4X4Xp.p.p.a.a.d = u u 0 H [.[.[.[.[.^.^.^.^.^.^.Q.Q.Q.Q.Q.H H H H H F 0 9 9 q w q q w q ",
"9 - & $ $ $ $ $ $ $ $ $ $ $ $ $ $ $ $ $ $ $ $ $ $ $ $ $ $ + * & + * 9 9 9 9 9 9 9 9 9 9 9 9 9 9 9 ; 9 9 9 9 9 9 9 9 9 9 9 9 9 9 9 9 9 9 9 9 9 9 9 9 9 ; 9 9 9 9 9 9 9 9 9 9 9 9 9 9 9 9 9 9 9 9 9 9 ; ; 9 9 9 9 9 9 9 9 9 9 9 9 9 9 9 9 9 9 9 9 9 9 9 9 9 9 9 9 9 9 9 9 9 9 9 9 9 9 9 9 9 9 9 9 9 9 9 9 9 9 9 9 9 9 9 9 9 9 9 9 9 9 9 9 9 9 9 9 9 9 9 9 9 9 9 0 u g 9 9 9 9 9 9 9 9 9 9 9 9 9 9 u g = s a.>.>.>.>.>.>.>.>.*.*.*.*.*.*.*.] s s s d d d e 9 g u 0 F H H H F F F F F F F F F F F F 4 4 4 4 4 4 4 9 9 9 q w q q w q ",
"9 g k.z.k.k.k.z.z.z.z.z.z.z.z.z.z.z.z.z.z.z.z.z.z.z.z.z.z.x.g.h.b.g.- 9 9 9 9 9 9 9 9 9 9 9 9 = ; i 9 = 9 9 9 9 9 9 9 9 9 9 9 9 9 9 9 9 9 9 9 9 9 = 9 p ; = 9 9 9 9 9 9 9 9 9 9 9 9 9 9 9 9 9 9 9 = i i = = 9 9 9 9 9 9 9 9 9 9 9 9 * * * * * * * * * * * * * * * * * * * * * * * * * & - 9 9 9 - * * * * * * * * * * * * * * * * * * * * * * * * * * * * * 9 9 u g 9 9 9 9 9 9 9 9 9 9 9 9 9 9 u g 9 ; = = = # # = = = = = = = = = = = = = = = ; ; ; 9 9 g u 9 0 0 0 = # 0 0 0 0 0 0 0 0 0 0 0 0 0 0 0 9 9 9 9 9 9 q w q q w q ",
"& kXJXJXJXJXJXKXKXKXKXKXKXKXKXKXKXKXKXKXKXKXKXKXKXKXKXKXKXJXZXGXFXKXc.& 9 9 9 9 9 9 9 9 9 9 = ' p.p.4X:.9 9 9 9 9 9 9 9 9 9 9 9 9 9 9 9 9 9 9 9 ; a.0X5X5Xs = 9 9 9 9 9 9 9 9 9 9 9 9 9 9 9 9 ; i 4X0X0X5Xs = 9 9 9 9 9 9 9 9 9 9 9 h.x.x.x.c.c.c.b.b.b.b.b.v.v.v.v.v.v.M.M.M.C.C.C.C.Z.j.- 9 9 f.c.x.x.x.c.c.c.c.b.b.b.b.b.v.v.v.v.v.v.M.M.M.M.C.C.C.C.C.M.g - u g 9 9 f u - - * - * - * 9 9 9 u g 9 9 u = u -.=.9 ; 9 9 9 9 9 9 9 9 9 g g g g 9 9 9 9 9 g u 9 9 ; = s -.i = 9 9 9 9 9 9 9 9 9 g u g u 9 9 9 9 9 9 q w q q w q ",
"- cXbXxXDXbXcXDXHXFXFXFXFXFXFXFXFXFXFXFXFXFXFXFXFXFXFXFXFXLXVXSXc.ZXjX@ u 9 9 9 9 9 9 9 9 = ' 4Xd & % a.a.= 9 9 9 9 9 9 9 9 9 9 9 9 9 9 9 9 9 = 4X6X% * s 4X-.= 9 9 9 9 9 9 9 9 9 9 9 9 9 9 9 ; 5Xa.% * *.0Xa = 9 9 9 9 9 9 9 9 9 9 lXvXxXvXvXvXvXbXbXbXbXbXZXbXbXZXZXAXAXAXAXDXDXDXDXSXJ.& u * K.vXxXvXvXvXvXvXvXbXbXbXbXZXZXbXbXZXZXZXAXAXAXAXDXDXDXDXSXbXj - g g 9 - c.b.c M f.c f.m | 9 9 9 u g 9 9 = ;.0X5X4Xp.s = 9 9 9 9 9 9 - k.f.k.g.z.u 9 9 9 9 g u 9 = a 5X0X4X4X;.= 9 9 9 9 9 9 9 c.| x.f.k.- 9 9 9 9 9 q w q q w q ",
"9 jXlXkXkXlXcXVXLXFXFXFXFXFXFXFXFXFXFXFXFXFXFXFXFXFXFXFXFXKXZXZXjXZXJ.+ 9 9 9 9 9 9 9 9 9 9 4Xi o c f o p.s = 9 9 9 9 9 9 9 9 9 9 9 9 9 9 9 = -.5Xo : kXS e 4X9 9 9 9 9 9 9 9 9 9 9 9 9 9 9 # a.4Xo k j o >.5X# 9 9 9 9 9 9 9 9 9 9 jXxXcXxXxXxXxXxXvXvXvXkXcXkXjXvXbXbXbXZXZXZXZXZXZXDXK.* 9 * G.xXcXcXxXxXxXxXxXxXvXvXcXlXlXkXjXxXbXbXbXbXZXZXZXZXZXZXAXvXg - g g 9 - C.C.v.<Xc.C.c.G.Z.9 9 9 u g 9 = ' 0Xd # h s 4Xi 9 9 9 9 9 9 9 C.x.z.x.j.9 9 9 9 9 g u 9 9 5Xi.o h 9 4X-.= 9 9 9 9 0 g Z.h.c.k.f.- 9 9 9 9 9 q w q q w q ",
"- cXAXbXxXbXVXbXKXFXFXFXFXFXFXFXFXFXFXFXFXFXFXFXFXFXFXFXFXKXVXSXM.DXjX@ u 9 9 9 9 9 9 9 ; a p.. j j.f.> >.:.= 9 9 9 9 9 9 9 9 9 9 9 9 9 9 9 # a.a.o N jXf.. p.a ; 9 9 9 9 9 9 9 9 9 9 9 9 9 # 6X*.: m jXkXi 4X9 9 9 9 9 9 9 9 9 9 9 jXxXcXxXxXxXxXxXvXvXvXlXlXcXjXvXbXbXbXZXZXZXZXZXZXDXG.* 9 * G.xXcXcXxXxXxXxXxXnXvXvXkXJ.H.cXjXvXbXbXbXbXZXZXZXZXZXZXAXvXg - g g 9 9 m M k.g.c | Z.g.N 9 9 9 u g 9 # 5X*.  F.cX  >.i.= 9 9 9 9 9 - M g.| k.j.9 9 9 9 9 g u # i.6X  B VXh e 4X; 9 9 9 9 9 9 | f.<.x.| 0 9 9 9 9 9 q w q q w q ",
"& jXJXFXLXLXFXLXFXFXFXFXFXFXFXFXFXFXFXFXFXFXFXFXFXFXFXFXFXKXVXSXKXFXk.* 9 9 9 9 9 9 9 9 ; i 4X  v.xXk o i.;.= 9 9 9 9 9 9 9 9 9 9 9 9 9 9 9 # i.4Xo c c f + :Xi ; 9 9 9 9 9 9 9 9 9 9 9 9 9 # 4X>.o m h.b e p.; 9 9 9 9 9 9 9 9 9 9 lXvXxXvXvXvXvXvXvXbXbXcXxXcXvXZXZXZXZXAXAXAXAXAXAXSXK.* u * K.vXxXxXvXvXvXvXvXvXbXbXvXvXvXcXvXZXZXZXZXZXAXAXAXAXAXAXDXvXg - g g 9 9 - - & * * 9 M - - 9 9 9 u g 9 9 5Xi < n.v.< d a.= 9 9 9 9 9 9 * * * & * - 9 9 9 9 g u # p.i.o W C.m $ p.i ; 9 9 9 9 9 * * * & * - 9 9 9 9 9 q w q q w q ",
"9 - j c j j c j j c c c c c c c c c c c c c c c c c c c c c j j c f - 9 9 9 9 9 9 9 9 9 9 = a.>.b m . d 4Xi 9 9 9 9 9 9 9 9 9 9 9 9 9 9 9 9 ; i 0X*.o ; . >.a.= 9 9 9 9 9 9 9 9 9 9 9 9 9 9 = ' 0Xi > & X a.>.= 9 9 9 9 9 9 9 9 9 9 K.lXlXlXlXlXlXlXlXkXkXkXkXkXkXkXkXkXkXcXcXcXcXcXcXxXZ.* 9 - C.lXjXlXlXlXlXlXlXlXkXkXkXkXkXkXkXkXkXkXkXcXcXcXcXcXcXcXcXkXk - g g 9 9 9 9 g.M M m | u 9 9 9 9 u g 9 = 5X' o c j o *.i.= 9 9 9 9 - m k.h.g.k.c f.- 9 9 9 g u # i.4Xo j c < - 4X9 9 9 9 9 - | k.j.h.j.M | * 9 9 9 9 q w q q w q ",
"9 g x.c.c.c.c.c.c.c.c.c.c.c.c.c.c.c.c.c.c.c.c.c.c.c.c.c.c.b.h.k.M.h.9 9 9 9 9 9 9 9 9 9 9 ; i p.0 & = i.=.= 9 9 9 9 9 9 9 9 9 9 9 9 9 9 9 9 9 : :.6X# * i p.i 9 9 9 9 9 9 9 9 9 9 9 9 9 9 9 9 # p.a.# * s a.; 9 9 9 9 9 9 9 9 9 9 9 9 9 9 9 9 9 9 9 9 9 9 9 9 9 9 9 9 9 9 9 9 9 9 9 9 9 f 9 9 9 9 9 9 9 9 9 9 9 9 9 9 9 9 9 9 9 9 9 9 9 9 9 9 9 9 9 9 9 9 u 9 9 u g 9 9 0 g b.C.C.c.b.m - 9 9 9 u g 9 = -.0Xe > > d 4Xa ; 9 9 9 9 9 g Z.M.G.S.Z.C.* 9 9 9 g u ; u 0X>.o & + p.>.= 9 9 9 9 - m S.M.K.Z.S.x.* 9 9 9 9 q w q q w q ",
"& kXJXJXJXJXJXJXKXKXJXJXJXJXJXJXJXJXJXJXJXJXJXJXJXJXJXJXKXJXAXGXFXKXM.$ 9 9 9 9 9 9 9 9 9 9 9 = 9 9 9 ; ; 9 9 9 9 9 9 9 9 9 9 9 9 9 9 9 9 9 9 9 = = 9 9 9 = 9 9 9 9 9 9 9 9 9 9 9 9 9 9 9 9 9 9 = ; 9 9 9 = 9 9 9 9 9 9 9 9 9 9 9 9 9 9 9 9 9 9 9 9 9 9 9 9 9 9 9 9 9 9 9 9 9 9 9 9 9 9 9 9 9 9 9 9 9 9 9 9 9 9 9 9 9 9 9 9 9 9 9 9 9 9 9 9 9 9 9 9 9 9 9 9 9 9 u g 9 9 9 f b.N f.b.k.c - 9 9 9 u g 9 9 = a.-.= = -.-.= 9 9 9 9 9 - M k.j.k.x.k.k.- 9 9 9 g u 9 = ;.a.= - p :.; 9 9 9 9 9 0 | h.h.k.x.k.g.* 9 9 9 9 q w q q w q ",
"9 lXAXvXZXSXxXSXkXZXSXGXFXFXFXFXFXFXFXFXFXFXFXFXFXFXFXFXGXLXVXDXx.VXjX@ u 9 9 9 9 9 9 9 9 9 9 9 9 9 9 9 9 9 9 9 9 9 9 9 9 9 9 9 9 9 9 9 9 9 9 9 9 9 9 9 9 9 9 9 9 9 9 9 9 9 9 9 9 9 9 9 9 9 9 9 9 9 9 9 9 9 9 9 9 9 9 9 9 9 9 9 9 9 9 9 9 9 9 9 9 9 9 9 9 9 9 9 9 9 9 9 9 9 9 9 9 9 9 9 9 9 9 9 9 9 9 9 9 9 9 9 9 9 9 9 9 9 9 9 9 9 9 9 9 9 9 9 9 9 9 9 9 9 9 9 u g 9 9 9 9 c 9 9 9 c 9 9 9 9 9 g g 9 9 u = 9 u u ; ; u 9 9 9 9 9 9 g 9 9 9 9 - 0 9 9 9 9 g g 9 u = = u u 9 = 9 9 9 9 9 9 9 g 9 9 9 9 * 9 9 9 9 9 9 q w q q w q ",
"9 jXkXlXkXcXkXcXkXkXjXSXLXFXFXFXFXFXFXFXFXFXFXFXFXFXFXFXFXKXZXZXjXZXJ.+ 9 9 9 9 9 9 9 9 9 9 9 9 9 9 9 9 9 9 9 9 9 9 9 9 9 9 9 9 9 9 9 9 9 9 9 9 9 9 9 9 9 9 9 9 9 9 9 9 9 9 9 9 9 9 9 9 9 9 9 9 9 9 9 9 9 9 9 9 9 9 9 9 9 9 9 9 9 9 9 9 9 9 9 0 9 9 9 9 9 9 9 9 9 9 9 9 9 9 9 9 9 9 9 9 9 9 9 9 9 9 9 9 9 0 9 9 9 9 9 9 9 9 9 9 9 9 9 9 9 9 9 9 9 9 9 9 9 9 9 9 9 u - + + + + + + + + + + + + + + $ + + + $ + + + + + + + + + + + + + + + + + $ + + + + + $ $ + + $ $ + + + $ + + + + + + + + + + + + $ + + & 9 9 9 q w q q w q ",
"* cXVXbXbXbXvXbXvXVXvXFXLXHXHXHXHXHXHXHXHXHXHXHXHXHXHXHXFXKXVXSXC.DXjX@ u 9 9 9 9 9 9 9 9 9 9 9 9 0 9 - 9 9 9 9 9 9 9 9 9 9 9 9 9 9 9 9 9 9 9 9 9 - 9 0 9 0 0 9 9 9 9 9 9 9 9 9 9 9 9 9 9 9 9 9 9 - 9 9 0 9 9 9 9 9 9 9 9 9 9 9 9 9 9 9 9 - 9 j 9 - 9 9 9 9 9 9 9 9 9 9 0 9 9 9 9 9 9 9 9 9 9 9 9 9 9 - 9 g 9 - 9 9 9 9 9 9 9 9 9 9 9 0 9 9 9 9 9 9 9 9 9 9 9 9 9 * c v.v.v.v.v.v.v.v.v.v.v.v.v.v.v.v.v.v.v.v.v.v.v.v.v.v.v.v.v.v.v.v.v.v.v.v.v.v.v.v.v.v.v.v.v.v.v.v.v.v.v.v.v.v.v.v.v.v.v.v.v.v.v.v.v.v.v.h.* 9 9 q w q q w q ",
"* J.KXFXFXFXFXFXFXFXFXGXGXGXGXGXGXGXGXGXGXGXGXGXGXGXGXGXGXHXbXSXLXGXg.* 9 9 9 9 9 9 9 9 9 9 c.M N c.k.k.x.g 0 9 9 9 9 9 9 9 9 9 9 9 9 9 9 9 9 * m j.| | m c.x.| - 9 9 9 9 9 9 9 9 9 9 9 9 9 9 - c k.h.| c b.u 9 9 9 9 9 9 9 9 9 9 9 9 9 0 f.M.c.x.m 0 9 9 9 9 9 9 9 9 - m N N N | g 9 9 9 9 9 9 9 9 - M M.b.C.j.9 9 9 9 9 9 9 9 9 0 j | f.M g.M g.9 9 9 9 9 9 9 * f.lXc.x.c.c.c.c.c.b.c.b.b.b.b.b.b.b.b.b.v.b.b.v.v.v.v.v.v.v.v.v.v.v.v.v.v.v.v.v.v.M.v.M.C.M.C.C.C.C.C.C.C.C.C.C.C.C.C.C.C.C.C.C.C.C.C.Z.C.oXoX* 9 q w q q w q ",
"9 * 9 9 9 9 9 9 9 9 u u u u u u u u u u u u u u u u u u u u 9 9 u - * 9 9 9 9 9 9 9 9 9 - j c.h.f.Z.M.Z.c.M * 9 9 9 9 9 9 9 9 9 9 9 9 9 9 9 0 m M h.M <.| C.C.j.9 9 9 9 9 9 9 9 9 9 9 9 9 9 9 9 g b.k.k.g.b.m - 9 9 9 9 9 9 9 9 9 9 9 * j.c.& ; 9 j.M - 9 9 9 9 9 9 9 - j.g.| | N f 9 9 9 9 9 9 9 - M M.9 . . k.j.- 9 9 9 9 9 9 9 9 u <.m k.c.M N 0 9 9 9 9 9 9 * jXf X . . . . . ; . . . & . : : . & & & & ; ; & & & & & ; : & : : : : f : : : : ; ; f ; = 4 3 ; t &.; ; ; ; ; f k ; ;.f ; y R.n < f f t z !.+Xk.$ q w q q w q ",
"9 c C.C.C.C.C.C.C.C.C.C.C.C.C.C.C.C.C.C.C.C.C.C.C.C.C.C.C.Z.x.v.S.b.9 9 9 9 9 9 9 9 9 9 9 9 k.g.<.h.h.g.k.g 9 9 9 9 9 9 9 9 9 9 9 9 9 9 9 9 9 u g M c.f.<.h.k.| - 9 9 9 9 9 9 9 9 9 9 9 9 9 9 9 9 M g.j.| k.9 9 9 9 9 9 9 9 9 9 9 9 - j M.+ : xXf.. h.9 9 9 9 9 9 9 9 0 c | M f.f.9 9 9 9 9 9 9 9 9 M.; & N K.f f.j - 9 9 9 9 9 9 9 9 c c | | M j - 9 9 9 9 9 9 u J.. & . . & & & f & & & & & ; ; & & & & & f ; & : : : : f ; : ; ; ; : j ; ; ; ; ; ; j ; = L 3 ; r R.; t f f ; k j ; 2.j m #.W.N < k f f _.I M.M.+ p w q q w q ",
"& kXJXJXJXJXJXJXJXJXJXJXKXJXJXJXJXJXJXJXJXJXJXJXJXJXJXJXJXJXAXFXGXJXC.$ 9 9 9 9 9 9 9 9 9 9 - - * * - * - 9 9 9 9 9 9 9 9 9 9 9 9 9 9 9 9 9 9 9 9 - * - * - - - 9 9 9 9 9 9 9 9 9 9 9 9 9 9 9 9 9 - * - - - 9 9 9 9 9 9 9 9 9 9 9 9 * N h.. m G.f.. | j - 9 9 9 9 9 9 9 - - - * 0 9 9 9 9 9 9 9 - j c.+ k v.kX: m M - 9 9 9 9 9 9 9 9 - 9 - - - 9 9 9 9 9 9 9 9 9 <X. . & . & & & f & & & & & ; ; & & & & & ; ; & : : : : f ; : ; ; ; ; k ; ; ; ; ; ; k ; = L 3 ; r T.3 t f f f f j < 1.| f.h.W.N t k t (.~ t Z.v.+ p w q q w q ",
"- cXbXDXAXVXSXDXDXAXSXSXvXGXFXFXFXFXFXFXFXFXFXFXFXFXFXFXGXLXVXDXx.VXjX+ u 9 9 9 9 9 9 9 9 9 9 f j g g g 9 9 9 9 9 9 9 9 9 9 9 9 9 9 9 9 9 9 9 9 9 - | j.j.g 9 9 9 9 9 9 9 9 9 9 9 9 9 9 9 9 9 9 9 g j u g u 9 9 9 9 9 9 9 9 9 9 9 9 - m c.  k c k . j.g 0 9 9 9 9 9 9 9 g j j j 9 9 9 9 9 9 9 9 0 g M.+ 5 m k . | m - 9 9 9 9 9 9 9 9 g j j j 9 9 9 9 9 9 9 9 9 9 <X. . . . . . & f . & & & . ; ; & & & & & ; ; & : & & & f ; : : : : & k ; ; ; ; ; ; k ; = L 3 ; r T.; t f ; ; f j ; 1.m m S W.M ; t ~ (.t f C.v.+ p w q q w q ",
"* cXvXcXkXkXlXlXvXkXxXlXlXFXFXFXFXFXFXFXFXFXFXFXFXFXFXFXFXLXZXZXtXZXJ.+ 9 9 9 9 9 9 9 9 9 9 - k.Z.x.c.| - 9 9 9 9 9 9 9 9 9 9 9 9 9 9 9 9 9 9 9 - | C.C.S.c - 9 9 9 9 9 9 9 9 9 9 9 9 9 9 9 9 9 9 M.Z.k.v.j - 9 9 9 9 9 9 9 9 9 9 9 9 9 v.B . ; . m f.- 9 9 9 9 9 9 9 0 g k.j.j.c - 9 9 9 9 9 9 9 - k.h.. : & g h.9 9 9 9 9 9 9 9 9 0 g k.j.j.c - 9 9 9 9 9 9 9 9 <X. & & . ; ; ; ; & & & f : f ; & & : k f f ; & & : f k k ; : : ; k k k ; ; : k j f k ; = F x f b T.; < ; j j j j ; 2.f 3 A R.W h I _.f f f C.v.+ p w q q w q ",
"* xXVXDXAXVXbXZXSXSXVXxXbXHXLXLXLXLXLXLXLXLXLXLXLXLXLXLXHXJXZXSXS.SXjX+ u 9 9 9 9 9 9 9 9 9 - f.g.f.k.j.* 9 9 9 9 9 9 9 9 9 9 9 9 9 9 9 9 9 9 9 - | v.c.C.c - 9 9 9 9 9 9 9 9 9 9 9 9 9 9 9 9 9 f j.f.f.c.M - 9 9 9 9 9 9 9 9 9 9 9 9 - c x.- * 9 f.f 9 9 9 9 9 9 9 9 0 g N N k.g 9 9 9 9 9 9 9 9 9 f c.f * - | j - 9 9 9 9 9 9 9 9 0 g N N k.g 9 9 9 9 9 9 9 9 9 J.& B k : m f.k ; & & ; N N B ; & : ; j k j ; & : j N m m : : ; m g.N j ; ; ; k j.B j ; = L x N h.T.; f f B m B j < 2.g 3 A R.g.W _.z t f f C.v.+ p w q q w q ",
"* G.GXSXPXPXPXPXPXPXGXGXGXSXSXSXSXSXSXSXSXSXSXSXSXSXSXSXSXGXvXAXFXSX<.* 9 9 9 9 9 9 9 9 9 9 9 9 9 9 g 9 9 9 9 9 9 9 9 9 9 9 9 9 9 9 9 9 9 9 9 9 9 9 g 9 g 9 9 9 9 9 9 9 9 9 9 9 9 9 9 9 9 9 9 9 9 9 9 9 g 9 9 9 9 9 9 9 9 9 9 9 9 9 9 9 0 - 9 9 9 - 9 9 9 9 9 9 9 9 9 9 9 9 9 g 9 9 9 9 9 9 9 9 9 9 9 - 9 9 9 0 0 9 9 9 9 9 9 9 9 9 9 9 9 9 g 9 9 9 9 9 9 9 9 9 9 J.& f ; & ; k f ; . . : j f k : . & ; ; j f ; & & f j j k : & ; f m j k ; : ; k m m k ; = L P j b T.- ; f k B j k ; 1.f ; A R.3.(.L t f f ; C.v.+ p w q q w q ",
"9 - g g g g g g g g g g g g g g g g g g g g g g g g g g g j g g j 9 - 9 9 9 9 9 9 9 9 9 9 9 9 9 9 9 9 9 9 9 9 9 9 9 9 9 9 9 9 9 9 9 9 9 9 9 9 9 9 9 9 9 0 9 9 9 9 9 9 9 9 9 9 9 9 9 9 9 9 9 9 9 9 9 9 9 9 9 9 9 9 9 9 9 9 9 9 9 9 9 9 9 9 9 9 9 9 9 9 9 9 9 9 9 9 9 9 9 9 9 9 9 9 9 9 9 9 9 9 9 9 9 9 9 9 9 9 9 9 9 9 9 9 9 9 9 9 9 9 9 9 9 9 9 9 9 9 9 9 9 9 9 9 J.& : : : ; : ; k ; ; ; ; : f f ; ; ; ; ; k k ; f ; ; ; j f f f ; f f m f f f f f f m k f L z f l R.f k k k k j m k r.c k S R.{.~ r c j j k C.v.+ p w q q w q ",
"9 9 0 - - - - - - - - - - - - - - - - - - - - - - - - - - - 0 - - 9 9 9 9 9 9 9 9 9 9 9 9 9 9 9 9 9 9 9 9 9 9 9 9 9 9 9 9 9 9 9 9 9 9 9 9 9 9 9 9 9 9 9 9 9 9 9 9 9 9 9 9 9 9 9 9 9 9 9 9 9 9 9 9 9 9 9 9 9 9 9 9 9 9 9 9 9 9 9 9 9 9 9 9 9 9 9 9 9 9 9 9 9 9 9 9 9 9 9 9 9 9 9 9 9 9 9 9 9 9 9 9 9 9 9 9 9 9 9 9 9 9 9 9 9 9 9 9 9 9 9 9 9 9 9 9 9 9 9 9 9 9 9 u J.f f.N N N N N f.N N N N N f.f.N f.f.f.N g.g.f.f.f.f.f.j.f.f.f.f.f.f.h.g.f.g.g.g.g.h.j.g.~ n.g.k.E.g.j.j.j.j.h.x.j.V.k.j.&.%X(.#.h.j.j.h.f.C.v.+ p w q q w q ",
"g g j j j j j j j j j j j j j j j j j j j j j j j j j j j j g g j g g g g g g g g g g g g g g g g g g g g g g g g g g g g g g g g g g g g g g g g g g g g g g g g g g g g g g g g g g g g g g g g g g g g g g g g g g g g g g g g g g g g g g g g g g g g g g g g g g g g g g g g g g g g g g g g g g g g g g g g g g g g g g g g g g g g g g g g g g g g g g g 9 <X. X . . . . . ; . . . . . : : . . . & . ; ; . & & & & f & & & & & & f : & & : : : f ; & F 3 & t T.* ; ; ; ; f k : ;.u * T W.n = ; k m B ; C.v.+ p w q q w q ",
"9 9 * & & & & & & & & & & & & & & & & & & & & & & & & & & & * * $ * 9 9 9 9 9 9 9 9 9 9 9 9 9 9 9 9 9 9 9 9 9 9 9 9 9 9 9 9 9 9 9 9 9 9 9 9 9 9 9 9 9 9 9 9 9 9 9 9 9 9 9 9 9 9 9 9 9 9 9 9 9 9 9 9 9 9 9 9 9 9 9 9 9 9 9 9 9 9 9 9 9 9 9 9 9 9 9 9 9 9 9 9 9 9 9 9 9 9 9 9 9 9 9 9 9 9 9 9 9 9 9 9 9 9 9 9 9 9 9 9 9 9 9 9 9 9 9 9 9 9 9 9 9 9 9 9 9 9 9 9 9 9 9 <X. . & & & & & f & & & & & ; ; & & & & & ; ; & : : : : f ; : ; ; ; ; k ; ; ; ; ; ; k ; = L 3 ; r T.; t ; f ; f j ; 2.t H #XR.n ; k f.g.j.k C.v.+ p w q q w q ",
"9 u j.k.k.h.h.k.k.k.k.k.k.k.k.k.k.k.k.k.k.k.k.k.k.k.k.k.k.k.f.g.x.| - 9 9 9 9 9 9 9 9 9 9 9 9 9 = = = = 9 9 9 9 9 9 9 9 9 9 9 9 9 9 9 9 9 9 9 9 9 = # = # 9 9 9 9 9 9 9 9 9 9 9 9 9 9 9 9 9 9 9 9 = # : # 9 9 9 9 9 9 9 9 9 9 9 9 9 - - - - - - - - - - - - - - - - - - - - - - - - - * - 9 9 9 - - - - - - - - - - - - - - - - - - - - - - - - - - - - - - 9 9 9 <X. . . . . . & ; . & & & & ; ; & & & & & ; ; & : : : & f ; : : : : : k ; ; ; ; ; ; k ; = F 3 ; r T.; < ; ; ; f j ; 1.L ).iXW.n ; f m m M f C.v.+ p w q q w q ",
"& lXJXJXKXJXJXKXKXKXKXKXKXKXKXKXKXKXKXKXKXKXKXKXKXKXKXKXLXJXZXGXHXKXc.& 9 9 9 9 9 9 9 9 9 9 ; u i.a.a.s = 9 9 9 9 9 9 9 9 9 9 9 9 9 9 9 9 9 9 9 = =.6X5X:Xu = 9 9 9 9 9 9 9 9 9 9 9 9 9 9 9 9 9 = :.5X5Xa.= ; 9 9 9 9 9 9 9 9 9 9 9 m m m m m m m m m m m m M M M M M M M M M B B B B N m 9 9 9 c m m m m m m m m m m M m m m M M M M M M M M M B B B B B B f 0 9 <X. . . . . . & ; . & & & & ; ; & & & & & ; ; & & : : & f ; : : : : : k ; ; ; ; ; ; k ; = L 3 ; r T.; < ; ; ; f j = 2.).K iXR.n ; f ; ; ; ; C.v.+ p w q q w q ",
"- cXbXxXDXbXxXDXHXFXFXFXFXFXFXFXFXFXFXFXFXFXFXFXFXFXFXFXFXLXVXSXc.ZXjX@ u 9 9 9 9 9 9 9 9 ; p 4X>.d *.4X>.= 9 9 9 9 9 9 9 9 9 9 9 9 9 9 9 9 9 = i.0X>.' a.0Xs = 9 9 9 9 9 9 9 9 9 9 9 9 9 9 9 = 4X5X*.*.4X0X9 9 9 9 9 9 9 9 9 9 9 9 jXcXcXcXcXcXxXxXxXxXxXvXvXvXbXvXbXbXbXbXbXbXZXZXZXDXK.* 9 - G.xXcXcXcXcXcXxXxXxXxXxXvXvXvXvXbXvXbXbXbXbXbXbXbXZXZXZXAXvXj - u <X. . . . . . & ; . & & & & ; ; & & & & & ; ; & & : : & f ; : : : : : k ; ; ; ; ; ; k ; = L 3 ; r T.- ; ; ; 3 k j ; XXI ' 9XR.n ; f f f f ; C.v.+ p w q q w q ",
"9 jXlXkXkXlXcXZXLXFXFXFXFXFXFXFXFXFXFXFXFXFXFXFXFXFXFXFXFXKXZXZXjXZXJ.+ 9 9 9 9 9 9 9 9 9 = p.*.o 5 > - 4Xp ; 9 9 9 9 9 9 9 9 9 9 9 9 9 9 9 = a 0X- o < o :.5X= 9 9 9 9 9 9 9 9 9 9 9 9 9 9 = ;.5Xo : :   p.p.# 9 9 9 9 9 9 9 9 9 9 lXxXxXxXxXxXvXvXvXvXvXcXxXkXkXvXZXZXZXZXZXZXAXAXAXSXK.* u * G.vXcXxXxXxXxXvXvXvXvXbXxXcXcXkXkXvXZXVXZXZXZXZXZXAXAXAXDXvXg - u <X. . . . . . & ; . & & & & ; ; & & & & & ; ; & & & : & f ; : : : : : k ; : ; ; ; ; k ; = F 3 - r T.- ; 3 6 L I L ~.XX# i.,XR.n ; f f f f ; C.v.+ p w q q w q ",
"- cXZXbXxXvXbXbXLXFXFXFXFXFXFXFXFXFXFXFXFXFXFXFXFXFXFXFXFXKXVXSXM.AXjX@ u 9 9 9 9 9 9 9 ; p p.+ k B <.o >.>.= 9 9 9 9 9 9 9 9 9 9 9 9 9 9 9 # i.p.o m L.cX; p.p ; 9 9 9 9 9 9 9 9 9 9 9 9 9 # 6X>.o B G.K.i 5X; 9 9 9 9 9 9 9 9 9 9 jXxXcXxXxXxXxXxXvXvXnXlXlXcX<XvXbXbXbXZXZXZXZXZXZXDXK.* 9 * G.xXcXcXxXxXxXxXxXvXvXbXkXK.K.xXtXxXbXbXbXZXZXZXZXZXZXZXAXvXg - u <X. . . . & . & f . & & & & ; ; & & & & & ; ; & : : : & f ; : : : ; : k ; ; ; ; ; ; k ; = L 3 ; r T.; ; 6 I H Q ).`.2.< :X>XR.R ; f f f f ; C.v.+ p w q q w q ",
"& jXJXFXKXLXFXLXHXHXHXHXHXHXHXHXHXHXHXHXHXHXHXHXHXHXHXHXFXKXVXSXKXFXk.* 9 9 9 9 9 9 9 9 ; p p.  n.kXm o >.:.= 9 9 9 9 9 9 9 9 9 9 9 9 9 9 9 # i.p.o m n.h.. p.a ; 9 9 9 9 9 9 9 9 9 9 9 9 9 # 6X>.o m Z.C.i p.9 9 9 9 9 9 9 9 9 9 9 lXxXcXxXxXxXxXvXvXvXvXlXkXkXcXbXbXbXZXZXZXZXZXZXZXDXG.* 9 * G.xXcXxXxXxXxXxXvXvXvXvXxXcXkXkXcXbXbXbXZXZXZXZXZXZXAXZXDXvXg - u J.& ; ; ; ; ; ; k ; ; ; ; ; f k ; f f f f k k f f f f f j k f f f k f m k k k k k k m k h I x k b R.k j I ~ ~.`.).~ s.h 7X;XR.<.k j j j j k C.v.+ p w q q w q ",
"9 - c c c c m c c c c c c c c c c c c c c c c c c c c c c c c c m g - 9 9 9 9 9 9 9 9 9 9 ; p.d g.C.> * :Xa ; 9 9 9 9 9 9 9 9 9 9 9 9 9 9 9 = s 0X% : 3 X s p.; 9 9 9 9 9 9 9 9 9 9 9 9 9 9 = :.5X. ; ;   >.i.= 9 9 9 9 9 9 9 9 9 9 jXxXcXcXcXxXxXxXxXxXvXvXvXvXbXbXbXbXbXbXbXbXZXZXIXAXG.* 9 * G.xXcXcXcXcXxXxXxXxXxXnXvXvXbXvXbXbXbXbXbXbXbXbXIXZXZXZXAXxXk - u <X. . . . . . & ; . & & & . ; ; . & & & & ; ; & & & & & f : : : : : : k ; : : ; ; ; k ; = F 3 - r T.- 3 L H ~.).Q J :.: 8XB.R.n t j j f ; ; C.v.+ p w q q w q ",
"9 g k.k.k.k.k.k.z.z.k.k.k.k.k.k.k.k.k.k.k.k.k.k.k.k.k.k.k.x.g.h.c.g.9 9 9 9 9 9 9 9 9 9 9 = s 4X- . # a.:.= 9 9 9 9 9 9 9 9 9 9 9 9 9 9 9 9 9 # p.5Xo & 0 4Xs = 9 9 9 9 9 9 9 9 9 9 9 9 9 9 9 = 5Xa.o & s 4Xu 9 9 9 9 9 9 9 9 9 9 9 m M M M M M M M B B B B B B B N N N N N N N N N N | m 9 9 9 c M M M M M M M M M B B B B B B B N N N N N N N N N N N N N f 0 9 <X. . . . . . & ; . & & & . ; ; & & & & & ; ; & & & & & f : : : : : : k ; : ; ; ; ; k ; = F 3 - r T.- ; 6 H ).~.~.F :.9 8X#.R.n j m m f ; ; C.v.+ p w q q w q ",
"& kXJXJXKXJXJXJXKXKXJXJXJXJXJXJXJXJXJXJXJXJXJXJXJXJXJXJXKXJXAXGXFXKXv.& 9 9 9 9 9 9 9 9 9 9 ; i u 9 9 i 9 9 9 9 9 9 9 9 9 9 9 9 9 9 9 9 9 9 9 9 9 a 9 9 u i ; 9 9 9 9 9 9 9 9 9 9 9 9 9 9 9 9 ; 9 a 9 9 i i ; 9 9 9 9 9 9 9 9 9 9 9 - - - - - - - - - - - - - - - - * * * * * * * * * * - 9 9 9 - - - - - - - - - - - - - - - - - - * * * * * * * * * * * * 9 9 9 <X. . . . . . & ; . & & & . ; ; & & & & & ; ; & & & & & f : : : : : : k ; : ; ; ; ; k ; = F 3 * r T.- ; 3 ).~.I I 3 ;.i 8Xb R.W f m B f ; ; C.v.+ p w q q w q ",
"9 kXDXvXAXSXvXSXkXAXSXGXFXFXFXFXFXFXFXFXFXFXFXFXFXFXFXFXFXLXVXDXx.VXjX@ u 9 9 9 9 9 9 9 9 9 9 ; 9 9 9 ; 9 9 9 9 9 9 9 9 9 9 9 9 9 9 9 9 9 9 9 9 9 ; 9 9 9 9 9 9 9 9 9 9 9 9 9 9 9 9 9 9 9 9 9 9 9 ; 9 9 9 9 9 9 9 9 9 9 9 9 9 9 9 9 9 9 9 9 9 9 9 9 9 9 9 9 9 9 9 9 9 9 9 9 9 9 9 9 9 9 9 9 9 9 9 9 9 9 9 9 9 9 9 9 9 9 9 9 9 9 9 9 9 9 9 9 9 9 9 9 9 9 9 9 9 9 9 <X. . . . . . & ; . & & & . ; ; & & & & & ; ; & & & & & f : & : : : : k ; : ; ; ; : k ; = F 3 * r T.- = ~.H ; z k : ;.s 8Xy R.n : ; f ; ; ; C.v.+ p w q q w q ",
"9 jXkXlXkXcXkXcXkXkXjXSXLXFXFXFXFXFXFXFXFXFXFXFXFXFXFXFXFXKXZXZXjXZXJ.+ 9 9 9 9 9 9 9 9 9 9 9 9 9 9 9 9 9 9 9 9 9 9 9 9 9 9 9 9 9 9 9 9 9 9 9 9 9 9 9 9 9 9 9 9 9 9 9 9 9 9 9 9 9 9 9 9 9 9 9 9 9 9 9 9 9 9 9 9 9 9 9 9 9 9 9 9 9 9 9 9 9 9 9 0 9 9 9 9 9 9 9 9 9 9 9 9 9 9 9 9 9 9 9 9 9 9 9 9 9 9 9 9 9 0 9 9 9 9 9 9 9 9 9 9 9 9 9 9 9 9 9 9 9 9 9 9 9 9 9 9 9 <X. . . . . . & ; . & & & . ; ; & & & & & ; ; & & & & & f : & : : : : k ; : : ; ; : k ; = F 3 - r T.# ~.~.= ; f k ; -.;.8X1 R.n ; ; ; ; ; ; C.v.+ p w q q w q ",
"- cXbXvXbXvXvXvXvXbXnXGXHXFXHXHXHXHXHXHXHXHXHXHXHXHXHXHXFXKXVXSXC.DXjX@ u 9 9 9 9 9 9 9 9 9 0 9 9 - 0 - 9 9 9 9 9 9 9 9 9 9 9 9 9 9 9 9 9 9 9 9 9 9 9 0 9 0 9 9 9 9 9 9 9 9 9 9 9 9 9 9 9 9 9 9 9 - 9 9 0 9 9 9 9 9 9 9 9 9 9 9 9 9 9 9 9 - 9 g 9 - 9 9 9 9 9 9 9 9 9 9 0 9 9 9 9 9 9 9 9 9 9 9 9 9 9 - 0 g 9 - 9 9 9 9 9 9 9 9 9 9 9 0 9 9 0 9 9 9 9 9 9 9 9 9 9 <X. . . . . . & ; . & & & . ; ; & & & & & ; ; & & & : & f : : : : : : k ; : : ; ; ; k ; = F 3 * r T.H `.= ; ; f k ; ' y.8X2 R.n = f ; ; ; ; C.v.+ p w q q w q ",
"* <XKXFXFXFXFXFXFXHXFXFXFXFXFXFXFXFXFXFXFXFXFXFXFXFXFXFXGXLXbXSXLXGXj.* 9 9 9 9 9 9 9 9 9 9 c.M M x.k.k.x.g 0 9 9 9 9 9 9 9 9 9 9 9 9 9 9 9 9 9 g b.m x.f.x.c - 9 9 9 9 9 9 9 9 9 9 9 9 9 9 9 - c h.j.| c c.u 9 9 9 9 9 9 9 9 9 9 9 9 9 0 | M.c.x.c 0 9 9 9 9 9 9 9 9 - m M N M | g 9 9 9 9 9 9 9 9 - M M.b.C.g.9 9 9 9 9 9 9 9 9 0 g | <.M g.M g.9 9 9 9 9 9 9 9 <X. . . . . . . ; . . . . . : : . & & & . ; ; & & & & & f & & & & & & f : : : : : : f : & F 3 & < W.^.3 = ; ; ; k : ' :X:X2 R.n : ; ; ; ; ; C.v.+ p w q q w q ",
"9 * f g g g g g g g g g g g g g g g g g g g g g g g g g g g g g g 9 - 9 9 9 9 9 9 9 9 9 - j c.h.f.Z.M.Z.c.M * 9 9 9 9 9 9 9 9 9 9 9 9 9 9 9 9 9 - k.j | Z.c.| * 9 9 9 9 9 9 9 9 9 9 9 9 9 9 9 9 g v.k.k.g.b.m - 9 9 9 9 9 9 9 9 9 9 9 * g.c.* ; 9 j.M - 9 9 9 9 9 9 9 - j.g.| | N g 9 9 9 9 9 9 9 - M C.9 + . k.j.- 9 9 9 9 9 9 9 9 f f.m k.c.M N 0 9 9 9 9 9 9 9 J.& ; ; ; ; ; ; k ; ; ; ; ; f k ; f f f ; k k f f f f f j f f f f f f m k f k k k k m k f L x f l W.L r k k k j m k ,.9Xi.A R.W f j j j j f v.v.+ p w q q w q ",
"9 j v.M.M.M.M.M.M.M.M.M.M.M.M.M.M.M.M.M.M.M.M.M.M.M.M.M.M.M.k.c.Z.x.9 9 9 9 9 9 9 9 9 9 9 9 k.g.f.k.k.j.z.g 9 9 9 9 9 9 9 9 9 9 9 9 9 9 9 9 9 9 g | c <.h.x.j - 9 9 9 9 9 9 9 9 9 9 9 9 9 9 9 9 9 M g.h.| z.u 9 9 9 9 9 9 9 9 9 9 9 - j M.+ & cXf.. h.9 9 9 9 9 9 9 9 0 m | N g.f.9 9 9 9 9 9 9 9 9 M.9 > B G.f f.j - 9 9 9 9 9 9 9 9 m c | | N j - 9 9 9 9 9 9 9 J.. & & & & & & f & & & & & ; ; & & : : & f ; & : : : : f ; : ; ; ; ; k ; ; ; ; ; ; k ; = F 3 = ~ R.* 5 ; ; ; f j ; -.9X;.A R.n f f f f f ; v.v.+ p w q q w q ",
"& kXJXJXJXJXJXJXJXJXJXJXKXJXJXJXJXJXJXJXJXJXJXJXJXJXJXJXJXJXAXFXGXJXM.$ 9 9 9 9 9 9 9 9 9 9 - - - - - - - 9 9 9 9 9 9 9 9 9 9 9 9 9 9 9 9 9 9 9 9 - - - & - 9 9 9 9 9 9 9 9 9 9 9 9 9 9 9 9 9 9 9 - - - - - 9 9 9 9 9 9 9 9 9 9 9 9 * N h.. m K.j.. <.j - 9 9 9 9 9 9 9 0 - 0 - 9 9 9 9 9 9 9 9 - j c.+ k v.cX: m M - 9 9 9 9 9 9 9 9 - 9 - - - 9 9 9 9 9 9 9 9 9 <X. . . . . . . ; . . . . . : ; . & & & . ; ; & & & & & f : & & & & & f : : : : : : f ; : F 3 h (.R.& ; ; ; ; ; k : ;.iXd 1 R.n < B N ; ; ; v.v.+ p w q q w q ",
"- cXVXDXAXZXSXSXSXAXPXSXvXGXFXFXFXFXFXFXFXFXFXFXFXFXFXFXGXLXVXDXx.VXjX@ u 9 9 9 9 9 9 9 9 9 9 u g f u g 9 9 9 9 9 9 9 9 9 9 9 9 9 9 9 9 9 9 9 9 9 - N g.j.g 9 9 9 9 9 9 9 9 9 9 9 9 9 9 9 9 9 9 9 g g 9 g 9 9 9 9 9 9 9 9 9 9 9 9 9 - m c.  k c k . j.g 0 9 9 9 9 9 9 9 g j j g 9 9 9 9 9 9 9 9 0 g M.. 5 B k . | m - 9 9 9 9 9 9 9 9 f g j g 9 9 9 9 9 9 9 9 9 9 J.. . . . . . & ; . . . & . : ; . & & & & ; ; & & & & & f : & & & : & f : : : : : : k ; = F x h ~.R.& ; ; ; ; f k > e.iX- y R.n j B N f ; ; v.v.+ p w q q w q ",
"* cXvXcXkXkXlXlXvXkXxXlXlXFXFXFXFXFXFXFXFXFXFXFXFXFXFXFXFXKXZXZXjXZXJ.+ 9 9 9 9 9 9 9 9 9 9 - k.Z.x.c.| - 9 9 9 9 9 9 9 9 9 9 9 9 9 9 9 9 9 9 9 - N C.C.S.c - 9 9 9 9 9 9 9 9 9 9 9 9 9 9 9 9 9 9 M.C.k.b.j - 9 9 9 9 9 9 9 9 9 9 9 9 9 v.M . ; . m f.- 9 9 9 9 9 9 9 0 g k.j.j.c - 9 9 9 9 9 9 9 - k.j.. : & f h.9 9 9 9 9 9 9 9 9 0 g k.j.j.c - 9 9 9 9 9 9 9 9 J.. . . . . . & ; . . . & . : ; . & & & & ; ; & & & & & f : & & & : & f : : : : : : f ; # L P & `.R.* ; ; ; ; ; k o :X8X> y R.n < f ; ; ; ; v.v.+ p w q q w q ",
"* xXVXDXAXbXvXZXSXDXbXcXbXHXLXLXLXLXLXLXLXLXLXLXLXLXLXLXHXKXZXSXZ.SXjX+ u 9 9 9 9 9 9 9 9 9 - f.g.g.k.j.* 9 9 9 9 9 9 9 9 9 9 9 9 9 9 9 9 9 9 9 - | v.c.C.c - 9 9 9 9 9 9 9 9 9 9 9 9 9 9 9 9 9 f h.g.g.c.M - 9 9 9 9 9 9 9 9 9 9 9 9 - c x.- * 9 f.g 9 9 9 9 9 9 9 9 0 g N | k.g 9 9 9 9 9 9 9 9 0 g b.u * * | c - 9 9 9 9 9 9 9 9 0 g N N k.g 9 9 9 9 9 9 9 9 9 J.. . . . . . & ; . . . . . : ; . & & & & ; ; & & & & & f : & & & & & f : : : : : : k : t Y 3 3 `.T.& ; ; ; ; ; k o 8Xa.o y R.n & ; ; ; ; ; v.v.+ p w q q w q ",
"* G.FXPXGXGXGXGXGXGXGXGXGXPXPXPXPXPXPXPXPXPXPXPXPXPXPXPXSXGXvXDXFXSXf.* 9 9 9 9 9 9 9 9 9 9 9 9 9 9 g 9 9 9 9 9 9 9 9 9 9 9 9 9 9 9 9 9 9 9 9 9 9 9 g 9 g 9 9 9 9 9 9 9 9 9 9 9 9 9 9 9 9 9 9 9 9 9 9 9 g 9 9 9 9 9 9 9 9 9 9 9 9 9 9 9 0 - 9 9 9 0 9 9 9 9 9 9 9 9 9 9 9 9 9 g 9 9 9 9 9 9 9 9 9 9 9 - 9 9 9 0 0 9 9 9 9 9 9 9 9 9 9 9 9 9 g 9 9 9 9 9 9 9 9 9 9 J.. . . . . . & ; . . . & . : ; . & & & & ; ; & & & & & f : & & & : & f : : : : : : f ; M L ; F ~.T.% ; ; ; ; u < e.aX= * y R.n : ; ; ; ; ; v.v.+ p w q q w q ",
"9 - g j j j j j j j j j j j j j j j j j j j j j j j j j j c g j c u - 9 9 9 9 9 9 9 9 9 9 9 9 9 9 9 0 9 9 9 9 9 9 9 9 9 9 9 9 9 9 9 9 9 9 9 9 9 9 9 0 9 0 9 9 9 9 9 9 9 9 9 9 9 9 9 9 9 9 9 9 9 9 9 9 9 0 9 9 9 9 9 9 9 9 9 9 9 9 9 9 9 9 9 9 9 9 9 9 9 9 9 9 9 9 9 9 9 9 9 9 0 9 9 9 9 9 9 9 9 9 9 9 9 9 9 9 9 9 9 9 9 9 9 9 9 9 9 9 9 9 9 0 9 9 9 9 9 9 9 9 9 9 J.. . . . . . . ; . . . . . : : . . . & . ; ; . & & & & f & & & & & & f : & & & & & f m ; F : F ~.T.% : : : - > 2.pXe.; % 1 R.n & ; ; ; ; : v.v.+ p w q q w q ",
"9 9 0 - - - - - - - - - - - - - - - - - - - - - - - - - - - - - - 9 9 9 9 9 9 9 9 9 9 9 9 9 9 9 9 9 9 9 9 9 9 9 9 9 9 9 9 9 9 9 9 9 9 9 9 9 9 9 9 9 9 9 9 9 9 9 9 9 9 9 9 9 9 9 9 9 9 9 9 9 9 9 9 9 9 9 9 9 9 9 9 9 9 9 9 9 9 9 9 9 9 9 9 9 9 9 9 9 9 9 9 9 9 9 9 9 9 9 9 9 9 9 9 9 9 9 9 9 9 9 9 9 9 9 9 9 9 9 9 9 9 9 9 9 9 9 9 9 9 9 9 9 9 9 9 9 9 9 9 9 9 9 9 J.. & & & : & : f & : : : : ; f : ; ; ; : f f ; ; ; ; ; k ; ; ; ; ; ; j ; ; ; ; ; ; B c = L f H ~ T.3 f f f < a dX' ,.k 3 A R.n ; f f f f ; v.v.+ p w q q w q ",
"9 9 - 9 9 9 9 9 9 9 9 9 9 9 9 9 9 9 9 9 9 9 9 9 9 9 9 9 9 9 9 9 9 9 9 9 9 9 9 9 9 9 9 9 9 9 9 9 9 9 9 9 9 9 9 9 9 9 9 9 9 9 9 9 9 9 9 9 9 9 9 9 9 9 9 9 9 9 9 9 9 9 9 9 9 9 9 9 9 9 9 9 9 9 9 9 9 9 9 9 9 9 9 9 9 9 9 9 9 9 9 9 9 9 9 9 9 9 9 9 9 9 9 9 9 9 9 9 9 9 9 9 9 9 9 9 9 9 9 9 9 9 9 9 9 9 9 9 9 9 9 9 9 9 9 9 9 9 9 9 9 9 9 9 9 9 9 9 9 9 9 9 9 9 9 9 9 J.. & & & & & : f & : : : : ; f : ; : ; : f f ; ; ; ; ; k ; ; ; ; ; ; j ; ; ; ; ; m B ; t L f ~.I T.3 f f < f aXy.> 2.g 3 A R.n f k k f f ; v.v.+ p w q q w q ",
"9 9 c 0 - - * - 9 9 9 9 9 9 9 9 9 9 9 9 9 9 9 9 9 9 9 9 9 9 9 9 9 9 9 9 9 9 9 9 9 9 9 9 9 9 9 9 9 9 9 9 9 9 9 9 9 9 9 9 9 9 9 9 9 9 9 9 9 9 9 9 9 9 9 9 9 9 9 9 9 9 9 9 9 9 9 9 9 9 9 9 9 9 9 9 9 9 9 9 9 9 9 9 9 9 9 9 9 9 9 9 9 9 9 9 9 9 9 9 9 9 9 9 9 9 9 9 9 9 9 9 9 9 9 9 9 9 9 9 9 9 9 9 9 9 9 9 9 9 9 9 9 9 9 9 9 9 9 9 9 9 9 9 9 9 9 9 9 9 9 9 9 9 9 9 9 J.X . . . . . . ; . . . . . & : . . . . . ; : . & & & & ; & & & & & & f & & & & f j f : # F : !.G T.& : : o 8X:X< & ;.; $ 1 R.x ; N m ; : : v.v.+ p w q q w q ",
"9 k.| c k.k.f.c - 9 9 9 9 9 9 9 9 9 9 9 9 9 9 9 9 9 9 9 9 9 9 9 9 9 9 9 9 9 9 9 9 9 9 9 9 9 9 9 9 9 9 9 9 9 9 9 9 9 9 9 9 9 9 9 9 9 9 9 9 9 9 9 9 9 9 9 9 9 9 9 9 9 9 9 9 9 9 9 9 9 9 9 9 9 9 9 9 9 9 9 9 9 9 9 9 9 9 9 9 9 9 9 9 9 9 9 9 9 9 9 9 9 9 9 9 9 9 9 9 9 9 9 9 9 9 9 9 9 9 9 9 9 9 9 9 9 9 9 9 9 9 9 9 9 9 9 9 9 9 9 9 9 9 9 9 9 9 9 9 9 9 9 9 9 9 9 9 J.. . . . . . & ; . . . . . : : . & & & . ; ; . & & & & f : & & & & & f : : & ; m & f : & F 3 !.6 T.& ; o ,X8Xo k : ;.9 & y R.n f N N ; ; : v.v.+ p w q q w q ",
"g x.k.Z.H.v.H.| - 9 9 9 9 9 9 9 9 9 9 9 9 9 9 9 9 9 9 9 9 9 9 9 9 9 9 9 9 9 9 9 9 9 9 9 9 9 9 9 9 9 9 9 9 9 9 9 9 9 9 9 9 9 9 9 9 9 9 9 9 9 9 9 9 9 9 9 9 9 9 9 9 9 9 9 9 9 9 9 9 9 9 9 9 9 9 9 9 9 9 9 9 9 9 9 9 9 9 9 9 9 9 9 9 9 9 9 9 9 9 9 9 9 9 9 9 9 9 9 9 9 9 9 9 9 9 9 9 9 9 9 9 9 9 9 9 9 9 9 9 9 9 9 9 9 9 9 9 9 9 9 9 9 9 9 9 9 9 9 9 9 9 9 9 9 9 9 9 J.. . . . . . . ; . . . . . : : . & & & . ; ; . & & & & f & & & & & & f : & : m ; & f : # 4 3 !.5 T.* o e.uX> ; f & ;.; & y R.n = ; ; ; ; : v.v.+ p w q q w q ",
"0 m g.f.| M | g - 9 9 9 9 9 9 9 9 9 9 9 9 9 9 9 9 9 9 9 9 9 9 9 9 9 9 9 9 9 9 9 9 9 9 9 9 9 9 9 9 9 9 9 9 9 9 9 9 9 9 9 9 9 9 9 9 9 9 9 9 9 9 9 9 9 9 9 9 9 9 9 9 9 9 9 9 9 9 9 9 9 9 9 9 9 9 9 9 9 9 9 9 9 9 9 9 9 9 9 9 9 9 9 9 9 9 9 9 9 9 9 9 9 9 9 9 9 9 9 9 9 9 9 9 9 9 9 9 9 9 9 9 9 9 9 9 9 9 9 9 9 9 9 9 9 9 9 9 9 9 9 9 9 9 9 9 9 9 9 9 9 9 9 9 9 9 9 9 J.. . . . . . . ; . . . . . : : . . & & . ; ; . & & & & ; & & & & & & f & & m ; & & f : & 4 4 !.< T.o ;.pX9 & ; f & ;.; & 1 R.n & ; : ; ; : v.v.+ p w q q w q ",
"g 9 - - 0 9 0 9 9 9 9 9 9 9 9 9 9 9 9 9 9 9 9 9 9 9 9 9 9 9 9 9 9 9 9 9 9 9 9 9 9 9 9 9 9 9 9 9 9 9 9 9 9 9 9 9 9 9 9 9 9 9 9 9 9 9 9 9 9 9 9 9 9 9 9 9 9 9 9 9 9 9 9 9 9 9 9 9 9 9 9 9 9 9 9 9 9 9 9 9 9 9 9 9 9 9 9 9 9 9 9 9 9 9 9 9 9 9 9 9 9 9 9 9 9 9 9 9 9 9 9 9 9 9 9 9 u u 9 9 u u 9 9 9 9 9 9 9 9 9 9 9 9 9 9 9 9 9 9 9 9 9 9 9 9 9 9 9 9 9 9 9 9 9 9 9 J.. . . . . . . ; . . . . . : : . . . & . ; ; . & & & & ; & & & & & & f & j f & : & f : & 4 F !.< T.d dXs o - ; f & ;.; & 1 R.n & ; : ; ; : v.v.+ p w q q w q ",
"g g g g g g g g g g g g g g g g g g g g g g g g g g g g g g g g g g g g g g g g g g g g g g g g g g g g g g g g g g g g g g g g g g g g g g g g g g g g g g g g g g g g g g g g g g g g g g g g g g g g g g g g g g g g g g g g g g g g g g g g g g g g g g g g g g g g g g g g u u g g u 9 g g g g g g g g g g g g g g g g g g g g g g g g g g g g g g g g g u 9 J.X . . . . . . ; . . . . . & : . . . . . ; : . & & & . ; & & & & & & ; j k . & & & f & & 4 H !.2 T.pX;.o - & ; f > ;.; $ 1 R.n & : : : : & v.v.+ p w q q w q ",
"9 9 9 9 9 9 9 9 9 9 9 9 9 9 9 9 9 9 9 9 9 9 9 9 9 9 9 9 9 9 9 9 9 9 9 9 9 9 9 9 9 9 9 9 9 9 9 9 9 9 9 9 9 9 9 9 9 9 9 9 9 9 9 9 9 9 9 9 9 9 9 9 9 9 9 9 9 9 9 9 9 9 9 9 9 9 9 9 9 9 9 9 9 9 9 9 9 9 9 9 9 9 9 9 9 - 9 u - - * - - * 9 9 9 9 9 9 9 9 9 9 9 9 9 9 9 9 9 9 9 9 - g g j 9 0 g j - - 9 9 - g g 9 9 9 9 9 9 9 9 9 9 9 9 9 9 9 9 9 9 9 9 9 9 9 9 9 9 0 9 J.. . . . . . & ; . & & & & ; ; & & & & & ; ; & & & & & f : & : : : & j m & : : : : f ; : 4 H H 2 UX:Xo ; ; ; ; k : ;.9 * y R.n : ; ; ; ; : v.v.+ p w q q w q ",
"9 9 9 9 9 9 9 9 9 9 9 9 9 9 9 9 9 9 9 9 9 9 9 9 9 9 9 9 9 9 9 9 9 9 9 9 9 9 9 9 9 9 9 9 9 9 9 9 9 9 9 9 9 9 9 9 9 9 9 9 9 9 9 9 9 9 9 9 9 9 9 9 9 9 9 9 9 9 9 9 9 9 9 9 9 9 9 9 9 9 9 9 9 9 9 9 9 9 9 9 9 9 9 9 9 f z.| g c | j c N 9 9 9 9 9 9 9 9 9 9 9 9 9 9 9 9 9 9 9 9 - c M.Z.k.c.v.M.v.C.h.M.M.z.x.k.9 9 9 9 9 9 9 9 9 9 9 9 9 9 9 9 9 9 9 9 9 9 9 9 9 9 9 J.& ; ; ; ; ; ; k ; ; ; ; ; f f ; ; ; ; ; k f ; ; ; f ; k f f f f ; k N f f f f f f j f f z ~.F >XUX: k f f f k j 5 2.j u A R.R t f f f k ; v.M.+ p w q q w q ",
"9 9 9 9 9 9 9 - 9 - - - - * - - - 9 - 9 9 9 9 9 9 9 9 9 9 9 - - - 9 0 0 * * 9 - 0 * 9 9 9 9 - - - - 9 9 - - 9 - - 9 9 9 9 9 9 9 9 - - * - - - 9 9 9 9 9 9 9 9 9 9 0 - 9 9 - - - - - 9 9 9 9 9 9 9 9 9 9 9 9 9 9 - m h.c b.Z.j.M.Z.G.j - 9 9 9 9 9 9 9 9 9 9 9 9 9 9 9 9 9 9 - c k.g.Z.g.M.c.C.M.M C.k.C.x.b.f 9 9 9 9 9 9 9 9 9 9 9 9 9 0 9 - - 9 - 9 9 9 9 9 9 9 J.X X X X X X . ; X . . . X & : . . . . . : : . . . . . ; & . & . & j k & & & & & & f & # 4 !.p.iXT.$ & & & & ; f > ;.- $ 1 R.k : m m : & & v.v.+ p w q q w q ",
"9 9 9 9 9 9 - | j.c j c M | c c c j.m 9 9 9 9 9 9 9 9 - f.c.c g | k.9 g N g.c m g M 9 9 9 * k.M z.g g.M j c g j M 9 9 9 9 9 9 0 g h.N h.c j j k.c 9 9 9 9 9 9 9 v.f.g j.m j j c j c u 9 9 9 9 9 9 9 9 9 9 9 9 9 9 9 g.| k.g.9 | M g.9 9 9 9 9 9 9 9 9 9 9 9 9 9 9 9 9 9 9 9 9 9 9 g h.f g g g g 9 g g g g j 9 9 9 9 9 9 9 9 9 9 9 9 9 9 | M M c f.M k.- 9 9 9 9 9 J.X . . . . . . ; . . . . . & : . . . & . ; ; . & & & & ; & & & & m ; ; : & & & & & f 9 0 F {.pXt T.% : : : & ; f & ;.- $ 1 R.n m f.N ; : & v.v.+ p w q q w q ",
"9 9 9 9 9 9 9 b.g c.M.M.C.C.c.k.M.M.M.j - 9 9 9 9 9 9 * c.S.Z.F.M.Z.h.C.k.M.M.c.M.C.N * 9 * M.S.Z.v.<XZ.Z.G.k.M.C.N * 9 9 9 9 * f.H.M.C.j.K.c.C.M.* 9 9 9 9 9 f G.C.F.Z.S.C.C.Z.M.H.M - 9 9 9 9 9 - - 9 9 9 9 9 9 0 - - * * 9 - - - 9 - 0 9 9 9 9 9 9 9 9 9 9 9 9 9 - - 9 9 9 9 9 9 0 9 0 9 0 0 9 9 - 9 - * 0 0 - 9 9 9 9 9 9 9 9 9 9 0 M.Z.Z.c.C.M.c.- 9 9 9 9 9 J.X . . . . . . ; . . . . . & : . . . . . ; : . & & & . ; & & . j f . f & & & & & & ' ;.e.Q @Xp 2 T.$ : & & & ; f > ;.- $ 1 R.n & f f : : & v.v.+ p w q q w q ",
"9 9 9 9 9 9 - | j.g.h.M | k.m | k.| k.c - 9 9 9 9 9 9 - M <.k.g.k.j.x.k.f.j.g.h.f.N m - 9 0 N k.g.v.x.j.k.g.z.v.M.j - 9 9 9 9 0 | M k.f.x.b.j.h.j.9 9 9 9 9 9 g <.g.k.f.k.h.v.j.x.x.g 0 9 9 9 9 9 c M 9 * - - * u g - 9 9 9 9 9 9 9 9 c g * - * - * 9 9 9 9 9 9 9 9 c M g * - - * 9 j - 9 9 9 9 9 9 9 9 x.| g g j 9 g 9 9 9 9 9 9 9 9 9 N m k.j.<.k.g.- 9 9 9 9 9 J.X . . . . . . ; . . . . . & : . . . . . ; : . . & & . ; & . k k . & f & & & & & d i.:X:XXX6.* < T.$ : & & & ; f > ;.- $ 1 R.x & & & : : & v.v.+ p w q q w q ",
"9 9 9 9 9 9 9 - 9 0 - 0 - 0 9 0 - - 9 0 9 9 9 9 9 9 9 9 0 - - 0 0 - - - 9 9 - 0 - 0 0 9 9 9 - - - - - - - 9 * c j - 9 9 9 9 9 9 - - - 9 - * 0 0 - 9 9 9 9 9 9 9 - - - 0 - 9 - 9 - - 9 9 9 9 9 9 0 x.M.b.| | g.g.h.C.c - 9 9 9 9 9 9 - k.c.| | j.N g.0 9 9 9 9 9 9 - k.M.M.N <.f.j.g.C.M - 9 9 9 9 9 9 0 h.x.c.M.b.S.b.- 9 9 9 9 9 9 9 9 0 0 - 0 - 0 0 9 9 9 9 9 9 J.X . . . . . . ; . . . . . & : . . . . . : : . . . & . ; . ; j . & & f & & & & & ] :X,XuX Xi.d < T.$ & & & & ; f > ;.- $ 1 R.x & : : : : & v.v.+ p w q q w q ",
"9 9 9 9 9 9 9 9 9 9 9 9 9 9 9 9 9 9 9 9 9 9 9 9 9 9 9 9 9 9 9 9 9 9 9 9 9 9 9 9 9 9 9 9 9 9 9 9 9 9 9 9 9 9 9 0 9 9 9 9 9 9 9 9 9 9 9 9 9 9 9 9 9 9 9 9 9 9 9 9 9 9 9 9 9 9 9 9 9 9 9 9 9 9 9 9 * | h.z.Z.g.G.v.Z.b.g.* 9 9 9 9 9 9 9 x.k.v.C.z.K.M.9 9 9 9 9 9 9 * M h.k.Z.g.S.M.Z.v.k.- 9 9 9 9 9 - c M.g.x.g.| M.f.- 9 9 9 9 9 9 9 9 9 9 9 9 9 9 9 9 9 9 9 9 9 J.X X X X . X . ; X . . . . & & . . . . . : : . . . . . ; ; j . & & . f & & & & & ] :X8XuX Xi.d < T.$ & & & & : f > ;.- $ 1 R.x + & & & & & b.v.+ p w q q w q ",
"9 9 9 9 9 9 9 9 9 9 9 9 9 9 9 9 9 9 9 9 9 9 9 9 9 9 9 9 9 9 9 9 9 9 9 9 9 9 9 9 9 9 9 9 9 9 9 9 9 9 9 9 9 9 9 9 9 9 9 9 9 9 9 9 9 9 9 9 9 9 9 9 9 9 9 9 9 9 9 9 9 9 9 9 9 9 9 9 9 9 9 9 9 9 9 9 9 j c j m u M m | c j 9 9 9 9 9 9 9 g j.M | c j M m 0 9 9 9 9 9 9 0 g c j m g m m | c j 9 9 9 9 9 9 9 9 f 9 9 0 9 - 9 9 9 9 9 9 9 9 9 9 9 9 9 9 9 9 9 9 9 9 9 9 9 J.. . . . . . & ; . . . . . : : . & & & . ; ; . & & & & f m : & & & & f : & & & : p  XqX:X X>.e < T.% : : : : ; f & ;.; & 1 R.n & ; ; : ; & b.v.+ p w q q w q ",
"9 9 9 9 9 9 9 9 9 9 9 9 9 9 9 9 9 9 9 9 9 9 9 9 9 9 9 9 9 9 9 9 9 9 9 9 9 9 9 9 9 9 9 9 9 9 9 9 9 9 9 9 9 9 9 9 9 9 9 9 9 9 9 9 9 9 9 9 9 9 9 9 9 9 9 9 9 9 9 9 9 9 9 9 9 9 9 9 9 9 9 9 9 9 9 9 9 - - - - 9 - - * - - 9 9 9 9 9 9 9 9 * - * - - - - 9 9 9 9 9 9 9 9 - - - - 0 - - * - - 9 9 9 9 9 9 9 9 0 9 9 9 9 9 9 9 9 9 9 9 9 9 9 9 9 9 9 9 9 9 9 9 9 9 9 9 u J.. : : : : : ; f : ; : : : ; f : ; ; ; : f f ; ; ; ; ; B f ; ; ; ; ; j ; ; ; 3 = I ).:.e.4.a ; r T.3 f f f f f j < ;.g 3 A R.n ; f ; f f ; b.M.+ p w q q w q ",
"g g g g g g g g g g g g g g g g g g g g g g g g g g g g g g g g g g g g g g g g g g g g g g g g g g g g g g g g g g g g g g g g g g g g g g g g g g g g g g g g g g g g g g g g g g g g g g g g g g g g g g g g g g g g g g g g g g g g g g g g g g g g g g g g g g g g g g g g g g g g g g g g g g g g g g g g g g g g g g g g g g g g g g g g g g g g g g g g 9 J.  X X X X X . : X . . . X & & X . . . X : : . . . . k j . . . . . . ; & . & . 4 ^.z * 0 F > . < T.O & & & & : ; . ;.* O 1 R.i : f f & & & b.v.+ p w q q w q ",
"9 9 9 9 9 9 9 9 9 9 9 9 9 9 9 9 9 9 9 9 9 9 9 9 9 9 9 9 9 9 9 9 9 9 = = = 9 9 9 9 9 9 9 9 9 9 9 9 9 = # = = 9 9 9 9 9 9 9 9 9 9 9 9 9 % - % 0 9 9 9 9 9 9 9 9 9 9 9 9 = = = = 9 9 9 9 9 9 9 9 9 9 9 9 9 % - % 0 9 9 9 9 9 9 9 9 9 9 9 9 = # = # 9 9 9 9 9 9 9 9 9 9 9 9 9 9 0 0 9 9 9 9 9 9 9 9 9 9 9 9 9 0 - - - 9 9 9 9 9 9 9 9 9 9 9 9 9 = = = 9 9 9 9 9 9 9 9 J.X X X . . X . ; X . . . . & : . . . . . : : . & . f f ; & . & & & . f & & + & ^.F = & # 4 3 + < T.$ & & & & : u . ;.- O 1 R.x c N m ; & & b.v.+ p w q q w q ",
"9 = = = = = = = = = ; ; ; 9 - * * * * 0 0 * * * * - 9 9 9 9 9 9 = i i.a.i.i = 9 9 9 9 9 9 9 9 9 9 = :.6Xp.;.= 9 9 9 9 9 9 9 9 9 9 0 t &.T.T.y % 9 9 9 9 9 9 9 9 9 9 = K }.}.4.9 9 9 9 9 9 9 9 9 9 9 0 9 &.T.T.A % 9 9 9 9 9 9 9 9 9 9 = s 4X6Xp.u = 9 9 9 9 9 9 9 9 9 9 9 h b b h 0 9 9 9 9 9 9 9 9 9 9 - j | f.B 9 9 9 9 9 9 9 9 9 9 9 = i i.a.a.p = 9 9 9 9 9 9 J.X X X X X X . ; X . . . X & & . . . . . : : . . ; k X ; & . . . & . ; & + . !.H @ 3 & + 4 3 + < T.O & & & & : u . ;.* O 1 R.x < j j : & & b.v.+ p w q q w q ",
"9 s *.*.*.*.] s s d d d d 0 c h.h.h.k.j g j.h.h.x.m - 9 9 9 9 = ' 4X*.d >.4X' = 9 9 9 9 9 9 9 9 = 4X5X*.d a.p.9 9 9 9 9 9 9 9 9 0 r T.&.A A E.A - 9 9 9 9 9 9 9 9 = 4.}.K K 6. Xu 9 9 9 9 9 9 9 9 9 t T.&.A A T.&.% 9 9 9 9 9 9 9 9 = :.0Xi.*.p.0Xs = 9 9 9 9 9 9 9 9 9 b b ; t b b 0 9 9 9 9 9 9 9 9 - M j.j f N h.u 9 9 9 9 9 9 9 9 = a 4X>.d >.4X-.= 9 9 9 9 9 J.X X X X X X . ; X . . . X & & . . . . . : : X : j . . ; & . . . . . ; & @ Q.!.@ & ; & + 4 3 + < T.O & & & & : 9 . ;.* O 1 R.k . & & & & & b.v.+ p w q q w q ",
"; 4X0X0X5X5X4X5X4Xp.p.p.>.% k.ZXvXZXAXN M bXvXbXDXc.* 9 9 9 9 9 5X=.h < o d :X9 9 9 9 9 9 9 9 = :.5X  S v.  a.:.= 9 9 9 9 9 9 9 - T.A O 3 O t T.t 9 9 9 9 9 9 9 = s  X& # :   4.}.= 9 9 9 9 9 9 9 % &.&.O 3 % & T.y - 9 9 9 9 9 9 ; p 0Xd o < o >.5X= 9 9 9 9 9 9 9 0 h l . & & . b h 0 9 9 9 9 9 9 0 g j.& . : X m <.- 9 9 9 9 9 9 9 9 p.s o 5 o d 4Xu 9 9 9 9 9 J.  X X X X X . : X . . . X & & X . . . . : & . j & . . ; & . . . . . 3 @ H !.@ & + ; & + 4 3 . < T.O & & & & : ; . ;.* O 1 R.k . & & & & & b.v.+ p w q q w q ",
"; 4XfXp.a.p.p.4Xp.>.*.p.a.% h.bXlXxXZXM m vXjXJ.ZXk.* 9 9 9 = -.5Xo xXG.m o p.s = 9 9 9 9 9 9 # 5X*.o K.lX: d p.= 9 9 9 9 9 9 0 y T.$ k h.vXW A A - 9 9 9 9 9 9 = 6.4.o m Z.J.u }.u 9 9 9 9 9 9 9 9 T.# f S B % A &.% 9 9 9 9 9 9 # i.4Xo m j.m X 5Xs = 9 9 9 9 9 9 0 b = & j N : ; b 0 9 9 9 9 9 9 - N m . k B 5 + j.9 9 9 9 9 9 9 = s p.o k B W o a.-.= 9 9 9 9 J.  X X X X X . ; X . . . X & & X . . . . : & j & . . . ; & . . . . O = F ^.& + & . ; & + 4 3 + < T.O & & & & : ; . ;.* O 2 R.k . & & & & & b.v.+ p w q q w q ",
"; 4XfX5X5X5X4X5Xp.p.a.p.a.% h.bXkXxXbXm m vXkXkXZXh.* 9 9 9 = ;.6X  B f.B o a.' = 9 9 9 9 9 9 # 6X*.> B B f e p.; 9 9 9 9 9 9 0 y T.O k f.C.% A A - 9 9 9 9 9 9 = 6.K # m C.G.- 6.u 9 9 9 9 9 9 9 t T.# ; v.kXO A &.% 9 9 9 9 9 9 # i.p.o j G.cX> 5Xs = 9 9 9 9 9 9 9 b * : k K.x.= b 0 9 9 9 9 9 9 - N m . f C.S.+ g.u 9 9 9 9 9 9 = s p.  v.lXm o i.-.= 9 9 9 9 J.    X X X X . : X X X . X & & X . . . . & m : X . . . ; . . . . O X 6 ^.4 @ O . . ; & . 4 O . < T.O & & & . & ; . ;.* O 2 R.k . & & & & . c.v.+ p w q q w q ",
"; 5XfXfX0X0X0X5X5X4X4Xp.a.% h.vXvXbXvXM M xXbXbXbXh.* 9 9 9 ; i 0Xi > f : e 4Xu 9 9 9 9 9 9 9 # i.4Xo 3 f o >.i.= 9 9 9 9 9 9 9 9 T.y O f > $ &.r 0 9 9 9 9 9 9 = K }.. ; 3   d 6.= 9 9 9 9 9 9 9 - T.A O j G.- T.A - 9 9 9 9 9 9 = s 0X% : k l s 5X9 9 9 9 9 9 9 9 0 l h . : : - h h 0 9 9 9 9 9 9 - j g.. & ; f j f.0 9 9 9 9 9 9 9 9 4Xe b.v.. - 4Xi ; 9 9 9 u J.. ; : : : : ; f : ; ; ; ; f f ; ; ; ; : j j : ; ; ; ; k ; ; ; 3 ; 3 ^.F = 3 ; ; ; j f t F 3 ; r T.3 f f f f f j < ;.g 3 A R.n ; f f f f ; c.M.+ p w q q w q ",
"9 s ] s d d d d d d d d e % g M M M B 9 9 M M M B j 9 9 9 9 9 # i.0X& $ & p.-.= 9 9 9 9 9 9 9 9 = 0Xi.o + s 4Xu 9 9 9 9 9 9 9 9 - A E.= $ % &.A - 9 9 9 9 9 9 9 9 = }.6.o & i }.i 9 9 9 9 9 9 9 9 0 r E.y + X &.T.- 9 9 9 9 9 9 9 9 # p.5Xo $ $ 4Xs = 9 9 9 9 9 9 9 9 9 b t $ $ 9 h 9 9 9 9 9 9 9 9 9 - f.| + + * N f 9 9 9 9 9 9 9 9 = -.4X& . # p.>.= 9 9 9 9 9 J.  X X X X X . : X . . . X & & X . . X ; j & . . . . . ; & . . . @ !.H @ O & & & . ; & + 4 3 . < T.O & & & & : ; . ;.* O 2 R.i : j f & & & c.v.+ p w q q w q ",
"9 l b b b b b m m B B B B N M M M M M B B m M M M j 9 9 9 9 9 9 ; s 9 9 9 a ; 9 9 9 9 9 9 9 9 9 ; i a 9 9 i i ; 9 9 9 9 9 9 9 9 9 0 y t 9 9 r 9 9 9 9 9 9 9 9 9 9 9 9 a 9 9 u i 9 9 9 9 9 9 9 9 9 9 0 r t 9 u r 9 9 9 9 9 9 9 9 9 9 9 9 s 9 9 u p ; 9 9 9 9 9 9 9 9 9 9 9 9 9 9 9 9 9 9 9 9 9 9 9 9 9 9 9 g 9 9 u u 9 9 9 9 9 9 9 9 9 9 ; a u 9 9 a ; 9 9 9 9 9 9 J.  X X X X X . :   X X X X & & X . X & k & & . . . . . ; . . . X Q.H = & . . . . . ; & . 4 O . < T.O & & & . & ; . ;.* O 2 R.x = k k & & . c.M.+ p w q q w q ",
"- K.xXcXcXxXxXxXxXxXcXcXcXxXxXxXxXvXvXbXZXZXZXZXDXx.* 9 9 9 - 9 9 = 0 0 - ; 9 0 - 0 9 9 9 9 9 - 9 9 = 0 0 9 ; 0 - 9 9 9 9 9 9 0 0 9 0 9 - 9 9 9 9 9 9 9 9 9 9 9 9 9 - = - 9 9 9 9 9 9 9 9 9 9 9 9 9 9 0 - 9 9 9 9 - - 9 9 9 9 9 9 9 9 9 = 0 - 9 9 9 - 0 9 9 9 9 9 9 9 9 0 9 0 9 0 9 9 0 0 9 9 9 9 9 9 9 9 - 9 0 9 9 9 0 9 9 9 9 9 9 9 0 9 ; - 9 9 9 9 9 9 9 9 9 9 J.    X X X   . :   X X . X & & X X . j . & & X . . . . ; . O @ H !.X ; & . . . . . ; & . 4 O . < T.O & & & . & ; . *.* O 2 R.j : f j & & . c.M.+ p w q q w q ",
"- K.vXcXxXxXvXcX<X<X<XlXjXjXJ.lXlXlXkXZXZXAXAXAXDXx.* 9 9 0 j g 9 9 g g j 9 * g c g 9 9 9 9 0 g u 9 g g g * g c j 9 9 9 9 9 0 g g g 9 u j - * * - - 9 9 9 9 9 9 g 9 j g j - * * - - 9 9 9 9 9 9 9 u f 9 c 9 g - 9 c j 9 9 9 9 9 9 - g u g g g u * g c g 9 9 9 9 9 9 u g g 9 g u g - 9 g g 9 9 9 9 9 0 g 9 g u g 9 - g g g 9 9 9 9 9 0 g f 9 j - * * - - 9 9 9 9 9 J.      X X   . : X X X X X & & X . j &   : & X . . . . ; O X F ^.O . ; . . . . . . ; & . 4 O . = T.. & & & . & ; . *.& O 2 R.i . & . & & . c.M.+ p w q q w q ",
"- K.xXcXxXxXxXcXlXkXkXkXkXlXlXlXkXkXkXbXZXZXZXZXAXx.* 9 9 9 M k.c.M g.M.M.M m C.C.v.9 9 9 9 9 b.| N M.M.f.g M.M.C.g 0 9 9 9 0 j M.M.N <.c.j k.h.N <.9 9 9 9 9 * g.x.x.M.x.j k.k.N f.9 9 9 9 9 9 - <.g.g C.m v.9 x.M.Z.M - 9 9 9 9 g C.j g.M.M.N c C.C.M.9 9 9 9 9 g g.c | j j.h.| f f.h.k.c - 9 9 9 g k.u | h.j.c c k.k.g.9 9 9 9 9 9 b.f.N v.j j.k.N f.9 9 9 9 9 J.        X X . :   X X X X & &   k : X X & & X . . . . ; @ 4 ^.O X . ; . . . . . . ; O . 4 O . < T.. + . . . & ; . *.& O 2 R.k . & & & & . c.M.+ p w q q w q ",
"- J.vXxXxXvXvXvXbXbXbXbXbXbXZXZXZXZXZXAXAXAXAXAXDXx.* 9 9 M <.x.G.k.j.Z.M.| z.C.Z.C.9 9 9 0 g c.k.g.M.C.f.g.C.C.Z.c - 9 9 9 - M v.x.k.h.x.N M.b.x.M.g 9 9 9 9 - c c.k.Z.k.| M.b.x.M.g 0 9 9 9 9 M m j.g k.G.Z.M C.M.S.| * 9 9 9 g g.Z.k.j.C.M.| k.C.C.C.g 0 9 0 j j N M N m g.z.| M h.h.x.m - 9 9 g | k.N N z.j.m <.h.k.h.9 9 9 9 0 g c.k.j.c.N M.v.x.M.j - 9 9 u J.  X X X X X . :   X X X X & . ; ;   . X & & X . . . . = O ^.4 X O . ; . . . . . . ; & . 4 O . = T.. & . & . & ; . ] & O 2 R.k . & & & & . c.M.+ p w q q w q ",
"9 | h.h.h.h.h.h.h.h.k.k.k.z.z.x.x.x.x.x.x.x.x.x.b.m - 9 9 - g.N c M M M | g m | | | 9 9 9 9 - N M m N N c g f.M <.9 9 9 9 9 - | | | M M N u c c c | 9 9 9 9 9 0 g c | M N u c c c | f 9 9 9 9 9 - f c m | j m u <.M f.j 0 9 9 9 9 9 N M M M | g c | N | 9 9 9 9 9 9 g M M j m c c 9 M c M g 9 9 9 9 9 m c c c M 9 c m m m 9 9 9 9 9 - N N m | 9 c c c | g 9 9 9 9 J.            X &           . f ;   X X   & &   X X . X # !.F X . . X ; . . . . . . ; . X 4 O X # T.X . . . . & ; X ] $ X 2 R.i X . . . . . c.M.+ p w q q w q ",
"9 - * * * * * * * * * * * * * * * * * * * * * * * - 9 9 9 9 * - - - - - * 9 - * - - 9 9 9 9 9 - - - - - - 0 * - * 9 9 9 9 9 9 * - - - - - 9 - - - * 9 9 9 9 9 9 9 - * - - 9 - - - * 9 9 9 9 9 9 9 9 - - - - - 9 * - * 0 9 9 9 9 9 9 - - - - * 0 - * - - 9 9 9 9 9 9 0 - - - - - - 9 - - - 9 9 9 9 9 9 - - - - - 9 - - - - 9 9 9 9 9 9 - - - * 9 - - - - 9 9 9 9 u J.. & & & & & & ; & & & & & ; m & & & & & ; ; & : : : # !.!.# : : : : f ; : : : ; : f ; = F 3 * t T.* ; ; ; ; ; f : ;.9 * y R.n : ; ; ; ; & x.M.+ p w q q w q ",
"9 9 9 9 9 9 9 9 9 9 9 9 9 9 9 9 9 9 9 9 9 9 9 9 9 9 9 9 9 9 9 9 9 9 9 9 9 9 9 9 9 9 9 9 9 9 9 9 9 9 9 9 9 9 9 9 9 9 9 9 9 9 9 9 9 9 9 9 9 9 9 9 9 9 9 9 9 9 9 9 9 9 9 9 9 9 9 9 9 9 9 9 9 9 9 9 9 9 9 9 9 9 9 9 9 9 9 9 9 9 9 9 9 9 9 9 9 9 9 9 9 9 9 9 9 9 9 9 9 9 9 9 9 9 9 9 9 9 9 9 9 9 9 9 9 9 9 9 9 9 9 9 9 9 9 9 9 9 9 9 9 9 9 9 9 9 9 9 9 9 9 9 9 9 9 9 u J.  . . . . . . ; . . . . & m & . . . . . : : . & & @ H !.@ & & & & & f & & & & & & ; & # 4 3 + < T.$ & & & & : ; > ;.- O 1 R.k : ; ; : & & x.M.+ p w q q w q ",
"g g g g g g g g g g g g g g g g g g g g g g g g g g g g g g g g g g g g g g g g g g g g g g g g g g g g g g g g g g g g g g g g g g g g g g g g g g g g g g g g g g g g g g g g g g g g g g g g g g g g g g g g g g g g g g g g g g g g g g g g g g g g g g g g g g g g g g g g g g g g g g g g g g g g g g g g g g g g g g g g g g g g g g g g g g g g g g g g 9 J.            X &         f : .   X X X   & &   . X F ^.; . . . . . X ; . . . . . . ; . X 4 O X # T.X . . . . & ; X ] $ X 2 R.i f m m & . . x.M.+ p w q q w q ",
"9 9 9 9 9 9 9 9 9 9 9 9 9 9 9 9 9 9 9 9 9 9 9 9 9 9 9 9 9 9 9 9 9 = = 9 = = 9 9 9 9 9 9 9 9 9 9 9 9 # = ; = 9 9 9 9 9 9 9 9 9 9 9 9 0 % 9 - - 9 9 9 9 9 9 9 9 9 9 9 9 = = 9 = 9 9 9 9 9 9 9 9 9 9 9 9 0 % 9 - % 9 9 9 9 9 9 9 9 9 9 9 9 = = 9 # = 9 9 9 9 9 9 9 9 9 9 9 9 0 9 9 0 9 9 9 9 9 9 9 9 9 9 9 9 - - 9 - 9 9 9 9 9 9 9 9 9 9 9 9 = = 9 = = 9 9 9 9 9 9 u J.            X :   X   f & . &   X X X   & & X X 4 ^.O # . . . . . . ; . . . . . . ; . X 4 O . # T.. . . . . & ; . ] & . 2 R.k f m j & . . x.M.+ p w q q w q ",
"9 0 0 0 0 0 0 0 0 0 0 0 9 9 - * * * * 9 9 * & & & - 9 9 9 9 9 9 = s p.p.p.s = 9 9 9 9 9 9 9 9 9 9 9 a.5X:Xi.9 ; 9 9 9 9 9 9 9 9 9 0 y T.T.T.A - 9 9 9 9 9 9 9 9 9 9 = 4.}.}.}.i = 9 9 9 9 9 9 9 9 9 0 t T.T.T.&.0 9 9 9 9 9 9 9 9 9 9 = :.5X5X5Xs = 9 9 9 9 9 9 9 9 9 9 9 l b b j 9 9 9 9 9 9 9 9 9 9 9 0 m g.g.f.f 0 9 9 9 9 9 9 9 9 9 = s p.p.p.' = 9 9 9 9 9 u J.            X &     ; ;   & &   X X X   & & X O ^.4 X ; . . . . . . ; . . . . . . ; . X 4 O X # T.. . . . . & ; X ] $ . 2 R.i . . . . . . x.M.+ p w q q w q ",
"9 F H F F F F F F F F 4 4 % B C.Z.Z.S.c j C.Z.Z.S.N - 9 9 9 9 = :.4Xd e s 4X;.= 9 9 9 9 9 9 9 9 = 5X:Xd i >.4Xu 9 9 9 9 9 9 9 9 - y E.A = 1 T.&.% 9 9 9 9 9 9 9 9 = 6.}.d 3 K XXa 0 9 9 9 9 9 9 9 0 r E.A 2 1 T.T.- 9 9 9 9 9 9 9 9 # a.0Xs d >.0X-.= 9 9 9 9 9 9 9 9 9 b h * = l b 9 9 9 9 9 9 9 9 9 - N f.9 - c k.g 0 9 9 9 9 9 9 9 = ' 4Xs e d 4X>.= 9 9 9 9 u J.            X :   : f     . &   X X X   & &   !.F X X : . . . . . X ; . . . . . . ; . X 4 O X # T.X . . . . & ; X ] $ X 2 R.i X . . . . . x.M.+ p w q q w q ",
"0 Q.^.!.!.Q.Q.Q.Q.H H H H O z.AXxXZXDXB M bXvXvXSXc.* 9 9 9 ; i 0Xa j.V > i 4Xu 9 9 9 9 9 9 9 # i.6X  v.K.  :.i.= 9 9 9 9 9 9 9 9 T.y O k u ; T.y 0 9 9 9 9 9 9 = K }.o < f   K }.= 9 9 9 9 9 9 9 - T.A O k 3 O T.A - 9 9 9 9 9 9 = s 0X& > k o s 0X; 9 9 9 9 9 9 9 0 l h X ; : X l h 0 9 9 9 9 9 9 - j g.. & ; X j g.- 9 9 9 9 9 9 9 9 :Xi o k < * 4Xi ; 9 9 9 u J.            X & . k   X   . &   X X X   & @ H H X . X : . X . . . X ; . . . . . . ; . X 4 O X # T.X . . . . & ; X ] $ . 2 R.i X . . . . . x.M.+ p w q q w q ",
"0 Q.^.Q.H H H H H F F H H $ h.bXlXxXZXM m vXJ.K.ZXk.* 9 9 9 = ;.6Xo cXG.m o a.' = 9 9 9 9 9 9 # 5X*.o Z.J.< i p.; 9 9 9 9 9 9 0 y T.$ k h.bXW A A - 9 9 9 9 9 9 = 6.K # m G.kXu }.u 9 9 9 9 9 9 9 t T.# k / xXV.A &.- 9 9 9 9 9 9 # i.p.o m x.j.X 5Xs = 9 9 9 9 9 9 9 b * : j h.f = b 0 9 9 9 9 9 9 - N m . k f.j . g.u 9 9 9 9 9 9 = s p.o j / W o i.-.= 9 9 9 u J.              ; f         . .           @ H Q.        & X   X X X   : . X X X X X : . X 4 O   # T.  . . . X . :   ] +   2 R.i   . . . . X x.M.+ p w q q w q ",
"0 Q.[.^.!.!.Q.Q.Q.H H H H $ h.bXcXvXIXm m vXcXcXZXk.* 9 9 9 = -.5X  k N m o p.' = 9 9 9 9 9 9 # 6X*.o m m < d p.= 9 9 9 9 9 9 0 y T.. k N j.O A A - 9 9 9 9 9 9 = 6.4.o m c.x.* 6.u 9 9 9 9 9 9 9 9 T.# 3 N b.3 A A - 9 9 9 9 9 9 # i.4Xo k L.cX: 5Xs = 9 9 9 9 9 9 0 b = & k L.x.= b 0 9 9 9 9 9 9 - B m . 5 v.S.& j.9 9 9 9 9 9 9 = s p.  Z.kXk o a.-.= 9 9 9 u J.X & & & & & & m ; & & & & ; ; & & & & # F ^.& & & & & f : : : : : & f : : : : : : f ; = F 3 & < T.& ; : ; : ; f : ;.9 & 1 R.x & ; ; ; ; & x.M.+ p w q q w q ",
"9 Q.[.^.^.^.!.Q.Q.Q.H H H O h.cXcXxXxXM m cXxXxXxXh.* 9 9 9 9 9 0X*.o 3 > d :X9 9 9 9 9 9 9 9 = :.5X$ : ; . a.:.= 9 9 9 9 9 9 9 - T.A O ; O < T.t 9 9 9 9 9 9 9 = s  X% : :   K 4.= 9 9 9 9 9 9 9 % T.&.O ; O & &.y 0 9 9 9 9 9 9 ; p 0Xd > ; : -.4X= 9 9 9 9 9 9 9 0 h l . & . $ h g 9 9 9 9 9 9 9 0 g j.* . & & c N - 9 9 9 9 9 9 9 9 p.d f.f.. d 4Xu 9 9 9 9 u J.  . . . . X k ; X . . . . & & . . . . 4 ^.O . O . . . ; & . & & & . ; & & & & & & ; & + 4 3 + < T.O & & & & : ; . ;.* O 2 R.k . & & & & . x.M.+ p w q q w q ",
"9 4 4 O O O O O O O O O O $ 0 u 9 9 f - - u 9 9 u u 9 9 9 9 9 = ;.0X* & * p.' = 9 9 9 9 9 9 9 9 = 5Xi.o & ' p.; 9 9 9 9 9 9 9 9 0 y E.t & % &.A 0 9 9 9 9 9 9 9 9 = 6.6.# & i 6.u 9 9 9 9 9 9 9 9 9 t E.y $ % A A - 9 9 9 9 9 9 9 9 # i.5X# * 0 p.p ; 9 9 9 9 9 9 9 9 9 b g & * t h 9 9 9 9 9 9 9 9 9 - N | & * 9 B 9 9 9 9 9 9 9 9 9 = s 4X* + : p.-.= 9 9 9 9 u J.          ; ; &           . .       . ^.F @           & X   X X X   : X X X X X X : . X 4 O   # T.  . . . X . :   ] +   2 R.i   . . . . X x.M.+ p w q q w w ",
"9 | h.j.j.h.h.h.k.z.z.x.x.x.x.x.x.x.x.x.x.z.x.x.c.m - 9 9 9 9 9 = u 9 9 9 9 ; 9 9 9 9 9 9 9 9 9 9 ; u 9 9 9 9 9 9 9 9 9 9 9 9 9 9 9 9 9 9 9 9 0 9 9 9 9 9 9 9 9 9 9 9 u 9 9 9 9 9 9 9 9 9 9 9 9 9 9 9 9 9 9 9 t 0 9 9 9 9 9 9 9 9 9 9 = u 9 9 9 9 9 9 9 9 9 9 9 9 9 9 9 9 9 9 9 9 9 9 9 9 9 9 9 9 9 9 9 9 9 9 9 9 9 9 9 9 9 9 9 9 9 9 9 ; 9 u 9 9 9 ; 9 9 9 9 9 u J.        & ;   &           . .   X   !.F @ &   X X X   : . X X X X X ; . X X X . X : . X 4 O X # T.X . . . . & :   ] $   2 R.i X . . . . X x.v.+ 9 9 9 ; ; 9 ",
"- J.vXxXnXvXvXvXxXxXcXcXcXxXxXxXvXvXvXAXAXAXDXDXSXc.* 9 9 9 - - 9 ; - - - 9 9 - - - 9 9 9 9 9 - 0 9 - - - 9 0 - - 9 9 9 9 9 9 - - - 0 0 - 9 9 9 9 9 9 9 9 9 9 9 - 0 - - - 9 9 9 9 9 9 9 9 9 9 9 0 - 9 - 9 - - - 9 0 - - 9 9 9 9 9 9 - 9 - - - 0 9 0 - - 9 9 9 9 9 9 0 0 - 9 - - - 9 9 - - 9 9 9 9 9 9 0 9 - - - 9 9 0 - 0 9 9 9 9 9 9 - 0 9 - 9 9 9 9 9 9 9 9 9 u J.      . f     &           . .     Q.H   & +   X X X   & . X X X X X : . X X X X X : . X 4 O X # T.  . . . X . :   ] $   2 R.i   . . . . X x.M.+ p w q w w q ",
"- K.xXcXxXxXvXkXK.J.J.lXjXJ.K.jXlXjXkXZXZXZXZXZXDXx.* 9 9 - m j g g c c m g * m M c 9 9 9 9 - m g g m c j * c M m 9 9 9 9 9 - c c m g g m - - - - 9 9 9 9 9 9 0 j g m c m - - - - 0 9 9 9 9 9 - g M 9 j g m c c * j M M 9 9 9 9 9 - c f j c m g * m M m 9 9 9 9 9 9 j j j 9 c g j - g c c 9 9 9 9 9 0 j 9 j j c 9 - c c j 9 9 9 9 9 - m j g M - - - - 0 9 9 9 9 u J.    X f       &           . O   H Q.    & &       X   & .   X X X X : . X X X X X : . X 4 O X # T.  . . . X . :   ] +   2 R.i X . . & . X x.M.. } +._ O.O.p ",
"- K.vXcXxXxXvXcXkXcXkXcXcXkXcXkXkXkXcXZXZXZXZXAXDXx.* 9 9 f m k.M.M g.C.M.N N C.C.M.9 9 9 9 g b.f.| C.C.g.c C.C.Z.j - 9 9 9 9 g M.M.| f.c.c b.c.f.h.9 9 9 9 9 * f.b.z.Z.x.c b.b.f.h.9 9 9 9 9 g g k.b.k.M C.C.g.c C.C.Z.c - 9 9 9 c Z.c g.C.M.| M C.C.C.9 9 9 9 9 g g.j | c j.k.| g j.k.x.c - 9 9 9 c z.g | k.j.c m k.k.j.9 9 9 9 9 f b.g.| v.c c.b.f.k.9 9 9 9 9 J.    f .       &           . @ F ^.      & &           & . X X X X X : . X X X X X : . X 4 O   # T.  . . . X . :   ] +   2 R.n k f j f X X x.v.+ 9 w q w w 9 ",
"- K.xXcXcXxXxXxXvXvXvXvXvXbXbXbXbXbXbXbXbXZXZXZXAXx.* 9 9 m k.x.S.x.j.C.M.| k.M.C.M.9 9 9 9 g c.z.j.M.C.f.f.M.M.Z.c - 9 9 9 - | b.x.k.k.x.M c.x.k.M.g 0 9 9 9 - c z.x.Z.k.M c.x.k.M.g 0 9 9 0 c <.c.C.C.f.M.C.g.<.M.M.Z.c - 9 9 g f.C.k.j.C.M.| h.M.C.C.g 9 9 0 j g M | | M j.k.| m h.j.x.m - 9 9 g N k.| | k.j.m | j.k.j.9 9 9 9 9 u x.x.j.c.M c.x.k.M.c - 9 9 f J.  f &       X :           @ 4 ^.O X X   & &   X X X X : . X . . . X ; . . . . . . ; . X 4 O X # T.X . . . . & ; X ] $ X 2 R.n < f k ; . . h.M.+ q w 9 w w 9 ",
"9 m M M M M M M M M B B B B B N N N N N N N N N | j 0 9 9 - M c 9 c c c m 9 j m c c 9 9 9 9 - c c j c c g u M c M 9 9 9 9 9 - m M c c c c 9 g g j m 9 9 9 9 9 9 g g m j c 9 g g g m 9 9 9 9 9 * c N 9 c c c c j 9 M c M 9 9 9 9 9 - c c c c m f g m c m 9 9 9 9 9 9 g c c g j g j 9 c g c 9 9 9 9 9 0 c g j g c 9 g c j j 9 9 9 9 9 - c c j m 9 g g g m 9 9 9 9 - jXf                           ^.O                                     X             X     O       Z             X   d     o &.O             Z.k.$ _ +.w O.O.p ",
"9 9 - 0 - - - - - - - - - - - - - - - - - - - - - 9 9 9 9 9 - 0 9 9 0 9 - 9 9 - 0 0 9 9 9 9 9 0 0 9 0 0 9 9 - 9 - 9 9 9 9 9 9 - - 0 9 9 0 9 9 9 9 0 9 9 9 9 9 9 9 9 0 9 0 9 9 9 9 0 9 9 9 9 9 9 9 - 9 9 9 0 9 9 9 - 9 - 9 9 9 9 9 9 0 9 9 9 0 9 9 - 0 0 9 9 9 9 9 9 9 9 0 9 9 9 9 9 0 9 0 9 9 9 9 9 9 9 9 9 9 9 9 9 9 9 9 9 9 9 9 9 9 0 0 9 0 9 9 9 9 - 9 9 9 u * j.jXj.f.f.f.f.f.f.f.f.f.f.f.n.m.#.g.g.g.g.j.j.g.g.g.g.j.j.j.j.j.j.j.j.j.j.j.j.j.j.j.h.j.j.h.j.j.j.h.j.j.j.h.j.h.h.j.h.h.j.h.k.h.h.h.h.h.g.Z.<X0 9 q _ p _ _ q ",
"$ * * * * * * * * * * * * * * * * * * * * * * * * * * * * * * * * * * * * * * * * * * * * * * * * * * * * * * * * * * * * * * * * * * * * * * * * * * * * * * * * * * * * * * * * * * * * * * * * * * * * * * * * * * * * * * * * * * * * * * * * * * * * * * * * * * * * * * * * * * * * * * * * * * * * * * * * * * * * * * * * * * * * * * * * * * * * * * * * + j b.b.b.b.b.b.b.b.b.b.b.b.c.c.b.b.b.b.b.b.b.b.b.b.b.b.b.b.b.b.b.b.b.b.b.b.b.b.b.b.b.b.b.b.b.b.b.b.b.b.b.b.b.b.b.b.b.b.b.b.c.b.b.b.b.b.b.h.& & * * & & & & $ ",
"<XJ.<X<X<X<X<X<X<X<X<X<X<X<X<X<X<X<X<X<X<X<X<X<X<X<X<X<X<X<X<X<X<X<X<X<X<X<X<X<X<X<X<X<X<X<X<X<X<X<X<X<X<X<X<X<X<X<X<X<X<X<X<X<X<X<X<X<X<X<X<X<X<X<X<X<X<X<X<X<X<X<X<X<X<X<X<X<X<X<X<X<X<X<X<X<X<X<X<X<X<X<X<X<X<X<X<X<X<X<X<X<X<X<X<X<X<X<X<X<X<X<X<X<X<X<X<X<X<X<X<X<X<X<X<X<X<X<X<X<X<X<X<X<X<X<X<X<X<X<X<X<X<X<X<X<X<X<X<X<X<X<X<X<X<X<X<X<X<X<X<X<X<X<X<X<X<X<XH.S.S.S.S.S.S.S.S.S.S.S.S.S.S.S.S.S.S.S.S.S.S.S.S.S.S.S.S.S.S.S.S.S.S.S.S.S.S.S.S.S.S.S.S.S.S.S.S.S.S.S.S.S.S.S.S.S.S.S.S.S.S.S.S.S.S.S.F.<X<X<X<X<X<X<X<XtX",
"h.k.k.k.k.k.k.k.k.k.k.k.k.k.k.k.k.k.k.k.k.k.k.k.k.k.k.k.k.k.k.k.k.k.k.k.k.k.k.k.k.k.k.k.k.k.k.k.k.k.k.k.k.k.k.k.k.k.k.k.k.k.k.k.k.k.k.k.k.k.k.k.k.k.k.k.k.k.k.k.k.k.k.k.k.k.k.k.k.k.k.k.k.k.k.k.k.k.k.k.k.k.k.k.k.k.k.k.k.k.k.k.k.k.k.k.k.k.k.k.k.k.k.k.k.k.k.k.k.k.k.k.k.k.k.k.k.k.k.k.k.k.k.k.k.k.k.k.k.k.k.k.k.k.k.k.k.k.k.k.k.k.k.k.k.k.k.k.k.k.k.k.k.k.k.k.k.k.k.z.z.z.z.z.z.z.z.z.z.z.z.z.z.z.z.z.z.z.z.z.z.z.z.z.z.z.z.z.z.z.z.z.z.z.z.z.z.z.z.z.z.z.z.z.z.z.z.z.z.z.z.z.z.z.z.z.z.z.z.z.z.z.z.z.z.z.k.k.k.k.k.k.k.k.k.h.",
"H.H.H.H.H.H.H.H.H.H.H.H.H.H.H.H.H.H.H.H.H.H.H.H.H.H.H.H.H.H.H.H.H.H.H.H.H.H.H.H.H.H.H.H.H.H.H.H.H.H.H.H.H.H.H.H.H.H.H.H.H.H.H.H.H.H.H.H.H.H.H.H.H.H.H.H.H.H.H.H.H.H.H.H.H.H.H.H.H.H.H.H.H.H.H.H.H.H.H.H.H.H.H.H.H.H.H.H.H.H.H.H.H.H.H.H.H.H.H.H.H.H.H.H.H.H.H.H.H.H.H.H.H.H.H.H.H.H.H.H.H.H.H.H.H.H.H.H.H.H.H.H.H.H.H.H.H.H.H.H.H.H.H.H.H.H.H.H.H.H.H.H.H.H.H.H.H.H.H.H.H.H.H.H.H.H.H.H.H.H.H.H.H.H.H.H.H.H.H.H.H.H.H.H.H.H.H.H.H.H.H.H.H.H.H.H.H.H.H.H.H.H.H.H.H.H.H.H.H.H.H.H.H.H.H.H.H.H.H.H.H.H.H.H.H.H.H.H.H.H.H.H.H.H.H.H.",
"+ + + $ $ $ $ $ $ $ $ $ $ $ $ $ + + + + & $ $ $ $ $ $ $ $ $ $ $ + + + + $ $ $ $ $ $ $ $ $ $ $ $ $ $ $ $ $ $ $ $ $ $ $ $ $ $ $ $ $ $ $ $ $ $ $ $ $ $ $ $ $ $ $ $ $ $ $ $ $ $ $ $ $ $ $ $ $ $ $ $ $ $ $ $ $ $ $ $ $ $ $ $ $ $ $ $ $ $ $ $ $ $ $ $ $ $ $ $ $ $ $ $ $ $ $ $ $ $ $ $ $ $ $ $ $ $ $ $ $ $ $ $ $ $ $ $ $ $ $ $ $ $ $ $ $ $ $ $ $ $ $ $ $ $ $ $ $ $ $ $ $ $ $ $ $ $ $ $ $ $ $ $ $ $ $ $ $ $ $ $ $ $ $ $ $ $ $ $ $ $ $ $ $ $ $ $ $ $ $ $ $ $ $ $ $ $ $ $ $ $ $ $ $ $ $ $ + + $ + $ + $ $ $ + + + + $ $ $ $ + + + $ + + + ",
"| f.| u 9 9 9 9 9 9 9 9 9 9 9 9 h.k.k.M 9 u 9 9 9 9 9 9 9 9 9 g | | f.c 9 9 9 9 9 9 9 9 9 9 9 9 9 9 9 9 9 9 9 9 9 9 9 9 9 9 9 9 9 9 9 9 9 9 9 9 9 9 9 9 9 9 9 9 9 9 9 9 9 9 9 9 9 9 9 9 9 9 9 9 9 9 9 9 9 9 9 9 9 9 9 9 9 9 9 9 9 9 9 9 9 9 9 9 9 9 9 9 9 9 9 9 9 9 9 9 9 9 9 9 9 9 9 9 9 9 9 9 9 9 9 9 9 9 9 9 9 9 9 9 9 9 9 9 9 9 9 9 9 9 9 9 9 9 9 9 9 9 9 9 9 9 9 9 9 9 9 9 9 9 9 9 9 9 9 9 9 9 9 9 9 9 9 9 9 9 9 9 9 9 9 9 9 9 9 9 9 9 9 9 9 9 9 9 9 9 9 9 9 9 9 9 9 9 9 f g f f c u g 9 9 u 6 u u u u 9 9 s ] ' p 9 ;.' ;.",
"Z.x.x.u 9 9 ;.p ; i p u 9 9 9 9 M.c.S.g.* 9 s ] 9 9 p p 9 9 9 u k.Z.S.m - 9 ' ' ; u p i 9 9 9 9 9 9 9 9 9 9 9 9 9 9 9 9 9 9 9 9 9 9 9 9 9 9 9 9 9 9 9 9 9 9 9 9 9 9 9 9 9 9 9 9 9 9 9 9 9 9 9 9 9 9 9 9 9 9 9 9 9 9 9 9 9 9 9 9 9 9 9 9 9 9 9 9 9 9 9 9 9 9 9 9 9 9 9 9 9 9 9 9 9 9 9 9 9 9 9 9 9 9 9 9 9 9 9 9 9 9 9 9 9 9 9 9 9 9 9 9 9 9 9 9 9 9 9 9 9 9 9 9 9 9 9 9 9 9 9 9 9 9 9 9 9 9 9 9 9 9 9 9 9 9 9 9 9 9 9 9 9 9 9 9 9 9 9 9 9 9 9 9 9 9 9 9 9 9 9 9 9 9 9 9 9 9 - m | g.N m h.N g 0 F F H H F u 9 9 s ] e.p 9 ;.] ;.",
"b.C.J.9 ; p :X' = ' ;.p ; 9 9 9 b.C.N M - ; ;.a.u u ;.] 9 9 0 g g j.b.g 9 9 e.e.; p ;.' 9 9 9 9 9 9 9 9 9 9 9 9 9 9 9 9 9 9 9 9 9 9 9 9 9 9 9 9 9 9 9 9 9 9 9 9 9 9 9 9 9 9 9 9 9 9 9 9 9 9 9 9 9 9 9 9 9 9 9 9 9 9 9 9 9 9 9 9 9 9 9 9 9 9 9 9 9 9 9 9 9 9 9 9 9 9 9 9 9 9 9 9 9 9 9 9 9 9 9 9 9 9 9 9 9 9 9 9 9 9 9 9 9 9 9 9 9 9 9 9 9 9 9 9 9 9 9 9 9 9 9 9 9 9 9 9 9 9 9 9 9 9 9 9 9 9 9 9 9 9 9 9 9 9 9 9 9 9 9 9 9 9 9 9 9 9 9 9 9 9 9 9 9 9 9 9 9 9 9 9 9 9 9 9 9 9 - m k.k.h.u x.| g 0 F F H H !.9 9 9 p s ] p 9 ;.;.;.",
"k.C.Z.9 9 ; i 9 9 ; = 9 9 9 9 9 h.x.m c 0 9 9 i ; 9 = = 9 9 9 g m j.x.g 9 ; u u 9 9 = ; 9 9 9 9 9 9 9 9 9 9 9 9 9 9 9 9 9 9 9 9 9 9 9 9 9 9 9 9 9 9 9 9 9 9 9 9 9 9 9 9 9 9 9 9 9 9 9 9 9 9 9 9 9 9 9 9 9 9 9 9 9 9 9 9 9 9 9 9 9 9 9 9 9 9 9 9 9 9 9 9 9 9 9 9 9 9 9 9 9 9 9 9 9 9 9 9 9 9 9 9 9 9 9 9 9 9 9 9 9 9 9 9 9 9 9 9 9 9 9 9 9 9 9 9 9 9 9 9 9 9 9 9 9 9 9 9 9 9 9 9 9 9 9 9 9 9 9 9 9 9 9 9 9 9 9 9 9 9 9 9 9 9 9 9 9 9 9 9 9 9 9 9 9 9 9 9 9 9 9 9 9 9 9 9 9 9 - | m 9 c m g c j 0 u F i u 6 9 9 9 s ] ' p ; e.' ;.",
"9 - - 9 9 9 9 9 9 9 9 9 9 9 9 9 0 9 9 9 9 9 9 9 9 9 9 9 9 9 9 9 9 9 9 9 9 9 9 9 9 9 9 9 9 9 9 9 9 9 9 9 9 9 9 9 9 9 9 9 9 9 9 9 9 9 9 9 9 9 9 9 9 9 9 9 9 9 9 9 9 9 9 9 9 9 9 9 9 9 9 9 9 9 9 9 9 9 9 9 9 9 9 9 9 9 9 9 9 9 9 9 9 9 9 9 9 9 9 9 9 9 9 9 9 9 9 9 9 9 9 9 9 9 9 9 9 9 9 9 9 9 9 9 9 9 9 9 9 9 9 9 9 9 9 9 9 9 9 9 9 9 9 9 9 9 9 9 9 9 9 9 9 9 9 9 9 9 9 9 9 9 9 9 9 9 9 9 9 9 9 9 9 9 9 9 9 9 9 9 9 9 9 9 9 9 9 9 9 9 9 9 9 9 9 9 9 9 9 9 9 9 9 9 9 9 9 9 9 9 9 g 9 9 - - 9 - 0 9 9 0 9 9 0 9 9 9 9 9 9 9 9 ; 9 ; ",
"9 9 9 9 9 9 9 9 9 9 9 9 9 9 9 9 9 9 9 9 9 9 9 9 9 9 9 9 9 9 9 9 9 9 9 9 9 9 9 9 9 9 9 9 9 9 9 9 9 9 9 9 9 9 9 9 9 9 9 9 9 9 9 9 9 9 9 9 9 9 9 9 9 9 9 9 9 9 9 9 9 9 9 9 9 9 9 9 9 9 9 9 9 9 9 9 9 9 9 9 9 9 9 9 9 9 9 9 9 9 9 9 9 9 9 9 9 9 9 9 9 9 9 9 9 9 9 9 9 9 9 9 9 9 9 9 9 9 9 9 9 9 9 9 9 9 9 9 9 9 9 9 9 9 9 9 9 9 9 9 9 9 9 9 9 9 9 9 9 9 9 9 9 9 9 9 9 9 9 9 9 9 9 9 9 9 9 9 9 9 9 9 9 9 9 9 9 9 9 9 9 9 9 9 9 9 9 9 9 9 9 9 9 9 9 9 9 9 9 9 9 9 9 9 9 9 9 9 9 9 9 0 9 9 9 9 9 9 9 9 9 9 9 9 9 9 9 9 9 9 9 9 9 9 9 9 "
};
