/* XPM */
static char *mb_gate_stereo[] = {
/* columns rows colors chars-per-pixel */
"256 256 256 2 ",
"   c #030303",
".  c #0B0B0B",
"X  c #07070A",
"o  c #130A09",
"O  c #081208",
"+  c #151609",
"@  c #0C0D13",
"#  c #0A0714",
"$  c #160E17",
"%  c #0E1114",
"&  c #0C1619",
"*  c #141414",
"=  c #14151B",
"-  c #16191D",
";  c #1A1B1D",
":  c #1A1618",
">  c #271A1C",
",  c #32191E",
"<  c #38161C",
"1  c #2F0E0D",
"2  c #1D2614",
"3  c #132D09",
"4  c #26281B",
"5  c #34351E",
"6  c #2D3013",
"7  c #1A1524",
"8  c #151D23",
"9  c #1B1C22",
"0  c #161424",
"q  c #120E2D",
"w  c #261A26",
"e  c #291E34",
"r  c #281A37",
"t  c #2E122D",
"y  c #1E2125",
"u  c #1D2229",
"i  c #182929",
"p  c #193337",
"a  c #112F34",
"s  c #222324",
"d  c #23242A",
"f  c #242A2B",
"g  c #2B2B2C",
"h  c #292826",
"j  c #342A2A",
"k  c #2B382B",
"l  c #353525",
"z  c #313D2E",
"x  c #3B3B2C",
"c  c #373529",
"v  c #2B2136",
"b  c #2B2C32",
"n  c #2D2339",
"m  c #2B2A39",
"M  c #35283A",
"N  c #2D3434",
"B  c #2B3937",
"V  c #313535",
"C  c #313E31",
"Z  c #34353A",
"A  c #343A3B",
"S  c #3A3C3D",
"D  c #3B3734",
"F  c #540F12",
"G  c #500A0C",
"H  c #770506",
"J  c #69090B",
"K  c #4A3606",
"L  c #443C2D",
"P  c #473935",
"I  c #52302F",
"U  c #70322F",
"Y  c #590F36",
"T  c #034E04",
"R  c #2E4D0E",
"E  c #016F02",
"W  c #396D06",
"Q  c #3A462A",
"!  c #334132",
"~  c #39453A",
"^  c #3C4A3B",
"/  c #384636",
"(  c #364E31",
")  c #164E37",
"_  c #534A10",
"`  c #6F5001",
"'  c #487110",
"]  c #41452C",
"[  c #434334",
"{  c #474837",
"}  c #52532F",
"|  c #526D2E",
" . c #6D5A26",
".. c #031252",
"X. c #2F134A",
"o. c #153949",
"O. c #362845",
"+. c #363544",
"@. c #393644",
"#. c #3C3D44",
"$. c #3C3B4A",
"%. c #363848",
"&. c #322F4C",
"*. c #02156E",
"=. c #39086B",
"-. c #133E60",
";. c #423C4B",
":. c #493456",
">. c #47166C",
",. c #4F2A75",
"<. c #5F1254",
"1. c #075759",
"2. c #0E484D",
"3. c #3D4143",
"4. c #364647",
"5. c #334F50",
"6. c #10536C",
"7. c #0A6A6C",
"8. c #057779",
"9. c #106B74",
"0. c #2F7070",
"q. c #256558",
"w. c #424345",
"e. c #44454B",
"r. c #4A4B4D",
"t. c #464A47",
"y. c #59594A",
"u. c #4C4D52",
"i. c #464455",
"p. c #525354",
"a. c #54555B",
"s. c #5A5B5D",
"d. c #57595A",
"f. c #4B524F",
"g. c #566456",
"h. c #666857",
"j. c #5D5E63",
"k. c #595866",
"l. c #475468",
"z. c #5D6165",
"x. c #4C706E",
"c. c #626265",
"v. c #6B6B6C",
"b. c #65666A",
"n. c #6C6D72",
"m. c #6A6977",
"M. c #6F7074",
"N. c #637474",
"B. c #727374",
"V. c #747579",
"C. c #7B7B7C",
"Z. c #77797A",
"A. c #747468",
"S. c #6A5358",
"D. c #880405",
"F. c #940809",
"G. c #A80506",
"H. c #B60606",
"J. c #8A312E",
"K. c #AC282A",
"L. c #C80405",
"P. c #DB2021",
"I. c #906700",
"U. c #8A501F",
"Y. c #93006A",
"T. c #9E0B56",
"R. c #9E6060",
"E. c #D03553",
"W. c #018E01",
"Q. c #229303",
"!. c #4A8D08",
"~. c #58AE03",
"^. c #598B2F",
"/. c #69A11A",
"(. c #64C801",
"). c #119865",
"_. c #688B71",
"`. c #60D854",
"'. c #9F9B09",
"]. c #909573",
"[. c #90C540",
"{. c #011D9F",
"}. c #450588",
"|. c #4D0993",
" X c #5A2D8B",
".X c #5803AF",
"XX c #69229F",
"oX c #0B7090",
"OX c #0972A9",
"+X c #1F6C8B",
"@X c #7B7B83",
"#X c #5B5691",
"$X c #6401C7",
"%X c #6F00E0",
"&X c #0575D4",
"*X c #930CA5",
"=X c #9C45B7",
"-X c #078A8C",
";X c #109393",
":X c #2F9192",
">X c #0989B3",
",X c #0CA9AA",
"<X c #2CAEAF",
"1X c #2D9FA1",
"2X c #4F9190",
"3X c #758A8B",
"4X c #4CB0B0",
"5X c #65ADA9",
"6X c #06A6D5",
"7X c #02B6EF",
"8X c #0B9BD0",
"9X c #2FD1D2",
"0X c #17F5F5",
"qX c #2CEFF0",
"wX c #13CCDC",
"eX c #6BC4C3",
"rX c #71CDCE",
"tX c #5CE3E3",
"yX c #52BBBD",
"uX c #838484",
"iX c #86878A",
"pX c #8A8A8D",
"aX c #888C87",
"sX c #8D8D91",
"dX c #969698",
"fX c #90938A",
"gX c #9BA899",
"hX c #A9AA9A",
"jX c #ADB497",
"kX c #9C9BA4",
"lX c #AAABAC",
"zX c #A4A5A7",
"xX c #B6B7A8",
"cX c #B3B3B4",
"vX c #BBBBBC",
"bX c #B6B8B9",
"nX c #ACB0B0",
"mX c #9D9EA0",
"MX c #BAC5B7",
"NX c #BAC6AA",
"BX c #99E096",
"VX c #C3C5B6",
"CX c #BAB9C4",
"ZX c #B3A7CB",
"AX c #A083C9",
"SX c #BDC2C3",
"DX c #83EDD9",
"FX c #C3C3C4",
"GX c #C8CACB",
"HX c #D5D6D8",
"JX c #C9CDD0",
"KX c #E8E9EB",
"LX c #F8F8FA",
"PX c #EEEFF1",
"IX c #DEDFE1",
"UX c #C0BBBD",
/* pixels */
"9 9 9 9 9 9 9 9 9 9 9 9 9 9 9 9 9 9 9 9 9 9 9 9 9 9 9 9 9 9 9 9 9 9 9 9 9 9 9 9 9 9 9 9 9 9 9 9 9 9 9 9 9 9 9 9 9 9 9 9 9 9 9 9 9 9 9 9 9 9 9 9 9 9 9 9 9 9 9 9 9 9 9 9 9 9 9 9 9 9 9 9 9 9 9 9 9 9 9 9 9 9 9 9 9 9 9 9 9 9 9 9 9 9 9 9 9 9 9 9 9 9 9 9 9 9 9 9 9 9 9 9 9 9 9 9 9 9 9 9 9 9 9 9 9 9 9 9 9 9 9 9 9 9 9 9 9 9 9 9 9 9 9 9 9 9 9 9 9 9 9 9 9 9 9 9 9 9 9 9 9 9 9 9 9 9 9 9 9 9 9 9 9 9 9 9 9 9 9 9 9 9 9 9 9 9 9 9 9 9 9 9 9 9 9 9 9 9 9 9 9 9 9 9 9 9 9 9 9 9 9 9 9 9 9 9 9 9 9 9 9 9 9 9 9 9 9 9 9 9 9 9 9 9 9 9 ",
"9 9 9 9 9 9 9 9 9 ; ; ; ; 9 9 9 9 9 9 9 9 9 9 9 9 9 9 9 9 9 9 9 9 9 9 9 9 9 9 9 9 9 9 9 9 9 9 9 9 9 9 9 9 9 9 9 9 9 9 9 9 9 9 9 9 9 9 9 9 9 9 9 9 9 9 9 9 9 9 9 9 9 9 9 9 9 9 9 9 9 9 9 9 9 9 9 9 9 9 9 9 9 9 9 9 9 9 9 9 9 9 9 9 9 9 9 9 9 9 9 9 9 9 9 9 9 9 9 9 9 9 9 9 9 9 9 9 9 9 9 9 9 9 9 9 9 9 9 9 9 9 9 9 9 9 9 9 9 9 9 9 9 9 9 9 9 9 9 9 9 9 9 9 9 9 9 9 9 9 9 9 9 9 - 9 9 - - 9 - 9 9 9 = = = - - = 9 9 - 9 - 9 - - = 9 9 9 9 = 9 9 9 9 = = - = - 9 - = = = = = = - = 9 = = 9 = - 9 - 9 9 9 = 9 9 9 9 9 9 ; 9 ; 9 : ; ",
": : : ; 9 9 9 ; ; a p p u ; 9 9 9 9 9 9 9 9 9 9 9 9 9 9 9 9 9 9 9 9 9 9 9 9 9 9 9 9 9 9 9 9 9 9 9 9 9 9 9 9 9 9 9 9 9 9 9 9 9 9 9 9 9 9 9 9 9 9 9 9 9 9 9 9 9 9 9 9 9 9 9 9 9 9 9 9 9 9 9 9 9 9 9 9 9 9 9 9 9 9 9 9 9 9 9 9 9 9 9 9 9 9 9 9 9 9 9 9 9 9 9 9 9 9 9 9 9 9 9 9 9 9 9 9 9 9 9 9 9 9 9 9 9 9 9 9 9 9 9 9 9 9 9 9 9 9 9 9 9 9 9 9 9 9 9 9 9 9 9 9 9 9 9 9 9 9 9 9 9 b y s b g y g f d d e.w.#.b b #.9 9 b 9 b 9 g b e.9 9 - d e.d 9 f f e.w.V e.g = b #.#.e.Z #.S N w.- S w.- #.N = g d d f Z d - y N 9 9 p ; i u o.p ",
"6.6.6.p : 9 ; i 9.>X6X6XoX6.u ; 9 9 9 9 9 9 9 9 9 9 9 9 9 9 9 9 9 9 9 9 9 9 9 9 9 9 9 9 9 9 9 9 9 9 9 9 9 9 9 9 9 9 9 9 9 9 9 9 9 9 9 9 9 9 9 9 9 9 9 9 9 9 9 9 9 9 9 9 9 9 9 9 9 9 9 9 9 9 9 9 9 9 9 9 9 9 9 9 9 9 9 9 9 9 9 9 9 9 9 9 9 9 9 9 9 9 9 9 9 9 9 9 9 9 9 9 9 9 9 9 9 9 9 9 9 9 9 9 9 9 9 9 9 9 9 9 9 9 9 9 9 9 9 9 9 9 9 9 9 9 9 9 9 9 9 9 9 9 9 9 9 9 9 9 9 9 @ dXj.c.sXM.Z M.c.a.- dXC.@Xj.V.zXs.b lXd nXu.b.Z.uXC.9 d iXC.V #.zXd dXB.Z.sXb d zXp.d.zXa.zXp.Z.sXb.dXc.j.3XiXZ f uXV.p.zXM.* d w.- u >Xi OX6.oXoX",
"7X7X7X6Xo.: a 9.wX>X6.9.6X6X2.u 9 9 9 9 9 9 9 9 9 9 9 9 9 9 9 9 9 9 9 9 9 9 9 9 9 9 9 9 9 9 9 9 9 9 9 9 9 9 9 9 9 9 9 9 9 9 9 9 9 9 9 9 9 9 9 9 9 9 9 9 9 9 9 9 9 9 9 9 9 9 9 9 9 9 9 9 9 9 9 9 9 9 9 9 9 9 9 9 9 9 9 9 9 9 9 9 9 9 9 9 9 9 9 9 9 9 9 9 9 9 9 9 9 9 9 9 9 9 9 9 9 9 9 9 9 9 9 9 9 9 9 9 9 9 9 9 9 9 9 9 9 9 9 9 9 9 9 9 9 9 9 9 9 9 9 9 9 9 9 9 9 9 9 9 9 9 * uXpXsXZ.@Xb V.b.p.  c.e.u.u.V.dXc.b.GXj.3XsXZ.Z.9 iXb e.V.u.z.n.JXZ j.#.n.Z.d - b.n.d V.b mXZ @XzXd.dXe.pX9 s.b.  dXiXN lXV.= d #.- u OX6.OX6.oXoX",
"6.6.>X7XoX$ 6.wX6.o : $ : 9.>Xo.; 9 9 9 9 9 9 9 9 9 9 9 9 9 9 9 9 9 9 9 9 9 9 9 9 9 9 9 9 9 9 9 9 9 9 9 9 9 9 9 9 9 9 9 9 9 9 9 9 9 9 9 9 9 9 9 9 9 9 9 9 9 9 9 9 9 9 9 9 9 9 9 9 9 9 9 9 9 9 9 9 9 9 9 9 9 9 9 9 9 9 9 9 9 9 9 9 9 9 9 9 9 9 9 9 9 9 9 9 9 9 9 9 9 9 9 9 9 9 9 9 9 9 9 9 9 9 9 9 9 9 9 9 9 9 9 9 9 9 9 9 9 9 9 9 9 9 9 9 9 9 9 9 9 9 9 9 9 9 9 9 9 9 9 9 9 = b.iXiXj.c.sXb.a.mXZ z.u.M.c.V.sXn.@Xs.sXc.j.dXn.sXZ.- d uXiXZ.C.c.n.c.e.n.uXb s b.dXZ Z.V mXe.B.V.b.sXa.d.iXiXb Z Z.n.v.sXZ.= d w.: i 9.oX9.6.oXoX",
"o o o.7XoXu >XoX: u ; o.6.: OX6.u 9 9 9 9 9 9 9 9 9 9 9 9 9 9 9 9 9 9 9 9 9 9 9 9 9 9 9 9 9 9 9 9 9 9 9 9 9 9 9 9 9 9 9 9 9 9 9 9 9 9 9 9 9 9 9 9 9 9 9 9 9 9 9 9 9 9 9 9 9 9 9 9 9 9 9 9 9 9 9 9 9 9 9 9 9 9 9 9 9 9 9 9 9 9 9 9 9 9 9 9 9 9 9 9 9 9 9 9 9 9 9 9 9 9 9 9 9 9 9 9 9 9 9 9 9 9 9 9 9 9 9 9 9 9 9 9 9 9 9 9 9 9 9 9 9 9 9 9 9 9 9 9 9 9 9 9 9 9 9 9 9 9 9 9 9 9 d d d d 9 #.9 9 #.b s s b b g #.9 d % g f 9 d f #.9 9 - d #.d d * f d 9 d #.d 9 #.d 9 f 9 A Z d 9 b V #.- Z b = f 9 y d Z d - 9 f 9 9 u 9 u 9 p p ",
"p p oX7XoX: o.8X>X; 9 i u : oXoXi ; 9 9 9 9 9 9 9 9 9 9 9 9 9 9 9 9 9 9 9 9 9 9 9 9 9 9 9 9 9 9 9 9 9 9 9 9 9 9 9 9 9 9 9 9 9 9 9 9 9 9 9 9 9 9 9 9 9 9 9 9 9 9 9 9 9 9 9 9 9 9 9 9 9 9 9 9 9 9 9 9 9 9 9 9 9 9 9 9 9 9 9 9 9 9 9 9 9 9 9 9 9 9 9 9 9 9 9 9 9 9 9 9 9 9 9 9 9 9 9 9 9 9 9 9 9 9 9 9 9 9 9 9 9 9 9 9 9 9 9 9 9 9 9 9 9 9 9 9 9 9 9 9 9 9 9 9 9 9 9 9 9 9 9 9 9 9 9 9 9 9 = 9 9 = - 9 9 - - - = 9 9 9 - 9 9 9 - = 9 9 9 9 = 9 9 9 - 9 9 9 = 9 9 = - 9 9 9 = = 9 9 - - = 9 = 8 9 9 9 9 9 - 9 9 9 9 9 9 9 9 9 9 ; ; ",
"7X7X7X7X2.9 OX7X6X9 : ; 9 : oXoXi ; 9 9 9 9 9 9 9 9 9 9 9 9 9 9 9 9 9 9 9 9 9 9 9 9 9 9 9 9 9 9 9 9 9 9 9 9 9 9 9 9 9 9 9 9 9 9 9 9 9 9 9 9 9 9 9 9 9 9 9 9 9 9 9 9 9 9 9 9 9 9 9 9 9 9 9 9 9 9 9 9 9 9 9 9 9 9 9 9 9 9 9 9 9 9 9 9 9 9 9 9 9 9 9 9 9 9 9 9 9 9 9 9 9 9 9 9 9 9 9 9 9 9 9 9 9 9 9 9 9 9 9 9 9 9 = 9 9 9 - 9 9 9 9 9 9 9 9 9 9 9 9 9 9 9 9 9 9 9 9 9 9 9 9 9 9 9 9 9 9 9 9 9 9 9 9 9 9 9 9 9 9 9 9 9 9 9 9 9 9 9 9 9 9 7 9 9 9 9 9 9 9 9 9 9 9 9 9 ; ; 9 9 9 9 9 9 9 9 9 9 ; ; ; 9 - 9 9 - - - - 9 - - 9 - 9 9 9 ",
"OX>XOX6.: a >XOX7XOXp u : p >X6.9 9 9 9 9 9 9 9 9 9 9 9 9 9 9 9 9 9 9 9 9 9 9 9 9 9 9 9 9 9 9 9 9 9 9 9 9 9 9 9 9 9 9 9 9 9 9 9 9 9 9 9 9 9 9 9 9 9 9 9 9 9 9 9 9 9 9 9 9 9 9 9 9 9 9 9 9 9 9 9 9 9 9 9 9 9 9 9 9 9 9 9 9 9 9 9 9 9 9 9 9 9 9 9 9 9 9 9 9 9 ; 9 u 9 9 9 9 9 9 9 9 9 9 9 9 9 9 9 9 9 9 9 9 9 9 9 #.b = y S = - - s f 9 - 9 - 9 9 - - 9 - - f 9 9 9 9 9 9 9 9 9 9 9 9 9 9 9 9 9 9 9 9 9 9 9 u ; 9 9 9 9 9 9 9 9 9 9 9 7 W.i 7 9 9 : $ $ $ 9 9 ; i ;X-Xp ; 9 9 9 9 9 9 9 9 9 p p p 8 b f d V Z Z Z y b b y b 9 9 9 ",
"o : : : 9 9 $ OX7X6X7XoXu OXoXo.; 9 9 9 9 9 9 9 9 9 9 9 9 9 9 9 9 9 9 9 9 9 9 9 9 9 9 9 9 9 9 9 9 9 9 9 9 9 9 9 9 9 9 9 9 9 9 9 9 9 9 9 9 9 9 9 9 9 9 9 9 9 9 9 9 9 9 9 9 9 9 9 9 9 9 9 9 9 9 9 9 9 9 9 9 9 9 9 9 9 9 9 9 9 9 9 9 9 9 9 9 9 9 9 9 9 9 9 9 9 u o.u 9 9 9 9 9 9 9 9 9 9 9 9 9 9 9 9 9 9 9 9 9 = S j.d p.p.u.u.r.w.p.c.- r.p.#.u.e.p.p.#.w.p.b.Z - 9 9 9 9 9 9 9 9 9 9 9 9 9 9 9 9 9 9 9 9 ; o.o.; 9 9 9 9 9 9 9 9 9 7 i W.E 7 y ; o.6.6.-Xu 9 ; p ,X,X2.: 9 9 9 9 9 9 9 9 u 6.6.6.8 a.p.e.c.s.#.b.u.e.p.d p.9 9 u ",
": u 9 9 9 9 u >X2.>X6XOXOXOXo.9 9 9 9 9 9 9 9 9 9 9 9 9 9 9 9 9 9 9 9 9 9 9 9 9 9 9 9 9 9 9 9 9 9 9 9 9 9 9 9 9 9 9 9 9 9 9 9 9 9 9 9 9 9 9 9 9 9 9 9 9 9 9 9 9 9 9 9 9 9 9 9 9 9 9 9 9 9 9 9 9 9 9 9 9 9 9 9 9 9 9 9 9 9 9 9 9 9 9 9 9 9 9 9 9 9 9 9 9 9 ; a 2.9 9 9 9 9 9 9 9 9 9 9 9 9 9 9 9 9 9 9 9 9 9 9 9 w.c.b.u.b.b.s.u.b u.= a.#.v.#.c.a.u.p.v.p.d.s 9 9 9 9 9 9 9 9 9 9 9 9 9 9 9 9 9 9 9 9 9 ; p 2.; 9 9 9 9 9 9 9 9 9 7 E W.W.y 9 ; 2.9.9.;Xi 9 ; p ,X;X1.: 9 9 9 9 9 9 9 9 u 6.6.6.8 w.c.j.u.d.V e.s.j.u.b p.- 9 u ",
"9 9 9 9 9 9 9 : : >X2.6.9.o.9 9 9 9 9 9 9 9 9 9 9 9 9 9 9 9 9 9 9 9 9 9 9 9 9 9 9 9 9 9 9 9 9 9 9 9 9 9 9 9 9 9 9 9 9 9 9 9 9 9 9 9 9 9 9 9 9 9 9 9 9 9 9 9 9 9 9 9 9 9 9 9 9 9 9 9 9 9 9 9 9 9 9 9 9 9 9 9 9 9 9 9 9 9 9 9 9 9 9 9 9 9 9 9 9 9 9 9 9 9 9 9 ; a i ; 9 9 9 9 9 9 9 9 9 9 9 9 9 9 9 9 9 9 9 9 9 f u.#.r.#.#.r.Z r.3.r.9 s.p.#.b #.w.S u.e.#.w.Z - 9 9 9 9 9 9 9 9 9 9 9 9 9 9 9 9 9 9 9 9 9 p 9 9 9 9 9 9 9 9 9 9 9 7 R 7 ) i 7 9 : $ $ : 9 9 9 u 7.6.u 9 9 9 9 9 9 9 9 9 9 2.2.2.8 V e.e.Z u.3.S b p.V a.Z - 9 9 ",
"9 9 9 9 9 9 9 y 9 9 9 9 u ; 9 9 9 9 9 9 9 9 9 9 9 9 9 9 9 9 9 9 9 9 9 9 9 9 9 9 9 9 9 9 9 9 9 9 9 9 9 9 9 9 9 9 9 9 9 9 9 9 9 9 9 9 9 9 9 9 9 9 9 9 9 9 9 9 9 9 9 9 9 9 9 9 9 9 9 9 9 9 9 9 9 9 9 9 9 9 9 9 9 9 9 9 9 9 9 9 9 9 9 9 9 9 9 9 9 9 9 9 9 9 9 9 9 9 9 9 9 9 9 9 9 9 9 9 9 9 9 9 9 9 9 9 9 9 9 9 9 9 y - 9 y 9 9 y 9 9 9 9 u.s 9 9 9 y y 9 9 s 9 9 9 9 9 9 9 9 9 9 9 9 9 9 9 9 9 9 9 9 9 9 9 9 9 9 9 9 9 9 9 9 9 9 9 9 9 7 y 7 9 9 9 y u u y 9 9 9 9 : : 9 9 9 9 9 9 9 9 9 9 9 9 ; 9 9 9 9 9 9 9 s 9 9 9 9 9 9 9 9 9 ",
"@ @ @ @ @ @ @ @ @ @ @ @ @ @ @ @ @ @ @ @ @ @ @ @ @ @ @ @ @ @ @ @ @ @ @ @ @ @ @ @ @ @ @ @ @ @ @ @ @ @ @ @ @ @ @ @ @ @ @ @ @ @ @ @ @ @ @ @ @ @ @ @ @ @ @ @ @ @ @ @ @ @ @ @ @ @ @ @ @ @ @ @ @ @ @ @ @ @ @ @ @ @ @ @ @ @ @ @ @ @ @ @ @ @ @ @ @ @ @ @ @ @ @ @ @ @ @ @ @ @ @ @ @ @ @ @ @ @ @ @ @ @ @ @ @ @ @ @ @ @ @ @ @ @ @ @ @ @ @ @ @ @ @ @ @ @ @ @ @ @ @ @ @ @ @ @ @ @ @ @ @ @ @ @ @ @ @ @ @ @ @ @ @ @ @ @ @ @ @ @ @ @ @ @ @ @ @ @ @ @ @ @ @ @ @ @ @ @ @ @ @ @ @ @ % % @ @ @ @ @ @ @ @ @ @ @ @ @ @ @ @ @ @ @ @ @ @ @ @ @ @ @ @ @ @ ",
"c.c.c.c.c.c.c.c.c.c.c.c.c.c.c.c.c.c.c.c.c.c.c.c.c.c.c.c.c.c.c.c.c.c.c.c.c.c.c.c.c.c.c.c.c.c.c.c.c.c.c.c.c.c.c.c.c.c.c.c.c.c.c.c.c.c.c.c.c.c.c.c.c.c.c.c.c.c.c.c.c.c.c.c.c.c.c.c.c.c.c.c.c.c.c.c.c.c.c.c.c.c.c.c.c.c.c.c.c.c.c.c.c.c.c.c.c.c.c.c.c.c.c.c.c.c.c.c.c.c.c.c.c.c.c.c.c.c.c.c.c.c.c.c.c.c.c.c.c.c.c.c.c.c.c.c.c.c.c.c.c.c.c.c.c.c.c.c.c.c.c.c.c.c.c.c.c.c.c.c.c.c.c.c.c.c.c.c.c.c.c.c.c.c.c.c.c.c.c.c.c.c.c.c.c.c.c.c.c.c.c.c.c.c.c.c.c.c.c.c.c.c.c.c.c.c.c.c.c.c.c.c.c.c.c.c.b.b.b.b.b.b.b.b.b.b.b.b.b.b.b.b.b.b.b.b.",
"n.n.n.n.n.n.n.n.n.n.n.n.n.n.n.n.n.n.n.n.n.n.n.n.n.n.n.n.n.n.n.n.n.n.n.n.n.n.n.n.n.n.n.n.n.n.n.n.n.n.n.n.n.n.n.n.n.n.n.n.n.n.n.n.n.n.n.n.n.n.n.n.n.n.n.n.n.n.n.n.n.n.n.n.n.n.n.n.n.n.n.n.n.n.n.n.n.n.n.n.n.n.n.n.n.n.n.n.n.n.n.n.n.n.n.n.n.n.n.n.n.n.n.n.n.n.n.n.n.n.n.n.n.n.n.n.n.n.n.n.n.n.n.n.n.n.n.n.n.n.n.n.n.n.n.n.n.n.n.n.n.n.n.n.n.n.n.n.n.n.n.n.n.n.n.n.n.n.n.n.n.n.n.n.n.n.n.n.n.n.n.n.n.n.n.n.n.n.n.n.n.n.n.n.n.n.n.n.n.n.n.n.n.n.n.n.n.n.n.n.n.n.n.n.n.n.n.n.n.n.n.n.n.n.n.v.j.j.j.j.j.j.j.j.j.j.j.j.j.j.j.j.j.j.j.j.",
"@ @ @ @ @ @ @ @ @ @ @ @ @ @ @ @ @ @ @ @ @ @ @ @ @ @ @ @ @ @ @ @ @ @ @ @ @ @ @ @ @ @ @ @ @ @ @ @ @ @ @ @ @ @ @ @ @ @ @ @ @ @ @ @ @ @ @ @ @ @ @ @ @ @ @ @ @ @ @ @ @ @ @ @ @ @ @ @ @ @ @ @ @ @ @ @ @ @ @ @ @ @ @ @ @ @ @ @ @ @ @ @ @ @ @ @ @ @ @ @ @ @ @ @ @ @ @ @ @ @ @ @ @ @ @ @ @ @ @ @ @ @ @ @ @ @ @ @ @ @ @ @ @ @ @ @ @ @ @ @ @ @ @ @ @ @ @ @ @ @ @ @ @ @ @ @ @ @ @ @ @ @ @ @ @ @ @ @ @ @ @ @ @ @ @ @ @ @ @ @ @ @ @ @ @ @ @ @ # X X X @ @ @ @ @ @ @ @ @ @ @ @ @ @ @ @ @ @ @ @ @ @ X s n.b.b.v.v.v.v.v.v.v.v.v.v.v.v.n.n.n.n.n.",
"9 9 9 9 9 9 9 9 9 9 9 9 9 9 9 9 9 9 9 9 9 9 9 9 9 9 9 9 9 9 9 9 9 9 9 9 9 9 9 9 9 9 9 9 9 9 9 9 9 9 9 9 9 9 9 9 9 9 9 9 9 9 9 9 9 9 9 9 9 9 9 9 9 9 9 9 9 9 9 9 9 9 9 9 9 9 9 9 9 9 9 9 9 9 9 9 9 9 9 9 9 9 9 9 9 9 9 9 9 9 9 9 9 9 9 9 9 9 9 9 9 9 9 9 9 9 9 9 9 9 9 9 9 9 9 9 9 9 9 9 9 9 9 9 9 9 9 9 9 9 9 9 9 9 9 9 9 9 9 9 9 9 9 9 9 9 9 9 9 9 9 9 9 9 9 9 9 9 9 9 9 9 9 9 9 9 9 9 9 9 9 9 9 9 9 9 9 9 9 9 9 9 9 9 9 9 9 9 b S S Z d 9 9 9 9 9 9 9 9 9 9 9 9 9 9 9 9 9 9 9 9 9 = p.LXLXLXLXLXLXLXLXLXLXLXLXLXLXPXd.p.a.a.a.",
"#.u.S j.b w.b d.r.N V b - 9 9 9 9 9 9 9 9 9 9 9 9 9 9 9 9 9 9 9 9 9 9 9 9 9 9 9 9 9 9 9 9 9 9 9 9 9 9 9 9 9 9 9 9 9 9 9 9 9 9 9 9 9 9 9 9 9 9 9 9 9 9 9 9 9 9 9 9 9 9 9 9 9 9 9 9 9 9 9 9 9 9 9 9 9 9 9 9 9 9 9 9 9 9 9 9 9 9 9 9 9 9 9 9 9 9 9 9 9 9 9 9 9 9 9 9 9 9 9 9 9 9 9 9 9 9 9 9 9 9 9 9 9 9 9 9 9 9 9 9 9 9 9 9 9 9 9 9 9 9 9 9 9 9 9 9 9 9 9 9 9 9 9 9 9 9 9 9 9 9 9 9 9 9 9 9 9 9 9 9 9 9 9 9 9 9 9 9 9 9 9 9 9 9 - r.uXpXc.V - 9 9 9 9 - b u.d d 9 9 9 9 y p.u.y 9 Z Z @ r.LXHXlXJXKXHXKXHXKXKXvXHXPXPXHX= @ * % % ",
"d.V s.V.w.Z.p.v.a.c.b.V - 9 9 9 9 9 9 9 9 9 9 9 9 9 9 9 9 9 9 9 9 9 9 9 9 9 9 9 9 9 9 9 9 9 9 9 9 9 9 9 9 9 9 9 9 9 9 9 9 9 9 9 9 9 9 9 9 9 9 9 9 9 9 9 9 9 9 9 9 9 9 9 9 9 9 9 9 9 9 9 9 9 9 9 9 9 9 9 9 9 9 9 9 9 9 9 9 9 9 9 9 9 9 9 9 9 9 9 9 9 9 9 9 9 9 9 9 9 9 9 9 9 9 9 9 9 9 9 9 9 9 9 9 9 9 9 9 9 9 9 9 9 9 9 9 9 9 9 9 9 9 9 9 9 9 9 9 9 9 9 9 9 9 9 9 9 9 9 9 9 9 9 9 9 9 9 9 9 9 9 9 9 9 9 9 9 9 9 9 9 9 9 9 9 9 % b.v.9 @Xg - 9 9 9 9 - f a.j.s.9 9 9 = e.#.w.c.Z n.e.@ u.LXHXzXbXzXzXmXdXFXzXsXHXPXPXHXd 9 9 9 9 ",
"u.j.b.a.c.u.b.r.d p.u.Z - 9 9 9 9 9 9 9 9 9 9 9 9 9 9 9 9 9 9 9 9 9 9 9 9 9 9 9 9 9 9 9 9 9 9 9 9 9 9 9 9 9 9 9 9 9 9 9 9 9 9 9 9 9 9 9 9 9 9 9 9 9 9 9 9 9 9 9 9 9 9 9 9 9 9 9 9 9 9 9 9 9 9 9 9 9 9 9 9 9 9 9 9 9 9 9 9 9 9 9 9 9 9 9 9 9 9 9 9 9 9 9 9 9 9 9 9 9 9 9 9 9 9 9 9 9 9 9 9 9 9 9 9 9 9 9 9 9 9 9 9 9 9 9 9 9 9 9 9 9 9 9 9 9 9 9 9 9 9 9 9 9 9 9 9 9 9 9 9 9 9 9 9 9 9 9 9 9 9 9 9 9 9 9 9 9 9 9 9 9 9 9 9 9 9 = u.V.uXJXZ = 9 9 9 9 - b c.e.u.d 9 9 - V a.u.p.c.j.#.@ u.PXKXzXsXzXzXdXFXdXiXiXHXKXLXbX= 9 9 9 9 ",
"- b 9 = d @ 9 - = - = = = = = = = = = = = = = = = = = = = = = = = = = = = = = = = = = = = = = = = = = = = = = = = = = = = = = = = = = = = = = = = = = = = = = = = = = = = = = = = = = = = = = = = = = = = = = = = = = = = = = = = = = = = = = = = = = = = = = = = = = = = = = = = = = = = = = = = = = = = = = = = = = = = = = = = = = = = = = = = = = = = = = = = = = = = = = = = = = = = = = = = = = = = = = = = 9 9 9 9 9 9 - S u.a.3XV - 9 9 9 9 9 s b d d 9 9 9 9 - b g 9 V d b * r.LXPXKXLXKXdXIXLXPXKXPXLXLXKXu.= 9 9 9 9 ",
"#.S #.3.#.w.#.#.3.#.#.#.w.w.3.3.3.3.3.3.3.w.3.3.3.3.3.3.3.3.3.3.3.w.3.3.3.3.3.3.w.w.w.w.3.3.3.3.3.3.3.3.3.3.3.3.3.3.3.3.3.3.3.3.3.3.3.3.3.3.3.3.3.3.3.#.#.3.3.3.3.w.#.#.#.#.3.#.#.#.#.#.3.#.#.#.#.#.#.#.#.#.#.#.#.#.#.#.#.#.#.#.#.#.#.#.#.#.#.#.#.#.#.#.#.#.#.#.#.#.#.#.#.#.#.#.#.#.#.#.#.#.#.#.#.#.#.#.#.#.#.#.#.#.#.#.#.#.#.#.#.#.#.#.#.#.#.#.#.#.#.#.#.#.#.#.#.#.#.#.#.#.#.#.#.#.#.#.#.#.#.#.#.#.#.#.#.#.#.#.Z * 9 9 9 9 9 9 9 = = = 9 9 9 9 9 9 9 9 - 9 9 9 9 9 9 9 - - 9 - 9 9 * p.FXdXmXmXdXsXmXdXmXmXmXdXpX#.= 9 9 9 9 9 ",
"Z.Z.Z.Z.Z.Z.Z.Z.Z.Z.Z.Z.Z.Z.Z.Z.Z.Z.Z.Z.Z.Z.Z.Z.Z.Z.C.Z.Z.C.C.C.Z.Z.Z.Z.C.Z.C.C.Z.Z.Z.V.Z.C.C.Z.C.C.C.C.C.C.C.C.C.C.C.C.C.C.C.C.C.C.C.C.C.C.C.C.C.C.C.C.C.C.C.C.C.Z.C.C.C.C.C.C.C.C.C.C.C.C.C.C.@XC.C.@X@XC.@X3X3XC.3XuX@X3XuX@X@XuXuXuXuXuXuXuXuXuXuXuXuXuXuXuXuXuXuXuXuXuXuXuXuXuXuXuXuXuXuXuXuXuXuXuXuXuXuXuXuXuXuXuXuXuXuXuXuXuXuXuXuXuXuXuXuXuXuXuXuXuXuXuXuXuXuXuXuXuXuXuXuXiXiXiXiXiXiXiXiXiXiXiXiXiXiXuXfXuX9 9 9 9 9 - b @XkXkXd - 9 9 9 9 9 9 w 9 9 9 9 9 9 9 w 9 9 w 9 w @ j.n.  @ @ @ * @ @ @ @ @ @ @ = 9 9 9 9 9 9 ",
"                                                                  . X * - =       o + 3 O     .                                     .                     X + O O r q # # . .     X X   . X X X X . . X   . . X X * . X . . X * . X . . . . . . . . . . . . . . . . . * . . . . . . . . . . : % . . . * * . : * . * * * * : % * * * ; * * * ; * * * ; * * ; * * ; * * * * * * * * * * * * * * * : : * ; ; : 7 9 r sXB.@ 9 9 9 - m bXPXkX9 9 9 9 9 9 w , , > , , > 9 9 w , , > , , , @ s.V.@ d 9 9 9 9 9 u u y y u 9 9 9 9 9 9 9 ",
". . ; X . . . . . . . . . ; * . . . . . . ; * . . . * s s - ; ; f A g N N V o o > < _ ' k 2 : h * * * * * * * * * * * * * * * * * * s ; * * * * * * * * * ; k 4 3 :.=.w w w h * : : : : h ; : ; : h ; : : s s : : g ; : h s : h h : ; ; ; ; ; ; ; ; ; ; ; ; ; ; ; ; s g ; ; ; ; ; ; ; ; s ; V s s s s s s ; g h s s s s h g s s s h V s s s V s s g V s s V s s Z h s h h h h h h h h h h h h h h h h V V b M M >. XfX= 9 9 9 - m nXHX@X- 9 9 9 9 9 w , , > , , > 9 9 w , , > , , w @ s.V.@ 9 9 9 9 9 9 : : : : : : 9 9 9 9 9 9 ",
"X . *   X X X X X X X . X : . X X . . . X : . . . . y N N f g g N N f f g N : : > 1 K ' 4 2 + s . . . . . . . . * * * * * * * * * . ; : * * * * * * * * * : h 2 3 :.X.7 7 9 s * * * * * s * * : * s ; * * s s * * h : * s s * s s * : : : : : : : ; ; ; ; ; ; ; ; ; ; g ; ; ; ; ; ; ; ; ; ; g ; ; ; ; ; ; ; g s ; ; ; ; s g ; s ; s g ; s s g s s h g ; s V s s V s s s s s s s s s s s s s s s s s s g g d n n O.,.aX- 9 9 9 - m nXHX@X- 9 9 9 9 9 w , , > , , > 9 9 w , , > , , w @ s.V.@ 9 9 9 9 9 : o.9.>X>XoXo.: 9 9 9 9 9 ",
"X . *   X X X X X X X . X : . X X . . . X ; . . . . y N N f f f g N f f g V N s > 1 K ' 4 2 + s . . . . . . . . * * * * * * * * * . ; : * * * * * * * * * : h 2 3 :.X.7 7 9 s * * * * * s * * * * s ; * * s s * * h : * s s * s s * : : : : : : : ; ; ; ; ; ; ; ; ; ; g ; ; ; ; ; ; ; ; ; ; g ; ; ; ; ; ; ; g s ; ; ; ; s g ; s ; s g ; s s g s s h g ; s V s s V s s s s s s s s s s s s s s s s s s g g d n n O.,.aX= 9 9 9 - b u.3.u.9 9 9 9 9 9 w , , > , , > 9 9 w , , > , , w @ s.V.@ 9 9 9 9 ; oX6X7X>X>X7X6XoX9 9 9 9 9 ",
"X . *   X X X X X X X . X : . X X . . . X ; . X . . y N N f f f N N f f g V g s > 1 K ' 4 2 + s . . . . . . . . * * * * * * * * * . ; : . * * * * * * * * : h 2 3 :.X.7 7 9 s * * * * * s * * * * s ; * * s s * * h : * s s * s s * : : : : : : : ; ; ; ; ; ; ; ; ; ; g ; ; ; ; ; ; ; ; ; ; g ; ; ; ; ; ; ; g s ; ; ; ; s g ; s ; s g ; s s g s s h g ; s V s s V s s s s s s s s s s s s s s s s s s g g d n n O.,.aX- 9 9 9 = A D   r.s 9 9 9 9 9 w , , > , , > 9 9 w , , > , , w @ s.V.@ 9 9 9 ; oX7XoX8 . . 8 9.7XOX: 9 9 9 ",
"X . *   X X X X X X X . X : . X X . . . X : * * * * f N N f f f N N f f g V g h > 1 K ' 4 2 + s . . . . . . . . * * * * * * * * * . ; : . * * * * * * * * : h 2 3 :.X.7 7 9 s * * * * * s * * * * s ; * * s s * * h : * s s * s s * : : : : : : : ; ; ; ; ; ; ; ; ; ; g ; ; ; ; ; ; ; ; ; ; g ; ; ; ; ; ; ; g s ; ; ; ; s g ; s ; s g ; s s g s s h g ; s V s s V s s s s s s s s s s s s s s s s s s g g d n n O.,.aX- 9 9 9 = A S   p.y 9 9 9 9 9 w , , > , , > 9 9 w , , > , , w @ s.V.@ 9 9 : 6.6XoXo : g g ; o oX6X6.: 9 9 ",
"X . *   X X X X X X X . X : . X X . . . X : ; f f f f N N f f f N N f f g V g h > 1 K ' 4 2 + s . . . . . . . . * * * * * * * * * . ; : . * * * * * * * * : h 2 3 :.X.7 7 9 s * * * * * s * * : * s ; * * s s * * h : * s s * s s * : : : : : : : ; ; ; ; ; ; ; ; ; ; g ; ; ; ; ; ; ; ; ; ; g ; ; ; ; ; ; ; g s ; ; ; ; s g ; s ; s g ; s s g s s h g ; s V s s V s s s s s s s s s s s s s s s s s s g g d n n O.,.aX- 9 9 9 = A S   p.y 9 9 9 9 9 w , , > , , > 9 9 w , , > , , w @ s.V.@ 9 9 : >X6Xo ; S ~ ~ S ; o 8X>X: 9 9 ",
"X . *   X X X X X X X . X : . X X . . . X : ; f f f f N N f f f N N f f g V g h > 1 K ' 4 2 + s . . . . . . . . * * * * * * * * * . ; : . * * * * * * * * : h 2 3 :.X.7 7 9 s * * * * * s * * * * s ; * * s s * * h : * s s * s s * : : : : : : : ; ; ; ; ; ; ; ; ; ; g ; ; ; ; ; ; ; ; ; ; g ; ; ; ; ; ; ; g s ; ; ; ; s g ; ; ; s g ; s s g s s h g ; s V s s V s s s s s s s s s s s s s s s s s s g g d n n O.,.aX- 9 9 9 = S S   p.y 9 9 9 9 9 w , , > , , > 9 9 w , , > , , w @ s.V.@ y ; i 6XoXo N D D t.n.c.: oX6Xu ; 9 ",
"X . *   X X X X X X X . X : . X . . . . X : ; f f f f N N f f f N N f f g V g g h , K ' 4 2 + s . . . . . % % % * * * * * * * * * % 2 : * * * * * * * * * : h 2 3 :.X.7 7 9 s * * * * * s : * * * s ; * * s s * : h ; * s s * s s * : : : : : : : ; ; ; ; ; ; ; ; ; ; g ; ; ; ; ; ; ; ; ; ; g ; ; ; ; ; ; ; g s ; ; ; ; s g ; s ; s g ; s s g s s h g ; s V s s V s s s s s s s s s s s s s s s d d s b g d n n O.,.aX- 9 9 9 = S S   p.y 9 9 9 9 9 w , , > , , > 9 9 w , , > , , w @ s.V.@ y ; i 8X6.o N D N c.FXcXj 2.>Xi ; 9 ",
"  . *   X X X X X X X X   * .   X X X X X * ; f f f f N N f f f g N f f f V f g D j _ ' 4 + + 4 . . % . . . . # # # # # # # # # # X : $ # @ % @ * * * * * * h 2 3 :.X.7 7 7 s * * * * * s * * * * s : * * ; ; * * s : * s s * s s * : : : : : : : : : : : : : : : : ; h : ; ; ; ; ; ; ; ; ; g ; ; ; ; ; ; ; g s ; ; ; ; s g ; ; ; s g ; ; ; g ; ; s g ; s g s s V s s s s s s s s s s s 2 2 2 2 2 2 2 h 4 2 d d O.,.aX= 9 9 9 = S S   p.y 9 9 9 9 9 w , , > , , > 9 9 w , , > , , w @ s.V.@ y 9 9 8X>X  f D D D D h o oXOX9 9 9 ",
". * ; . . . . . . . . * . ; * . * * * * * ; s N N N g N N g N N N A g N N A N V D D } | z 4 2 h * @ # @ * 2 2 6 6 R R R 6 R R R R R Q 6 3 3 + 2 ; $ $ $ : 2 k 4 6 :.X.w w w h : ; ; ; ; h ; ; ; ; h s ; ; s h ; ; g s ; h h ; h h ; ; s s s s s s s s s s s s s s s s g s s s s s s s s s s V s s s s s s s V h s s s s g V s h s h V s h h V h h g V h h V h h Z h h h h h h h g h 4 h O.O.>.>.>.,.>.,.,.,.,.,. X XaX- 9 9 9 = S S   p.s 9 9 9 9 9 w , , > , , > 9 9 w , , > , , w @ s.V.@ 9 9 : oX6X8 o g V D N o 8 OX9.: 9 9 ",
"* : s * : : : : : : : : * s ; : : : : : * s g N N N N A A N N N A A N N V S V V D P } | ^ / A Z N Q ^./././.!.!.!.' !.^.BXBXDXDXDXDXDXDXDXBX`./.!./.^.( s 7 k k 6 :.>.v v b g s s s s s g s s s s g h s s g g s s V h s g g s g g s h h h h h h h h h h h h h h h h g V h h h g g g g g g g Z g g g g g g g V g g g g g V V g g g V D g g g A g g V D g g S g g S V g g g g b V h +. XXXXX X X X X X X X X X X XXX XaX- 9 9 9 = S S   a.s 9 9 9 9 9 w , , > , , > 9 9 w , , > , , w @ s.V.@ 9 9 ; a 6X8Xi . * * . 8 OXOXi ; 9 9 ",
"  X *                 X   * .   X   . * . ; y f f f f N N f f f g N f f f V f g V M } | ! g z | ^.!.W R 3 2 2 + + x.eXeX5X0.5.! B k ~ 5.q.2X5XrX5X( R !.~.!.5 * 3 :.X.7 7 7 w . * * * * s * * * * s : * * ; ; * * s : * s ; * s s * * * : : : : : : : : : : : : : : ; h : : : ; ; ; ; ; ; : g ; ; ; ; ; ; ; h s ; ; ; ; s h ; ; ; s g ; ; ; g ; ; s g ; ; g ; ; V s ; s s 2 w 2 O.XX,.O.v d d d d d d V b v n n >.,.aX- 9 9 9 = S S   d.s 9 9 9 9 9 w , , > , , > 9 9 w , , > , , w @ s.V.@ 9 9 9 ; 2.7X9.$ - - : 6.>Xo.; 9 9 9 ",
"X . :   X X X X X X X . X : . X . X ; N f N f f f f f N N f f f N N f f g V g g D M } | A | ^.| ! b 2 + 2 2 + ( rXeX5.2 + + + + 2 + 6 2 + + + k 2XrX2X+ 2 !.(.' + :.X.7 7 9 s * * * * * s : * * * s ; * * s s * : h ; * s s * s s * : : ; ; ; ; ; ; ; ; ; ; ; ; ; ; ; g ; ; ; ; ; ; ; ; ; ; g ; ; ; ; ; ; ; g s ; ; ; ; h g ; s ; s g ; s s g s ; h g ; s V s s V s s s s s 2 O.XXO.d n n n n n n n n O.O.O.O.O.>. XaX- 9 9 9 = S [   d.s 9 9 9 9 9 w , , > , , > 9 9 w , , > , , w @ s.V.@ 9 9 9 9 : o.u : : : : u o.; 9 9 9 9 ",
"X . *   X X X X X X X X X : . X . X ; f f N f f f f f N N f f f N N f f f V g g D M } } ^.^.( ~ k ! z k 2 + 0.tXx.+ + 2 2 2 2 2 2 2 5 4 2 2 2 2 + k eXrX4 + Q /.!.:.X.7 7 9 s * * * * * s * * * * s ; * * s ; * * h : * s s * s s * : : : : : : : : ; ; ; ; ; ; ; ; ; g ; ; ; ; ; ; ; ; ; ; g ; ; ; ; ; ; ; g s ; ; ; ; s g ; s ; s g ; s s g s ; h g ; s V s s V s s s s 2 n XXn v n n n n n n n n v O.O.O.O.O.>. XaX- 9 9 9 = S w.  d.s 9 9 9 9 9 w , , > , , > 9 9 w , , > , , w @ s.V.@ 9 9 9 9 9 $ ; p 2.2.p ; : 9 9 9 9 9 ",
"X . *   X X X X X X X X X : . X . X ; f f N f f f f f N N f f f N N f f f V g g V D ] /.^.! ! ^ z z z ! + x.tX! + 2 2 2 2 2 2 2 2 2 5 4 2 2 2 2 4 2 + 2XtX! 6 4 !./.X.7 7 9 s * * * * * s * * * * s ; * * s ; * * h : * s s * s s * : : : : : : : : ; ; ; ; ; ; ; ; ; g ; ; ; ; ; ; ; ; ; ; g ; ; ; ; ; ; ; g s ; ; ; ; s g ; s ; s g ; s s g s ; h g ; s V s s V s s s s 2 XX>.d n n n n n n n n n v O.O.n O.O.>. XaX- 9 9 9 = S w.  d.s 9 9 9 9 9 s , , 4 h , 4 9 9 s , , 4 h , h @ s.V.@ 9 9 9 9 : o.>X7X6X7X7X>Xo.; 9 9 9 9 ",
"X . *   X X X X X X X X X : . X . X ; f f N f f f f f N N f f f N N f f f V f f D M ^.^./ ( ! ^ z z ! h x.tXk + 2 2 2 2 2 2 2 2 2 2 5 4 2 2 2 2 2 2 4 + _.tXQ 6 6 /.^.q 7 9 s * * * * * s * * * * s ; * * s ; * * h : * s s * s s * : : : : : : : : : ; ; ; ; ; ; ; ; g ; ; ; ; ; ; ; ; ; ; g ; ; ; ; ; ; ; g s ; ; ; ; s g ; s ; s g ; s s g s ; h g ; s V s s V s s s 2 >.XXd n n n n n n n n n n v O.O.n O.O.>.,.aX- 9 9 9 = #.w.  d.s 9 9 9 9 9 h 5 5 4 5 5 4 9 9 h 5 5 4 5 5 l @ s.V.@ 9 9 9 ; 2.7X>X9.a a 9.>X7X2.; 9 9 9 ",
"X . *   X X X X X X X X X : . X . X ; f f N f f f f f N N f f f N N f f g B I J.J.U.'.} ( Q ! ^ z C k 5.tXf.4 4 2 k 4 2 2 2 2 2 2 2 6 4 2 2 2 2 2 2 2 4 + 2XrX6 R :.^.' q w s * * * * * s * * * * s ; * * s ; * * h : * s s * s s * : : : : : : : : : ; ; ; ; ; ; ; ; g ; ; ; ; ; ; ; ; ; ; g ; ; ; ; ; ; ; g s ; ; ; ; s g ; s ; s g ; s s g s ; h g ; s V s s V s s s s XXO.v n n n n n n n n n n v O.O.n O.O.>.,.aX- 9 9 9 = #.w.  d.s 9 9 9 9 9 h 5 5 4 5 5 4 9 9 h 5 5 4 5 5 l @ s.V.@ 9 9 ; p 6X8X8 o : : o 8 8X6Xp ; 9 9 ",
"X . *   X X X X X X X X X : . X . X y f f N f f f f f N N f f f N N f f i U J.I { ^. .U.} ( ! ^ z z z rX_.4 ! z z z l 4 2 2 2 2 2 2 k 4 2 2 2 2 2 2 2 2 2 + 5XeX3 u.O./.l 0 s * * * * * s * * * * s ; * * s ; * * h : * s s * s s * : : : : : : : : : ; ; ; ; ; ; ; ; g ; ; ; ; ; ; ; ; ; ; g ; ; ; ; ; ; ; g s ; ; ; ; s g ; s ; s g ; s s g s ; h g ; s V s s V s s 2 >. Xd n n n n n n n n n n n v O.O.n O.O.>.,.aX- 9 9 9 = #.w.  s.s 9 9 9 9 9 s h h s h h s 9 9 h 5 5 4 5 5 l @ s.V.@ 9 9 : oX6X8 o V S [ S + 8 8XOX: 9 9 ",
"X . *   X X X X X X X X X : . X . X y f f N f f f f f N N f f f N N f i U U g j ^.} } | J.} ! ^ ! 4 5XeX4 ! z ! z 4.5.5.k 2 2 2 k ,X<X4 2 2 2 2 2 2 2 2 2 4 6 rX_.;.&.Q /.9 s * * * * * s : * * * s ; * * s ; * : h ; * s s * s s * : : : ; ; ; ; ; : ; ; ; ; ; ; ; ; g ; ; ; ; ; ; ; ; ; ; g ; ; ; ; ; ; ; g s ; ; ; ; s g ; s ; s g ; s s g s ; h g ; s V s s V s s 2 XXO.v n n n n n n n n n n n n O.O.n O.O.>.,.aX- 9 9 9 = #.w.  s.s 9 9 9 9 0 '.'.'.'.'.'.'.0 9 h 5 5 4 5 5 l @ s.V.@ y 9 u 6X>Xo g S S S ~ N   >X6X9 9 9 ",
"  X *                 X   * .   X   y f f N f f f f f N N f f f g V i U U V j | | I } | { J.] ^ h x.tX! k z ! l ! <X1X<X;X+ 2 + q.:X:X2.+ 2 2 2 2 2 2 2 2 4 5 Q tX#XO.9 ' ^.0 * * * * * s * * * * s : * * ; ; * * s : * s ; * s s * : * * : : : : : : : : : : : : : ; h : : : : : ; ; ; ; : g ; ; ; ; ; ; : h s ; ; ; ; s h ; ; ; s g ; ; ; g ; ; s g ; ; g ; ; V s : O.XXw n v v v v v v v v v v v e O.O.n O.O.>.,.aX- 9 9 9 = #.w.  s.s 9 9 9 9 0 _  . . . . ._ 9 9 h 5 5 4 5 5 l @ s.V.@ y ; i 8X6.o V D N c.GXcXj 6.8Xi ; 9 ",
"* : s * * * : : : : : : * s ; ; ; ; g N N A N N N N N A A N N N A B I J.V P { ^.{ { } | { } J.^ ! rX_.z ^ / c 4.<X:Xl ^ 9Xq.6 6 ;X0.:X).6 k 5 5 5 5 5 5 5 l ( 6 _.DX;.V b /.Q 7 s s s s g s s s s g h s s g g s s V h s g g s g g s h h h h h h h h h h h h h h h h h V h h h h h h g g g h V g g g g g g h V g g g g g V V g g g g Z g g g D g g V Z g g D g g S b h XX,.M O.O.O.O.O.O.O.O.O.O.O.O.O.;.$.O.:.:.,. XaX- 9 9 9 = #.w.  s.s 9 9 9 9 9 s h s s s h s 9 9 h 5 5 4 5 5 l @ s.V.@ y ; u 6XoXo g D V t.b.d.: 6.OXu 9 9 ",
". . : . . . . . . . . . . f N f f f f g f V g f g g g N N f g g N D J.j c D ^.} P P } | { ( U U 2XeX4 c l ^ q.<X).c / z q.wX! 2 <X! q.9Xk 4 4 4 4 4 4 4 4 6 Q R 6 5XeX> f Q /.$ : : : : h ; : ; : h ; ; : s s : ; h ; : s s : h h ; ; ; ; ; ; ; ; ; ; ; ; ; ; ; ; ; s g ; ; ; ; ; ; s s s ; g s s s s s s ; g s s s s s h g s s s h V s s s V s s h g s s V s s V 4 O.XXv n n n n M M n n n n n M M n O.O.O.O.O.>.,.aX- 9 9 9 = #.w.  s.s 9 9 9 9 9 4 5 5 h l l h 9 9 h 5 5 h l l g @ s.V.@ 9 9 : >X8Xo : V D V g * o OXoX: 9 9 ",
"  . *   X X X X X X X X   s g f f f f f f N f f f f f N N f f f i J.I g j | ^.c [ P } | { ] x U.tX~ 5.0.:X<X:X).z z C ! l 0.;X).1Xl x :X2.+ 2 2 2 2 2 2 2 4 Q 6 R e.DX_.> s /.R # * * * s * * * * s : * * ; ; * * s : * s ; * s s * : : : : : : : : : : : : : : : : ; h : ; ; ; ; ; ; ; ; ; g ; ; ; ; ; ; ; g s ; ; ; ; s h ; ; ; s g ; ; ; g ; ; s g ; ; g ; ; V 2 ,.,.d n v v v v v v v v v v v v e O.M n O.O.>.,.aX- 9 9 9 = #.w.  s.s 9 9 9 9 9 > > > w a a i 9 9 w , , s p p p @ s.V.@ 9 9 : 2.6XoXo * s s ; o 6.OXo.: 9 9 ",
"X . *   X X X X X X X X   f N f f f f f f N f f f f f N N f f i I J.g j j ^.] x [ P } | { ] 5 5XgXq.9X:X0.5.5 l z C C C ! l <XwX! ! x :X).+ 2 2 2 2 2 2 2 4 Q 6 R :.l.tX4.4 Q ~.* * * * s : * * * s ; * * s ; * * h : * s s * s s * : : : : : : : : : : : ; ; ; ; ; ; h ; ; ; ; ; ; ; ; ; ; g ; ; ; ; ; ; ; g s ; ; ; ; s g ; ; ; s g ; s ; g s ; h g ; s g s s V s XXO.v v v v v v v n n n n n n n v O.O.n O.O.>.,.aX- 9 9 9 = #.w.  s.s 9 9 9 9 9 w w > 9 i u u 9 9 w , , s p p p @ s.V.@ 9 9 9 : OX7X6.o % % o 2.8X6.; 9 9 9 ",
"X . *   X X X X X X X X   f N f f f f f f N f f f f f N N f f f J.I j j | ^.c L [ P } | { Q g.tX4X1X5.5 l c ! ! z z C C ! z q.5.c ! / 5.9X^ 2 2 2 2 2 2 2 4 Q 6 R a.:.x.rXk 4 !.' # * * s * * * * s ; * * s ; * * h : * s s * s s * : : : : : : : : : : : ; ; ; ; ; ; h ; ; ; ; ; ; ; ; ; ; g ; ; ; ; ; ; ; g s ; ; ; ; s g ; ; ; s g ; s ; g s ; h g ; s g s s h O.XXd n v v v v v v v v n n n n n v O.O.n O.O.>.,.aX- 9 9 9 = #.t.  j.s 9 9 9 9 8 F H H D 8.8.1.9 9 w , , s p p p @ s.V.@ 9 9 9 9 ; oXo.; 9 9 ; p 6.: 9 9 9 9 ",
"X . *   X X X X X X X X   f g f f f f f f N f f f f f N N f i I U V j j ^.{ x L [ P } | { 5 eXtX! J.l ! ! C z z z z z C C ! c z ! z ^ c 0.1X<X2 + + 2 2 2 4 Q 6 R u.l.> 5XrX4 4 /.: * * s * * * * s : * * s ; * * h : * s s * s s * : : : : : : : : : : : : ; ; ; ; ; h : ; ; ; ; ; ; ; ; ; g ; ; ; ; ; ; ; g s ; ; ; ; s g ; ; ; s g ; s ; g s ; s g ; s g s s h XX>.d n v v v v v v v v v v n n n v O.O.n O.O.>.,.aX- 9 9 9 = #.t.  j.s 9 9 9 9 8 J F.F.P -X-X9.; 9 w , , s p p p @ s.V.@ 9 9 9 9 9 : = 0 9 9 0 0 : 9 9 9 9 9 ",
"X . *   X X X X X X X X   f g f f f f f f N f f f f f N N f g J.P D j | | P x L [ P } | ] x.tX:X5 U U k z z z z z z z C C C ! ! C z ~ / c 5 :X:X4.x.2 2 2 4 Q 6 R u.i.N > eX5Xo ' ' # * s * * * * s y * * s ; * * h : * s s * s s * : : : : : : : : : : : : ; ; ; ; ; h : ; ; ; ; ; ; ; ; ; g ; ; ; ; ; ; ; g s ; ; ; ; s g ; ; ; s g ; s ; g s ; s g ; s g s 2 @.XXv v v v v v v v v v v v v v v n v O.O.n O.O.>.,.aX- 9 9 9 = #.t.  c.s 9 9 9 9 8 J D.D.P -X-X7.; 9 w , , s p p p @ s.V.@ 9 9 9 9 9 8 _  .'.'.'._ 0 9 9 9 9 9 ",
"X . *   X X X X X X X X   f g f f f f f f N f f f f f N N i U U b D c ^.Q [ x L [ P } | ] rX2XL x x J.x z z z z z z z C C C C C C z ~ ! ! ! z 1X<X<X0.+ 2 4 Q 5 Q u.i.V s 4 rX2X+ /.2 % s : * * * g f * * s ; * * s : * s s * s s * : : : : : : : : : : : : ; ; ; ; ; h : ; ; ; ; ; ; ; ; ; g ; ; ; ; ; ; ; g s ; ; ; ; s g ; ; ; s g ; s ; g s ; s g ; s g s 2 ,. Xs n v v v v v v v v v v v v v v e O.M n O.O.>.,.aX- 9 9 9 = #.t.  c.s 9 9 9 9 8 J D.D.P -X-X7.; 9 w , , s p p p @ s.V.@ 9 9 9 9 9 '.'.'. . .'.'.'.s 9 9 9 9 ",
"  . *   X X X X X X X X   f g f f f f f f N f f f f f N N g J.j c M | | c { x L [ P } | N.tX^ { x z U U k z z z z z z C C C C C C z ~ ! C ! C z z l <Xq.+ k ^ ( ( p.i.V h h ! rX5X' ' # h : * * * A g * * s ; * * s : * s s * s s * : : : : : : : : : : : : : ; ; ; ; h : ; ; ; ; > ; ; ; ; g ; ; ; ; ; ; ; g s ; ; ; ; s g ; ; ; s g ; s ; g s ; s g ; s g s 2 XXO.v v v v v v v v v v v v v v v v e O.M e O.O.>.,.aX- 9 9 9 = #.t.  c.s 9 9 9 9 8 J D.D.P -X-X7.; 9 w , , s p p p @ s.V.@ 9 9 9 9 '.'._ # # # # _ '.'.7 9 9 9 ",
"  . *   X X X X X X X X   f g f f f f f f N f f f f f N f U U g j P ^.x x [ x L [ P } | rXqXQ { x x x J.x z z z z z z z C C C C C z / ! C ! ! ! ! z ! <X0.z ^ ( ( k.i.~ h k ~ 2 5XrX`.+ : * : * : S g * * y ; * * s : * s y - s s * : : : : : : : : : : : : : : ; : ; h : ; ; ; ; > > ; ; ; g ; ; ; ; ; ; ; g s ; ; ; ; s g ; ; ; s g ; ; ; g ; ; s g ; ; b 2 O.XXd v v v v v v v v v v v v v v v v e O.M e O.O.>.,.aX- 9 9 9 = #.t.  c.s 9 9 9 9 8 J D.D.P -X-X7.; 9 w , , s p p p @ s.V.@ 9 9 0 _ '._ X 4 V D h # _ '._ 0 9 9 ",
"X . : X . . . . . . . . X g N f f f f f f N g f f f f N D J.j j j | | c Q { x L [ { _ _.tX5.] { x L z U U ! ! ! ! ! ! ! ! ! ! ! ! C ^ / ! ! ! ! ! ! c 5.<Xx ^ ( ( a.:.~ N C t.k 2 x.DX5X5.: o o > A g : * s s : : h ; : B f f f s : ; ; ; ; ; ; ; ; ; ; ; ; ; ; ; ; ; g ; ; ; ; ; > > ; ; ; g s ; y y y s ; g s y s s ; h g y s s s g y s s V s s h g s s V 2 ,. Xd n n n n n n n n n n n n n n n n n O.O.O.O.O.>.,.aX- 9 9 9 = #.t.  c.s 9 9 9 9 8 J D.D.P -X-X7.; 9 w , , s p p p @ s.V.@ 9 9 0 '.'.# 4 S ~ [ w.h # '.'.0 9 9 ",
": ; s : : : : ; ; ; ; ; : V A N N N N N N S V N N N V B U U Z P P ^.{ [ { { [ { { { } DX_.L { { { { { { J.{ ~ ^ ^ ^ ^ ^ ^ ^ ^ ^ ^ ^ t.^ ^ ^ ^ ^ ^ ^ ^ / <X0.{ { { x.9X5.w.t.t.^ t.! ! BXrXrX5X2Xx.x.a.A f N g s s g h s 4.N V g h > s s s s s s s s s s s s s s s s h j s h s h s j h s h s V h h h h h h h V g h h h h g j h h h g V h h h V h h g V h h V g XX:.M M M M M M M M M M M M M M M M M M @.O.O.O.O.,.,.aX- 9 9 9 = 3.r.  c.s 9 9 9 9 8 J D.D.P -X-X7.; 9 w , , s p p p @ s.V.@ y 7 s '. .# c D g S [ D #  .'.s 9 9 ",
"  X *           X X X X   f f d f f f f f N f f f f f g J.j j h | | c x x [ x x L 5.yXtXg.] Q { x x x z U U k z z z z z z z z z z z / ! z C C C C C ! l 0.<X] ( Q :XwX0.D ~ ^ C ! / 4 W | m x.5XeXrXrXrXrXrXrXeXeXeXeXeXrXeXeXeXeXeXeXeXeXeXeXeXeXeXeXeXeXeXeXeXeXeXeXeXeXeXeXeXeXeXeXeXeXeXeXeXeXeXeXeXeXeXeXeXeXeXeXeXeXeXeXeXeXeXeXeXeXeXeXeXeXeXeXeXeXeXeXDXrXeXeXeXeXeXeXeXeXeXeXeXeXeXeXeXeXeXeXrXrXeXrXrXrX#XaX- 9 9 9 = 3.r.  c.s 9 9 9 9 8 J D.D.P -X-X7.; 9 w , , s p p p @ s.V.@ y 9 s '._ # g D B.S S D # _ '.s 7 9 ",
"  . *   X X X X X X X X X g g f f f f f f N f f f f i U U g j j ^.{ x x x [ x Q I 0.tX_.] ] ] { x x x x x J.x z z z z z C C C C ! z / ! C ! ! ! ! ! ! ! z 1X:X5 Q 1X:X:XD 4.^ ! ! ! ! ! ^.2   : h A A A B 5.4.B 4.5.l.l.x.x.x.0.0.5.5.5.5.5.5.5.5.5.5.5.5.5.5.5.5.5.5.l.5.5.5.5.5.l.f.5.5.5.l.5.5.5.5.5.5.5.l.5.5.5.5.5.5.l.5.5.5.5.l.5.5.5.l.5.5.5.l.5.5.f.#X#Xl.l.l.l.l.l.l.l.l.l.l.l.l.l.l.l.l.l.l.l.l.l.l.l.#X XaX- 9 9 9 = 3.r.  c.s 9 9 9 9 8 J D.D.P -X-X7.; 9 w , , s p p p @ s.V.@ y 9 9 '.'.# : uXFXV S h # '.'.9 9 9 ",
"  . *   X X X X X X X X X g g f f f f f f N f f f f g J.D j j | | I / <X1X<Xx L 5.4XDX} { ] ] { x x x x z U U k z z z z z C C C C z / ! C ! ! ! ! ! ! ! z z <X:X:X<Xl.<XS S ~ ! ! ! ! N ^.| 8 B N S V g i V j * . s g h V V h N N * o o o o o o o o o o o o o o o o * > o o o o o h > o * o > * * * * * * o > : * * * * : > * * * : s * * * s * * : s * * M XXt M w w w w w w w w w w w w w w w w w w v e t r r =.,.aX- 9 9 9 = w.r.  b.d 9 9 9 9 8 J D.D.P -X-X7.; 9 w , , s p p p @ s.V.@ 9 9 0  .'.6 X hXp.h h X 6 '. .0 9 9 ",
"  . *   X X . y y y y y y N f f f f f f f N f f f i I U V j j ^.5.0.<X:XK :X<X1X1XtX_.| { ] ] { x x x x x x J.x z z z z z C C C C z / ! C ! ! ! ! ! ! ! ! c ).<X1X<X;.<X3.5.q.z ! ! ! C { ^.B N N S V N N A S B : D A N S S N A 3.f : ; ; ; ; ; ; ; ; ; ; ; ; ; ; ; ; g ; ; ; ; ; I I - ; ; g ; ; ; ; ; ; ; g s ; ; ; ; s g ; y ; s g ; s y g s ; s g 9 2 ,. Xd @.v v v v v v n n n n n n n n n n n v O.O.n O.O.>.,.aX- 9 9 9 = w.r.  b.d 9 9 9 9 8 J D.D.P -X-X7.; 9 w , , s p p p @ s.V.@ 9 9 9 9 '.'.5 = . * # 6 '.'.9 9 9 9 ",
"  . *   X   . f f f f f f N f f f f f f f N f f f g J.P D v | | :X1X0./ x { q.5.N.rX} | { ] ] { x x x x x z U U k z z z z C C C C z / ! C ! ! ! ! ! ! ! C ! ^ Q Q k.:.1X0.<X9Xl ! ! ! ! ~ ^.| b N S A N N A A N h S V N A A N S S g h : : ; ; : : ; ; : : : : : : : ; h : ; ; ; - J.J.& ; ; g ; ; ; ; ; ; ; h s ; ; ; ; s h ; ; ; s g ; ; ; g ; ; s g ; 2 XXO.w @.v e e e e e v v v v v v v v v v v e M M e O.O.>.,.aX- 9 9 9 = w.r.  b.d 9 9 9 9 8 J D.D.P -X-X7.; 9 w , , s p p p @ s.V.@ 9 9 9 7 5 '._ 0 ; ; 0 _ '.4 9 9 9 9 ",
"  . *   X   . f f f f f d N f f f f f f f N f f i I U N D j ^.K 1X4.< x x [ l L rXx._ | { ] ] { x x x x x x L J.z z z z z C C C C z / ! C ! ! ! ! ! ! ! C ! ^ ( ( a.i.4.wX<X1X~ C ! ! ! ^ ( ^.N N S j N N A A N N S V N A A N S A N V ; * ; y : : s d : ; i : : : : ; h : ; ; : i K.J.& ; ; g ; ; ; ; ; ; ; h s ; ; ; ; s h ; ; ; s g ; ; ; g ; ; s g : v XXe e %.n e e e e e e e v v v v v v v v v e M M e O.O.>.,.aX- 9 9 9 = w.r.  b.d 9 9 9 9 8 J D.D.P -X-X7.; 9 w , , s p p p @ s.V.@ 9 9 9 9 0 h : : ; ; : : h 7 9 9 9 9 ",
"  . *   X   % f f f f f d N f f f f f f f N f f f J.< j < q.<X:X<X{ x x x { 5 _.rXI } | { ] ] { x x x x x x z U U k z z z z C C C z / ! z ! ! ! ! ! ! ! C ! ^ ( ( a.i.D 9X0.1X5.z ! ! ! ^ V ^.} b 4.0.N N A A N N S V N A A N S A N A u ; y f ; * h N i ; p ; : : : ; h : ; ; : i P.J.y ; ; g ; ; ; ; ; ; ; h s ; ; ; ; s h ; ; ; s g ; ; ; g ; ; s g + ,.,.b v 4.n e e e e e e e e e e v v v v v v e M M e O.O.>.,.aX- 9 9 9 = w.r.  b.d 9 9 9 9 8 J D.D.P -X-X7.; 9 w , , s p p p @ s.V.@ 9 9 9 9 9 : -.oXOXOXoX-.: 9 9 9 9 9 ",
"  X *   X   * f f f f f f N f f f f f f f N g i I U q.0.0.wXq.5.4.[ x x x [ x rXz.I } | { ] ] { x x x x x x x L J.z z z z z C C ! z / ! z ! ! ! ! ! ! ! ! ! ^ ( ( a.i.S 5.D 1Xq.c ! ! ! ^ C ( ^.h 0.qXV N A A N N S V N A A N S S N Z f s g A ; : N V N y N ; : : : ; h ; ; y f B K.J.b > ; g ; ; ; ; ; ; ; g s ; ; ; ; s h ; ; > s g ; ; ; g ; ; s g ; XX:.Z m 5.n v v e e e v v v e e e e v v v v e O.M e O.O.>.,.aX- 9 9 9 = w.r.  b.d 9 9 9 9 8 J D.D.P -X-X7.; 9 w , , s p p p @ s.V.@ 9 9 9 9 9 OX&X8XOXOX8X&XOX9 9 9 9 9 ",
"- ; f - - - y d y d d f y N f d f f f f d N f d J.P ,X0.)._.j l x [ c x x l 2XeXL P } | { ] Q { x x x x x x x z U I k z z z z z z z / ! z z C C C C C C C ! ^ ( ( a.i.~ A c :X).l ! ! ! ^ ! N ^.Q +XqXA g A A N N S B N D V g A A N N N g g A s : N N N N B ; * ; - : s y ; f A g 4XS.N h : h ; ; : : : ; : h ; : ; ; : s h : ; > > f : ; ; g ; ; s 4 X.XXS +.n i.v v v e e e v m m e e e e e e e e e M M r O.O.>.,.aX- 9 9 9 = w.r.  v.d 9 9 9 9 8 J D.D.P -X-X7.; 9 w , , s p p p @ s.V.@ 9 9 9 ; OX7X6.* o . * 6.7XOX; 9 9 9 ",
"N N V N N N N g g N N N g V N N N N N N N A N P U 0.:XF | } D [ [ { [ [ [ t.tXg.L { } | { { { { [ [ [ [ [ [ [ [ { J.! / / / / / / / ^ ^ / / / / / / / / / ^ { ^ ( k.i.3.w.~ x.<Xc L ~ / [ ^ ~ |  .3XwX5.V 3.3.A A 3.U P q.y.2X0.S A S S S S S Z N S S S S 3.N s N B s g g A A 3.D 4XS.A D s V h N h s s h h j g s h h h g V s j D j N j j h V h h b k  X Xw.$.+.u.+.+.+.+.M M O.+.5.+.M M M M M M M M @.O.O.O.O.,.,.aX- 9 9 9 = w.r.  v.d 9 9 9 9 8 J D.D.P -X-X7.; 9 w , , s p p p @ s.V.@ 9 9 : 6.8X6.o ; N V s o 6.&X6.: 9 9 ",
"f g N f f f f f f g g g f N N g g N N N b V ;X4X1X<Xq.] ^.D [ x [ { x [ 5 5X5X5 { P } | { { [ { [ [ [ [ [ [ [ [ / U } ! ! ! ! / / ! ^ / ! / / / / / / / / / { ^ ( k.i.3.3.4.L 1X2XR.{ 5.1X/ ~ ! U.2X:X0.j 3.D j A S R.P ;X9X9X:XD A A A A A A A A A A A A A A f V A h V V S S 3.P 9Xv.V 3.B A s B f s h D j P f s h h h h g s j S V g j L j V s s h Z XX$.;.$.+.u.+.O.&.&.n M O.+.5.+.M M M M M M M n O.O.O.O.O.>.,.aX- 9 9 9 = w.r.  v.d 9 9 9 9 8 J D.D.P -X-X7.; 9 w , , s p p p @ s.V.@ 9 9 : OX&Xo 2 S S S D ;   &XOX: 9 9 ",
"y f N y d s d d s d d f y N f d f f f s s B 1XU h j w | | c x x x [ x l f.tX{ c [ P } | { ] Q { x x x x x x x x x L J.k z z z z z z / ! z z z C C C C C z ! ^ ( ( a.i.S S ~ / t.1X9Xx.0.9X).c c 3X_.0.N.s I :X9.h P 9X-X1X9Xq.1XD N N N N N N N N N N N N N V f N V s V V V V B D 9XN.j A B A ; N f : g V g S y : s s s s g * j A g h g A j g > ; 2 ,. X4.l.+.M i.+.5.+.+.v v m m %.&.&.e e e e e e e M n r O.O.>.,.aX- 9 9 9 = w.r.  v.d 9 9 9 9 8 J D.D.P -X-X7.; 9 w , , s p p p @ s.V.@ y ; u &XoXo N D D f.C.M.> oX8Xu ; 9 ",
"s f N s f f f f f f f f d N f f f f f B f 2.<XI g j x ^.x x x x x [ x 5 eX2X5 L [ P } | { ] ] { x x x x x x x x x z J.L z z z C ! z / ! z C C ! ! ! ! ! ! ! ^ ( ( a.i.~ ~ ~ ^ z 5 5.1X:X0.4X[ L 4X^.q.5XJ.:XdX4X2.P 4X0X3XP.D <X4.N V V V V N V V V V V V V V N V V j S V A A B I 9X2Xj A A 3.f V g y A A Z 3.s > g g h g Z : V A j j N S A j s w 2 XX:.0.1XM +.i.%.<X5.+.&.n O.+.%.&.&.v e e e e v e M M r O.O.>.,.aX- 9 9 9 = w.p.  v.d 9 9 9 9 8 J D.D.P -X-X7.; 9 w , , s p p p @ s.V.@ y ; u &X6.o N D N c.vXlXj -.OXu ; 9 ",
"y f N y f f f f f f f f f g h s s s ,X,X;X<X2Xh j h | | D x x x x [ 5 _.rXL x L [ P } | { ] ] { x x x x x x x x x x I U k z z z C z / ! z C C ! ! ! ! ! ! ! ^ ( ( a.i.~ ~ ~ ^ ! / z <X9X! 1X0.U 2X| | 6X4X1XP.R.;XI 4XwXJ.K.g 1Xq.j A V V 4.q.V V V V V V V V V V V A 3.V A A B U tX2Xj A A 3.V A N N A A V 3.f s N g b V D > V A D c V A A D j 2 e XXj 0.<XM +.i.@.<X5.+.&.m &.+.%.&.&.v v e e e e e M M r O.O.>.,.aX- 9 9 9 = e.p.  v.d 9 9 9 9 8 J D.D.P -X-X7.; 9 w , , s p p p @ s.V.@ 9 9 9 &XOXo f D D V N s   oXoX9 9 9 ",
"y f N y f f f f f f f f s B 5.2.2.q.,Xs i U I g j c ^.Q L c x x Q L ~ tXg.L x L [ P } | { ] ] { x x x x x x x x x x x J.L z z z C z / ! z C C C ! ! ! ! ! ! ^ ( ( a.i.~ S ~ ^ ! ! c q.q.L 0.qXyX:X/ ^.z 1X9X4.K.1X<X<Xy.P.A h :X0.0.N B g q.<Xj A B B V V A V V V V A 3.V A A B U yX2Xj A A 3.A A V V A A V 3.N h V N Z A S V A A S D V A A S V 2 ,.,.j 0.<XM @.l.3.<X5.@.+.m +.+.$.%.5.v v e e e e e M M r O.O.>.,.aX- 9 9 9 = e.p.  v.d 9 9 9 9 8 F H H D 8.7.1.9 8 J G.G.I ,X,X-X@ s.V.@ 9 9 : oX&X8 o h V V g o 8 OX6.: 9 9 ",
"i f N i f f s > > > > > f ,X;X;X;X,Xq.s j J.g j e | | D [ c x x / l eX5X5 { x L [ P } | { ] ] { x x x x x x x x x x z U U k z z C z / ! z C C C ! ! ! ! ! ! ^ ( ( a.i.~ S ~ ^ ! ! ! z c / q.9X1Xq.D | | +XyXN J.P.R.0.F P.A g 0.0X0XK.I F 0.wXV N V D B V N V V V V A 3.V A A B J.4XqX5.V A 3.A A A A A A V 3.V g Z V A S 3.A A A A S V A A 3.A h XX&.M :X<XM @.9X0.<Xl.@.+.+.+.%.@.0.<Xe n e e e e e M M r O.O.>.,.aX- 9 9 9 = e.p.  v.d 9 9 9 9 8 F J H D 8.7.1.9 9 , F F j 2.2.2.@ s.V.@ 9 9 ; u &X&Xa . * * . i OXOXu 9 9 9 ",
"> > h > > > B 0.0.0.0.q.;X1X> s s > s i U U g j j ^.Q x [ c x x 5 2XrXl x [ x L [ P } | { ] ] { x x x x x x x x x x x x J.x z z z z / ! z C C C ! ! ! ! ! ! ^ ( ( a.i.~ S ~ ^ ! ! ! ! ! ^ / 4.l z ^ / ^.P K.B I U P.J.B U A g f.tX9X9Xr.R.R.qX0.f U K.b V q.4.V V V A 3.V A A g x.:X9X:Xj A 3.A A A A A A V 3.A V A A Z S 3.A A P I 3.V A A 3.C :. XS @.qX9XZ $.qX:X<X9X5.+.+.M %.M +X<Xv m e e e e e M n r O.O.>.,.aX- 9 9 9 = e.p.  v.d 9 9 9 9 8 F H H D 8.7.1.9 9 w > > w i i i @ s.V.@ 9 9 9 ; o.8X6.: - - : -.OXa 9 9 9 9 ",
";X;X:X;X;X;X,X-X9.8.8.8.8.4.f f f f f g J.D j w } | j [ [ c x 5 x.tX{ c x [ x L [ P } | { ] ] { x x x x x x x x x x x z U U k z z z / ! z C C C C ! ! ! ! ! ^ ( ( a.i.~ S ~ ^ ! ! ! ! ! ^ ! z / ! ^ V | | I A N p K.U p A A B I K.J.:X0X9XR.5X0.h S.9X0.V wXq.j A V Z 3.V A B P 4X4.c.:Xj A 3.A A A A A A V 3.A A A A Z S 3.A B U K.4.A B A 3.C  X:.;.$.qX0X+X@.qX:X9X0Xl.M M l.%.+X<X9Xm m e e e e e M M r O.O.>.,.aX- 9 9 9 = e.p.  n.d 9 9 9 9 8 F H H D 8.7.1.9 9 w > > w i i i @ s.V.@ 9 9 9 9 : p 0 0 0 0 0 0 p ; 9 9 9 9 ",
"2.q.q.2.q.q.2.> > > > > > g f f f f i U U V j j ^.Q c x [ x 6 g.tXg.l x x [ x L [ P } | { ] ] { x x x x x x x x x x x x x J.x z z z / ! z C C C C ! ! ! ! ! ^ ( ( a.i.~ S ~ ^ ! ! ! ! ! ^ ! ! ! ! ^ ! ( ^.A A N N S V N A A N A A h 0.0XqX9X2X:Xh x.0XwX4.qX0.j A V A S V V N w.4Xb d.:Xg A 3.A A A A A A Z 3.A A A A Z S 3.A B U K.4.A U D 3.$. X$.;.$.qX0X1Xl.eX:X9X0X1X1Xq.<Xl.<X0X9X&.&.e e e e e M M r O.O.>.,.aX- 9 9 9 = e.p.  M.d 9 9 9 9 8 F H H D 8.7.1.9 9 , < < h o.o.p @ s.V.@ 9 9 9 9 9 = 5 ' !.!.' 5 = 9 9 9 9 9 ",
"> > h > > > s f f f f f f N f f f f f J.j D j ] ^.c x [ x 6 x.tXg.c x x x [ x L [ P } | { ] ] { x x x x x x x x x x x x z U U k z z / ! z C C C C C ! ! C ! ^ ( ( a.i.S S ~ ^ C ! ! ! ! ^ ! ! ! ! ^ / N ^.| V N N S N N A A N A A N 4.4.<X0Xx.9X,Xx.9X9Xl.3X2XB V B V 4.4.4.N 0.1Xg w.qX0.j 3.A A A A A A V 3.A Z B A Z S 3.B V f.2XP B K.I ~ ,.,.#.i.4.qXqX1X:XR.:XwX9XqXqX:X<X0.<X0X9X5.&.e e e e e M n r O.O.>.,.aX- 9 9 9 = e.p.  B.d 9 9 9 9 8 F J H D 8.7.1.9 8 J G.G.I ,X,X;X@ s.V.@ 9 9 9 9 7 ' /.(././.(./.' 9 9 9 9 9 ",
"N B A N N N N N N N N N N A V N V B I U V P D ^.} P L L t.5XtXg.L { [ [ [ { [ { { { } | } { { { { { { { { { { { { { { { { { J.^ ^ ~ { ^ ^ ^ ^ ^ ^ ^ ^ ^ ^ ^ t.{ { k.u.t.t.t.t.^ ^ ^ ^ ^ t.^ ^ ^ ^ t.{ ^ } ^.#.~ S w.3.S 3.3.S 3.3.3.3.D 0.:Xr.9X9XwXA.5X5XE.3Xq.P 3.D 0.wX9Xt.0X:XD P 4X<X5.t.3.3.3.3.3.3.3.t.3.4.U w.4.3.r.t.S x.4Xw.P 2Xf.t. Xi.i.i.i.0XfX4X1XE.<X0X5X4X0X1X<X:X9XqX<X0.$.O.O.O.O.O.$.@.O.&.&.,.,.aX- 9 9 9 = e.p.  B.d 9 9 9 9 8 F J H D 8.7.1.9 8 J G.G.I ,X,X-X@ s.V.@ 9 9 9 7 ' (.' ; @ @ : ' (.' 0 9 9 - ",
"y f N y d d f d d d d d s N f d d y J.I h j Q ' , c f.5XrX5Xx l / [ x x x [ x L [ P } | { ] ] { x x x x x x x x x x x x L z U I k z / ! z C C C C C ! ! ! ! ^ ( ( a.i.~ ~ ~ ^ C ! ! ! ! ^ ! ! ! ! ^ / ! V ^.( b N S V N A A N S A N N B V j N <XE.<XK.R.qXF.2X0.:X4.g :X0XqXR.5X4.N V K.<X9X3.V A A A A A A 4.P U K.U A B U K.p 0.yXJ.5.9X5.:. X+.$.;.5.0XR.9XiXP.<X0XfXZ.0X1X<X<XwX9XsX0.m e e e e e M n r O.O.>.,.aX- 9 9 9 = e.p.  B.d 9 9 9 9 8 F H H D 8.7.1.9 8 J G.G.I ,X,X-X@ s.V.@ 9 9 0 R /.' # : g g ; # ' /.R 0 9 9 ",
"y f N y d d d f f f f f f N b f p P U 4.f.l._.5X5XrXrX5Xf.6 c x x [ x x x [ x L [ P } | { ] Q { x x x x x x x x x x x x x x L J.z z / ! z C C C C C C ! C ! ^ ( ( a.i.~ S ~ ^ C ! ! ! ! ^ ! ! ! ! ^ / ! C } ^.b N S N N A A N A A N N N N V N B P.I J.R.9XI v.5X0XI F 1XqXyXqXS.g A B J.tXwX5.4.A V A A A V D P P.2XJ.K.B x.2XF x.tXK.1X0Xf.R.:.@.$.;.5.0Xx.9XuXJ.<X0XR.R.0X1XwX9X+X4XfX+XM e e e e e M n r O.O.>.,.aX- 9 9 9 = e.p.  B.d 9 9 9 9 8 F H H D 8.7.1.9 8 J G.G.I ,X,X-X@ s.V.@ 9 9 0 !./.# ; D S { w.4 # /./.0 9 - ",
"rXrXrXrXrXrXrXrXrXrXrXrXrXrXrXrXrXDXrXrXrXrXrX5X2Xg.x 5 x x x x x [ x x x [ x L [ P } | { ] Q { x x x x x x x x x x x x x L z U I k / ! z C C C C C C ! ! ! ^ ( ( a.i.~ S ~ ^ C ! ! ! ! ^ ! ! ! ! ^ / ! ! ~ ^.( b S N N A A N A A N N N N N V N K.P D P q.B U 9X9X5X2X<X4X2X0X5.V A V A :X<XqX1Xj 0.A A V 4.:X0.4XyX5XN.j x.1XP.4X0X2X<X0Xx.<XJ.;.@.0.:X0Xx.4X2X;.4X0Xn.V.qX9X9X9X0.5XR.wX0.e e e e e M n r O.O.>.,.aX- 9 9 9 = e.p.  B.d 9 9 9 9 8 F H H D 8.7.1.9 8 J G.G.I ,X,X-X@ s.V.@ y 9 s /.' # g D D D [ D # ' /.y 9 9 ",
"5.5.5.5.5.5.5.4.4.4.4.4.4.5.4.B P U N D w | } , 6 l c [ [ c x x x [ x x x [ x x [ P } | { ] Q { x x x x x x x x x x x x x x x L U k / ! z C C C C C C C ! ! ^ ( ( a.i.~ S ~ ^ C ! ! ! ! ^ ! ! ! ! ^ / ! ! ~ | ^.b ~ N N A A N A A N N N N N N N V V B N j A g ,XR.5X0X2XK.3X9XA V A Z A , :X0X2X5.wX4.g q.0X0X<XqXqXqX2XF :X2XR.0X0X9X<X0X2X9X4Xl.M +X9X0Xx.3X+XI yXqXz.+XtX9X3XwXR.E.R.0X+Xv v e e e M n r O.O.>.,.aX- 9 9 9 = e.d.  B.d 9 9 9 9 8 F J H D 8.7.1.9 8 J G.G.I ,X,X-X@ s.V.@ y 7 s /.R # c D D p.S D # R /.s 7 9 ",
"; y f ; ; ; ; y y y y y y g h i U I h j c ^.x x x x c x [ c x x x [ x x x [ x x [ P } | { ] Q { x x x x x x x x x x x x x x L z J.L ! ! z C C C C C C C C ! ^ ( ( a.i.~ S ~ ^ C ! ! ! ! ^ ! ! ! ! ^ / ! ! ^ ~ ^.! A V N A A N A A N N N N N N N N V V V V V V 2.J.K.9XK.U K.U B V V Z A N 5.5XqX0X0X<Xr.2XyX5X0X0X9X0X2XJ.2X<X9X0X9X0X<X1XyX9X9Xl.j :X9X0X0.K.S.;.yXgXJ.+XeX5XpXqXK.P.R.0X:Xm v e e e M n r O.O.>.,.aX- 9 9 9 = e.d.  B.d 9 9 9 9 8 F J H D 8.7.1.9 8 J G.G.I ,X,X-X@ s.V.@ y 9 9 /./.# h D V GXB.4 # /./.9 9 9 ",
"d f N y f f f f f f f f d N f j J.g j w | | c x x x c x [ c x x x [ x x x [ x L [ P } | { ] Q { x x x x x x x x x x x x x x x x I U ! ! z C C C C C C C C ! ^ ( ( a.i.~ S ~ ^ C ! ! ! ! ^ ! ! ! ! ^ / ! ! ^ A | | Z V N A A N A A N N N N N N N N N V V V V V N P D K.K.p J.U B V V V Z B P J.9X5XqX0X9X3XP.P.0X1X:X0X4X9X4X9XqX0X:X9X1X4.qX<X0X+X:X:XqXqX0.K.U ;.4XR.F.x.dXuXE.4XK.P.v.0X:Xm v e e e M n r O.O.>.,.aX- 9 9 9 = e.d.  V.d 9 9 9 9 8 F J H D 8.7.1.9 8 J G.G.I ,X,X-X@ s.V.@ 9 9 0 ' /.: # g h B.cXX : /.' 0 9 9 ",
"y f N y d d d d f f f f y N i U I h j j ^.[ x c x x c x [ c x x x [ x x x [ x L [ P } | { ] Q { x x x x x x x x x x x x x x x x x J.{ ! z C C C C C C C C ! ^ ( ( a.i.~ S ~ ^ C ! ! ! ! ^ ! ! ! ! ^ ! ! ! ^ ~ ! ^.~ N N A A N A A N N N N N N N N N V V V V V V V p K.K.p V B V V V V V Z V 5.K.P.5X9XfXqXJ.U qX0.4.9X9X4X9X0X:X0.4.<X1X,.1X0.9X9X9X:X0X9X0.U ;.;.R.R.U U P.K.P.K.K.P.b.0X:X&.v e e e M n r O.O.>.,.aX- 9 9 9 = e.d.  V.d 9 9 9 9 8 F H H D 8.7.1.9 8 J G.G.I ,X,X-X@ s.V.@ 9 9 7 4 /./.2 . * * g 4 /./.4 9 9 9 ",
"y f N y d d d d f f f f d b j J.j j w | | D x c x x c x [ x x x x [ x x x [ x L [ P } | { ] ] { x x x x x x x x x x x x x x x x z I U ! z z C C C C C C C ! ^ ( ( a.i.~ ~ ~ ^ C ! ! ! ! ^ ! ! ! ! ^ ! ! ! ^ ^ N | | b N A A N A A N N N N N N N N N N V V V V V V B P I B V V V V V V V V Z 4.K.P.R.3XL.1X4.S K.S.B D wX2X9X0X0.j j <X1X X@.;.+XqX<XqX0X9Xx.+.$.5.P.K.o.J.P.K.K.P.U P.b.9X1X&.v e e e M n r X.X.>.,.aX- 9 9 9 = r.d.  V.d 9 9 9 9 8 F H H D 8.7.1.9 8 J G.G.I ,X,X-X@ s.V.@ 9 9 9 7 R (.' 0 = = # ' (.Q 7 9 9 9 ",
"y f N y y y y y d d d d s p U U h j j ^.Q x x c c c c x x c x c x [ c x x [ x x L P } | { ] Q { x x x x x x x x x x x x x x x x x x J.x z z z z z z z z z ! ^ ( ( a.i.S A ~ ~ C C C C C ^ ! ! ! C ^ ! ! C / / C / ^.N N A A N A A N N N N N N N N N N N N N N N N V B 4.N N N N N N N N N V 4.K.K.K.B B j V 4.J.J.p j 9Xx.9X9X5.V j <X4X,.%.;.0.9X1X0X9X@Xa.+.$.5.K.K.o.J.P.P.K.P.;.P.z.kX3X5.e e e w n n r X.X.=.,.aX- 9 9 9 = r.d.  Z.d 9 9 9 9 8 F H H D 8.7.1.9 8 J G.G.I ,X,X-X@ s.V.@ 9 9 9 9 0 5 y 9 9 9 9 y Q 0 9 9 9 9 ",
"f f N f f f f f f f f f f V J.j j j } ^.c [ x x x x x [ [ x x x [ [ x x x { x L { P } | { ] [ { x [ [ [ [ [ [ [ [ [ [ [ [ [ [ [ [ / U U ! ! ! ! ! ! ! ! ! / { ^ ( a.i.3.~ ~ ^ ! / / / / ^ / / / / ^ ~ / / ^ ^ / A ^.| m ~ S V S S V A A A A A A A A A A A A A A A A A 3.A A A A A A A A A A 4.U K.K.B S S A 4.J.J.4.D 0.f.R.U S 3.D 1X4X:.3.;.l.4Xk.2XJ.K.U 4.;.5.J.J.5.U P.P.J.K.;.K.S.E.3X5.n n n v O.O.n O.O.>.,.aX- 9 9 9 = r.d.  Z.d 9 9 9 9 8 F J H D 8.7.1.9 8 J G.G.I ,X,X-X@ s.V.@ 9 9 9 9 9 0 9 9 9 9 9 9 0 9 9 9 9 9 ",
"g N V g g g g g g N N N p U U N D j ^.] x { [ x [ [ x [ [ x [ [ [ { [ [ [ { [ [ { P } | { { { { [ [ [ [ [ [ [ [ [ [ [ [ [ [ [ [ [ [ { J./ / / / / / / / / ^ { ^ ( k.i.3.3.^ { / ~ ~ ~ ~ t.^ ^ ^ / t.^ ~ / ^ ^ ^ ~ y.^.Z 3.3.A 3.3.A A A A A S S S S S S S S S S S S S 3.S S S S S S S S S S w.4.U K.4.S 3.S 4.U U 4.3.D P U A 3.3.A N.#X@.e.i.;.J.;.I %.U S.4.;.i.e.;.4.;.J.K.U :.e.;.U P.5Xq.M M M n O.O.O.O.O.>.,.aX- 9 9 9 = r.d.  Z.d 9 9 9 9 8 F J H D 8.7.1.9 8 J G.G.I ,X,X-X@ s.V.@ 9 9 9 9 9 9 9 9 9 9 9 9 9 9 9 9 9 9 ",
"y d g y y y y y y y s y y J.j h w Q ^.j c x c c c c c x x c x c x [ c c x [ x x L P } | { Q Q { x x x x x x x x x x x x x x x x x x / U U k z z z z z z z ! ^ ( ( a.i.A A ~ ~ z C C C C ^ C C ! z ^ ! C z / / ! ! ~ ^.( N A g A A N N N N N N N N N N N N N N N N N V S N N N N N N N N N N 3.B P U B V V N S A B V V B A 4.V V V B T.U %.@.e.@.@.$.4.@.%.i.@.@.i.%.%.@.%.%.%.%.%.$.%.U P.3Xq.e e e w n n r X.X.=.,.aX- 9 9 9 = r.s.  Z.d 9 9 9 9 8 F H H D 8.7.1.9 8 J G.G.I ,X,X-X% d.V.@ s 9 9 9 9 9 9 9 9 9 9 9 9 9 9 9 9 9 ",
"y f N y d d d d d f f i I U g j h ^.] c c [ x c x x c x x c x x x [ x x x [ x L [ P } | { ] ] { x x x x x x x x x x x x x x x x x x [ [ J.z z z C C C C C ! ^ ( ( a.i.~ ~ ~ ^ C ! ! ! ! ^ ! ! ! ! ^ / ! ! / / ! ! ~ { ^.Z A N A A N N N N N N N N N N N N N N V V V V 3.N V V V V V V V V V 3.Z B B Z A A V 3.A V A A V A 3.V A V @. X%.$.%.i.$.%.$.e.%.$.i.$.$.i.$.$.$.$.$.$.$.$.$.%.U P.3Xq.t e e e M n r X.X.>.,.aX- 9 9 9 = r.s.  Z.d 9 9 9 9 8 F H H D 8.7.1.9 8 J G.G.I ,X,X-X= A dX@ % = * = = = = = = = = = = = = = = = ",
"y f N y d d d d d d f i U I j h Q ^.c x c [ x c x x c x x c x x x [ c x x [ x x [ P } | { ] Q { x x x x x x x x x x x x x x x x x x { ! U I k z z C C C C ! ^ ( ( a.i.~ S ~ ^ C ! ! ! C ^ ! ! ! ! ^ ! ! ! / / ! ! ^ C ^.{ V N A A N N N N N N N N N N N N N N N V V V 3.N V V V V V V V V N 3.V V V V V A V 3.A V Z A V A 3.V A k ,.,.A $.%.i.$.@.$.e.@.$.i.$.$.i.$.$.$.$.$.$.$.$.$.%.U P.3X1Xv e e e n n r X.X.=.,.aX- 9 9 9 = r.s.  C.d 9 9 9 9 8 F H H D 8.7.1.9 8 J G.G.I ,X,X-X9 * n.dXu.r.u.r.r.r.r.r.r.r.r.r.r.r.r.r.r.r.",
"y f N y d d d d d d i I U V j w | } c x c [ x c x x c x x c x x x [ c x x [ x L [ P } | { ] Q { x x x x x x x x x x x x x x x x x x [ / L J.z z z z C C C ! ^ ( ( a.i.~ S ~ ^ C ! ! ! C ^ ! ! ! C ^ ! ! ! / / ! ! ^ C | ^.m N A A N N N N N N N N N N N N N N N N N V 3.N V V V V V V V V N 3.V V V V V V V 3.A V Z Z V A 3.V A A  Xi.@.$.%.i.$.@.$.e.@.%.i.$.$.i.$.$.$.$.$.$.$.$.$.%.U P.3X0X5.t e e n n r X.X.=.,.aX- 9 9 9 = r.s.  C.d 9 9 9 9 8 F H H D 8.7.1.9 8 J G.G.I ,X,X-X9 9 X w.B.Z.V.Z.Z.Z.Z.Z.Z.Z.Z.Z.Z.Z.Z.V.V.V.",
"y f N y d d d d d d i U I V j c ^.c c c c [ x c c x c x x c x x x [ c x x [ x L [ P } | { ] Q { x x x x x x x x x x x x x x x x x x [ [ z J.P k z z C C C ! ^ ( ( a.i.~ S ~ ^ C ! ! ! C ^ ! ! ! C ^ ! ! ! / / ! ! ^ / C ^./ b A A N N N N N N N N N N N N N N N N N V 3.N V V V V V V V V N 3.V V V V V V N 3.A V Z Z V A 3.V k :. X3.%.%.%.i.$.@.$.e.@.%.i.%.%.i.$.$.$.$.$.$.$.$.$.%.U K.2X0Xq.t e e n n r X.X.=.,.aX- 9 9 9 = r.s.  C.d 9 9 9 9 8 F J H D 8.7.1.9 8 J G.G.I ,X,X-X9 g j.u.e.r.r.r.r.r.r.r.r.r.r.r.r.r.r.r.a.a.",
"y f N y d d d d d i j U h D e | | j x c c [ x c c x c x x c x c x [ c x x [ x L [ P } | { ] Q { x x x x x x x x x x x x x x x x x x [ [ x I U k z z z C C ! ^ ( ( a.i.~ S ~ ^ C ! ! ! C ^ ! ! ! C ^ ! ! ! / / ! ! ^ / V | | d A A N N N N N N N N N N N N N N N N N V S N V V V V V V V V N 3.V V V V V V N 3.A V Z Z V A 3.V N  X:.3.@.$.%.i.$.@.$.e.@.%.i.%.%.i.$.%.$.$.$.$.$.$.$.%.U K.v.0X6.t e e n n r X.X.=.,.aX- 9 9 9 = r.s.  C.d 9 9 9 9 8 F J H D 8.7.1.9 8 J G.G.I ,X,X-X= u.LXLXLXLXLXLXLXLXLXLXLXLXLXLXLXLXLXPXV.n.",
"y f N y d d d d d i U I h j c ^.c c c c c [ x c c x c x x c x c x [ c x x [ x x [ P } | { ] Q { x x x x x x x x x x x x x x x x x x [ [ x x J.L z z z C C ! ^ ( ( a.i.S S ~ ^ C ! ! ! C ^ ! ! ! C ^ ! ! ! / / ! ! ^ ! ! ^ ^.z A A N N N N N N N N N N N N N N N N N V S N V V V V V V V V N 3.V V V V V V N S A V Z A V A 3.N $. X@.e.@.@.@.i.$.@.$.e.@.%.i.%.%.i.%.%.%.%.%.$.$.$.$.$.$.%.J.<X9.t e e n n r X.X.=.,.aX- 9 9 9 = u.s.  C.d 9 9 9 9 8 F H H D 8.7.1.9 8 J G.G.I ,X,X-X= r.PXPXFXKXKXKXKXHXFXPXKXKXHXKXKXKXPXHX= # ",
"y f N y d d d d i j J.h j j | | j x c c c [ x c c x c x x c x c x [ x x x [ x x [ P } | { ] Q { x x x x x x x x x x x x x x x x x x [ [ x x I U k z z C C ! ^ ( ( a.i.S ~ ~ ^ C ! ! ! ! ^ ! ! ! C ^ ! ! ! / / ! ! ^ ! ! A | | m A N N N N N N N N N N N N N N N N N V S N V V V V V V V V V 3.V V V V V V N 3.A N V A V A 3.k ,.,.S i.@.@.@.e.$.%.$.e.@.$.i.$.%.i.$.%.%.%.%.%.%.$.$.$.$.%.K.R.+Xt e e n n r X.X.=.,.aX- 9 9 9 * u.s.  C.d 9 9 9 9 8 F H H D 8.7.1.9 8 J G.G.I ,X,X-X= r.LXKX@XcXdXvXCXdXmXCXmXnXcXmXIXPXPXHXf 9 ",
"y d g y y y y s i U I h h D ^.x l c c c l x c c c c c x x c c c x [ c x x [ c x L P } | { ] Q [ x x x x x x x x x x x x x x x x x x [ x x x x J.x k z z z ! ^ ( ( a.i.A A ~ ~ z C C C z ^ ! C C C ~ ! C z / / C C ^ ! z ~ ^ ^.A Z N N N N N N N N N N N N N N N N N N S N N N N N N N N N N S V N N N N N N S A N N N N A S Z  X@.@.;.+.@.@.e.@.+.$.$.+.@.e.@.@.i.@.@.@.@.@.@.@.@.@.@.@.%.K.E.+X7 e w n n r X.X.=.,.aX- 9 9 9 * u.s.  C.d 9 9 9 9 8 F H H D 8.7.1.9 8 J G.G.I ,X,X-X= r.LXFXdXpXcXzXpX@XcXpXFXsXzXzXFXPXPXGX9 9 ",
"N N A N N N N N V J.D D M | ^.D [ [ [ [ [ { [ [ [ [ [ { { [ [ [ [ { [ [ [ { [ [ { { } | { { { { [ [ [ [ [ [ [ [ [ [ [ [ [ [ { { { [ { { [ { ^ U U / ^ ~ ~ ^ { ^ ( k.i.3.3.t.t.^ ^ ^ ^ ^ t.^ ^ ^ ^ t.^ ^ ^ t.t.^ ^ t.^ ^ t.3.^.| @.S S S S S S S S S S S S S S S S S 3.w.S 3.S 3.3.3.3.3.3.3.w.3.3.3.3.3.3.3.w.3.3.3.3.3.3.^ ,. X3.i.i.e.e.e.i.e.e.i.i.e.i.i.i.i.u.i.i.i.i.i.i.i.i.i.i.e.5.K.E.:Xt O.M @.O.O.O.O.,.,.aX- 9 9 9 * u.s.  @Xd 9 9 9 9 8 F H H D 8.7.1.9 8 J G.G.I ,X,X-X= r.LXKXLXKXKXKXHXKXHXcXPXHXKXHXKXLXLXb.* 9 ",
"f f N d f f f i U U f j j ^.Q c x x x x x [ x x x x x [ [ x x x x [ x x x [ x L [ P } | { ] ] { x x x x x x x x x x x x x x x x x x { [ x x [ [ J.! ! ! ! ! ^ ( ( a.i.~ ~ ~ ^ ! ! ! ! ! ^ ! ! ! ! ^ / ! ! ^ ^ ! ! ^ / ! ^ ~ ( ^.A N V N N N V V V V V V V V V V V V A 3.V V V V Z A A A A Z 3.A A A A A A Z 3.A A A A A S ~  X:.@.$.i.$.$.$.i.$.$.$.e.$.$.i.$.$.i.$.$.$.$.$.$.$.$.$.$.$.%.J.E.;Xt v e M n r O.O.>.,.aX- 9 9 9 * u.j.  @Xd 9 9 9 9 8 F J H D 8.7.1.9 8 J G.G.I ,X,X-X= u.HXbXvXCXCXCXSXFXlXnXSXSXCXSXvXlXj.= 9 9 ",
"y f g y y y y s J.j h w Q ^.c c c c c c c [ x c c c c x x c c c x [ c x x [ x x L P } | { ] Q [ x x x x x x x x x x x x x x x x x x [ [ x x x z U U k z z ! ^ ( ( a.i.A A ~ ~ z ! C ! C ^ ! C ! C ^ ! C C / / C ! ^ ! C / / N ^.} b N N N N N N N N N N N N N N N N V S N N N N N N N N V N S V N N N N V N S A N N V N C :. XZ @.$.e.@.@.@.e.@.@.$.;.@.@.e.@.@.i.%.%.%.%.%.%.%.%.%.%.@.%.P S.:X7 e w n n r X.X.=.,.aX- 9 9 9 * u.c.  uXd 9 9 9 9 8 F H H D 8.8.1.; 8 J G.G.I ,X,X;X@ s.M.  = = = = = = - - = * = * = % * 9 9 9 ",
"y f N y y s i I U h j h ^.} c c c c c c c [ x c c c c x x c x c x [ c x x [ x x L P } | { ] Q { x x x x x x x x x x x x x x x x x x [ [ x x x x L J.z z z ! ^ ( ( a.i.S A ~ ~ z ! ! ! C ^ ! ! ! C ^ ! ! C / / ! ! ^ ! C ~ / z } ^.b N N N N N N N N N N N N N N N N V S N N N N N N N V V N 3.V V V V V V N S A N V V V C  X:.A @.$.e.@.@.@.e.@.@.$.;.@.@.e.@.@.i.@.@.@.%.%.%.%.%.%.%.%.$.+.l.:X7 e w n n r X.X.=.,.aX- 9 9 9 * u.c.  uXd 9 9 9 9 8 G J J j 1.1.2.9 8 F D.D.I -X-X8.@ s.V.@ s - - - - = 9 - 9 y 9 9 9 9 9 9 9 9 ",
"y f N y y s i J.I h h Q ^.x x c c c c c c [ x c c c c x x c x c x [ c x x [ x x L P } | { ] Q { x x x x x x x x x x x x x x x x x x [ [ x x x x z U I k z ! ^ ( ( a.i.S A ~ ~ z ! ! ! C ^ ! ! ! C ^ ! ! C / / C ! ^ ! C ~ / ! ~ ^.( b N N N N N N N N N N N N N N N V S N N N N N N N N V N 3.V V V V V V N S A N V V N %. X+.@.@.$.;.+.@.@.e.@.@.$.;.@.@.e.@.@.i.@.@.@.@.@.@.@.%.%.%.%.$.+.a.:Xw e w n n r X.X.=.,.aX- 9 9 9 * u.c.  uXd 9 9 9 9 9 G G G h 1.1.2.9 8 F H H I 8.8.7.@ s.V.@ y A N Z A w.d V d = 9 9 9 9 9 9 9 9 ",
"y f N y s i I U h j w | ] x x c c c c c c [ x c c c c x x c x c x [ c x x [ x x L P } | { ] Q { x x x x x x x x x x x x x x x x x x [ [ x x x x x L J.z z ! ^ ( ( a.i.S A ~ ~ z ! ! ! C ^ ! ! ! C ^ ! ! C / / C ! ^ ! C ~ / z ~ | ^.b N N N N N N N N N N N N N N N N S N N N N N N N N N N 3.V V V V V V N S A N V Z k ,.,.Z @.@.$.;.+.@.@.e.@.@.$.;.@.@.e.@.@.i.@.@.@.@.@.@.@.@.@.@.@.%.+.l.:Xw e w n n r X.X.=.,.aX- 9 9 9 * u.c.  uXd 9 9 9 9 9 G G G h 1.1.2.9 8 F H D.I oX8.7.@ s.V.# f b.e.b.S b.9 p.u.d.g - 9 9 9 9 9 9 ",
"y f N y s i U I h h x ^.l x x c c c c c c [ x c c c c x x c x c x [ c x x [ x x L P } | { ] Q { x x x x x x x x x x x x x x x x x x [ [ x x x x x z U I k ! ^ ( ( a.i.S A ~ ~ z C ! ! C ^ ! ! ! C ^ ! ! C / / C C ^ ! C ~ / z ^ ~ ^./ b N N N N N N N N N N N N N N N S N N N N N N N N N N S V V V V V V N S A N V V Z  X;.+.@.@.$.;.+.@.@.e.@.@.$.;.@.@.e.@.@.i.@.@.@.@.@.@.@.@.@.@.@.@.+.5.1Xw e w n n r X.X.=.,.aX- 9 9 9 * u.c.  uXd 9 9 9 9 9 G G G h 1.1.2.9 8 F H H I 8.8.7.@ s.V.# g c.#.z.d p.= r.j.a.w.= 9 9 9 9 9 9 ",
"y f N y i j U h j w | | j Q x c c c c c c [ x c c c c x x c x c x [ c x x [ x x L P } | { ] Q { x x x x x x x x x x x x x x x x x x [ [ x x x x x x I U k ! ^ ( ( a.i.S A ~ ~ z C C ! C ^ ! ! ! C ^ ! ! C / / C C ^ ! C ~ / z ^ A | | b N N N N N N N N N N N N N N N S N N N N N N N N N N S V N V V V V N S A N V k :. X#.@.@.@.$.;.+.@.@.e.@.+.$.;.@.@.e.@.@.i.@.@.@.@.@.@.@.@.@.@.@.@.+.5.1Xw e w n n r X.X.=.,.aX- 9 9 9 * u.c.  uXd 9 9 9 9 9 G G G h 1.1.2.9 8 F H H I 8.8.7.@ s.V.# d N d b 9 #.- w.#.b b - 9 9 9 9 9 9 ",
"y f N s i U I h h l ^.c l x x l c c c c c [ x c c c c x x c x c x [ c x x [ x x L P } | { ] Q { x x x x x x x x x x x x x x x x x x [ [ x x x x x x z J.L ! ^ ( ( a.i.S A ~ ~ z C C ! ! ^ ! ! ! C ^ ! ! C / / C ! ^ ! C ~ / z ^ / C ^.C N N N N N N N N N N N N N N N S N N N N N N N N N N S V N N V V V N S A N V N  X:.$.+.@.@.$.;.+.@.@.e.@.@.$.$.+.@.e.@.@.i.@.@.@.@.@.@.@.@.@.@.@.@.+.5.1Xw e w n n r X.X.=.,.aX- 9 9 9 * u.c.  uXd 9 9 9 9 9 G G G h 1.1.2.9 8 F H H I 8.8.7.@ s.V.@ 9 9 9 9 9 - 9 - - - 9 9 9 9 9 9 9 9 ",
"y d g i j J.h j w | | j l x x l c c c c l [ c c c c c x x c c c x [ c c x [ x x L P } | { ] Q [ x x x x x x x x x x x x x x x x x x [ x x x x x x x z I U ! ^ Q ( a.i.A A ~ ~ z C C C z ^ ! C ! z ^ ! C C / / C C ^ ! C / / z ~ / N | | b N N N N N N N N N N N N N N S N N N N N N N N N N S N N N N N V N S A N k $. X+.$.+.+.+.@.;.+.@.@.e.@.+.$.$.+.@.e.@.@.e.@.@.@.@.@.@.@.@.@.@.@.@.+.5.1Xw e w n v r r X.=.,.aX- 9 9 9 * u.c.  uXd 9 9 9 9 9 G G G h 1.1.2.9 8 F H D.I 8.8.7.@ s.V.@ 9 9 9 9 9 9 9 9 9 9 9 9 9 9 9 9 9 9 ",
"d f N i U I h j j ^.x c c [ x c x x x x c [ x x x x c x x c x x x [ x x x [ x L [ P } | { ] ] { x x x x x x x x x x x x x x x x x x [ [ x x x x x x L x J.[ ^ ( ( a.i.~ ~ ~ ^ ! ! ! ! ! ^ ! ! ! ! ^ / ! ! ^ ~ ! ! ^ / ! ^ ^ ! ^ ^ ! / ^.N N N N N N N N N N N V V V V S N V V V V V V V V V 3.Z V V V V V V 3.A Z k  X:.#.;.@.@.@.$.e.@.$.@.e.$.@.$.e.@.$.e.$.@.i.$.@.$.$.$.$.$.$.$.$.$.$.@.5.1Xr e e n n r X.X.=.,.aX- 9 9 9 * u.c.  uXd 9 9 9 9 9 G G G h 1.1.2.9 8 F H D.I oX8.7.@ s.V.= f d d d d d d d d d d d d d d d d d ",
"g N B j J.j c j | | D [ x [ [ x x [ [ [ x { [ [ [ [ x [ [ x [ [ [ { [ [ [ { [ [ { P } | { { { { [ [ [ [ [ [ [ [ [ [ [ [ [ [ [ [ [ [ { { [ { [ { { { { / U U ^ { ( k.i.3.3.3.t./ ^ ~ ~ / t.^ ^ ^ ~ t.^ ^ ~ ^ ^ ^ ^ t.^ ^ { ^ ~ t.{ ^ ~ ^.| Z A A S A A A A A A A S S S 3.S S S S S S S S S S 3.S S S S S S S 3.3.S ;. X$.i.i.$.;.$.e.i.$.;.;.i.e.;.i.i.$.e.i.e.;.i.e.;.;.;.;.;.e.e.e.e.e.e.;.u.1Xn M n O.O.O.O.O.>.,.aX- 9 9 9 * u.c.  iXd 9 9 9 9 9 G G G h 1.1.2.9 8 F H D.I 8.8.7.@ s.V.@ s 9 9 9 9 9 9 9 9 9 9 9 9 9 9 9 9 9 ",
"y s i I U s h h ^.Q l l l x c l l l c c l [ c l c c l x x l c c x [ c c c [ c x L P } | { Q Q [ x x x x x x x x x x x x x x x x x x [ x x x x x x x x x x J.{ ! Q a.;.A A ~ ~ z z z z z ~ C C C z ~ ! C z / / C C ^ ! z / / z / / z C ( ^.b N N N N N N N N N N N N N S N N N N N N N N N N S N N N N N N N S Z k ,.,.V $.$.+.+.+.@.$.+.+.+.;.+.+.$.$.+.@.;.+.+.e.@.+.+.+.+.+.+.+.+.+.+.@.+.4.1Xw w w n e r r r =.,.aX- 9 9 9 * u.c.  iXd 9 9 9 9 9 G G G h 1.1.2.9 8 F H H I 8.8.7.@ s.V.@ 9 9 9 9 9 9 9 9 9 9 9 9 9 9 9 9 9 9 ",
"y f g J.j h w ] | j c c l x x l c c c c c [ x c c c c x x c c c x [ c c x [ x x L P } | { ] Q [ x x x x x x x x x x x x x x x x x x [ [ x x x x x x x x z U U ! ( a.i.A A ~ ~ z ! C C C ^ C C ! C ^ ! ! C / / C ! ^ ! C ~ / C ~ / ! ! N ^.} b N N N N N N N N N N N N S N N N N N N N N N N S V N N N N V N S V Z  X%.+.$.$.+.@.+.@.;.+.@.+.;.@.+.$.$.+.@.e.@.@.e.@.@.@.@.@.@.@.@.@.@.@.@.+.3.1Xr r w n v r X.X.=.,.aX- 9 9 9 * u.b.  iXd 9 9 9 9 9 G G G h 1.1.2.9 8 F H H I 8.8.7.@ s.V.@ 9 - - - - = 9 - = - 9 9 - 9 9 9 9 9 ",
"s i I U s j w ^.Q l l c l x x x c c c c c [ x c c c c x x c c c x x x x x [ x x L P } | { ] Q [ x x x x x x x x x x x x x x x x x x [ x x x x x x [ x x x L J./ ( a.i.A A ~ ~ z C C C z ^ ! ! ! C ^ ! ! C / / C C ^ ! C ~ / C ~ ^ ! ! C ( ^.b N N N N N N N N N N N N S V V N N N N N N N N S V N N N N N N S C :.,.Z +.$.$.+.@.+.@.$.+.@.+.;.@.+.@.e.@.@.e.@.@.e.@.@.@.@.@.@.@.@.@.@.@.@.+.3.1Xr r w n e r r r =.,.aX- 9 9 9 * p.b.  iXd 9 9 9 9 9 G G G h 1.1.2.9 8 F H D.I 8.8.7.@ s.V.@ d u.#.u.w.j.f b d.b 9 9 Z y 9 9 9 9 ",
"y y J.j h w Q ^.j l l l l x [ [ [ x l c c [ x c c c c x x c c c x [ { x { [ c x L P } | { ] Q [ x x x x x { [ { [ x x x x x x x x x [ x x x x x [ { [ { x ! U U ( a.i.A A ~ ~ z C C C ! t.^ t.C C ^ ! ! C / / C C ^ ! C ~ / z ^ t.^ ^ ! N ^.( b N N N N N N N N N N N t.A w.S N N N N N N N S N N N N N N N 3.3. Xi.Z +.$.$.+.@.+.@.$.+.@.+.;.@.+.$.i.i.i.i.+.@.e.@.@.@.@.@.@.@.@.@.@.@.@.+.$.1Xr w w n e r r r =.,.aX- 9 9 9 * p.b.  iXd 9 9 9 9 9 G G G h 1.1.2.9 8 F H D.I 8.8.7.@ s.V.# g v.e.b.b s.- s.b c.w.e.M.d 9 9 9 9 ",
"i I U s j w | ] l l l c l x { c [ x l c c [ x c c c c x x c x c x { [ x { [ x x L P } | { ] Q [ x x x x x { x { { x x x x x x x x x [ x x x x x { [ { y.x Q } J.( a.i.A A ~ ~ z ! ! z / f.! t./ z ^ ! ! C / / C ! ^ ! C ~ / z t.^ t.f.! C } ^.b N N N N N N N N N N Z t.N 3.V N N N N N N N S N N N N V V N 3.:.#Xe.+.+.$.$.+.@.+.@.;.+.@.+.e.@.+.e.i.$.a.i.+.@.e.@.@.@.@.@.@.@.@.@.@.@.@.+.;.1Xr w w n e r r r =.,.aX- 9 9 9 * p.b.  pXd 9 9 9 9 9 G G G h 1.1.2.9 8 F H D.I oX8.7.@ s.V.. b a.A p.y a.= p.r.a.s.c.s.d 9 9 9 9 ",
"i U I s w l ^.l l l l l l x x x x x l l c [ c l l c l x x c c c x x [ [ { [ c x L L } | { ] x [ x x x x x [ [ [ x x x x x x x x x x [ x x x x x x { x [ x x ^ U } u.;.A A A / z z z C z t./ ^ ! z / ! C z / / C z ~ ! C / / z ~ t./ ^ ! ! C ^./ b N N N g N N N N N N 3.A A N N N N N N N N S N N N N N N N ~  X:.#.+.+.%.$.+.+.+.@.$.+.+.+.$.+.+.@.i.$.;.;.+.+.e.+.+.+.+.@.+.+.+.@.@.@.@.+.;.<Xe w w n e r r r =.,.aX- 9 9 9 % p.b.  pXd 9 9 9 9 9 G G G h 1.1.2.9 8 F H D.I 8.8.7.@ s.V.@ d d 9 d 9 g 9 y #.9 N V b d 9 9 9 9 ",
"I J.V j j | } c x l x x l [ x x x l x x c [ [ x x c x [ x c [ x x [ x x x [ [ L L P } | { ] [ { c [ [ x x Q [ x x [ [ x x [ [ [ x x { x x [ x x [ [ [ x x { { { U.a.i.S A 3.^ z / / z ! ^ / ! z / { ! ! / ^ ^ z / t.! ! t.~ C { ^ / C ! ^ C | | Z A N N A N N A A N A 3.A V N A A N A A S A S A A N A S N N i. X#.+.@.$.$.$.$.$.$.@.;.$.@.+.i.$.+.;.e.$.@.$.$.$.;.$.$.$.$.+.$.$.$.+.@.@.@.+.;.<Xe w w n e r r X.=.,.aX- 9 9 9 % p.b.  pXd 9 9 9 9 9 G G G h 1.1.2.9 8 F H H I 8.8.7.@ s.V.@ 9 9 9 9 9 - 9 9 = 9 - - - 9 9 9 9 9 ",
"R.F pXzXxX^.l hXfX4 ].hXl h.gXhXdX4 A.xXx y.hXhXhXl h.xX{ { xXh.c hXfXxXy.[ xXA.l fX].].h.] jX].4 fXhXl A.dXhXfX5 ].hXc h.lXhXdXl A.xX[ y.NXy.[ hXfXxX{ y.xXh./ R.R.kXd.3.MX_.k hXgXf aXgXxXaXk gXlXk _.xXbXdXf fXxXz v.VXf.f.lXgXMX^ g.VXg.^ [.lXSXw.t.GXb.g vXsXy dXmXSXZ.f nXmXy iXcXSXiXd mXnXd Z.SXA g.AXkXcX+.m.CXi.u.cXlXbX$.k.FXk.$.CX@Xm kXkXCXm.+.cXsXm dXnXCX@Xm zXCXm.m @.@.@.+.@.1Xv w w n e r r X.=.,.aX- 9 9 9 % p.b.  pXd 9 9 9 9 9 G G G h 1.1.2.9 8 F H H I 8.8.7.@ s.V.@ y 9 9 9 9 y 9 9 9 y 9 9 9 9 9 9 9 9 ",
"J.; dXcXjX| j xXfX4 fXxXl h.hXhXhX4 ].VXx h.xXxXjXl A.VX{ t.VXh.c hXdXVXy.[ VXA.l hX].].h.] xX].4 gXxXl ].hXxXdX4 fXxXc A.xXxXhXl ].VX[ h.VXy.{ hXhXVX{ y.VXA.Q ].R.nXs.3.FX_.f xXgX4 fXzXMXfXf hXxXf _.MXMXgXf gXMXk A.JXf.f.xXzXMX^ g.HXg.t.jXjXHXt.t.HXv.g GXdXy mXlXJX3Xd vXlXy sXSXJXsXy lXvXs 3XHXS a.AXlXCX+.m.JXu.u.CXCXCX$.k.HXk.$.JXiXm zXkXJXm.+.CXkXm kXCXJX@Xm nXJX@Xm @.+.+.+.@.1Xe w 7 e e r r r =.,.aX- 9 9 9 % p.v.  pXd 9 9 9 9 9 G G G h 1.1.2.9 8 F H D.I 8.8.7.@ s.V.= f d d d d w w d s > s d d d d d d d ",
"R.4 dXlX[.A.l jXfX4 aXxXl h.hXhXhX4 _.NXx h.xXxXhXl A.VX{ t.VXh.c hXfXMXy.[ VXA.l dX].].h.] xX].5 dXhXl ].hXxXfX5 fXxXc A.xXxXhXl ].vX[ h.VXy.{ hXgXVX{ y.VXA.] jXR.zXz.w.SX_.k nXgXf fXgXMXfXk hXxXk _.MXMXgXf dXMXz A.JXf.f.xXgXMX^ g.JXg.^ NX[.GXt.r.HXv.g FXdXy mXzXGX3Xf bXzXy sXSXGXsXs lXbXf 3XJX~ ,.AXnXCX+.m.JXu.a.CXcXCX;.k.JXk.$.FXiXm zXkXGXm.+.CXdXm kXCXFX@Xm lXGX@X@.;.$.$.$.;.<X&.n n O.O.O.O.O.>.,.aX- 9 9 9 % p.v.  pXd 9 9 9 9 9 G G G h 1.1.2.9 8 F H D.I oX8.7.@ s.V.@ 9 9 9 9 : 2.OX>X>XoXp : 9 9 9 9 9 9 ",
"uX+ dX].jXA.4 jXfX4 ].xX5 h.hXhXhX4 A.VXc y.xXxXhX5 h.VX[ { VXh.l hXfXVXy.x VXA.5 dX].].h.Q xX].4 dXhX4 C.hXxXfX4 aXxXl h.xXxXhX4 C.MXx y.VXy.[ hXgXVX{ t.VXh.x jXR.R.z.~ FX_.2 nXgX2 fXgXMXfX2 gXnX2 _.MXMXgX2 fXMXk v.JXt.f.xXgXMX! g.JXg./ MX].NXe.3.HXb.f FXdX- dXzXGXC.y bXzX; pXSXJXpX; zXbXy C.JXS #XlXlXCXm m.JXi.i.CXbXCX$.k.JXk.@.GXiXv kXkXGXm.m CXdXd kXCXGX@Xv lXGX@X+.$.$.$.$.@.1X&.e e M n r O.O.>.,.aX- 9 9 9 % p.v.  pXd 9 9 9 9 9 G G G h 1.1.2.9 8 F H D.I 8.8.7.@ s.V.@ 9 9 9 9 OX6X7XoX>X7X8X6.: 9 9 9 9 9 ",
"sXD mX[.NX].{ xXdX[ fXxX{ A.hXhXhX[ ].xXy.A.xXxXjX{ A.VXy.h.VXA.t.hXfXMXh.y.VX].{ hX].].A.} xXfX{ hXxX{ ].hXxXhX{ fXxX{ C.xXxXhX{ ].vXy.A.VXA.y.hXgXVXy.h.VX_.y.jXuXR.c.d.MXaX{ xXhX^ gXgXMXgX{ lXxX{ aXMXMXgX^ gXMXf._.GXh.h.xXgXMXy.A.GXA.g.MXjXBXj.z.HXC.t.GXmX3.zXzXGXpX3.vXnX3.dXvXGXdX3.nXvX3.sXJXk.=XnXlXCXu.@XJXj.b.CXcXCXk.M.JXm.k.FXsXi.lXkXGX@Xu.CXkXi.zXCXFXsXi.cXGX@Xm @.+.+.+.Z 1Xo.w 7 e e r r r =.,.aX- 9 9 9 % p.v.  pXd 9 9 9 9 9 G G G h 1.1.2.9 8 F H H I 8.8.7.@ s.V.@ 9 9 : oX7X6.. o . - 8X7Xo.: 9 9 - d ",
"cXcXjX[.cXjXjXxXxXhXxXxXhXxXdXhXxXhXxXxXhXxXhXhXxXhXxXxXhXxXxXhXxXxXfXxXhXxXxXhXhXxX].].jXjXxXxXxXxXxXhXxXdXhXxXhXxXxXhXxXhXxXxXhXxXxXhXxXxXhXxXxXdXxXhXxXxXjXjXjXiXR.R.bXMXxXbXMXMXxXMXgXxXMXxXMXMXxXMXxXMXMXxXMXMXxXMXMXxXMXnXgXMXxXMXMXxXMXMXcXBXjXGXGXvXSXGXSXvXGXmXSXSXvXGXSXbXGXcXSXSXvXGXSXbXGXGXAXZXlXzXCXcXCXCXcXCXCXcXCXcXCXCXcXCXCXCXCXCXkXCXCXCXCXCXbXCXnXCXCXCXCXFX@Xm @.+.@.%.Z 1Xo.w w n e r r r =.,.aX- 9 9 9 % p.v.  pXd 9 9 9 9 9 G G G h 1.1.2.9 8 F H H I 8.8.7.@ s.V.@ y : o.6X6.  ; V V * = >X>X; 9 9 - d ",
"bXcX[.jXVXxXxXVXxXxXMXxXhXVXhXhXMXxXVXNXxXvXxXxXNXjXNXVXxXxXVXxXxXxXdXVXxXxXVXxXhXxX].].jXjXNXxXxXVXxXxXVXhXxXxXxXVXMXxXVXxXxXvXxXVXVXxXvXVXxXxXxXhXVXxXxXVXxXjXNXiXkXR.cXFXMXMXGXMXbXGXgXMXMXMXGXMXbXGXMXMXMXMXGXVXMXFXGXMXFXbXhXGXxXVXGXMXMXMXMXMX[.JXHXSXFXHXGXSXHXzXJXFXSXHXGXSXHXSXJXGXSXHXJXvXHXCXAXJXcXnXJXCXGXJXCXFXCXCXJXCXFXJXCXCXJXCXCXGXkXGXCXCXJXCXCXJXCXGXCXCXGXJX@Xm @.+.+.%.M 1Xo.w w v e r r r =.,.aX- 9 9 9 % p.v.  sXd 9 9 9 9 9 G G G h 1.1.2.9 8 F H H I 8.8.7.@ s.V.@ u : 9.7X8 : S S [ S o oX7Xp ; 9 9 d ",
"r.g.^.r.y.y.y.y.y.y.y.y.y.h.y.y.y.y.y.y.y.h.y.y.y.y.y.y.y.y.y.y.y.g.y.y.y.h.y.y.y.S. .| h.y.y.h.y.y.y.y.y.y.y.y.y.y.y.y.y.y.y.y.y.y.h.y.y.y.y.y.y.y.h.y.y.h.h.y.h.c.k.J.R.g.g.g.g.g.g.g.g.g.g.g.g.h.g.g.g.g.g.g.g.h.g.g.h.g.g.g.g.g.g.g.g.g.g.g.g.d.^.h.a.d.d.s.d.a.s.a.d.d.d.s.d.a.s.a.s.d.z.s.d.a.g.#Xk.j.k.k.k.k.k.k.k.j.k.k.k.k.c.k.k.k.b.k.k.k.k.k.k.c.k.k.c.k.k.k.k.k.k.k.i.+.+.+.+.%.M 1Xo.7 w v e r r r =.,.aX- 9 9 9 % a.v.  sXd 9 9 9 9 9 G G G h 1.1.2.9 8 F H D.I 8.8.7.@ s.V.@ u : oX>X. s D S t.S * o.8Xo.: 9 9 9 ",
"> ' ] 4 4 4 5 4 5 5 5 5 5 l l 4 4 5 5 l 5 c l l 5 l 5 l l 5 5 5 l c l l l x l l L L } | Q x l x l l l l l l l l l l l l l l l l l l x c l l l l l c l l l c ] x Q p.;.P J.k C k k k k k ! k k k k z k k k z z k k ! k k C C k ! ! k k k k k k k k g } | 9 f f f f f f V d f f f f f f f f f V f f f m  Xm m +.Z m m m m +.+.m m m Z +.m m m +.m m Z @.m m @.m m $.m m m m m m m +.+.+.+.+.%.M :Xo.7 w v e r r r =.,.aX- 9 9 9 % a.v.  sXd 9 9 9 9 9 G G G h 1.1.2.9 8 F H D.I oX8.7.@ s.V.@ u : oX7X8 : N p.JXw.o 9.7Xp : 9 9 9 ",
"Q ^.c x [ [ c l c l l c l x [ [ { x c c c [ x c c c c x { [ { [ x [ c x x [ x x L P } | { ] Q [ { [ { { [ x x x x x x x x x x x x x [ [ { { { { x x x x x Q { { } s.a.~ U } / z C C ! C ^ t.^ t.{ t.! ! C / / ! ! ^ ! C ~ / C / ^ t.~ ! ! ! ! ! ! ! C ^./ b N N N N N S 3.3.V N N N N N N N S S e.C ,.,.Z +.$.@.+.+.+.+.%.i.e.$.@.@.$.+.+.+.;.@.+.$.$.+.@.;.@.@.e.e.e.i.;.@.@.@.+.+.+.+.+.%.M :X2.7 w e M O.O.O.=.,.aX- 9 9 9 % a.v.  sXd 9 9 9 9 9 G G G h 1.1.2.9 8 F H D.I 8.8.7.@ s.V.@ u : 2.7X2.  s s pXp.X >X>X9 9 9 9 = ",
"| } c x { [ x l l l l l l x x t.{ x l c l x c l c c l x [ { { [ x [ c c c [ c x L L } | { Q Q [ { { t.t.[ c x x x x x x x x x x x x [ x { t.r.t.[ x x x x x { { y.y.a.t.P J./ z z z z z / t.t.t.t.t.! z z / / z z ^ ! z / / z / ^ t.f.~ C ! ! ! ! ! N | | b N N N N N A A f.w.N N N N N N N A V r.p. X+.+.+.$.+.+.+.+.+.+.e.i.a.;.+.$.+.+.+.$.+.+.@.$.+.+.$.+.+.$.e.i.i.s.$.+.+.+.+.+.+.+.%.M :X2.7 w v e ;.@.i.,.,.aX- 9 9 9 % a.v.  sXd 9 9 9 9 9 G G G h 1.1.2.9 8 F H H I 8.8.7.@ s.V.@ 9 9 ; OX7X2.o % . - >X7X2.: 9 9 9 - ",
"^.l x [ [ [ c l l l l l l x x [ { x l l l x c l l c l x [ { { x x x l c c [ c c L L } | ] Q Q [ x [ { { [ c x x x x x x x x x x x x [ { t.{ { { x x x x x x { { } s.a.{ A J.{ k z z z z / ~ t.t.t.t.C z z / / z z ~ ! z / / z / ~ ~ t.~ z ! C C C C ! C ^.C b N N N N S w.3.3.N N N N N N N A A ~ k.,.V +.+.$.+.+.+.+.+.@.$.e.u.$.+.$.+.+.+.$.+.+.@.$.+.+.$.+.+.$.$.e.i.u.$.+.+.+.+.+.+.+.%.M :X6.7 w e @.@.O.;.,.,.aX- 9 9 9 % a.v.  sXd 9 9 9 9 9 G G G h 1.1.2.9 8 F H H I 8.8.7.@ s.V.@ 9 9 ; u 8XoX: 9 9 9 8X9.; 9 9 9 9 9 ",
"| c [ c c c c c c c c c l [ x c x c x x c [ x x x x c x [ x x x x [ x x x [ x L [ P } | { ] ] { x x x x x x x x x x x x x x x x x x { [ x [ x x x x x x x [ { { ] s.i.P [ { J.! ! ! ! z ^ ! ! ! ! ^ ! ! ! / / ! ! ^ ! ! ^ / z ^ ^ ! ! ! ! ! ! ! ! ! / V | | b N N N N S N N N N N N N N N N S V N  X$.+.+.+.$.%.+.+.+.+.$.$.+.+.+.%.;.+.@.@.e.@.+.$.$.+.@.e.@.+.i.@.+.@.+.@.@.@.@.@.@.@.@.%.M :X6.7 w n e r X.X.=. XaX= 9 9 9 @ a.v.  sXd 9 9 9 9 9 G G G h 1.1.2.9 8 F H H I 8.8.7.@ s.V.@ 9 9 9 ; u : : u 9 $ 9 9 ; 9 9 9 9 9 ",
"4 4 4 4 4 4 4 4 4 4 4 4 4 4 4 4 4 4 4 4 4 4 4 4 4 4 4 4 4 4 4 4 4 4 4 4 4 h 4 4 4 4 5 5 h 4 4 h 4 4 4 4 4 4 4 4 4 4 4 4 h h h h h 4 h h h h h h h h h h h h l h 5 c j h h h I h f h h h f h f f h f f f h f f f f g f f f f f f f f f f f f f f f f f f k | s s d s d f s d d s d d d d d d f s m :.d b b b b b b b b b b b b b b b b b b b b b b b b b b b b b m b b b b b b b b b b b b b d q.2.> 7 w w 7 w w r kXd.% 9 9 9 * u.iX; dX9 9 9 9 9 9 G G G h 1.1.2.9 8 F H D.I 8.8.7.@ s.V.@ 9 9 9 9 ; 6.>X8X8XOXo.: 9 9 9 9 9 9 ",
"iXiXiXiXiXiXiXiXiXiXiXiXiXiXiXiXiXiXiXiXiXiXiXiXiXiXiXiXiXiXiXiXiXiXiXiXiXiXiXiXiXiXiXiXiXiXiXiXiXiXiXiXiXiXiXiXiXiXiXiXiXiXiXiXiXiXiXiXiXpXpXpXpXpXpXpXpXpXiXiXiXiXiXpXiXpXiXpXpXpXpXpXpXpXpXpXpXpXpXpXpXpXpXpXpXpXpXpXpXpXpXpXpXpXpXpXpXpXpXpXpXpXpXpXpXiXpXpXpXpXpXpXpXpXpXpXpXpXpXpXpXpXpXpXpXaXpXpXpXpXpXpXpXpXpXpXpXpXpXpXpXpXpXpXpXpXpXpXpXpXpXpXpXpXpXpXpXpXpXpXpXpXpXpXpXpXpXpXpXpXpXaXpXpXpXpXpXpXpXpXfXc.* 9 9 9 9 9 9 B.zXa.= 9 9 9 9 9 G G G h 1.1.2.9 8 F H H I 8.8.7.@ s.V.@ 9 9 9 u >X6X8XoXOX6X6X6.: 9 9 9 9 9 ",
"s s s s s s s s s s s s s s s s s s s y y s y y y y y y y y y y y y y y y y y y s s s s s s s s s s s s s s s s s s s s y y y y y s s s s s s s s s s s s s s s y y y y y y s y y y y y y y y y y y 9 9 y y s s s s s s s s s s s s s s s s s s s s s y y y 9 9 9 9 9 9 9 9 9 9 9 9 9 9 9 9 9 9 9 9 9 9 9 9 9 9 9 9 s s s s s s s s s s s s s s s s s s s s s s s s s s s s s s s s s s s s s d s s s s s s s d 9 @ 9 9 9 9 9 - = = = * = 9 9 9 9 9 G G G h 1.1.2.9 8 F H D.I oX8.7.@ s.V.@ 9 9 ; OX7X6.o o o X >X8Xo.; 9 9 9 9 ",
"= = = = = = = = = = = = = = = = = = - 9 9 9 9 9 9 9 9 9 9 9 9 9 9 9 9 9 9 9 9 9 - = = = = = = = = = = = = = = = = = = = 9 9 9 9 9 - - - - - - - - = = = = = = - 9 9 9 : : : : : : : : : : : : : : 9 9 9 9 9 - - - - - - - - - - - - - = = = = = = = - 9 9 y 9 9 9 9 9 9 9 9 9 9 9 9 9 9 9 9 9 9 9 9 9 9 9 9 9 9 9 9 = = = = = = = = = = = = = = = = = = = = = = = = = = = = = = = = = = = = = = = = = = = = = * = 9 9 9 9 9 - S Z - w.b w.s 9 9 9 9 < G G h 1.1.2.9 8 F H H I 8.8.7.@ s.V.@ u : o.6X2.  s V V u.: oXoX; 9 9 9 9 ",
"#.#.#.#.#.#.#.#.#.#.#.#.#.#.#.Z #.#.b - 9 9 9 9 9 9 9 9 9 9 9 9 9 9 9 9 9 9 9 - d #.#.#.#.#.#.#.#.#.#.#.#.#.#.#.Z S #.#.9 9 9 9 9 b V b V V V V V V V V Z Z Z V 9 9 9 2.1.2.2.2.2.2.2.2.2.2.2.2.2.9 d d 9 d V b b b N V V V V V V V V V V Z Z Z Z Z Z 9 9 d 9 9 9 9 9 9 9 9 9 9 9 9 9 9 9 9 9 9 9 9 9 9 9 9 s d - d u.p.p.p.p.p.p.p.p.p.p.p.p.a.a.a.a.d.d.d.d.d.d.d.d.d.s.s.s.s.s.s.s.s.s.s.s.s.j.j.j.j.c.c.c.c.s.d 9 9 9 9 d d.u.Z a.v.a.3.= 9 9 9 9 9 0 9 0 0 0 9 9 9 9 8 8 9 8 y @ s.V.@ u : oX7X8 : S S vXzXo 6.>Xa ; 9 9 9 ",
"PXPXPXPXPXPXPXPXPXPXPXPXPXPXKXcXLXLXKX#.= 9 9 - 9 - - 9 9 - 9 - 9 - 9 - = 9 = Z HXLXKXPXPXPXPXPXLXPXLXLXPXPXKXLXbXHXLXLXdX= 9 9 9 uXlXlXlXnXcXcXcXbXbXvXFXvXGXpX- 9 - wXqXqXqXqXqXqXqXqXqXqX0X0X,X= d d = V dXzXzXlXlXlXlXnXcXcXbXcXbXvXvXvXvXFXFXGXpX- 9 d 9 9 9 9 9 9 9 9 9 9 9 9 9 9 9 9 9 9 9 9 9 9 9 9 y d - g dXlXlXlXlXlXcXcXcXcXcXcXcXbXbXbXbXvXvXvXFXFXFXFXFXFXFXFXFXFXFXFXGXGXGXGXGXGXGXJXJXJXJXJXJXHXcXd 9 9 9 9 d p.a.e.u.v.a.w.= 9 9 9 0 5 _ h _ _ ] 0 9 8 w < F > < , @ s.V.@ u : oX>X. s D S v.S * a OXp ; 9 9 9 ",
"KXGXLXPXPXPXPXPXKXPXPXPXKXPXIXbXHXu.PXV.@ y - #.e.Z d.s u.b 9 b - b 9 g #.b % j.HXGXKXPXPXGXKXPXFXJXCXFXPXKXKXLXbXIX3XsXKX9 9 9 9 iXnXdXzXdXzXzXbXlXcXzXlXbXJXpX= 9 = 9XtXtXtXtXtX9X9X9X9XqX9XqX,X= d d - V zXzXdXsXdXdXdXzXmXlXdXvXlXlXzXbXvXzXzXJXdX- 9 d 9 9 9 9 9 9 9 9 9 9 9 9 9 9 9 9 9 9 9 9 9 9 9 9 y d - f dXzXzXzXzXzXlXlXlXlXlXlXlXlXlXcXcXlXdXzXiXpXzXdXdXdXvXbXvXvXvXvXvXvXFXFXFXFXFXFXFXFXFXGXFXJXlXs 9 9 9 9 - S #.b e.V e.d 9 9 9 9 h 5 _ s  ._ 5 0 9 w , F J F F F @ s.V.@ u : oX7X8 * V D N V o 6.>Xi ; 9 9 9 ",
"zXdXnXzXcXcXzXKXPXKXKXKXKXPXIXbXSXM.HXV.@ s = e.p.j.d = s.s.a.a.a.a.d.d.b.3.= j.mXsXvXlXnXmXbXKXsXmXlXbXPXKXKXLXvXJXsXdXJXy 9 9 ; aXzXv.C.V.Z.dXlXV.uXiXpXuXHXiX= 9 = 9XtX4XyX4XtX4X<X<X1X<X<XqX,X= d d - V zXuXiXuXC.uXB.C.C.pXdXdXsXpXZ.sXcXdXpXGXsX- 9 d 9 9 9 9 9 9 9 9 9 9 9 9 9 9 9 9 9 9 9 9 9 9 9 9 y d - f dXlXzXzXzXlXlXlXlXlXlXlXlXcXcXcXcXlXpXnXiXB.Z.pXs.lXFXvXvXvXvXvXFXFXFXFXFXFXFXFXFXGXGXGXGXJXlXs 9 9 9 9 9 - = = * = = 9 9 9 9 9 y 5 h 5 _ 5 9 9 9 9 < F F , F , @ s.V.@ u : 2.6X6.  ; g g * * oXoX; 9 9 9 9 ",
"zXdXiXpXvXcXzXJXPXKXKXKXKXPXHXbXbXu.HXV.@ y 9 g z.z.e.9 a.j.j.p.s.a.r.j.j.#.= j.zXHXmXmXcXZ.mXPXsXmXbXGXPXKXKXPXbXJXB.uXHX9 9 9 9 aXdXiXdXV.3XdXdXZ.@XsXpXiXGXiX= 9 = 9XtX4XyX1XtXtX<X9X1X9X<XqX,X= d d - V zXdXZ.sXuXpXC.uXiXsXpXzXdXB.zXdXdXdXdXJXpX- 9 d 9 9 9 9 9 9 9 9 9 9 9 9 9 9 9 9 9 9 9 9 9 9 9 9 y d - f dXlXzXzXzXlXlXlXlXlXlXlXlXlXcXcXcXlXZ.dXC.dXB.uXuXsXzXdXcXvXvXvXvXFXFXFXFXFXFXFXFXFXGXGXFXJXlXs 9 9 9 9 9 9 - w.r.u.b 9 9 9 9 9 9 9 s s 9 9 9 9 9 9 u u 8 9 8 y @ s.V.@ 9 9 : oX7X6.o % . = oX>Xo.; 9 9 9 9 ",
"FXJXHXJXKXIXHXKXLXPXPXPXPXLXKXvXKX@XLXM.@ y 9 b b 9 Z 9 f b 9 V 9 V d b f Z * a.KXLXHXHXHXHXHXPXFXJXIXKXLXPXPXLXvXKXzXcXKX9 9 9 9 iXcXcXcXcXlXlXvXbXvXbXbXFXJXpX= 9 = 9XDXtXtXtXtXtXtXtXqXqXqXqX,X= d d - V zXzXzXlXlXzXcXcXlXcXlXFXcXvXGXvXcXvXFXHXsX- 9 d 9 9 9 9 9 9 9 9 9 9 9 9 9 9 9 9 9 9 9 9 9 9 9 9 y d - f dXlXzXzXlXlXlXlXlXlXlXlXcXcXcXcXcXcXzXzXlXcXcXnXbXlXlXlXbXvXvXvXFXFXFXFXFXFXFXFXFXGXGXGXGXJXlXs 9 9 9 9 9 - e.b.z.n.#.= 9 9 9 9 7 5  .s  . .5 0 9 9 i 2.1.p 2.2.@ d.V.@ d 9 9 9 >X9.> u 9 9 oX2.; 9 9 9 9 9 ",
"HXHXHXHXHXHXHXHXHXHXHXHXHXHXGXmXHXKXvXN - 9 9 - - 9 = 9 9 - 9 - 9 - 9 - 9 - - f bXHXHXHXHXHXHXHXHXHXHXHXHXHXHXHXzXCXKXIXZ.= 9 9 9 B.dXpXsXdXdXdXdXdXdXzXzXdXzXV.- 9 - 9XtXqXqXqXqXqXqXqXqXqXqXqX,X- d d - V aXsXsXsXdXdXdXdXdXdXdXdXzXzXdXzXzXzXzXlXC.; 9 d 9 9 9 9 9 9 9 9 9 9 9 9 9 9 9 9 9 9 9 9 9 9 9 9 y d - g dXzXzXzXzXzXzXzXlXlXlXlXlXlXlXlXnXcXcXbXbXcXcXbXbXvXvXvXvXvXvXvXvXvXvXvXVXFXFXFXFXFXFXFXFXGXlXd 9 9 9 9 9 9 p.s.j.v.w.= 9 9 9 7 4 ] ] 5  . ._ 0 9 i o.2.7.2.2.2.= Z dX= @ % % @ % @ @ % % @ @ @ @ % % % % % ",
"s d s s d d d d d d d d d d d d d d 9 9 y 9 9 y y 9 y 9 y y 9 y 9 y 9 y y y y 9 - d d d d d d d s s d d d d d d d d d y - 9 9 9 y d s s s s s s d d d d d d d d y 9 y p p a a a a a a a a a a a p 9 d d 9 d d s s s s s d d s d d d d d d d d d d d d y 9 b y 9 9 9 9 9 9 9 9 9 9 9 9 9 9 9 9 9 9 9 9 9 9 9 d d 9 d S S S S S S S S S S #.#.#.#.#.#.#.#.#.#.#.#.#.#.3.3.3.w.w.w.w.w.w.w.w.w.w.w.w.w.w.w.w.w.w.w.w.d 9 9 9 9 y 9 b #.b #.d 9 9 9 9 y 9 h s l l l h 9 y 9 p p p i p i w = b.mXs.a.a.a.a.a.a.a.a.a.a.a.a.a.a.a.a.a.",
"@ @ @ @ @ @ @ @ @ @ @ @ @ @ @ @ @ @ @ @ @ @ @ @ @ @ @ @ @ @ @ @ @ @ @ @ @ @ @ @ @ @ @ @ @ @ @ @ @ @ @ @ @ @ @ @ @ @ @ @ @ @ @ @ @ @ @ @ @ @ @ @ @ @ @ @ @ @ @ @ @ @ @ . . . . . . . . . . . . . . @ @ @ @ @ @ @ @ @ @ @ @ @ @ @ @ @ @ @ @ @ @ @ @ @ @ @ @ % @ @ @ @ @ @ @ @ @ @ @ @ @ @ @ @ @ @ @ @ @ @ @ @ @ @ @ @ X X X X X X X X X X X X X X X X X X X X X X X X X X X X X X X X X X X X X X X X X X X X X X X @ @ @ @ @ @ @ # X X X @ @ @ @ @ @ @ # @ # # # # @ @ @ . . . @ . @ @ @   V b.v.v.v.v.v.v.v.v.v.v.v.v.v.v.v.v.v.",
"M.M.M.M.M.M.M.M.M.M.M.M.M.M.M.M.M.M.M.M.M.M.M.M.M.M.M.M.M.M.M.M.M.M.M.M.M.M.M.M.M.M.M.M.M.M.M.M.M.M.M.M.M.M.M.M.M.M.M.M.M.M.M.M.M.M.M.M.M.M.M.M.M.M.M.M.M.M.M.M.M.M.M.M.M.M.M.M.M.M.M.M.M.M.M.M.M.M.n.n.M.M.M.M.M.M.M.M.M.M.M.M.M.M.M.M.M.M.M.M.M.M.M.M.M.n.M.M.M.M.M.M.M.M.M.M.M.M.M.M.M.M.M.M.M.M.M.M.M.M.n.n.M.M.B.B.B.B.B.B.B.B.B.B.B.B.B.B.B.B.B.B.B.B.B.B.B.B.B.B.B.B.B.B.B.B.B.B.B.B.B.B.B.B.B.B.B.B.B.B.B.M.M.M.M.M.M.M.M.B.M.B.M.M.M.M.M.M.M.M.M.B.B.B.M.M.M.M.M.M.M.M.M.M.M.M.B.b.z.z.z.z.z.z.z.z.z.z.z.z.z.z.z.z.z.z.",
"j.j.j.j.j.j.j.j.j.j.j.j.j.j.j.j.j.j.j.j.j.j.j.j.j.j.j.j.j.j.j.j.j.j.j.j.j.j.j.j.j.j.j.j.j.j.j.j.j.j.j.j.j.j.j.j.j.j.j.j.j.j.j.j.j.j.j.j.j.j.j.j.j.j.j.j.j.j.j.j.j.j.j.j.j.j.j.j.j.j.j.j.j.j.j.j.j.j.j.j.j.j.j.j.j.j.j.j.j.j.j.j.j.j.j.j.j.j.j.j.j.j.j.j.j.j.j.j.j.j.j.j.j.j.j.j.j.j.j.j.j.j.j.j.j.j.j.j.j.j.j.j.j.j.j.j.j.j.j.j.j.j.j.j.j.j.j.j.j.j.j.j.j.j.j.j.j.j.j.j.j.j.j.j.j.j.j.j.j.j.j.j.j.j.j.j.j.j.j.j.j.j.j.j.j.j.j.j.j.j.j.j.j.j.j.j.j.j.j.j.j.j.j.j.j.j.j.j.j.j.j.j.j.j.j.j.j.z.c.c.c.c.c.c.c.c.c.c.c.c.c.c.c.c.c.c.",
"@ @ @ @ @ @ @ @ @ @ @ @ @ @ @ @ @ @ @ @ @ @ @ @ @ @ @ @ @ @ @ @ @ @ @ @ @ @ @ @ @ @ @ @ @ @ @ @ @ @ @ @ @ @ @ @ @ @ @ @ @ @ @ @ @ @ @ @ @ @ @ @ @ @ @ @ @ @ @ @ @ @ @ @ @ @ @ @ @ @ @ @ @ @ @ @ @ @ @ @ @ @ @ @ @ @ @ @ @ @ @ @ @ @ @ @ @ @ @ @ @ @ @ @ @ @ @ @ @ @ @ @ @ @ @ @ @ @ @ @ @ @ @ @ @ @ @ @ @ @ @ @ @ @ @ @ @ @ @ @ @ @ @ @ @ @ @ @ @ @ @ @ @ @ @ @ @ @ @ @ @ @ @ @ @ @ @ @ @ @ @ @ @ @ @ @ @ @ @ @ @ @ @ @ @ @ @ @ @ @ @ @ @ @ @ @ @ @ @ @ @ @ @ @ @ @ @ @ @ @ @ @ @ @ @ @ @ @ @ @ @ @ @ @ @ @ @ @ @ @ @ @ @ @ @ @ ",
"9 9 9 9 9 9 9 9 9 9 9 9 9 9 9 9 9 9 9 9 9 9 9 9 9 9 9 9 9 9 9 9 9 9 9 9 9 9 9 9 9 9 9 9 9 9 9 9 9 9 9 9 9 9 9 9 9 9 9 9 9 9 9 9 9 9 9 9 9 9 9 9 9 9 9 9 9 9 9 9 9 9 9 9 9 9 9 9 9 9 9 9 9 9 9 9 9 9 9 9 9 9 9 9 9 9 9 9 9 9 9 9 9 9 9 9 9 9 9 9 9 9 9 9 9 9 9 9 9 9 9 9 9 9 9 9 9 9 9 9 9 9 9 9 9 9 9 9 9 9 9 9 9 9 9 9 9 9 9 9 9 9 9 9 9 9 9 9 9 9 9 9 9 9 9 9 9 9 9 9 9 9 9 9 9 9 9 9 9 9 9 9 9 9 9 9 9 9 9 9 9 9 9 9 9 9 9 9 9 9 9 9 9 9 9 9 9 9 9 9 9 9 9 9 9 9 9 9 9 9 9 9 9 9 9 9 9 9 9 9 9 9 9 9 9 9 9 9 9 9 9 9 9 9 9 9 ",
"9 9 9 9 9 9 9 9 9 9 9 9 9 9 9 9 9 9 9 9 9 9 9 9 9 9 9 9 9 9 9 9 9 9 9 9 9 9 9 9 9 9 9 9 9 9 9 9 9 9 9 9 9 9 9 9 9 9 9 9 9 9 9 9 9 9 9 9 9 9 9 9 9 9 9 9 9 9 9 9 9 9 9 9 9 9 9 9 9 9 9 9 9 9 9 9 9 9 9 9 9 9 9 9 9 9 9 9 9 9 9 9 9 9 9 9 9 9 9 9 9 9 9 9 9 9 9 9 9 9 9 9 9 9 9 9 9 9 9 9 9 9 9 9 9 9 9 9 9 9 9 9 9 9 9 9 9 9 9 9 9 9 9 9 9 9 9 9 9 9 9 9 9 9 9 9 9 9 9 9 9 9 9 9 9 9 9 9 9 9 9 9 9 9 9 9 9 9 9 9 9 9 9 9 9 9 9 9 9 9 9 9 9 9 9 9 9 9 9 9 9 9 9 9 9 9 9 9 9 9 9 9 9 9 9 9 9 9 9 9 9 9 9 9 9 9 9 9 9 9 9 9 9 9 9 9 ",
"9 9 9 9 9 9 9 9 9 9 9 9 9 9 9 9 9 9 9 9 9 9 9 9 9 9 9 9 9 9 9 9 9 9 9 9 9 9 9 9 9 9 9 9 9 9 9 9 9 9 9 9 9 9 9 9 9 9 9 9 9 9 9 9 9 9 9 9 9 9 9 9 9 9 9 9 9 9 9 9 9 9 9 9 9 9 9 9 9 9 9 9 9 9 9 9 9 9 9 9 9 9 9 9 9 9 9 9 9 9 9 9 9 9 9 9 9 9 9 9 9 9 9 9 9 9 9 9 9 9 9 9 9 9 9 9 9 9 9 9 9 9 9 9 9 9 9 9 9 9 9 9 9 9 9 9 9 9 9 9 9 9 9 9 9 9 9 9 9 9 9 9 9 9 9 9 9 9 9 9 9 9 9 9 9 9 9 9 9 9 9 9 9 9 9 9 9 9 9 9 9 9 9 9 9 9 9 9 9 9 9 9 9 9 9 9 9 9 9 9 9 9 9 9 9 9 9 9 9 9 9 9 9 9 9 9 9 9 9 9 9 9 9 9 9 9 9 9 9 9 9 9 9 9 9 9 ",
"9 9 9 9 9 9 9 9 9 9 9 9 9 9 9 9 9 9 9 9 9 9 9 9 9 9 9 9 9 9 9 9 9 9 9 9 9 9 9 9 9 9 9 9 9 9 9 9 9 9 9 9 9 9 9 9 9 9 9 9 9 9 9 9 9 9 9 9 9 9 9 9 9 9 9 9 9 9 9 9 9 9 9 9 9 9 9 9 9 9 9 9 9 9 9 9 9 9 9 9 9 9 9 9 9 9 9 9 9 9 9 9 9 9 9 9 9 9 9 9 9 9 9 9 9 9 9 9 9 9 9 9 9 9 9 9 9 9 9 9 9 9 9 9 9 9 9 9 9 9 9 9 9 9 9 9 9 9 9 9 9 9 9 9 9 9 9 9 9 9 9 9 9 9 9 9 9 9 9 9 9 9 9 9 9 9 9 9 9 9 9 9 9 9 9 9 9 9 9 9 9 9 9 9 9 9 9 9 9 9 9 9 9 9 9 9 9 9 9 9 9 9 9 9 9 9 9 9 9 9 9 9 9 9 9 9 9 9 9 9 9 9 9 9 9 9 9 9 9 9 9 9 9 9 9 9 ",
"9 9 9 9 d 9 9 ; - - - - - - - - - - - - - - - - - - - - - - - - - - - - 9 9 9 9 9 9 - - - - - - - - - - - - - - - - - - - - - - - - - - - - 9 9 9 d 9 9 ; - - - - - - - - - - - - - - - - - - - - - - - - - - - ; 9 9 d 9 9 9 - - - - - - - - - - - - - - - - - - - - - - - - - - - 9 9 9 d 9 9 9 - - - - - - - - - - - - - - - - - - - - - - - - - - ; 9 9 9 9 9 9 - - - - - - - - - - - - - - - - - - - - - - - - - - - 9 9 9 d 9 9 9 - - - - - - - - - - - - - - - - - - - - - - - - - - - 9 9 9 y 9 9 ; - - - - - - - - - - ",
"9 9 9 9 d 9 8 G F.D.D.D.D.D.D.D.H H H H H H H J J J J J J G G G G G G G : 9 9 9 9 s w.t.t.r.r.r.r.p.p.p.p.d.d.s.s.s.s.j.c.c.c.b.b.v.v.v.v.B.Z - y d 9 2 !.!.!.!.!.!.!.!.!.W W W W W W W W W W W W R R R R R R R 3 9 9 y 9 - V t.t.t.r.r.r.r.p.p.p.p.d.s.s.s.s.s.c.c.c.c.b.b.v.v.v.B.w.- 9 y 9 ; V t.t.t.r.r.r.r.p.p.p.p.d.s.s.s.s.s.c.c.c.b.b.v.v.v.v.v.g - 9 9 9 9 w.t.t.r.r.r.r.p.p.p.p.d.d.s.s.s.s.c.c.c.c.b.b.v.v.v.B.d.9 9 d 9 ; X.|.}.}.}.}.}.}.}.=.=.=.=.=.=.=.=.=.=.=.=.=.X.X.X.X.X.X.q 9 9 y 9 9 A t.t.t.r.r.r.r.p.p.p.",
"9 9 9 9 d 9 8 J L.L.L.L.L.H.H.H.H.G.G.G.G.H.G.F.D.D.D.D.D.H H H H J J G : 9 9 9 9 s s.c.c.c.b.v.v.v.B.B.B.Z.V.v.v.Z.uXuXuXiXpXpXpXsXdXdXdXdXS = y d 9 2 ~.(.(.(.(.(.~.~.~.~.~.~.~.!.!.!.!.!.!.!.!.W W W W W W W 3 7 9 d 9 - w.c.c.c.b.b.v.v.v.B.B.V.C.v.B.B.uXuXuXiXpXpXpXsXdXdXdXdXp.= 9 y 9 - w.c.c.c.b.v.v.v.B.B.B.Z.Z.v.b.Z.uXuXuXiXpXpXpXsXdXdXdXsXb - y 9 9 y d.c.c.b.b.v.v.v.B.B.B.Z.B.v.v.C.uXuXiXaXpXpXsXsXdXdXdXB.- 9 d 9 ; =.$X$X$X$X$X.X.X.X.X.X.X.X|.}.>.|.}.}.}.}.=.=.=.=.=.=.=.q ; 9 y 9 - t.c.c.c.b.v.v.v.B.B.B.",
"9 9 9 9 d 9 8 G L.L.L.H.H.H.H.G.G.G.G.F.K.K.G.F.D.D.D.H H H H H J J J G : 9 9 9 9 s p.s.s.c.c.c.b.b.v.v.v.B.j.w.c.v.C.C.C.uXuXuXiXaXpXpXpXsXS = y d 9 2 ~.(.(.~.~.~.~.~.~.~.~.~.!.R W W !.!.!.!.W W W W W W W W 3 7 9 d 9 - S s.s.s.c.c.b.b.v.v.v.B.B.e.u.a.C.C.C.uXuXuXiXaXpXpXpXdXr.= 9 y 9 - w.s.s.s.c.c.b.b.v.v.v.B.b.w.d.v.C.C.C.uXuXuXiXaXpXpXsXaXg - y 9 9 9 p.s.s.c.c.c.b.b.v.v.v.V.p.w.p.V.C.C.C.uXuXuXiXpXpXpXdXv.- 9 d 9 ; =.$X$X$X.X.X.X.X.X.X.X.X|.X.=.>.}.}.}.}.=.=.=.=.=.=.=.=.q ; 9 y 9 - w.s.s.c.c.c.b.b.v.v.v.",
"9 9 9 9 d 9 8 J L.L.L.L.H.H.H.H.G.G.G.G.G.G.F.F.D.D.D.D.H H H H J J J G : 9 9 9 9 s d.s.s.c.c.c.b.v.v.v.v.B.v.b.z.B.C.C.C.uXuXuXiXaXpXpXpXpXS = y d 9 2 ~.(.(.(.(.~.~.~.~.~.~.~.!.!.!.!.!.!.!.!.W W W W W W W W 3 7 9 d 9 - S c.s.c.c.c.b.b.v.v.v.B.B.c.v.b.C.C.C.uXuXuXiXaXpXpXpXdXr.= 9 y 9 - w.c.s.c.c.c.b.b.v.v.v.B.v.b.v.v.C.C.C.uXuXuXiXaXpXpXpXiXg - y 9 9 9 p.s.s.c.c.c.b.v.v.v.v.B.b.v.c.V.C.C.uXuXuXuXiXpXpXpXdXv.- 9 d 9 ; =.$X$X$X$X.X.X.X.X.X.X.X|.}.}.}.|.}.}.}.=.=.=.=.=.=.=.=.q ; 9 y 9 - w.c.s.c.c.c.b.b.v.v.v.",
"9 9 9 9 d 9 8 J L.L.L.L.L.H.H.H.H.G.G.G.G.F.F.F.D.D.D.D.H H H H H J J G : 9 9 9 9 s d.s.j.c.c.b.b.v.v.v.B.B.V.Z.C.C.C.C.uXuXuXiXaXpXpXpXpXsXS = y d 9 2 ~.(.(.(.(.(.~.~.~.~.~.~.~.~.!.!.!.!.!.!.!.W W W W W W W 3 7 9 d 9 - S c.s.c.c.c.b.v.v.v.B.B.B.Z.C.C.C.C.uXuXuXiXaXpXpXpXpXdXr.= 9 y 9 - w.c.s.c.c.b.b.v.v.v.B.B.V.Z.C.C.C.C.uXuXuXiXaXpXpXpXsXaXg - y 9 9 y p.s.s.c.c.b.b.v.v.v.B.B.Z.Z.C.C.C.].uXuXuXiXaXpXpXpXdXv.- 9 d 9 - =.%X$X$X$X$X.X.X.X.X.X.X.X.X|.|.|.}.}.}.}.=.=.=.=.=.=.=.q ; 9 y 9 - t.c.s.c.c.b.b.v.v.v.B.",
"9 9 9 9 d 9 8 1 G G G G G G G G G G G G G G G 1 1 1 1 1 1 1 1 1 1 1 1 1 : 9 9 9 9 9 g g g g b b b N V V V V V V V Z Z Z A A S S S S S S S #.g - 9 d 9 2 R R R R R R R R R R R R R R R 6 6 6 6 6 3 3 3 3 3 3 3 3 2 9 9 d 9 9 d g g g g b b b V V V V V V V Z Z Z Z A S S S S S S S #.b 9 9 y 9 9 d g g g g b b N V V V V V V V Z Z Z A A S S S S S S S S d 9 9 9 9 9 g g g g b b b N V V V V V V V Z Z Z A S S S S S S S S Z 9 9 d 9 ; X.=.X.X.X.X.X.X.X.X.X.X.X.X.X.X.X.r r r r q q q q q q q 0 9 9 y 9 9 h g g g g b b N V V V ",
"9 9 9 9 d 9 9 8 8 8 8 8 8 8 8 8 8 8 8 8 8 8 8 8 8 8 8 8 8 8 8 8 8 8 8 8 9 9 9 9 9 9 9 - - - 9 - - - - - - - - - - - - - - - - - - - - - - = 9 9 9 d 9 9 0 0 0 0 7 7 7 0 0 7 7 7 7 7 7 7 7 7 7 7 7 7 7 9 7 7 7 7 9 9 9 d 9 9 9 - - - - - - - - - - - - - - - - - - - - - - - - - - = 9 9 9 y 9 9 9 - - - 9 9 - - - - - - - - - - - - - - - - - - - - - - 9 9 9 9 9 9 9 - - 9 9 9 - - - - - - - - - - - - - - - - - - - - = - 9 9 d 9 9 ; ; ; ; ; ; ; ; ; ; ; ; ; ; ; ; ; ; ; ; ; ; ; ; ; ; ; ; 9 9 9 y 9 9 9 - - - 9 9 - - - - - ",
"9 9 9 9 d 9 9 9 9 9 9 9 9 9 9 9 9 9 9 9 9 = - 9 9 9 9 9 9 9 9 9 9 9 9 9 9 9 9 9 9 9 9 9 9 9 9 9 9 9 9 9 9 9 9 9 9 9 9 9 9 9 - 9 9 - 9 9 9 9 9 9 9 d 9 9 9 9 9 9 7 0 9 9 9 9 9 9 9 9 9 9 9 9 - - - - 9 = - 9 9 9 9 9 9 d 9 9 9 9 9 9 9 9 9 9 9 9 9 9 9 9 9 9 9 9 9 - 9 - 9 - 9 9 9 9 9 9 9 y 9 9 9 9 9 9 - - 9 9 9 9 9 9 9 9 9 9 9 9 9 9 9 - 9 9 9 9 9 9 9 9 9 9 9 9 9 9 9 9 - 9 9 9 9 9 9 9 9 9 9 9 9 9 9 9 9 9 9 - 9 9 9 9 9 9 d 9 9 9 9 9 9 ; ; ; 9 9 9 9 9 9 9 9 9 9 9 9 = 9 7 - - 9 9 9 9 9 9 9 y 9 9 9 9 9 9 - - 9 9 9 9 9 ",
"9 9 9 9 d 9 9 9 9 9 9 9 9 9 9 9 9 9 9 9 - #.N - 9 9 9 9 9 9 9 9 9 9 9 9 9 9 9 9 9 9 9 9 9 y g g 9 9 9 9 9 9 9 9 9 9 9 9 9 b V f 9 Z 9 9 9 9 9 9 9 d 9 9 9 9 7 y R R 4 0 9 9 9 9 9 9 9 9 9 9 b A #.Z 9 w.b 9 9 9 9 9 9 d 9 9 9 9 9 9 d g d 9 9 9 9 9 9 9 9 9 9 9 9 Z b V g Z 9 9 9 9 9 9 9 y 9 9 9 9 - y b V s 9 9 9 9 9 9 9 9 9 9 9 9 b b b b b 9 9 9 9 9 9 9 9 9 9 9 9 - d N b 9 - 9 9 9 9 9 9 9 9 9 f g N b b b S b 9 9 9 9 9 d 9 9 9 9 ; 9 X.X.r ; ; 9 9 9 9 9 9 9 9 9 9 3.d b N Z 9 9 9 9 9 9 9 y 9 9 9 9 - s b b d - 9 9 9 ",
"9 9 9 9 d 9 9 9 9 9 9 9 9 9 9 9 9 9 9 - f d.p.9 9 9 9 9 9 9 9 9 9 9 9 9 9 9 9 9 9 9 9 9 b S Z A #.b 9 9 9 9 9 9 9 9 9 - Z a.w.S b r.Z - 9 9 9 9 9 d 9 9 9 7 R !.' W !.W 9 9 9 9 9 9 9 9 9 = u.n.b.r.= #.p.= 9 9 9 9 9 d 9 9 9 9 d w.S V #.Z s 9 9 9 9 9 9 9 9 9 9 b u.u.d w.b - 9 9 9 9 9 y 9 9 9 9 V r.e.#.3.b 9 9 9 9 9 9 9 9 9 - A u.b u.b e.9 9 9 9 9 9 9 9 9 9 9 9 #.u.3.r.r.b 9 9 9 9 9 9 9 9 - Z w.e.#.a.#.S S = 9 9 9 9 d 9 9 9 ; X..X|.=.|.=.w ; 9 9 9 9 9 9 9 9 9 a.u.z.r.j.- 9 9 9 9 9 9 y 9 9 9 9 Z r.w.e.u.Z 9 9 9 ",
"9 9 9 9 d 9 9 9 9 9 9 9 9 9 9 9 9 9 9 - f a.p.9 9 9 9 9 9 9 9 9 9 9 9 9 9 9 9 9 9 9 9 b S = . . = 3.g 9 9 9 9 9 9 9 9 9 u.j.w.3.S e.Z - 9 9 9 9 9 d 9 9 7 4 !.2 X @ @ ' ' 0 9 9 9 9 9 9 9 - u.v.Z j.b a.Z - 9 9 9 9 9 d 9 9 9 9 r.N = . . b #.9 9 9 9 9 9 9 9 9 9 e.b Z r.w.y 9 9 9 9 9 9 y 9 9 - b p.; X : = S V 9 9 9 9 9 9 9 9 - S u.S e.w.S - 9 9 9 9 9 9 9 9 9 - w.w.@ .   s r.s 9 9 9 9 9 9 9 9 d #.d p.p.#.#.s 9 9 9 9 9 d 9 9 ; r $XX.: ; . =.}.; 9 9 9 9 9 9 9 9 9 r.M.Z.e.u.9 9 9 9 9 9 9 y 9 9 - V u.- . . = u.Z - 9 ",
"9 9 9 9 d 9 9 9 9 9 9 9 9 9 9 9 9 9 9 9 - w.Z - 9 9 9 9 9 9 9 9 9 9 9 9 9 9 9 9 9 9 9 #.=   ; h . - #.9 9 9 9 9 9 9 9 9 s b Z V g S s 9 9 9 9 9 9 d 9 9 0 ~.R v D V ; # !.5 7 9 9 9 9 9 9 - Z 3.#.#.Z p.Z - 9 9 9 9 9 d 9 9 - #.#.  s.c.* . V b - 9 9 9 9 9 9 9 s w.V Z Z 3.s 9 9 9 9 9 9 y 9 9 9 r.s   V pX* % #.s 9 9 9 9 9 9 9 9 d Z V Z #.Z 9 9 9 9 9 9 9 9 9 - b r.. * s f.g y S 9 9 9 9 9 9 9 9 s g V b Z b b 9 9 9 9 9 9 d 9 9 * |.>.  b.zX: O >.X.; 9 9 9 9 9 9 9 d e.b b b b 9 9 9 9 9 9 9 y 9 9 9 u.; . s s . = u.9 9 ",
"9 9 9 9 d 9 9 9 9 9 9 9 9 9 9 9 9 9 9 9 9 = - 9 9 9 9 9 9 9 9 9 9 9 9 9 9 9 9 9 9 9 f Z * d.d.g s . S d 9 9 9 9 9 9 9 9 9 - - - - = 9 9 9 9 9 9 9 d 9 7 s ~.+ B.FX[ D # W R 0 9 9 9 9 9 9 9 - = = - - = - 9 9 9 9 9 9 d 9 9 - e.d X r.c.g * s Z 9 9 9 9 9 9 9 9 9 = - - = = 9 9 9 9 9 9 9 y 9 9 d r.@ * S v.h . Z g 9 9 9 9 9 9 9 9 9 - - - = = 9 9 9 9 9 9 9 9 9 - S S X s S pXg * S 9 9 9 9 9 9 9 9 9 9 - - - = - 9 9 9 9 9 9 d 9 9 ; .Xr + d.aXD + X.=.; 9 9 9 9 9 9 9 9 = - - - - 9 9 9 9 9 9 9 y 9 - g e.. ; g [ h X e.b - ",
"9 9 9 9 d 9 9 9 9 9 9 9 9 9 9 9 9 9 9 9 9 d 9 d 9 9 9 9 9 9 9 9 9 9 9 9 9 9 9 9 9 - g w.* c.p.h 4 . S d 9 9 9 9 9 9 9 9 9 y 9 9 f d 9 9 9 9 9 9 9 d 9 9 y ~.+ * t.S c # W R 0 9 9 9 9 9 9 9 9 d 9 9 9 9 9 9 9 9 9 9 9 d 9 9 - e.f . s s g . d Z - 9 9 9 9 9 9 9 9 9 d 9 d f s 9 9 9 9 9 9 y 9 9 d r.@ : h h s . Z g 9 9 9 9 9 9 9 9 9 9 y 9 f f 9 9 9 9 9 9 9 9 9 - A S X s g g * = S 9 9 9 9 9 9 9 9 9 9 d 9 s f d 9 9 9 9 9 9 d 9 9 ; .XX.+ V N D O X.=.; 9 9 9 9 9 9 d 9 9 9 s 9 y 9 y 9 9 9 9 9 y 9 9 f r.. ; s C.v.X r.b - ",
"9 9 9 9 d 9 9 9 9 9 9 9 9 9 9 9 9 - Z c.z.a.= w.a.9 9 9 9 9 9 9 9 9 9 9 9 9 9 9 9 9 9 r.9   * ; X 9 S 9 9 9 9 9 9 9 9 9 d e.#.w.d.e.- 9 9 9 9 9 9 d 9 9 0 !.W # ; h * * !.4 7 9 9 9 9 9 9 9 9 p.3.e.u.d.9 9 9 9 9 9 9 d 9 9 - A 3.X * ; * . Z g 9 9 9 9 9 9 9 9 - A e.S u.a.b - 9 9 9 9 9 y 9 9 9 r.f   : ; . - S 9 9 9 9 9 9 9 9 9 9 w.3.#.a.u.9 9 9 9 9 9 9 9 9 9 f r.* . ; : X g Z 9 9 9 9 9 9 9 9 - b r.S e.d.S - 9 9 9 9 9 d 9 9 : }.}.O ; h : O }.X.; 9 9 9 9 9 9 u.e.w.s.a.a.s.a.d.9 9 9 9 9 y 9 9 9 r.s X : ; h 9 r.9 9 ",
"9 9 9 9 d 9 9 9 9 9 9 9 9 9 9 9 9 = #.V.e.a.f d u.- 9 9 9 9 9 9 9 9 9 9 9 9 9 9 9 9 - N a.9 @ . ; w.f 9 9 9 9 9 9 9 9 = S V V p.e.S - 9 9 9 9 9 9 d 9 9 7 4 (.R # % = !.W 0 9 9 9 9 9 9 9 9 - #.v.B.r.u.s 9 9 9 9 9 9 d 9 9 9 9 u.S @ @ @ V S 9 9 9 9 9 9 9 9 9 9 e.9 u.e.r.d 9 9 9 9 9 9 y 9 9 9 g d.s . @ = #.b 9 9 9 9 9 9 9 9 - N S g p.w.3.- 9 9 9 9 9 9 9 9 9 - #.r.* @ @ d w.y 9 9 9 9 9 9 9 9 = e.d w.r.e.b - 9 9 9 9 9 d 9 9 9 9 $X=.O @ O =.>.; 9 9 9 9 9 9 - b a.n.B.3.V.r.n.e.V - 9 9 9 y 9 9 - b a.9 . . * #.g 9 9 ",
"9 9 9 9 d 9 9 9 9 9 9 9 9 9 9 9 9 - A j.e.p.w.b.r.- 9 9 9 9 9 9 9 9 9 9 9 9 9 9 9 9 9 9 b s 9 9 s d 9 9 9 9 9 9 9 9 9 9 d e.#.Z Z b - 9 9 9 9 9 9 d 9 9 9 0 R 5 7 9 9 R 9 9 9 9 9 9 9 9 9 9 9 u.a.a.e.3.s 9 9 9 9 9 9 d 9 9 9 9 d b 9 9 9 f 9 9 9 9 9 9 9 9 9 9 - Z e.Z Z Z 9 9 9 9 9 9 9 y 9 9 9 - b d 9 9 9 f 9 9 9 9 9 9 9 9 9 9 9 w.w.Z Z V - 9 9 9 9 9 9 9 9 9 9 9 b 9 9 9 d d 9 9 9 9 9 9 9 9 9 - b r.S V A f - 9 9 9 9 9 d 9 9 9 ; r X.; 9 9 X.9 9 9 9 9 9 9 9 9 v.r.u.j.d.p.s.p.s.9 9 9 9 9 y 9 9 9 9 b d 9 9 s f 9 9 9 ",
"9 9 9 9 d 9 9 9 9 9 9 9 9 9 9 9 9 9 9 y y s 9 s d 9 9 9 9 9 9 9 9 9 9 9 9 9 9 9 9 9 9 9 - 9 9 9 9 9 9 9 9 9 9 9 9 9 9 9 9 9 9 9 9 9 9 9 9 9 9 9 9 d 9 9 9 9 0 7 9 9 9 0 9 9 9 9 9 9 9 9 9 9 9 d - = - 9 9 9 9 9 9 9 9 d 9 9 9 9 9 - 9 9 9 9 9 9 9 9 9 9 9 9 9 9 9 9 s 9 9 9 9 9 9 9 9 9 9 y 9 9 9 9 - 9 9 9 9 9 9 9 9 9 9 9 9 9 9 9 9 9 9 9 9 9 9 9 9 9 9 9 9 9 9 9 9 9 - 9 9 9 9 9 9 9 9 9 9 9 9 9 9 9 9 y 9 9 9 9 9 9 9 9 9 9 d 9 9 9 9 ; ; 9 9 9 ; 9 9 9 9 9 9 9 9 9 d y = - y - 9 9 9 9 9 9 9 9 y 9 9 9 9 - 9 9 9 9 9 9 9 9 ",
"9 9 9 9 d 9 9 9 9 9 9 9 9 9 9 9 9 9 9 9 9 9 9 9 9 9 9 9 9 9 9 9 9 9 9 9 9 9 9 9 9 9 9 9 9 9 9 9 9 9 9 9 9 9 9 9 9 9 9 9 9 9 9 9 9 9 9 9 9 9 9 9 9 d 9 9 9 9 y 9 9 9 9 9 9 9 9 9 9 9 9 9 9 9 9 9 9 9 9 9 9 9 9 9 9 9 9 d 9 9 9 9 9 9 9 9 9 9 9 9 9 9 9 9 9 9 9 9 9 9 9 9 9 9 9 9 9 9 9 9 9 y 9 9 9 9 9 9 9 9 9 9 9 9 9 9 9 9 9 9 9 9 9 9 9 9 9 9 9 9 9 9 9 9 9 9 9 9 9 9 9 9 9 9 9 9 9 9 9 9 9 9 9 9 9 9 9 9 9 9 9 9 9 9 9 9 9 9 d 9 9 9 9 9 9 9 9 9 9 9 9 9 9 9 9 9 9 9 9 9 9 9 9 9 9 9 9 9 9 9 9 9 y 9 9 9 9 9 9 9 9 9 9 9 9 9 ",
"9 9 9 9 d 9 9 8 8 8 8 8 8 8 8 8 8 8 8 8 8 8 8 8 8 8 8 8 8 8 8 8 8 8 8 8 9 9 9 9 9 9 0 0 0 0 0 0 0 0 0 0 8 8 8 8 8 8 8 8 8 8 8 8 9 9 9 9 9 9 9 9 9 d 9 9 0 0 0 0 0 0 0 0 0 0 0 0 0 0 0 0 7 7 7 7 7 7 7 7 7 7 7 7 9 9 9 d 9 9 7 7 7 7 7 7 7 7 7 7 7 7 7 7 7 7 7 7 7 7 9 9 9 9 9 9 9 9 9 9 9 y 9 9 ; : : : : : ; ; ; ; ; ; ; ; ; ; ; ; ; ; ; ; ; ; ; 9 9 9 9 9 9 9 9 9 ; ; ; ; ; ; ; ; ; ; ; ; ; ; ; ; ; ; ; ; ; ; ; ; ; ; ; 9 9 9 d 9 9 ; ; ; ; ; ; ; ; ; ; ; ; ; ; ; ; ; ; ; ; ; ; ; ; ; ; ; ; 9 9 9 y 9 9 - - - - - - - - - - - ",
"9 9 9 9 d 9 8 G J J J J J J J J G G G G G G G G G G G G G G 1 1 1 1 1 1 : 9 9 9 9 4 K K K K K K K K K K K 6 6 6 6 6 6 6 6 6 6 6 1 1 1 + + + : 9 9 d 9 2 W W W W W W W W R R R R R R R R R R R R R R R 6 3 3 3 3 3 9 9 y 9 9 3 T T T T T T T T T T T 3 3 3 3 3 3 3 3 3 3 3 3 3 3 3 O O 9 9 u 9 9 2.1.2.2.2.2.2.2.2.2.2.o.o.a a a a a a a a a a a a 8 8 & - 9 9 9 ; q ....................................q q q q q q q q q q 9 9 d 9 ; X.=.=.=.=.=.=.=.=.=.=.X.X.X.X.X.X.X.X.X.X.X.X.X.r q q q 0 9 9 y 9 9 Y Y Y Y Y Y Y Y Y Y Y ",
"9 9 9 9 d 9 8 J L.L.L.L.L.H.H.H.H.G.G.G.F.D.D.D.D.D.D.D.D.H H H H J J G : 9 9 9 8 6 I.I.I.I.I.I.I.I.I.` ` ` ` ` ` ` ` ` _ _ K K K K K K 6 6 + 9 9 d 9 2 ~.(.(.(.(.~.~.~.~.~.~.~.~.!.!.!.!.!.!.!.!.W W W W W W W 3 7 9 y 9 7 E W.W.W.W.W.W.W.W.E E E E E E E E E T T T T T T T T 3 3 O 9 9 u 9 - 7.;X-X-X-X-X-X-X-X8.8.8.7.7.7.7.7.7.1.1.1.1.2.2.2.2.a a & 9 9 9 ; q {.{.{.{.{.{.{.{.{.{.{.{.*.*.*.*.*.*.*.*.*.*.*.........q - 9 d 9 ; =.$X$X$X$X$X.X.X.X.X.X.X.X}.|.}.|.}.}.}.}.=.=.=.=.=.=.=.q ; 9 y 9 - Y.Y.Y.Y.Y.Y.Y.Y.Y.Y.Y.",
"9 9 9 9 d 9 8 G L.L.L.H.H.H.H.G.G.G.G.F.H H F H D.D.D.H H H H H J J J G : 9 9 9 8 6 I.I.I.I.I.I.I.I.` ` ` ` _ _ K K ` _ _ K K K K K K K 6 6 + 9 9 d 9 2 ~.(.(.~.~.~.~.~.~.~.~.~.!.' W R !.!.!.!.W W W W W W W W 3 7 9 y 9 7 E W.W.W.W.W.W.W.E E E E T T T T E T T T T T T T T T 3 3 O 9 9 u 9 - 7.;X-X-X-X-X-X-X8.8.8.8.1.1.2.2.7.1.1.1.1.2.2.2.2.a a a & 9 9 9 ; q {.{.{.{.{.{.{.{.{.{.{.{.*.*...*.*.*.*.*.*.*...........q - 9 d 9 ; =.$X$X$X.X.X.X.X.X.X.X.X}.>.=.X.}.}.}.}.=.=.=.=.=.=.=.=.q ; 9 y 9 ; <.Y.Y.Y.Y.Y.Y.Y.Y.Y.Y.",
"9 9 9 9 d 9 8 J L.L.L.H.H.H.H.H.G.G.G.G.H H H H D.D.D.H H H H H J J J G : 9 9 9 8 6 I.I.I.I.I.I.I.I.` ` ` ` _ _ _ K ` _ _ K K K K K K K 6 6 + 9 9 d 9 2 ~.(.(.(.~.~.~.~.~.~.~.~.!.W ' W !.!.!.!.W W W W W W W W 3 7 9 y 9 7 E W.W.W.W.W.W.W.E E E E E T T T E T T T T T T T T T 3 3 O 9 9 u 9 - 7.;X-X-X-X-X-X-X8.8.8.8.7.1.1.2.7.1.1.1.1.2.2.2.2.o.a a & 9 9 9 ; q {.{.{.{.{.{.{.{.{.{.{.{.*.*.*.*.*.*.*.*.*.*...........q - 9 d 9 ; =.$X$X$X.X.X.X.X.X.X.X.X|.=.}.=.}.}.}.}.=.=.=.=.=.=.=.=.q ; 9 s 9 ; Y.Y.Y.Y.Y.Y.Y.Y.Y.Y.Y.",
"9 9 9 9 d 9 8 J L.L.L.L.L.L.H.H.H.H.G.G.G.G.G.F.F.D.D.D.D.H H H H H J G : 9 9 9 8 6 I.I.I.I.I.I.I.I.I.I.` ` ` ` ` ` ` ` ` _ K K K K K K K 6 + 9 9 d 9 2 ~.(.(.(.(.(.(.~.~.~.~.~.~.~.~.!.!.!.!.!.!.!.W W W W W W 3 7 9 y 9 7 E W.W.W.W.W.W.W.W.W.E E E E E E E E E T T T T T T T T 3 O 9 9 u 9 - 8.,X;X;X-X-X-X-X-X-X8.8.8.8.7.7.7.7.1.1.1.1.1.2.2.2.o.a & 9 9 9 ; q {.{.{.{.{.{.{.{.{.{.{.{.{.{.{.{.*.*.*.*.*.*.*.........q - 9 d 9 - =.%X$X$X$X$X$X.X.X.X.X.X.X.X|.|.|.|.}.}.}.}.=.=.=.=.=.=.q ; 9 s 9 - Y.*XY.Y.Y.Y.Y.Y.Y.Y.Y.",
"- 9 9 9 d 9 8 G D.D.H H H H H H H J J J J J J J G G G G G G G G G G G 1 : 9 9 9 8 4 ` ` _ _ _ _ _ K K K K K K K K K K 6 6 6 6 6 6 6 6 1 1 1 : 9 9 d 7 2 W !.' ' ' W W W W W W W W W W W R R R R R R R R R R R R 3 9 9 y 9 9 T E E T T T T T T T T T T T T T T 3 3 3 3 3 3 3 3 3 3 3 O 9 9 u 9 9 1.7.1.1.1.1.1.1.1.1.2.2.2.2.2.2.2.a a a a a a a a a a 8 - 9 9 9 ; q *.*.*.*.*.*.*.*.*.*...........................q q q q q 9 9 d 9 ; X.}.}.>.>.=.=.=.=.=.=.=.=.=.=.=.=.=.X.X.X.X.X.X.X.X.X.X.q 9 9 y 9 9 Y <.<.<.<.<.<.<.Y Y Y ",
"- 9 9 9 d 9 9 - & & & & & & & & & & & % = 8 = & & & & & & & % % % & % & 9 9 9 9 9 9 = = = = = = = = = = = = = 8 0 = = = = = = = = = = = = = 9 9 9 d 9 9 = @ @ @ @ @ @ @ @ @ @ @ % 0 0 $ % % % % % % % @ % % % % - 9 9 d 9 9 - = = = = = = = = = = = = 7 7 = = = = = = = = = = = = = - 9 9 y 9 9 - * * * * * * * * * * * * ; ; = = = = = = = = * = = = = 9 9 9 9 9 9 : * * * * * * * * * * * : ; - = = = = = = * * * = = * = 9 9 d 9 9 - % % % % % % % % % % % % - ; * * * % % % % % % % * % % - 9 9 y 9 9 - & = & & & & & & & & ",
"- 9 9 9 d 9 - S b.c.b.v.v.M.v.B.B.B.B.Z.d.= t.b.c.b.v.v.v.v.B.B.B.B.B.B.b - y 9 9 s S S w.w.t.r.r.r.p.p.p.d.r.9 d S S #.w.t.t.r.r.p.p.p.p.d.V - y d 9 s s.b.b.v.v.B.n.n.B.B.B.B.B.b d c.b.b.v.v.v.v.B.B.B.B.B.Z.p.- 9 d 9 9 b S S w.w.t.r.r.f.p.p.p.p.d 9 S S S w.w.t.t.r.p.p.p.p.d.S - 9 y 9 9 V #.#.w.t.t.r.r.p.p.p.a.p.s y S S 3.w.t.t.r.r.p.p.p.p.p.f - 9 9 9 9 S #.#.w.e.r.r.r.p.p.p.d.w.- g S S w.w.t.t.r.u.p.p.p.d.r.9 9 d 9 - #.b.c.b.v.n.B.n.B.B.B.B.Z.S 9 s.b.c.v.v.v.v.B.B.B.B.B.Z.e.- 9 y 9 9 V #.#.w.e.r.r.r.p.p.p.",
"9 9 9 9 d y = p.bXcXbXzXlXlXFXcXcXJXJXHXuX@ v.vXcXbXlXlXcXbXzXlXFXJXHXFXN - y 9 9 d c.v.v.b.v.v.C.C.V.pXsXdXZ.- g b.v.v.v.v.B.C.B.B.uXsXdXdXS = y d 9 y dXvXbXlXlXzXbXFXlXGXJXHXGXV f zXbXbXlXnXlXvXlXzXcXJXJXHXZ.= 9 d 9 - w.v.v.v.v.v.B.uXV.uXsXdXpXd y j.v.v.v.v.v.Z.B.B.C.sXsXdXp.= 9 y 9 - t.v.v.v.v.v.B.uXV.uXsXdXuXy s c.v.v.v.v.B.Z.B.B.uXsXdXsXb - y 9 9 s s.v.v.v.v.v.C.C.V.pXsXdXc.* S v.v.v.v.v.V.V.n.Z.pXsXdXB.- 9 d 9 = d.vXbXcXlXlXlXFXcXcXJXJXHXr.- dXvXbXlXlXlXvXlXzXbXJXJXHXc.= 9 y 9 - r.v.v.v.v.v.V.uXV.iXsX",
"9 9 9 9 d y = u.lXlXlX@XpXiXdXdXsXvXFXJXC.@ c.cXlXlXZ.n.pXdXsX@XlXFXGXcXb - y 9 9 s s.b.v.a.p.s.s.v.c.C.aXpXB.- g c.c.v.p.e.p.c.c.d.v.pXaXpXS = y d 9 y pXlXcXdXC.sXuXdXsXzXFXFXvXb d dXlXcXdXv.Z.dXdXuXsXFXFXJXB.= 9 d 9 - w.b.b.c.u.s.d.b.c.v.iXpXC.d 9 s.c.v.d.e.u.c.c.s.b.aXiXsXr.= 9 y 9 - w.b.b.c.u.s.d.b.c.v.aXpXC.9 s s.c.v.r.e.d.c.c.a.V.pXpXuXg - y 9 9 y d.b.v.d.p.s.s.v.c.Z.pXsXd.* S c.b.c.t.r.j.c.s.s.uXiXsXb.- 9 d 9 = p.cXlXlX@XpXiXdXdXdXvXFXFXe.- pXlXcXpXv.C.dXdXuXdXFXFXGXs.= 9 y 9 - r.b.v.j.u.s.d.v.c.n.aX",
"9 9 9 9 d 9 = u.lXlXlXpXiXsXsXdXdXFXvXGXZ.@ c.cXlXlXpXiXsXdXlXsXlXFXFXcXb - y 9 9 s s.c.v.s.p.s.j.c.c.C.uXpXv.- g c.c.v.s.p.j.j.B.c.v.iXuXaXA = y d 9 y pXlXlXdXuXsXsXdXsXlXFXFXbXb d dXlXlXzX@XdXpXlXdXdXFXvXGXB.= 9 d 9 - w.b.b.b.p.s.j.c.c.n.uXaXC.s 9 d.c.b.c.p.j.s.B.b.b.uXuXpXr.= 9 y 9 - w.b.b.b.p.s.j.c.c.B.uXpXZ.9 s s.c.b.d.p.j.c.B.c.B.iXiXuXg - y 9 9 y d.c.v.s.p.s.j.c.c.C.uXpXd.= S c.c.b.p.s.s.v.v.c.@XuXpXc.- 9 d 9 = p.lXlXlXpXiXsXsXdXdXFXFXFXw.- pXlXlXdX@XdXpXlXdXdXFXvXGXs.= 9 y 9 - t.b.b.c.p.s.j.c.c.B.uX",
"9 9 9 9 d y = p.bXcXbXvXvXVXFXFXFXGXGXHXC.@ b.vXcXbXvXFXVXFXFXFXGXGXJXvXb - y 9 9 s j.v.v.v.V.Z.C.C.uXiXiXpXv.- g c.b.v.B.V.Z.C.uXuXuXiXpXpXA = y d 9 y dXbXcXbXvXvXFXFXFXGXGXJXvXb f zXbXcXbXvXFXFXFXFXFXGXGXHXB.= 9 d 9 - w.v.v.v.B.Z.C.C.uXuXiXpXC.s y s.b.v.B.B.Z.C.C.uXuXiXaXsXr.= 9 y 9 - t.v.v.v.B.Z.C.C.uXuXiXpXZ.9 s c.b.v.B.V.Z.C.uXuXuXiXpXuXg - y 9 9 s s.v.v.v.V.Z.C.].uXiXiXsXd.* S v.b.v.B.Z.Z.C.uXuXuXiXsXb.- 9 d 9 = d.bXcXbXvXvXFXFXFXGXGXGXGXe.- dXbXcXvXvXVXFXFXFXFXGXGXHXs.= 9 y 9 - r.v.v.v.B.Z.C.C.uXuXiX",
"9 9 9 9 d 9 - S v.v.v.v.v.n.B.B.B.B.B.Z.d.- r.v.b.v.v.v.n.B.B.B.B.B.V.B.g - y 9 9 y S S w.w.w.t.t.r.r.r.r.p.t.9 d S S w.w.w.t.t.r.r.r.u.u.p.g - y d 9 s s.v.v.v.v.v.n.B.B.B.B.V.B.b f b.v.v.v.v.v.B.B.B.B.B.B.Z.u.- 9 d 9 9 g S #.w.w.t.t.r.r.r.r.p.r.d y S S w.w.w.t.t.r.r.r.r.u.p.Z - 9 y 9 9 b S #.w.w.t.t.r.r.r.r.p.r.s s S S w.w.w.t.t.r.r.r.r.p.r.d 9 9 9 9 9 A S w.w.w.t.t.r.r.r.r.p.S 9 g S S w.w.w.t.t.r.r.r.r.p.w.9 9 d 9 - 3.v.v.v.v.v.n.B.B.B.B.B.Z.S 9 s.v.v.v.v.v.B.B.B.B.B.B.Z.w.- 9 y 9 9 V S #.w.w.t.t.r.r.r.r.",
"9 9 9 9 d 9 9 9 @ X X X X X X X X X X X @ * @ X X X X X X X X # # X X % 9 9 9 9 9 9 = @ @ @ @ @ @ @ @ @ @ @ @ = = @ @ @ @ @ @ @ @ @ % @ @ * 9 9 9 d 9 9 = X X X X X X X X X X X X @ @ . X X X X X X X X @ X X . - 9 9 d 9 9 - % @ @ @ @ @ @ @ @ @ @ @ = = @ @ @ @ @ @ @ @ @ % @ @ @ 9 9 9 y 9 9 - % @ @ @ @ @ @ @ @ @ @ @ = = @ @ @ @ @ @ @ @ @ % @ @ = 9 9 9 9 9 9 = @ @ @ @ @ @ @ @ @ @ @ % = * @ @ @ @ @ @ @ @ % @ @ @ - 9 9 d 9 9 9 @ X X X X X X X X X X X @ % # X X X X X X X X @ X X @ 9 9 9 y 9 9 - @ @ @ @ @ @ @ @ @ @ ",
"9 9 9 9 d 9 9 9 e.j.j.j.j.j.j.j.j.j.j.j.s.s.s.j.j.j.j.j.j.j.j.p.p.j.j.V - 9 9 9 9 9 b e.e.e.e.e.e.e.e.e.e.e.e.e.e.e.e.e.e.e.e.e.e.w.#.e.r.Z - 9 9 d 9 - b d.j.j.j.j.j.j.j.j.j.j.j.s.s.j.j.j.j.j.j.j.j.j.r.j.j.u.9 9 9 d 9 9 9 #.e.e.e.e.e.e.e.e.e.e.e.e.e.e.e.e.e.e.e.e.e.e.S e.r.#.9 9 9 y 9 9 y #.e.e.e.e.e.e.e.e.e.e.e.e.e.e.e.e.e.e.e.e.r.#.#.e.r.b - 9 9 9 9 9 b e.e.e.e.e.e.e.e.e.e.e.e.e.e.e.e.e.e.e.e.e.r.S w.r.e.y 9 9 d 9 9 9 e.j.j.j.j.j.j.j.j.j.j.j.s.s.j.j.j.j.j.j.j.j.s.r.j.j.e.- 9 9 y 9 9 d w.e.e.e.e.e.e.e.e.e.",
"9 9 9 9 d y * p.LXLXLXLXLXLXLXLXLXLXLXLXLXLXLXLXLXLXLXLXLXLXLXJXHXLXLXJX9 9 y 9 - d zXbXcXcXbXcXcXcXcXcXcXcXcXcXcXcXcXcXcXcXcXcXbXzXpXvXcXlXN - y d 9 = bXLXLXLXLXLXLXLXLXLXLXLXLXLXLXLXLXLXLXLXLXLXLXLXcXLXLXLXb.% 9 d 9 = c.vXcXcXbXcXcXcXcXcXcXcXcXcXcXcXcXcXcXcXcXcXcXnXuXbXnXbXe.= 9 y 9 = v.vXcXcXbXcXcXcXcXcXcXcXcXcXcXcXcXcXcXcXcXcXbXdXdXvXcXdXd 9 9 y 9 y dXvXcXcXbXcXcXcXcXcXcXcXcXcXcXcXcXcXcXcXcXcXbXiXlXcXvXn.= 9 d y * s.LXLXLXLXLXLXLXLXLXLXLXLXLXLXLXLXLXLXLXLXLXLXPXbXLXLXLXu.= 9 y 9 = V.vXcXcXbXcXcXcXcXcXcX",
"9 9 9 9 d d @ C.JXHXKXHXHXKXKXKXKXKXKXKXvXKXKXKXKXKXKXKXKXKXPXCXHXpXs.PXZ = y y = #.dXsXlXzXdXlXlXzXzXzXzXlXpXzXlXlXlXlXlXlXlXlXlXdXpXiXb lXu.* s d - d GXSXKXKXHXKXKXKXKXKXKXKXGXJXPXKXKXKXKXKXKXKXKXKXnXHXZ JXmX# y d 9 = @XsXzXlXdXzXlXlXzXzXzXlXdXpXnXlXlXlXlXlXlXlXlXzXuXdXf dXv.@ 9 y 9 = uXsXzXlXdXzXlXlXzXzXlXlXdXsXnXlXlXlXlXlXlXlXnXsXdXn.S cXZ = y y = V dXsXlXzXdXlXlXlXzXzXzXlXpXmXlXlXlXlXlXlXlXlXnX3XzX#.B.dX= 9 d s @ uXJXHXKXHXHXKXKXKXKXKXKXKXvXPXKXKXKXKXKXKXKXPXHXbXGXZ KX@X@ s y 9 9 pXpXzXzXdXzXlXlXzXzXlX",
"b - 9 9 d s @ Z.FXzXzXmXzXmXdXnXzXzXJXdXzXPXKXKXKXKXKXKXKXKXLXFXGXlXdXHXZ = y y = #.dXC.V.Z.B.Z.n.Z.uXn.dXZ.M.zXlXlXlXlXlXlXlXlXnXdXiXpXc.mXu.* s d - d FXnXzXzXdXlXdXmXbXdXFXcXdXJXPXKXKXKXKXKXKXKXPXKXcXJXiXGXdX@ y d 9 = Z.iXZ.Z.n.C.M.M.iXB.uXsXv.iXcXlXlXlXlXlXlXlXlXzXuXdXc.dXb.% 9 y 9 = @XuXV.Z.n.C.M.B.iXn.iXpXv.pXcXlXlXlXlXlXlXlXcXdXsX3Xv.mXZ = y y = V dXC.V.Z.M.Z.n.Z.uXn.dXC.n.zXnXlXlXlXlXlXlXlXnXuXdXv.uXpX= 9 d s @ 3XFXzXzXmXzXmXdXcXzXzXJXdXlXPXKXKXKXKXKXKXKXPXIXbXFXiXHXZ.@ y y 9 9 iXuXV.Z.n.C.n.B.iXn.pX",
"V - 9 9 d s @ C.CXdXvXdXzXsXdXFXbXnXsX@XmXPXKXKXKXKXKXKXKXKXPXSXJX@Xs.KXZ = y y = #.sXn.iXV.C.b.v.uXpXuXn.z.b.zXlXlXlXlXlXlXlXlXlXdXpXC.b zXu.* s d - f FXdXcXlXzXdXsXzXGXcXmXpX@XJXPXKXKXKXKXKXKXKXKXKXcXGXA CXdX@ y d 9 = C.@XZ.uXB.B.v.B.dXuXC.b.d.iXnXzXlXlXlXlXlXlXlXzXuXsXg sXv.@ 9 y 9 = 3XC.C.uXB.B.v.B.dXuXZ.b.s.pXnXzXlXlXlXlXlXlXnXsXdXb.S zXZ = y y = Z sXn.iXZ.Z.b.v.uXpXuXn.c.c.zXlXlXlXlXlXlXlXlXnXuXdXS v.sX= 9 d s @ uXvXmXvXdXzXsXdXFXcXnXsXC.zXPXKXKXKXKXKXKXKXPXHXbXvXZ HX@X@ y y 9 9 iXV.@X@XV.n.v.V.dXuXV.",
"9 9 9 9 d s @ n.KXHXPXKXIXIXKXPXKXKXHXHXKXLXLXLXLXLXLXLXLXLXLXGXHXHXCXLXb - y y = Z zXmXlXlXzXzXzXlXlXlXzXdXzXcXcXcXcXcXcXcXcXcXbXzXsXnXC.vXw.= s d 9 9 GXIXKXKXIXKXHXKXPXKXKXHXIXPXLXLXLXLXLXLXLXLXLXLXcXLXzXLXsX@ y d 9 = Z.zXzXlXzXzXzXzXlXlXlXdXmXlXcXcXcXcXcXcXcXcXcXnXiXcXZ.bXz.* 9 y 9 = @XzXzXlXzXzXmXzXlXlXzXdXzXlXcXcXcXcXcXcXcXcXbXdXdXzXiXbXb - y y - b mXmXlXlXzXzXzXlXlXlXzXdXzXnXcXcXcXcXcXcXcXcXbXiXnXiXzXsX= 9 d s @ V.KXIXPXKXIXIXKXPXKXKXHXHXKXLXLXLXLXLXLXLXLXLXKXvXLXzXLXn.@ y y 9 - iXzXzXlXzXzXmXlXlXlXzX",
"9 9 9 9 d 9 - g zXSXvXvXCXCXCXvXvXvXCXCXvXbXbXbXbXbXbXbXbXbXCXdXdXFXFXB.- 9 9 9 9 - b.sXiXpXpXpXpXiXiXiXpXpXpXiXiXiXiXiXiXiXiXiXpXC.v.pXsXv.9 9 9 d 9 = b.FXvXvXCXCXCXvXvXvXvXCXCXvXbXbXbXbXbXbXbXbXbXbXpXbXFXlXZ - 9 d 9 - Z iXpXiXpXpXpXpXiXiXpXpXpXiXiXiXiXiXiXiXiXiXiXuXb.iXsXC.f - 9 y 9 - #.pXpXiXpXpXpXpXiXiXpXpXpXiXiXiXiXiXiXiXiXiXpXV.n.sXsXj.- 9 9 9 9 - j.sXiXiXpXpXpXiXiXiXpXpXpXiXiXiXiXiXiXiXiXiXpXb.@XsXiX#.- 9 d 9 - b lXSXvXCXCXCXCXvXvXvXCXCXvXbXbXbXbXbXbXbXbXvXnXpXCXFXmXf - 9 y 9 = w.pXiXiXpXpXpXpXiXiXpX",
"9 9 9 9 d 9 9 - @ = = * % & & = = = * * = = = = = = = = = & & = = * % = 9 9 9 9 9 9 = = = = = = = = = = = = = = = = = = = = = = = = - = = = 9 9 9 d 9 9 = % = = @ @ * = = = = * * = = = = = = = = @ = = = = * % - 9 9 d 9 9 - = = = = = = = = = = = = = = = = = = = = = = = - = = = - 9 9 y 9 9 - = = = = = = = = = = = = = = = = = = = = = = = = = = = 9 9 9 9 9 9 = = = = = = = = = = = = = = = = = = = = = = = - = = = - 9 9 d 9 9 - @ = = % % % = = = = * * = = = = = = = * % * = = = * % - 9 9 y 9 9 = = = = = = = = = = = ",
"9 9 9 9 d 9 9 9 9 9 9 8 w < w 8 9 9 9 9 9 9 9 9 9 9 9 8 9 , , 9 8 9 9 9 9 9 9 9 9 9 9 9 9 9 d d 9 9 9 9 9 9 9 9 9 9 9 9 9 9 d d 9 9 9 9 9 9 9 9 9 d 9 9 9 y 7 7 h 5 y 0 9 9 9 9 9 9 9 9 9 9 9 0 s 5 s 7 9 9 9 9 9 9 9 d 9 9 9 9 9 9 s f s 9 9 9 9 9 9 9 9 9 9 9 9 9 s f y 9 9 9 9 9 9 9 9 y 9 9 9 9 9 9 d f 9 9 9 9 9 9 9 9 9 9 9 9 9 9 d d 9 9 9 9 9 9 9 9 9 9 9 9 9 9 9 9 f d 9 9 9 9 9 9 9 9 9 9 9 9 9 9 f s 9 9 9 9 9 9 9 9 d 9 9 9 9 9 ; e X.w ; 9 9 9 9 9 9 9 9 9 9 9 ; e r w ; 9 9 9 9 9 9 9 y 9 9 9 9 9 9 d d 9 9 9 9 9 ",
"d 9 9 9 d 9 9 9 9 9 9 J H.F.H.F.w 8 9 9 9 9 9 9 9 9 8 F G.G.D.D.< 8 9 9 9 9 9 9 9 9 9 - b r.r.r.r.g 9 9 9 9 9 9 9 9 9 9 s w.u.S #.b 9 9 9 9 9 9 9 d 9 9 9 0 4 !.~.~.(.W 7 9 9 9 9 9 9 9 9 9 9 ' ~.!.!.W y 9 9 9 9 9 9 d 9 9 9 9 9 #.u.e.p.S 9 9 9 9 9 9 9 9 9 9 9 S p.#.#.V 9 9 9 9 9 9 9 y 9 9 9 9 f t.r.r.u.b 9 9 9 9 9 9 9 9 9 9 d e.r.S #.g 9 9 9 9 9 9 9 9 9 9 9 9 V u.e.p.e.d 9 9 9 9 9 9 9 9 9 9 V u.w.S S s 9 9 9 9 9 9 d 9 9 9 ; w |..X.X$X>.9 9 9 9 9 9 9 9 9 ; 9 }.$X}.|.=.9 9 9 9 9 9 9 y 9 9 9 - g r.r.r.r.b 9 9 9 ",
"j.d - 9 d 9 9 9 9 8 F.F.: @ o J H.9 9 9 9 9 9 9 9 8 F L.< * * 1 F.F 8 9 9 9 9 9 9 9 - b p.s @ . y p.f 9 9 9 9 9 9 9 9 9 u.Z * * = S Z 9 9 9 9 9 9 d 9 9 7 4 (.R * . 2 ~.W 0 9 9 9 9 9 9 9 0 !.!.: = * W !.9 9 9 9 9 9 d 9 9 9 9 r.#.* @ % #.w.- 9 9 9 9 9 9 9 9 e.3.= * * V S 9 9 9 9 9 9 y 9 9 9 f p.f * . ; u.b - 9 9 9 9 9 9 9 d p.g * * ; #.b 9 9 9 9 9 9 9 9 9 - S r.; @ @ b u.9 9 9 9 9 9 9 9 - Z r.; * * d w.s 9 9 9 9 9 d 9 9 9 9 .X>.= @ $ |.|.; 9 9 9 9 9 9 9 ; .X}.= = = =.}.; 9 9 9 9 9 y 9 9 - g p.d % . 9 p.g 9 9 ",
"j.Z 9 9 d 9 9 9 8 F G.% * h t.p J J 8 9 9 9 9 9 9 9 G.<   B.Z.  < D.9 9 9 9 9 9 9 9 9 r.9 X ; g g 9 S 9 9 9 9 9 9 9 - #.S   g B.% @ S d 9 9 9 9 9 d 9 9 0 !.W # 4 V e.; !.4 7 9 9 9 9 9 0 R ~.# : mXV X W W 0 9 9 9 9 d 9 9 - Z w.X * 4 Z ; Z g 9 9 9 9 9 9 - V w.X : V.4 X Z b - 9 9 9 9 y 9 9 9 t.g   : h V ; S 9 9 9 9 9 9 9 - e.b   w.b.X = #.y 9 9 9 9 9 9 9 9 f r.* . ; V s f Z - 9 9 9 9 9 9 d r.=   b.w.  g A 9 9 9 9 9 d 9 9 : }.}.O ; g t.2 }.X.; 9 9 9 9 9 : >.|.  g zX4 O >.X.; 9 9 9 9 y 9 9 9 r.d X : g g 9 S 9 9 ",
"Z 3.s 9 d 9 9 9 8 F.J & j s.JXV 1 D.8 9 9 9 9 9 8 F G.% : uXaXs % H < 8 9 9 9 9 9 - g r.. ; g pXp.X S d 9 9 9 9 9 9 9 r.9 . ~ Z.g . b V - 9 9 9 9 d 9 9 y ~.2 ; c zXzXX W R 0 9 9 9 9 9 0 !.W # D zXp.* 6 ' 7 9 9 9 9 d 9 9 - e.f . s d.sX* s Z - 9 9 9 9 9 - w.b X g C.S . s A 9 9 9 9 9 y 9 9 d r.% : h uXb.X A g 9 9 9 9 9 9 s r.* . f.B.s . Z g 9 9 9 9 9 9 9 - A #.X 4 S dXV * #.9 9 9 9 9 9 - Z w.X ; v.p.* * S 9 9 9 9 9 d 9 9 ; .XX.+ g uXvX+ X.=.; 9 9 9 9 9 ; .XX.O t.zXw.+ X.=.; 9 9 9 9 y 9 9 f r.. ; g aXs.X S d 9 ",
"- 9 9 9 d 9 9 9 8 F.J @ c [ t.* 1 H 9 9 9 9 9 9 8 F F.@ h V D j @ H < 8 9 9 9 9 9 - b e.. ; g D ; . A d 9 9 9 9 9 9 9 r.; * h h g . g V - 9 9 9 9 d 9 7 4 ~.* ; D t.D # W R 0 9 9 9 9 9 0 !.R # V V S ; 2 ' 7 9 9 9 9 d 9 9 - e.d . h V V . s Z 9 9 9 9 9 9 - w.f . h h g * 9 S 9 9 9 9 9 y 9 9 d r.@ : h D s . Z g 9 9 9 9 9 9 d r.* : h h h . V b - 9 9 9 9 9 9 - S A X s g D * * S 9 9 9 9 9 9 - Z S X s h g ; * S y 9 9 9 9 d 9 9 ; .Xr * V t.P O X.=.; 9 9 9 9 9 ; .XX.+ V V S + X.>.; 9 9 9 9 y 9 - g e.. ; g D 4 . Z f 9 ",
"9 9 9 9 d 9 9 9 8 J F.@ : g 4 @ F J 8 9 9 9 9 9 8 w H.: % h g % : F.w 9 9 9 9 9 9 9 s u.= . 4 ; . - #.9 9 9 9 9 9 9 - w.V   ; s * . A g 9 9 9 9 9 d 9 9 0 ~.R X h h : # !.5 7 9 9 9 9 9 0 W !.# ; g s # R W 0 9 9 9 9 d 9 9 - #.S   : 4 : X V b - 9 9 9 9 9 - S #.  * s : X V V - 9 9 9 9 y 9 9 9 r.9 X ; 2 . * #.s 9 9 9 9 9 9 9 r.d   ; s % @ S d 9 9 9 9 9 9 9 - b r.. % 4 ; X d S 9 9 9 9 9 9 - g r.. . s 2 X s S 9 9 9 9 9 d 9 9 * |.=.O s g ; O >.X.; 9 9 9 9 9 * |.>.O s g 4 O =.=.; 9 9 9 9 y 9 9 9 u.- X 2 ; . = #.9 9 ",
"9 9 9 9 d 9 9 9 9 8 G.D.@ o @ < F.> 8 9 9 9 9 9 9 8 J H.: . . * D.F 8 9 9 9 9 9 9 9 - Z u.* . . = #.b 9 9 9 9 9 9 9 9 d p.f . . . V S 9 9 9 9 9 9 d 9 9 0 R (.6 # % @ W W 7 9 9 9 9 9 9 9 9 ~.' # % # R !.4 9 9 9 9 9 d 9 9 9 9 p.V . . . g S 9 9 9 9 9 9 9 9 9 u.Z . . . f #.9 9 9 9 9 9 y 9 9 - b p.; . . * S V 9 9 9 9 9 9 9 - b p.9 . . @ Z V 9 9 9 9 9 9 9 9 9 - w.w.@ . . 9 w.d 9 9 9 9 9 9 9 - w.t.@ . . ; w.d 9 9 9 9 9 d 9 9 ; r $XX.O @ O =.}.9 9 9 9 9 9 9 ; 9 $X=.O @ O X.}.9 9 9 9 9 9 y 9 9 - V p.= . . * S b 9 9 ",
"9 9 9 9 d 9 9 9 9 8 < J 8 9 8 F F 8 9 9 9 9 9 9 9 9 9 H , 8 9 w F 8 9 9 9 9 9 9 9 9 9 9 S d 9 9 d b 9 9 9 9 9 9 9 9 9 - V V 9 9 9 b y 9 9 9 9 9 9 d 9 9 9 0 W R 0 9 9 R y 9 9 9 9 9 9 9 9 0 5 ' 7 9 7 R 5 0 9 9 9 9 9 d 9 9 9 - b Z 9 9 9 b d 9 9 9 9 9 9 9 9 - g Z 9 9 9 b d 9 9 9 9 9 9 y 9 9 9 9 A f 9 9 y N 9 9 9 9 9 9 9 9 9 - Z g 9 9 9 N 9 9 9 9 9 9 9 9 9 9 9 s S 9 9 9 f g 9 9 9 9 9 9 9 9 9 y S 9 9 9 f g 9 9 9 9 9 9 d 9 9 9 ; X.=.; 9 ; =.r ; 9 9 9 9 9 9 9 ; X.=.; 9 ; X.r ; 9 9 9 9 9 y 9 9 9 9 S d 9 9 d b 9 9 9 ",
"9 9 9 9 d 9 9 9 9 9 8 & 9 - ; - 8 9 9 9 9 9 9 9 9 9 9 & 8 9 - 8 & 9 9 9 9 9 9 9 9 9 9 9 = 9 9 - 9 - 9 9 9 9 9 9 9 9 9 9 - - 9 - 9 = 9 9 9 9 9 9 9 d 9 9 9 9 = 0 9 - 9 = 9 9 9 9 9 9 9 9 9 9 0 $ 9 - ; = 0 9 9 9 9 9 9 d 9 9 9 9 - = 9 - 9 - 9 9 9 9 9 9 9 9 9 9 - = 9 - 9 - 9 9 9 9 9 9 9 y 9 9 9 9 = - 9 - 9 = 9 9 9 9 9 9 9 9 9 9 = - 9 - 9 = 9 9 9 9 9 9 9 9 9 9 9 9 = 9 9 9 - - 9 9 9 9 9 9 9 9 9 9 = 9 9 9 - - 9 9 9 9 9 9 d 9 9 9 9 = * 9 - 9 * ; 9 9 9 9 9 9 9 9 9 - * 9 - 9 * ; 9 9 9 9 9 9 y 9 9 9 9 = 9 9 - 9 = 9 9 9 ",
"9 9 9 9 d 9 9 9 9 9 d V - b f b d 9 9 9 9 9 9 9 9 9 9 Z 9 9 N d V - 9 9 9 9 9 9 9 9 9 9 b 9 9 g d g 9 9 9 9 9 9 9 9 9 9 f d - b y b 9 9 9 9 9 9 9 d 9 9 9 - N f - V d V 9 9 9 9 9 9 9 9 9 9 d V = b d b d 9 9 9 9 9 9 d 9 9 9 9 d g - g s b 9 9 9 9 9 9 9 9 9 9 d b - g d g s 9 9 9 9 9 9 y 9 9 9 9 b s 9 b y b 9 9 9 9 9 9 9 9 9 9 b d 9 b y b 9 9 9 9 9 9 9 9 9 9 9 9 b 9 d d d d 9 9 9 9 9 9 9 9 9 9 b 9 d f d f 9 9 9 9 9 9 d 9 9 9 - b b = V d V 9 9 9 9 9 9 9 9 9 - g b = N d V y 9 9 9 9 9 9 y 9 9 9 9 b 9 9 b s b 9 9 9 ",
"9 9 9 9 d 9 9 9 9 - e.j.b p.z.z.u.- 9 9 9 9 9 9 9 - N c.#.#.j.c.d.f - 9 9 9 9 9 9 9 - b u.N Z r.r.e.d 9 9 9 9 9 9 9 9 9 e.3.f e.r.r.V - 9 9 9 9 9 d 9 9 9 d j.r.V j.c.j.Z - 9 9 9 9 9 9 9 - u.j.b p.z.j.r.- 9 9 9 9 9 d 9 9 9 9 w.e.d e.r.r.Z - 9 9 9 9 9 9 9 9 #.e.d w.r.r.S - 9 9 9 9 9 y 9 9 9 d u.Z b r.r.e.f - 9 9 9 9 9 9 9 d r.A b r.r.e.g - 9 9 9 9 9 9 9 9 - Z u.f #.r.r.3.9 9 9 9 9 9 9 9 - V u.g S r.r.w.9 9 9 9 9 9 d 9 9 9 9 a.p.b s.c.j.#.= 9 9 9 9 9 9 9 9 p.a.b d.z.j.w.- 9 9 9 9 9 y 9 9 - g u.V V r.r.e.d 9 9 ",
"9 9 9 9 d 9 9 9 9 - r.p.e.e.b.s.u.9 9 9 9 9 9 9 9 = S p.r.e.p.n.u.V - 9 9 9 9 9 9 9 - V 3.#.S w.p.#.g - 9 9 9 9 9 9 9 d 3.#.S S a.#.S - 9 9 9 9 9 d 9 9 - b p.u.e.r.B.u.3.= 9 9 9 9 9 9 9 9 u.p.e.e.b.a.u.9 9 9 9 9 9 d 9 9 9 9 #.#.S S p.w.#.- 9 9 9 9 9 9 9 9 #.#.S S p.w.#.9 9 9 9 9 9 y 9 9 - b 3.#.S #.a.#.N - 9 9 9 9 9 9 - g 3.#.S #.a.#.V - 9 9 9 9 9 9 9 9 - S 3.S S r.r.#.y 9 9 9 9 9 9 9 - Z 3.S S r.u.#.d 9 9 9 9 9 d 9 9 9 d u.u.e.e.n.u.r.= 9 9 9 9 9 9 9 y u.u.e.e.n.p.r.= 9 9 9 9 9 y 9 9 - b 3.#.S 3.p.#.b - 9 ",
"9 9 9 9 d 9 9 9 9 - Z a.Z r.e.u.#.- 9 9 9 9 9 9 9 9 s p.3.#.u.#.u.9 9 9 9 9 9 9 9 9 9 y w.Z V #.Z #.9 9 9 9 9 9 9 9 9 - S #.b #.Z w.d 9 9 9 9 9 9 d 9 9 9 9 u.e.Z p.#.a.d 9 9 9 9 9 9 9 9 - Z p.Z r.w.u.S - 9 9 9 9 9 d 9 9 9 - Z #.b #.Z 3.b - 9 9 9 9 9 9 9 - V w.b #.Z #.b - 9 9 9 9 9 y 9 9 9 9 #.Z b 3.V w.9 9 9 9 9 9 9 9 9 9 #.S b 3.V w.y 9 9 9 9 9 9 9 9 9 9 f w.b A S S Z - 9 9 9 9 9 9 9 9 d w.N Z #.S S - 9 9 9 9 9 d 9 9 9 - w.u.Z u.#.p.b - 9 9 9 9 9 9 9 - #.u.Z u.#.p.N - 9 9 9 9 9 y 9 9 9 9 w.Z V #.Z 3.9 9 9 ",
"9 9 9 9 d 9 9 9 9 9 - = - - - - - 9 9 9 9 9 9 9 9 9 9 = - - - - - 9 9 9 9 9 9 9 9 9 9 9 - - - - - - 9 9 9 9 9 9 9 9 9 9 - - 9 - - - 9 9 9 9 9 9 9 d 9 9 9 9 - - - - - = 9 9 9 9 9 9 9 9 9 9 - = - - - - - 9 9 9 9 9 9 d 9 9 9 9 - - 9 - - - 9 9 9 9 9 9 9 9 9 9 9 - 9 - - - 9 9 9 9 9 9 9 y 9 9 9 9 - - 9 - - - 9 9 9 9 9 9 9 9 9 9 - - 9 - - - 9 9 9 9 9 9 9 9 9 9 9 9 - 9 - - - - 9 9 9 9 9 9 9 9 9 9 - - - - - - 9 9 9 9 9 9 d 9 9 9 9 - - - - - = 9 9 9 9 9 9 9 9 9 9 - = - - - = - 9 9 9 9 9 9 y 9 9 9 9 - - 9 - - - 9 9 9 ",
"9 9 9 9 d 9 9 9 9 9 9 9 9 9 9 9 9 9 9 9 9 9 9 9 9 9 9 9 9 9 9 9 9 9 9 9 9 9 9 9 9 9 9 9 9 9 9 9 9 9 9 9 9 9 9 9 9 9 9 9 9 9 9 9 9 9 9 9 9 9 9 9 9 d 9 9 9 9 9 9 9 9 9 9 9 9 9 9 9 9 9 9 9 9 9 9 9 9 9 9 9 9 9 9 9 9 9 d 9 9 9 9 9 9 9 9 9 9 9 9 9 9 9 9 9 9 9 9 9 9 9 9 9 9 9 9 9 9 9 9 9 y 9 9 9 9 9 9 9 9 9 9 9 9 9 9 9 9 9 9 9 9 9 9 9 9 9 9 9 9 9 9 9 9 9 9 9 9 9 9 9 9 9 9 9 9 9 9 9 9 9 9 9 9 9 9 9 9 9 9 9 9 9 9 9 9 9 9 d 9 9 9 9 9 9 9 9 9 9 9 9 9 9 9 9 9 9 9 9 9 9 9 9 9 9 9 9 9 9 9 9 9 y 9 9 9 9 9 9 9 9 9 9 9 9 9 ",
"9 9 9 9 d 9 9 9 9 9 9 9 8 - 8 9 9 9 9 9 9 9 9 9 9 9 9 9 9 ; ; 9 9 9 9 9 9 9 9 9 9 9 9 9 9 9 9 9 9 9 9 9 9 9 9 9 9 9 9 9 9 9 9 9 9 9 9 9 9 9 9 9 9 d 9 9 9 9 9 9 8 - 9 9 9 9 9 9 9 9 9 9 9 9 9 9 9 : 7 9 9 9 9 9 9 9 9 d 9 9 9 9 9 9 9 9 9 9 9 9 9 9 9 9 9 9 9 9 9 9 9 9 9 9 9 9 9 9 9 9 9 y 9 9 9 9 9 9 9 9 9 9 9 9 9 9 9 9 9 9 9 9 9 9 9 9 9 9 9 9 9 9 9 9 9 9 9 9 9 9 9 9 9 9 9 9 9 9 9 9 9 9 9 9 9 9 9 9 9 9 9 9 9 9 9 9 9 9 d 9 9 9 9 9 9 8 - 8 9 9 9 9 9 9 9 9 9 9 9 9 9 7 : 7 9 9 9 9 9 9 9 9 y 9 9 9 9 9 9 9 9 9 9 9 9 9 ",
"9 9 9 9 d 9 9 9 9 9 9 - w < t 8 8 9 9 9 9 9 9 9 9 9 9 : 9 p p 9 : 9 9 9 9 9 9 9 9 9 9 9 9 9 s s 9 9 9 9 9 9 9 9 9 9 9 9 9 9 y s 9 9 9 9 9 9 9 9 9 d 9 9 9 9 8 8 t t w - 9 9 9 9 9 9 9 9 9 9 9 : i ) i ; 7 9 9 9 9 9 9 d 9 9 9 9 9 9 9 d 9 9 9 9 9 9 9 9 9 9 9 9 9 9 9 s y 9 9 9 9 9 9 9 9 y 9 9 9 9 9 9 s s 9 9 9 9 9 9 9 9 9 9 9 9 9 9 y y 9 9 9 9 9 9 9 9 9 9 9 9 9 9 9 9 s w 9 9 9 9 9 9 9 9 9 9 9 9 9 9 y y 9 9 9 9 9 9 9 9 d 9 9 9 9 8 - t < w - 9 9 9 9 9 9 9 9 9 9 9 : i ) i : 9 9 9 9 9 9 9 y 9 9 9 9 9 9 s s 9 9 9 9 9 ",
"9 9 9 9 d 9 9 9 9 9 9 Y T.T.T.T.t 8 9 9 9 9 9 9 9 9 : ) ).).).).) ; 9 9 9 9 9 9 9 9 9 9 d D D D D d 9 9 9 9 9 9 9 9 9 9 y N B N C f 9 9 9 9 9 9 9 d 9 9 9 - t T.T.T.T.Y 8 9 9 9 9 9 9 9 9 9 9 q.).).).).i 7 9 9 9 9 9 d 9 9 9 9 9 j P M P j 9 9 9 9 9 9 9 9 9 9 9 g B N C N 9 9 9 9 9 9 9 y 9 9 9 9 d D D D P h 9 9 9 9 9 9 9 9 9 9 y B B B B f 9 9 9 9 9 9 9 9 9 9 9 9 g P M P M w 9 9 9 9 9 9 9 9 9 9 f B N B B y 9 9 9 9 9 9 d 9 9 9 8 w T.T.T.T.<.9 9 9 9 9 9 9 9 9 7 i ).).).).q.y 9 9 9 9 9 9 y 9 9 9 9 d D D D D d 9 9 9 ",
"9 9 9 9 d 9 9 9 9 - T.T.* . X Y T.9 9 9 9 9 9 9 9 : ) ).i . % a ).) : 9 9 9 9 9 9 9 9 d P ; @ @ ; P d 9 9 9 9 9 9 9 9 9 B f @ . = N N 9 9 9 9 9 9 d 9 9 8 t T.Y % % : T.T.- 9 9 9 9 9 9 9 ; ).).* . * q.).9 9 9 9 9 9 d 9 9 9 9 D j * . * j D 9 9 9 9 9 9 9 9 9 B g * . * f B 9 9 9 9 9 9 y 9 9 9 s P w @ @ = P g 9 9 9 9 9 9 9 9 y C y @ @ - B f 9 9 9 9 9 9 9 9 9 9 j M = . @ w P w 9 9 9 9 9 9 9 9 f B = . * y ! y 9 9 9 9 9 d 9 9 9 w T.Y % % * T.T.8 9 9 9 9 9 9 9 9 ).q.* . = ).).; 9 9 9 9 9 y 9 9 9 d P 9 @ @ - P h 9 9 ",
"9 9 9 9 d 9 9 9 - Y T.O * V v.i Y Y - 9 9 9 9 9 9 y ).i o g s   i ).y 9 9 9 9 9 9 9 9 D ; . 2 ; * 9 M 9 9 9 9 9 9 9 9 N f X : 4 X . B d 9 9 9 9 9 d 9 9 - T.Y O h h 2 - T.t 8 9 9 9 9 9 : 2.).o : g *   7.q.$ 9 9 9 9 d 9 9 9 j j X * 4 : * j h 9 9 9 9 9 9 9 f N . * s .   N f 9 9 9 9 9 y 9 9 9 D w X ; ; * ; M 9 9 9 9 9 9 9 9 B y X ; ;   * B y 9 9 9 9 9 9 9 9 s D % . 4 ; * h j 9 9 9 9 9 9 9 y B * . s *   y B 9 9 9 9 9 d 9 9 & T.<.O 4 g 2 & T.Y - 9 9 9 9 9 $ q.).o ; g o   ).) : 9 9 9 9 y 9 9 9 D ; X ; ; * 9 M 9 9 ",
"9 9 9 9 d 9 9 9 & T.Y O g b.FXs > T.9 9 9 9 9 9 : ) ).. h D _.sX: ).p ; 9 9 9 9 9 9 d M . ; h V.V.* j w 9 9 9 9 9 9 9 B - * h w.Z.g y f 9 9 9 9 9 d 9 9 w T.: 2 V C.FXi Y Y - 9 9 9 9 9 $ ).2.o V t.zXd.a ).; 9 9 9 9 d 9 9 9 M w . h w.dXZ : g 9 9 9 9 9 9 9 N y . h D Z.S ; N 9 9 9 9 9 y 9 9 w D @ : h b.uX= h s 9 9 9 9 9 9 9 B * : h f.B.9 f f 9 9 9 9 9 9 9 9 j j . s g pXd.* j 9 9 9 9 9 9 9 f b . s g v.d.* N 9 9 9 9 9 d 9 9 8 T.< * V c.GX~ Y Y - 9 9 9 9 9 : ).) $ V f.zX;.) ).: 9 9 9 9 y 9 9 s D . ; h B.C.* h w 9 ",
"9 9 9 9 d 9 9 9 & T.Y O V S S : > <.9 9 9 9 9 9 : ) ).. h V B.B.* 1.p ; 9 9 9 9 9 9 d M . ; h t.g . j w 9 9 9 9 9 9 9 B = * h ~ b.9 y f 9 9 9 9 9 d 9 9 w T.$ ; V p.p.O Y Y - 9 9 9 9 9 : ).) o N { sXw.i q.9 9 9 9 9 d 9 9 9 M 9 . h V t.% ; g 9 9 9 9 9 9 9 N y . h V b.g - f 9 9 9 9 9 y 9 9 w D @ : h w.V X h s 9 9 9 9 9 9 9 B % : h r.j.: y s 9 9 9 9 9 9 9 9 j j . s g r.; * j 9 9 9 9 9 9 9 f g . s h c.w.* f 9 9 9 9 9 d 9 9 8 T.< * V t.s.O Y Y - 9 9 9 9 9 : ).a $ V r.sXj a 1.: 9 9 9 9 y 9 9 s M . ; h w.N . j w 9 ",
"9 9 9 9 d 9 9 9 & Y T.O : g s O Y Y - 9 9 9 9 9 9 i ).i o h 4   - ).y 9 9 9 9 9 9 9 9 D = . ; : X - j 9 9 9 9 9 9 9 9 N f X : ; X X f y 9 9 9 9 9 d 9 9 - T.Y O s h % % T.t 8 9 9 9 9 9 : 1.).o ; g *   ) 1.: 9 9 9 9 d 9 9 9 j j X * 2 % . h d 9 9 9 9 9 9 9 f N X * 4 .   f f 9 9 9 9 9 y 9 9 9 D ; X ; ; . * j 9 9 9 9 9 9 9 9 B y X ; ;   @ f y 9 9 9 9 9 9 9 9 d D @ % 4 * X w j 9 9 9 9 9 9 9 y B @ . 4 *   ; f 9 9 9 9 9 d 9 9 & T.Y O 4 h * O Y Y - 9 9 9 9 9 $ 7.q.  2 h .   1.) : 9 9 9 9 y 9 9 9 D - . ; ; . = j 9 9 ",
"9 9 9 9 d 9 9 9 9 8 T.T.O @ O < T.w 8 9 9 9 9 9 9 : ) ).- . @ - ).) ; 9 9 9 9 9 9 9 9 g P = . . = j s 9 9 9 9 9 9 9 9 y C y . . * f f 9 9 9 9 9 9 d 9 9 8 t E.< O @ % Y Y 8 9 9 9 9 9 9 9 9 ).7.o % o ) ).i 9 9 9 9 9 d 9 9 9 9 P h . . @ s j 9 9 9 9 9 9 9 9 9 B f @ . @ y f 9 9 9 9 9 9 y 9 9 9 d P ; . . * j d 9 9 9 9 9 9 9 9 s ! ; . . * f f 9 9 9 9 9 9 9 9 9 9 M M @ . . ; j 9 9 9 9 9 9 9 9 9 b B * . @ ; f y 9 9 9 9 9 d 9 9 8 w T.Y O @ % Y Y 9 9 9 9 9 9 9 9 y ).) o % o ) ).9 9 9 9 9 9 y 9 9 9 h P = . . = j s 9 9 ",
"9 9 9 9 d 9 9 9 9 8 t Y 8 9 8 < t 8 9 9 9 9 9 9 9 9 7 q.i 9 9 i ) 7 9 9 9 9 9 9 9 9 9 9 g s 9 9 w d 9 9 9 9 9 9 9 9 9 9 d f 9 9 9 s 9 9 9 9 9 9 9 d 9 9 9 - Y Y 8 9 9 Y 9 9 9 9 9 9 9 9 9 ; p q.7 y 7 ) p ; 9 9 9 9 9 d 9 9 9 9 d g 9 9 9 d 9 9 9 9 9 9 9 9 9 9 y f 9 9 9 s y 9 9 9 9 9 9 y 9 9 9 9 g d 9 9 9 d 9 9 9 9 9 9 9 9 9 9 f d 9 9 9 s 9 9 9 9 9 9 9 9 9 9 9 9 g 9 9 9 s s 9 9 9 9 9 9 9 9 9 9 f 9 9 9 y y 9 9 9 9 9 9 d 9 9 9 - Y Y 8 9 8 Y w 8 9 9 9 9 9 9 9 : ) 2.7 y 9 ) i 7 9 9 9 9 9 y 9 9 9 9 g s 9 9 9 d 9 9 9 ",
"9 9 9 9 d 9 9 9 9 9 9 & 9 9 - 8 - 9 9 9 9 9 9 9 9 9 9 $ - - - - : 9 9 9 9 9 9 9 9 9 9 9 = 9 - 9 9 - 9 9 9 9 9 9 9 9 9 9 9 - 9 - - - 9 9 9 9 9 9 9 d 9 9 9 9 & - - 9 9 & 9 9 9 9 9 9 9 9 9 9 7 $ 9 - 9 = 9 9 9 9 9 9 9 d 9 9 9 9 - - - 9 9 - 9 9 9 9 9 9 9 9 9 9 9 - 9 - 9 - 9 9 9 9 9 9 9 y 9 9 9 9 - - - 9 9 - 9 9 9 9 9 9 9 9 9 9 9 - 9 - 9 - 9 9 9 9 9 9 9 9 9 9 9 9 = 9 - 9 9 - 9 9 9 9 9 9 9 9 9 9 - 9 - 9 - 9 9 9 9 9 9 9 d 9 9 9 9 - & ; - 9 & - 9 9 9 9 9 9 9 9 9 ; $ 9 = 9 $ 9 9 9 9 9 9 9 y 9 9 9 9 - - - 9 9 - 9 9 9 ",
"9 9 9 9 d 9 9 9 9 9 9 g d d Z 9 b 9 9 9 9 9 9 9 9 9 9 d g b b b b - 9 9 9 9 9 9 9 9 9 9 N s b 9 d b 9 9 9 9 9 9 9 9 9 9 s d d f f f 9 9 9 9 9 9 9 d 9 9 9 9 S d Z d 9 S 9 9 9 9 9 9 9 9 9 9 9 b d Z f Z - 9 9 9 9 9 9 d 9 9 9 9 b f f f - b y 9 9 9 9 9 9 9 9 9 9 f 9 b d b 9 9 9 9 9 9 9 y 9 9 9 9 b d g d 9 b 9 9 9 9 9 9 9 9 9 9 9 f d b d g 9 9 9 9 9 9 9 9 9 9 9 9 N s b 9 d b 9 9 9 9 9 9 9 9 9 9 d d g d b s 9 9 9 9 9 9 d 9 9 9 9 g Z f Z = Z g - 9 9 9 9 9 9 9 9 9 N s Z d Z 9 9 9 9 9 9 9 y 9 9 9 9 b d b d 9 N 9 9 9 ",
"- 9 9 9 d 9 9 9 9 9 = b.Z w.c.e.b.- 9 9 9 9 9 9 9 9 = S j.r.c.z.u.9 9 9 9 9 9 9 9 9 9 9 #.p.e.b #.r.d 9 9 9 9 9 9 9 9 - b r.#.u.r.3.9 9 9 9 9 9 9 d 9 9 9 9 S v.j.#.S c.Z - 9 9 9 9 9 9 9 9 d c.r.j.c.a.f - 9 9 9 9 9 d 9 9 9 9 f u.r.#.g r.Z - 9 9 9 9 9 9 9 9 - e.#.w.u.e.b - 9 9 9 9 9 y 9 9 9 9 g u.r.S b u.Z - 9 9 9 9 9 9 9 9 d r.S r.u.w.y 9 9 9 9 9 9 9 9 9 9 9 Z p.e.b A r.d 9 9 9 9 9 9 9 9 - S e.#.u.r.S - 9 9 9 9 9 d 9 9 9 9 d s.c.a.b s.p.9 9 9 9 9 9 9 9 9 9 j.u.d.b.s.V - 9 9 9 9 9 y 9 9 9 9 b p.r.A b u.V - 9 ",
"= 9 9 9 d 9 9 9 9 - Z 3Xr.V n.V.B.9 9 9 9 9 9 9 9 9 9 d a.e.c.j.u.9 9 9 9 9 9 9 9 9 9 9 #.w.#.S S w.f - 9 9 9 9 9 9 9 9 9 e.S r.r.#.9 9 9 9 9 9 9 d 9 9 9 - w.d.u.u.e.a.#.= 9 9 9 9 9 9 9 9 - u.u.p.v.u.b - 9 9 9 9 9 d 9 9 9 - b e.#.#.A 3.#.- 9 9 9 9 9 9 9 9 - Z e.S a.#.Z - 9 9 9 9 9 y 9 9 9 - b e.#.#.A w.S - 9 9 9 9 9 9 9 9 9 w.#.e.u.#.d 9 9 9 9 9 9 9 9 9 9 9 #.w.#.#.S w.b - 9 9 9 9 9 9 9 - f e.Z p.w.#.- 9 9 9 9 9 d 9 9 9 - b a.u.p.e.u.p.9 9 9 9 9 9 9 9 9 = e.a.r.n.u.#.= 9 9 9 9 9 y 9 9 9 - V e.#.#.A w.Z - 9 ",
"= 9 9 9 d 9 9 9 9 9 9 S e.Z e.d e.9 9 9 9 9 9 9 9 9 9 d Z #.e.e.#.- 9 9 9 9 9 9 9 9 9 f r.N #.b Z #.9 9 9 9 9 9 9 9 9 9 9 b V S A Z - 9 9 9 9 9 9 d 9 9 9 9 j.#.u.#.Z p.d 9 9 9 9 9 9 9 9 9 9 Z V u.#.u.9 9 9 9 9 9 9 d 9 9 9 - w.S A S b #.g 9 9 9 9 9 9 9 9 9 - b f #.N 3.y 9 9 9 9 9 9 y 9 9 9 9 w.A S A b 3.f 9 9 9 9 9 9 9 9 9 9 b b #.Z S 9 9 9 9 9 9 9 9 9 9 9 d r.N #.N V #.9 9 9 9 9 9 9 9 9 9 d g A Z #.b - 9 9 9 9 9 d 9 9 9 = w.p.#.u.V r.#.- 9 9 9 9 9 9 9 9 - Z b u.S u.9 9 9 9 9 9 9 y 9 9 9 9 e.Z S Z b 3.d 9 9 ",
"9 9 9 9 d 9 9 9 9 9 9 = = 9 - - = 9 9 9 9 9 9 9 9 9 9 9 - - = = - 9 9 9 9 9 9 9 9 9 9 9 - 9 - - - - 9 9 9 9 9 9 9 9 9 9 9 9 - - - - 9 9 9 9 9 9 9 d 9 9 9 9 = - = - - = 9 9 9 9 9 9 9 9 9 9 9 - - = - = 9 9 9 9 9 9 9 d 9 9 9 9 - - - - 9 - 9 9 9 9 9 9 9 9 9 9 9 9 9 - - - 9 9 9 9 9 9 9 y 9 9 9 9 - 9 - - 9 - 9 9 9 9 9 9 9 9 9 9 9 9 9 - - - 9 9 9 9 9 9 9 9 9 9 9 9 - 9 - - - - 9 9 9 9 9 9 9 9 9 9 9 9 - - - 9 9 9 9 9 9 9 d 9 9 9 9 - - - = - = - 9 9 9 9 9 9 9 9 9 9 - - = - = 9 9 9 9 9 9 9 y 9 9 9 9 - 9 - - 9 - 9 9 9 ",
"9 9 9 9 d 9 9 9 9 9 9 9 9 9 9 9 9 9 9 9 9 9 9 9 9 9 9 9 9 9 9 9 9 9 9 9 9 9 9 9 9 9 9 9 9 9 9 9 9 9 9 9 9 9 9 9 9 9 9 9 9 9 9 9 9 9 9 9 9 9 9 9 9 d 9 9 9 9 9 9 9 9 9 9 9 9 9 9 9 9 9 9 9 9 9 9 9 9 9 9 9 9 9 9 9 9 9 d 9 9 9 9 9 9 9 9 9 9 9 9 9 9 9 9 9 9 9 9 9 9 9 9 9 9 9 9 9 9 9 9 9 y 9 9 9 9 9 9 9 9 9 9 9 9 9 9 9 9 9 9 9 9 9 9 9 9 9 9 9 9 9 9 9 9 9 9 9 9 9 9 9 9 9 9 9 9 9 9 9 9 9 9 9 9 9 9 9 9 9 9 9 9 9 9 9 9 9 9 d 9 9 9 9 9 9 9 9 9 9 9 9 9 9 9 9 9 9 9 9 9 9 9 9 9 9 9 9 9 9 9 9 9 y 9 9 9 9 9 9 9 9 9 9 9 9 9 ",
"9 9 9 9 d 9 9 9 9 9 9 9 - - - 9 9 9 9 9 9 9 9 9 9 9 9 9 9 8 8 9 9 9 9 9 9 9 9 9 9 9 9 9 9 9 9 9 9 9 9 9 9 9 9 9 9 9 9 9 9 9 9 - 9 9 9 9 9 9 9 9 9 d 9 9 9 9 9 9 - - - 9 9 9 9 9 9 9 9 9 9 9 9 9 7 0 0 9 9 9 9 9 9 9 9 d 9 9 9 9 9 9 9 9 9 9 9 9 9 9 9 9 9 9 9 9 9 9 9 - 9 9 9 9 9 9 9 9 9 y 9 9 9 9 9 9 9 9 9 9 9 9 9 9 9 9 9 9 9 9 9 9 9 - 9 9 9 9 9 9 9 9 9 9 9 9 9 9 9 9 9 9 9 9 9 9 9 9 9 9 9 9 9 9 9 9 - - 9 9 9 9 9 9 9 9 d 9 9 9 9 9 9 - - - 9 9 9 9 9 9 9 9 9 9 9 9 9 ; ; ; 9 9 9 9 9 9 9 9 y 9 9 9 9 9 9 9 9 9 9 9 9 9 ",
"9 9 9 9 d 9 9 9 9 9 9 - r <.X.- - 9 9 9 9 9 9 9 9 9 9 8 w F F w 8 9 9 9 9 9 9 9 9 9 9 9 9 9 d d 9 9 9 9 9 9 9 9 9 9 9 9 9 9 d b d - 9 9 9 9 9 9 9 d 9 9 9 9 - 9 X.X.e - 9 9 9 9 9 9 9 9 9 9 9 0 4 R 5 7 7 9 9 9 9 9 9 d 9 9 9 9 9 9 s d s 9 9 9 9 9 9 9 9 9 9 9 9 9 d b d 9 9 9 9 9 9 9 9 y 9 9 9 9 9 9 d d 9 9 9 9 9 9 9 9 9 9 9 9 9 9 f b y - 9 9 9 9 9 9 9 9 9 9 9 9 9 9 d d 9 9 9 9 9 9 9 9 9 9 9 9 - y b f 9 - 9 9 9 9 9 9 d 9 9 9 9 - - X.<.r - ; 9 9 9 9 9 9 9 9 9 ; ; r X.r ; ; 9 9 9 9 9 9 y 9 9 9 9 9 9 d d 9 9 9 9 9 ",
"9 9 9 9 d 9 9 9 9 9 9 XX*X*X*X*Xr - 9 9 9 9 9 9 9 9 8 F H.G.G.H.F 8 9 9 9 9 9 9 9 9 9 9 g @.Z Z @.d 9 9 9 9 9 9 9 9 9 9 d e.r.w.p.S 9 9 9 9 9 9 9 d 9 9 9 - X.*X*X*X*X>.9 9 9 9 9 9 9 9 9 7 y !.~.!.(.!.4 7 9 9 9 9 9 d 9 9 9 9 9 M @.M @.M 9 9 9 9 9 9 9 9 9 9 y 3.u.w.p.w.s 9 9 9 9 9 9 y 9 9 9 9 d Z Z Z @.b 9 9 9 9 9 9 9 9 9 - g r.r.e.p.Z 9 9 9 9 9 9 9 9 9 9 9 9 b @.M @.Z d 9 9 9 9 9 9 9 9 9 9 Z u.w.r.r.g 9 9 9 9 9 9 d 9 9 9 - r *X*X*X*XXXw ; 9 9 9 9 9 9 9 ; r |..X|.$X|.w ; 9 9 9 9 9 y 9 9 9 9 d @.Z Z @.g 9 9 9 ",
"9 9 9 9 d 9 9 9 9 - *X*X% O O <.*Xw ; 9 9 9 9 9 9 8 F H.> @ % > L.F 8 9 9 9 9 9 9 9 9 g @.- . . - ;.g 9 9 9 9 9 9 9 9 y u.b . . * w.e.- 9 9 9 9 9 d 9 9 - n *XX.O O = *XXX& 9 9 9 9 9 9 9 7 ~.!.@ # @ W (.y 9 9 9 9 9 d 9 9 9 9 Z b @ . % b @.9 9 9 9 9 9 9 9 9 r.S @ . @ Z u.9 9 9 9 9 9 y 9 9 9 d ;.9 . . = @.b 9 9 9 9 9 9 9 9 f p.d . . = r.S - 9 9 9 9 9 9 9 9 9 M Z * . @ w ;.s 9 9 9 9 9 9 9 - S r.= . . d a.f 9 9 9 9 9 d 9 9 ; w *X<.O O % *X*X- 9 9 9 9 9 9 9 9 .X=.O O % }..X; 9 9 9 9 9 y 9 9 9 d @.; . . - ;.b 9 9 ",
"9 9 9 9 d 9 9 9 & <.*XO : V h O >.XX& 9 9 9 9 9 9 w H.> @ g g & > H.w 9 9 9 9 9 9 9 9 @.- . 4 ; . 9 S 9 9 9 9 9 9 9 - w.Z   ; s * . r.b - 9 9 9 9 d 9 9 - *X<.O h g * % *XX.- 9 9 9 9 9 0 W !.# ; c s # ' !.0 9 9 9 9 d 9 9 - b M X : s * . M b - 9 9 9 9 9 - Z w.X * s : X #.S - 9 9 9 9 y 9 9 9 Z 9 X 4 4 . = @.9 9 9 9 9 9 9 9 r.f   ; s % * u.d 9 9 9 9 9 9 9 9 d Z @ % s : . d Z 9 9 9 9 9 9 9 f r.* . s ; X g r.- 9 9 9 9 d 9 9 & XX,.O s V 4 O *X>.& 9 9 9 9 9 * }.}.O 4 N 4 O |.=.* 9 9 9 9 y 9 9 9 @.; . 4 ; . ; @.9 9 ",
"9 9 9 9 d 9 9 9 & XX<.O D S S 2 t *X; 9 9 9 9 9 8 F G.@ h S p.j . G.F 8 9 9 9 9 9 9 d Z . ; h B.Z.= b s 9 9 9 9 9 9 9 r.9 % g D V X Z #.- 9 9 9 9 d 9 ; w *X7 2 V Z.CXk <.<.- 9 9 9 9 9 0 !.W # V w.f.$ 6 ~.7 9 9 9 9 d 9 9 9 Z w . h [ sXS ; b 9 9 9 9 9 9 - w.g . h V D . d e.- 9 9 9 9 y 9 9 s Z @ ; h c.uX; d d 9 9 9 9 9 9 s r.* : g S g X #.V - 9 9 9 9 9 9 - b b . s g uXs.= b 9 9 9 9 9 9 - Z #.X s g S : * r.y 9 9 9 9 d 9 9 - *Xr + D S D O <.XX& 9 9 9 9 9 ; .XX.+ D t.r.O =.|.: 9 9 9 9 y 9 9 d Z . ; h v.C.; b d 9 ",
"9 9 9 9 d 9 9 9 & XX>.O h B.zX+ t *X9 9 9 9 9 9 8 F G.@ h N lXdX. G.F 8 9 9 9 9 9 9 d Z . ; h r.V . b w 9 9 9 9 9 9 9 r.9 * s p.sX: V #.- 9 9 9 9 d 9 ; w *X7 ; V d.s.O <.<.- 9 9 9 9 9 0 !.W # g p.JX;.6 ~.7 9 9 9 9 d 9 9 9 Z 9 . h D r.* 9 b 9 9 9 9 9 9 - w.g . s w.dXg s e.- 9 9 9 9 y 9 9 s Z @ : h t.S . g d 9 9 9 9 9 9 s r.* : s v.3X. #.Z - 9 9 9 9 9 9 - b b X s g p.s * b 9 9 9 9 9 9 - Z #.X 4 g pXp.@ r.s 9 9 9 9 d 9 9 - *Xt * g sXpX  <.XX& 9 9 9 9 9 ; .XX.+ g c.GXk X.|.- 9 9 9 9 y 9 9 d Z . ; h t.D . b s 9 ",
"9 9 9 9 d 9 9 9 & <.*XO * S pXO >.XX& 9 9 9 9 9 9 w H.> O s g A > G.w 9 9 9 9 9 9 9 9 @.- . ; : X - b 9 9 9 9 9 9 9 - w.Z   : ; g - w.b - 9 9 9 9 d 9 9 - *X<.O s s . % XXr - 9 9 9 9 9 0 W !.# : h D r W !.0 9 9 9 9 d 9 9 - b M X * ; . . b d 9 9 9 9 9 9 - Z w.X * ; g ; S S - 9 9 9 9 y 9 9 9 Z 9 X ; : X * b 9 9 9 9 9 9 9 9 r.f   : 4 g ; r.d 9 9 9 9 9 9 9 9 d Z @ . ; * X w b 9 9 9 9 9 9 9 f r.% . ; h s f e.9 9 9 9 9 d 9 9 & XX,.O : t.Z.O *X>.& 9 9 9 9 9 * }.}.O ; h S 2 |.=.: 9 9 9 9 y 9 9 9 @.; X ; : X = b 9 9 ",
"9 9 9 9 d 9 9 9 9 - *X*XO . O <.*Xe ; 9 9 9 9 9 9 8 F L.> @ . o F.F 8 9 9 9 9 9 9 9 9 b ;.= . . = M d 9 9 9 9 9 9 9 9 y p.b . . X V Z 9 9 9 9 9 9 d 9 9 - X.*XX.O % % ,.<.- 9 9 9 9 9 9 9 7 ~.!.# % X R !.y 9 9 9 9 9 d 9 9 9 9 @.b . . @ d b 9 9 9 9 9 9 9 9 9 r.S . . X f S 9 9 9 9 9 9 y 9 9 9 d ;.9 . . = b d 9 9 9 9 9 9 9 9 f a.s . . @ S V 9 9 9 9 9 9 9 9 9 9 M Z % . @ 9 M 9 9 9 9 9 9 9 9 - #.r.* . . - w.d 9 9 9 9 9 d 9 9 ; w *X<.O . O ,.*X- 9 9 9 9 9 9 9 9 $X=.O @   =.}.9 9 9 9 9 9 y 9 9 9 d ;.- . . = M d 9 9 ",
"9 9 9 9 d 9 9 9 9 - e >.9 9 2 X.X.- 9 9 9 9 9 9 9 9 8 F w 9 9 w F 8 9 9 9 9 9 9 9 9 9 9 b s 9 9 s d 9 9 9 9 9 9 9 9 9 - g b 9 9 9 b 9 9 9 9 9 9 9 d 9 9 9 - <.X.- 9 9 <.9 9 9 9 9 9 9 9 9 7 4 W 7 9 9 R 4 7 9 9 9 9 9 d 9 9 9 9 d g 9 9 9 d 9 9 9 9 9 9 9 9 9 9 d V 9 9 9 g d 9 9 9 9 9 9 y 9 9 9 9 g d 9 9 9 d 9 9 9 9 9 9 9 9 9 - b g 9 9 s b 9 9 9 9 9 9 9 9 9 9 9 9 b 9 9 9 d s 9 9 9 9 9 9 9 9 9 9 Z y 9 9 d f 9 9 9 9 9 9 d 9 9 9 - X.<.- 9 y <.e - 9 9 9 9 9 9 9 ; X.X.2 9 y X.r ; 9 9 9 9 9 y 9 9 9 9 b s 9 9 9 d 9 9 9 ",
"9 9 9 9 d 9 9 9 9 9 9 & - 9 - = - 9 9 9 9 9 9 9 9 9 9 8 = 9 9 = 8 - 9 9 9 9 9 9 9 9 9 9 = 9 - 9 - - - 9 9 9 9 9 9 9 9 9 9 = 9 9 - - - 9 9 9 9 9 9 d 9 9 9 9 % - - 9 - & - - 9 9 9 9 9 9 9 9 9 0 - 9 = 0 = 9 9 9 9 9 9 d 9 9 9 9 - - 9 9 9 - 9 - 9 9 9 9 9 9 9 9 9 - - 9 - - - 9 9 9 9 9 9 y 9 9 9 9 = 9 9 9 9 - 9 - 9 9 9 9 9 9 9 9 9 - 9 9 - - - 9 9 9 9 9 9 9 9 9 9 9 = 9 - 9 - - - 9 9 9 9 9 9 9 9 9 - - 9 - - - 9 9 9 9 9 9 d 9 9 9 9 - & - 9 - & - 9 9 9 9 9 9 9 9 9 ; * - 9 = - = 9 9 9 9 9 9 y 9 9 9 9 = 9 9 9 9 - 9 - 9 ",
"9 9 9 9 d 9 9 9 9 9 9 b b - S b d b - 9 9 9 9 9 9 9 9 9 Z s d Z b Z - 9 9 9 9 9 9 9 9 d V 9 b 9 b d b d 9 9 9 9 9 9 9 9 9 b y d b f b 9 9 9 9 9 9 d 9 9 9 s #.9 b 9 b V V b - 9 9 9 9 9 9 9 - b b 9 #.f #.9 9 9 9 9 9 d 9 9 9 9 V d d d y N d b 9 9 9 9 9 9 9 9 9 d b - b d N s 9 9 9 9 9 y 9 9 9 9 Z s d d d b d b 9 9 9 9 9 9 9 9 9 g d 9 V d N 9 9 9 9 9 9 9 9 9 9 d V 9 b 9 b f b d 9 9 9 9 9 9 9 9 9 b 9 g b b f 9 9 9 9 9 d 9 9 9 9 9 S b 9 Z b V 9 9 9 9 9 9 9 9 9 7 f N - S f #.y 9 9 9 9 9 y 9 9 9 9 Z 9 f y d b f b 9 ",
"9 9 9 9 d 9 9 9 9 9 - #.d.% n.Z a.u.= 9 9 9 9 9 9 9 - Z n.y e.j.c.a.d 9 9 9 9 9 9 9 9 y e.S u.y e.u.r.S - 9 9 9 9 9 9 9 b a.y Z r.u.w.d 9 9 9 9 9 d 9 9 9 9 u.e.b.f u.c.c.p.9 9 9 9 9 9 9 9 d n.Z Z s.b.d.Z - 9 9 9 9 d 9 9 9 9 Z #.r.N V r.u.w.d 9 9 9 9 9 9 9 9 r.#.s e.u.e.Z - 9 9 9 9 y 9 9 9 9 Z #.r.b Z r.u.w.d 9 9 9 9 9 9 9 d a.d V e.u.e.g - 9 9 9 9 9 9 9 9 9 w.A u.y w.u.r.#.- 9 9 9 9 9 9 - S u.9 #.r.r.#.9 9 9 9 9 d 9 9 9 9 9 Z a.d V.r.z.9 9 9 9 9 9 9 9 9 9 b.e.f s.b.s.#.= 9 9 9 9 y 9 9 9 9 S #.u.f S r.u.w.y ",
"9 9 9 9 d 9 9 9 9 9 #.b u.s N n.C.a.= 9 9 9 9 9 9 9 N a.c.r.e.s.b.u.b - 9 9 9 9 9 9 V b 3.r.s.V #.p.w.#.- 9 9 9 9 9 9 g w.u.#.S e.p.#.f - 9 9 9 9 d 9 - Z Z u.a.@Xw.r.c.j.u.y 9 9 9 9 9 9 f r.c.p.e.u.n.u.#.= 9 9 9 9 d 9 9 f b S 3.j.3.A e.p.#.g - 9 9 9 9 9 9 Z r.e.Z #.p.w.#.- 9 9 9 9 y 9 9 g b #.w.j.#.S e.p.#.d 9 9 9 9 9 9 d #.u.#.S w.p.#.b - 9 9 9 9 9 9 9 N b 3.e.s.V #.p.e.#.9 9 9 9 9 9 9 b e.u.S S u.r.#.9 9 9 9 9 d 9 9 9 f S e.w.V M.w.u.d 9 9 9 9 9 9 9 d e.z.d.e.u.n.p.e.= 9 9 9 9 y 9 9 b b #.w.j.S S e.u.#.d ",
"9 9 9 9 d 9 9 9 9 9 - d Z V e.Z b Z - 9 9 9 9 9 9 9 - y r.S S e.#.e.- 9 9 9 9 9 9 9 - Z w.d Z b A N #.g 9 9 9 9 9 9 9 9 9 S V b S N S 9 9 9 9 9 9 d 9 9 = b s.b S #.#.w.3.#.- 9 9 9 9 9 9 9 - w.w.V r.Z u.y 9 9 9 9 9 d 9 9 9 9 e.b g Z b S b S 9 9 9 9 9 9 9 9 - b S b S b #.d 9 9 9 9 9 y 9 9 9 s e.b b Z b S V S 9 9 9 9 9 9 9 9 9 A Z b #.b #.9 9 9 9 9 9 9 9 9 - V e.d Z b Z V S b - 9 9 9 9 9 9 - d #.b Z Z Z V - 9 9 9 9 d 9 9 9 9 9 a.e.S e.N V 9 9 9 9 9 9 9 9 9 = S e.V r.Z u.f 9 9 9 9 9 y 9 9 - d e.g b Z N Z V Z - ",
"9 9 9 9 d 9 9 9 9 9 9 9 - - - - - - 9 9 9 9 9 9 9 9 9 9 = - - = - = 9 9 9 9 y 9 9 9 9 - - 9 - 9 - - - 9 9 9 9 9 9 9 9 9 9 - - 9 - - - 9 9 9 9 9 9 d 9 9 9 9 = 9 - - - - - - 9 9 9 9 9 9 9 9 9 - - - = - = 9 9 9 9 9 9 d 9 9 9 9 - 9 9 - 9 - - - 9 9 9 9 9 9 9 9 9 9 - 9 - - - 9 9 9 9 9 9 d 9 9 9 9 - 9 - - 9 - - - 9 9 9 9 9 9 9 9 9 - - 9 - - - 9 9 9 9 9 9 y 9 9 9 - - 9 - - - - - 9 9 9 9 9 9 9 9 9 9 - 9 - - - - 9 9 9 9 9 d 9 9 9 9 9 = - - - - - 9 9 9 9 9 9 9 9 9 9 - = - = - = 9 9 9 9 9 9 d 9 9 9 9 - 9 - - - - - - 9 ",
"- - - - d 9 - - - - - - - - 9 9 - 9 - - - - - - - - - - 9 9 9 9 9 9 - - - - 9 9 - - - - 9 - - - 9 - 9 - - - - - - - - - - 9 - - 9 - 9 - - - - - 9 y - - - - 9 - 9 9 9 9 9 9 - - - - - - - - - 9 9 - 9 9 9 - - - - - - 9 - - - - 9 - - - - 9 - 9 - - - - - - - - - - 9 - 9 - 9 - - - - - - 9 - - - - 9 - - - - 9 - 9 - - - - - - - - - 9 - - 9 - 9 - - - - - 9 9 - - - - 9 - - - - - 9 - - - - - - - - - - 9 - - - - - - - - - - d 9 - - - - 9 9 9 9 - - - - - - - - - - - - 9 9 - 9 9 9 - - - - - 9 9 - - - - 9 - - - - 9 - - - ",
"b b b b b b b b b b b b b b b b b b b b b b b b b b b b b b b b b b b b b b b b b b b b b b b b b b b b b b b b b b b b b b b b b b b b b b b b b b b b b b b b b b b b b b b b b b b b b b b b b b b b b b b b b b b b b b b b b b b b b b b b b b b b b b b b b b b b b b b b b b b b b b b b b b b b b b b b b b b b b b b b b b b b b b b b b b b b b b b b b b b b b b b b b b b b b b b b b b b b b b b b b b b b b b b b b b b b b b b b b b b b b b b b b b b b b b b b b b b b b b b b b b b b b b b b b b b b b b b b ",
"pXpXpXpXpXpXpXpXpXpXpXpXpXpXpXpXpXpXpXpXpXpXpXpXpXpXpXpXpXpXpXpXpXpXpXpXpXpXpXpXpXpXpXpXpXpXpXpXpXpXpXpXpXpXpXpXpXpXpXpXpXpXpXpXpXpXpXpXpXpXpXpXpXpXpXpXpXpXpXpXpXpXpXpXpXpXpXpXpXpXpXpXpXpXpXpXpXpXpXpXpXpXpXpXpXpXpXpXpXpXpXpXpXpXpXpXpXpXpXpXpXpXpXpXpXpXpXpXpXpXpXpXpXpXpXpXpXpXpXpXpXpXpXpXpXpXpXpXpXpXpXpXpXpXpXpXpXpXpXpXpXpXpXpXpXpXpXpXpXpXpXpXpXpXpXpXpXpXpXpXpXpXpXpXpXpXpXpXpXpXpXpXpXpXpXpXpXpXpXpXpXpXpXpXpXpXpXpXpXpXpXpXpXpXpXpXpXpXpXpXpXpXpXpXpXpXpXpXpXpXpXpXpXpXpXpXpXpXpXpXpXpXpXpXpXpXpXpXpXpXpXpXpXpXpXpX",
"#.#.#.#.#.#.#.#.#.#.#.#.#.#.#.#.#.#.#.#.#.#.#.#.#.#.#.#.#.#.#.#.#.#.#.#.#.#.#.#.#.#.#.#.#.#.#.#.#.#.#.#.#.#.#.#.#.#.#.#.#.#.#.#.#.#.#.#.#.#.#.#.#.#.#.#.#.#.#.#.#.#.#.#.#.#.#.#.#.#.#.#.#.#.#.#.#.#.#.#.#.#.#.#.#.#.#.#.#.#.#.#.#.#.#.#.#.#.#.#.#.#.#.#.#.#.#.#.#.#.#.#.#.#.#.#.#.#.#.#.#.#.#.#.#.#.#.#.#.#.#.#.#.#.#.#.#.#.#.#.#.#.#.#.#.#.#.#.#.#.#.#.#.#.#.#.#.#.#.#.#.#.#.#.#.#.#.#.#.#.#.#.#.#.#.#.#.#.#.#.#.#.#.#.#.#.#.#.#.#.#.#.#.#.#.#.#.#.#.#.#.#.#.#.#.#.#.#.#.#.#.#.#.#.#.#.#.#.#.#.#.#.#.#.#.#.#.#.#.#.#.#.#.#.#.#.",
"iXiXiXiXiXiXiXiXiXiXiXiXiXiXiXiXiXiXiXiXiXiXiXiXiXiXiXiXiXiXiXiXiXiXiXiXiXiXiXiXiXiXiXiXiXiXiXiXiXiXiXiXiXiXiXiXiXiXiXiXiXiXiXiXiXiXiXiXiXiXiXiXiXiXiXiXiXiXiXiXiXiXiXiXiXiXiXiXiXiXiXiXiXiXiXiXiXiXiXiXiXiXiXiXiXiXiXiXiXiXiXiXiXiXiXiXiXiXiXiXiXiXiXiXiXiXiXiXiXiXiXiXiXiXiXiXiXiXiXiXiXiXiXiXiXiXiXiXiXiXiXiXiXiXiXiXiXiXiXiXiXiXiXiXiXiXiXiXiXiXiXiXiXiXiXiXiXiXiXiXiXiXiXiXiXiXiXiXiXiXiXiXiXiXiXiXiXiXiXiXiXiXiXiXiXiXiXiXiXiXiXiXiXiXiXiXiXiXiXiXiXiXiXiXiXiXiXiXiXiXiXiXiXiXiXiXiXiXiXiXiXiXiXiXiXiXiXiXiXiXiXiXiXiXiXiX",
"@ @ X X X @ @ @ @ @ @ @ @ @ @ @ @ @ @ @ @ @ @ @ @ @ @ @ @ @ @ @ @ @ @ @ @ @ @ @ @ @ @ @ @ @ @ @ @ @ @ @ @ @ @ @ @ @ @ @ @ @ @ @ @ @ @ @ @ @ @ @ @ @ @ @ @ @ @ @ @ @ @ @ @ @ @ @ @ @ @ @ @ @ @ @ @ @ @ @ @ @ @ @ @ @ @ @ @ @ @ @ @ @ @ @ @ @ @ @ @ @ @ @ @ @ @ @ @ @ @ @ @ @ @ @ @ @ @ @ @ @ @ @ @ @ @ @ @ @ @ @ @ @ @ @ @ @ @ @ @ @ @ @ @ @ @ @ @ @ @ @ @ @ @ @ @ @ @ @ @ @ @ @ @ @ @ @ @ @ @ @ @ @ @ @ @ @ @ @ @ @ @ @ @ @ @ @ @ @ @ @ @ @ @ @ @ @ @ @ @ @ @ @ @ @ @ @ @ @ @ @ @ @ @ @ @ @ @ @ @ @ @ @ @ @ @ @ @ @ @ @ @ @ @ @ ",
"9 d w.#.3.b 9 9 y 9 9 9 9 y y 9 9 9 9 f b b b d 9 9 y 9 y 9 9 y y 9 9 9 9 9 9 9 9 9 9 9 9 9 9 9 9 9 9 9 9 9 9 9 9 9 9 9 9 9 9 9 9 9 9 9 9 9 9 9 9 9 9 9 9 9 9 9 9 9 9 9 9 9 9 9 9 9 9 9 9 9 9 9 9 9 9 9 9 9 9 9 9 9 9 9 9 9 9 9 9 9 9 9 9 9 9 9 9 9 9 9 9 9 9 9 9 9 9 9 9 9 9 9 9 9 9 9 9 9 9 9 9 9 9 9 9 9 9 9 9 9 9 9 9 9 9 9 9 9 9 9 9 9 9 9 9 9 9 9 9 9 9 9 9 9 9 9 9 9 9 9 9 9 9 9 9 9 9 9 9 9 9 9 9 9 9 9 9 9 9 9 9 9 9 9 9 9 9 9 9 9 9 9 9 9 9 9 9 9 9 9 9 9 9 9 9 9 9 9 9 9 9 9 9 9 9 9 9 9 9 9 9 9 9 9 9 9 s 9 9 9 9 9 ",
"= S n.p.v.e.= 9 ; a 9 9 9 : : 9 9 9 - b z.b.n.#.= 9 ; a ; 9 ; : : 9 9 9 9 9 9 9 9 9 9 9 9 9 9 9 9 9 9 9 9 9 9 9 9 9 9 9 9 9 9 9 9 9 9 9 9 9 9 9 9 9 9 9 9 9 9 9 9 9 9 9 9 9 9 9 9 9 9 9 9 9 9 9 9 9 9 9 9 9 9 9 9 9 9 9 9 9 9 9 9 9 9 9 9 9 9 9 9 9 9 9 9 9 9 9 9 9 9 9 9 9 9 9 9 9 9 9 9 9 9 9 9 9 9 9 9 9 9 9 9 9 9 9 9 9 9 9 9 9 9 9 9 9 9 9 9 9 9 9 9 9 9 9 9 9 9 9 9 9 9 9 9 9 9 9 9 9 9 9 9 9 9 9 9 9 9 9 9 9 9 9 9 9 9 9 9 9 9 9 9 9 9 9 9 9 9 9 9 9 9 9 9 9 9 9 9 9 9 9 9 9 9 9 9 9 9 9 9 9 9 9 9 d V S g S #.A A g 9 9 ",
"= S a.j.d.3.- 9 p oX2.; i 2.2.u 9 9 - b V j.j.b 9 ; o.oXo.: a 2.2.9 9 9 9 9 9 9 9 9 9 9 9 9 9 9 9 9 9 9 9 9 9 9 9 9 9 9 9 9 9 9 9 9 9 9 9 9 9 9 9 9 9 9 9 9 9 9 9 9 9 9 9 9 9 9 9 9 9 9 9 9 9 9 9 9 9 9 9 9 9 9 9 9 9 9 9 9 9 9 9 9 9 9 9 9 9 9 9 9 9 9 9 9 9 9 9 9 9 9 9 9 9 9 9 9 9 9 9 9 9 9 9 9 9 9 9 9 9 9 9 9 9 9 9 9 9 9 9 9 9 9 9 9 9 9 9 9 9 9 9 9 9 9 9 9 9 9 9 9 9 9 9 9 9 9 9 9 9 9 9 9 9 9 9 9 9 9 9 9 9 9 9 9 9 9 9 9 9 9 9 9 9 9 9 9 9 9 9 9 9 9 9 9 9 9 9 9 9 9 9 9 9 9 9 9 9 9 9 9 9 9 9 d w.a.u.#.* c.#.d 7 i ",
"= S v.s.9 Z - 9 9 6.p ; u a a 9 9 9 - Z 9 d.s.f 9 9 u 6.a ; u p a 9 9 9 9 9 9 9 9 9 9 9 9 9 9 9 9 9 9 9 9 9 9 9 9 9 9 9 9 9 9 9 9 9 9 9 9 9 9 9 9 9 9 9 9 9 9 9 9 9 9 9 9 9 9 9 9 9 9 9 9 9 9 9 9 9 9 9 9 9 9 9 9 9 9 9 9 9 9 9 9 9 9 9 9 9 9 9 9 9 9 9 9 9 9 9 9 9 9 9 9 9 9 9 9 9 9 9 9 9 9 9 9 9 9 9 9 9 9 9 9 9 9 9 9 9 9 9 9 9 9 9 9 9 9 9 9 9 9 9 9 9 9 9 9 9 9 9 9 9 9 9 9 9 9 9 9 9 9 9 9 9 9 9 9 9 9 9 9 9 9 9 9 9 9 9 9 9 9 9 9 9 9 9 9 9 9 9 9 9 9 9 9 9 9 9 9 9 9 9 9 9 9 9 9 9 9 9 9 9 9 9 9 s p.A w.e.V 3.3.V 9 y ",
"9 d w.#.Z b 9 9 ; 9 ; 9 9 ; ; 9 9 9 9 f Z #.3.d 9 9 ; 9 ; 9 9 ; ; 9 9 9 9 9 9 9 9 9 9 9 9 9 9 9 9 9 9 9 9 9 9 9 9 9 9 9 9 9 9 9 9 9 9 9 9 9 9 9 9 9 9 9 9 9 9 9 9 9 9 9 9 9 9 9 9 9 9 9 9 9 9 9 9 9 9 9 9 9 9 9 9 9 9 9 9 9 9 9 9 9 9 9 9 9 9 9 9 9 9 9 9 9 9 9 9 9 9 9 9 9 9 9 9 9 9 9 9 9 9 9 9 9 9 9 9 9 9 9 9 9 9 9 9 9 9 9 9 9 9 9 9 9 9 9 9 9 9 9 9 9 9 9 9 9 9 9 9 9 9 9 9 9 9 9 9 9 9 9 9 9 9 9 9 9 9 9 9 9 9 9 9 9 9 9 9 9 9 9 9 9 9 9 9 9 9 9 9 9 9 9 9 9 9 9 9 9 9 9 9 9 9 9 9 9 9 9 9 9 9 9 - V S = 9 s d 9 9 d 9 7 ",
"9 9 - - 9 9 9 9 9 9 9 9 9 9 9 9 9 9 9 9 9 - - 9 9 9 9 9 9 9 9 9 9 9 9 9 9 9 9 9 9 9 9 9 9 9 9 9 9 9 9 9 9 9 9 9 9 9 9 9 9 9 9 9 9 9 9 9 9 9 9 9 9 9 9 9 9 9 9 9 9 9 9 9 9 9 9 9 9 9 9 9 9 9 9 9 9 9 9 9 9 9 9 9 9 9 9 9 9 9 9 9 9 9 9 9 9 9 9 9 9 9 9 9 9 9 9 9 9 9 9 9 9 9 9 9 9 9 9 9 9 9 9 9 9 9 9 9 9 9 9 9 9 9 9 9 9 9 9 9 9 9 9 9 9 9 9 9 9 9 9 9 9 9 9 9 9 9 9 9 9 9 9 9 9 9 9 9 9 9 9 9 9 9 9 9 9 9 9 9 9 9 9 9 9 9 9 9 9 9 9 9 9 9 9 9 9 9 9 9 9 9 9 9 9 9 9 9 9 9 9 9 9 9 9 9 9 9 9 9 9 9 9 9 9 9 9 9 9 9 9 9 9 9 9 9 ",
"9 9 9 9 9 9 9 9 9 9 9 9 9 9 9 9 9 9 9 9 9 9 9 9 9 9 9 9 9 9 9 9 9 9 9 9 9 9 9 9 9 9 9 9 9 9 9 9 9 9 9 9 9 9 9 9 9 9 9 9 9 9 9 9 9 9 9 9 9 9 9 9 9 9 9 9 9 9 9 9 9 9 9 9 9 9 9 9 9 9 9 9 9 9 9 9 9 9 9 9 9 9 9 9 9 9 9 9 9 9 9 9 9 9 9 9 9 9 9 9 9 9 9 9 9 9 9 9 9 9 9 9 9 9 9 9 9 9 9 9 9 9 9 9 9 9 9 9 9 9 9 9 9 9 9 9 9 9 9 9 9 9 9 9 9 9 9 9 9 9 9 9 9 9 9 9 9 9 9 9 9 9 9 9 9 9 9 9 9 9 9 9 9 9 9 9 9 9 9 9 9 9 9 9 9 9 9 9 9 9 9 9 9 9 9 9 9 9 9 9 9 9 9 9 9 9 9 9 9 9 9 9 9 9 9 9 9 9 9 9 9 9 9 9 9 9 9 9 9 9 9 9 9 9 9 9 "
};
