/* XPM */
static char *mb_gate_lr[] = {
/* columns rows colors chars-per-pixel */
"256 256 256 2 ",
"   c #040505",
".  c #0B0B0B",
"X  c #06060B",
"o  c #160808",
"O  c #0C0D14",
"+  c #080815",
"@  c #160D16",
"#  c #0F1016",
"$  c #0A1719",
"%  c #121215",
"&  c #14151B",
"*  c #1C151B",
"=  c #16191E",
"-  c #1A1A1E",
";  c #1A1715",
":  c #0D130B",
">  c #360607",
",  c #29181A",
"<  c #34181A",
"1  c #2C0C0D",
"2  c #1A2616",
"3  c #102F0C",
"4  c #24281A",
"5  c #38371C",
"6  c #2A3413",
"7  c #151C23",
"8  c #1B1C22",
"9  c #171524",
"0  c #101429",
"q  c #251B24",
"w  c #2E1333",
"e  c #1E2026",
"r  c #19252A",
"t  c #18373A",
"y  c #132C31",
"u  c #222324",
"i  c #22232A",
"p  c #2A2B2D",
"a  c #28282A",
"s  c #3D2525",
"d  c #3D2A2A",
"f  c #35292A",
"g  c #2C2D32",
"h  c #2C2435",
"j  c #2D3334",
"k  c #323235",
"l  c #34353A",
"z  c #393A3D",
"x  c #383739",
"c  c #333030",
"v  c #4F0B0D",
"b  c #770506",
"n  c #6B0B0C",
"m  c #4C340D",
"M  c #4E0B36",
"N  c #422B2B",
"B  c #472627",
"V  c #483333",
"C  c #4E312B",
"Z  c #6E2B2A",
"A  c #6C1F26",
"S  c #064F07",
"D  c #2F4D13",
"F  c #056E07",
"G  c #386D06",
"H  c #39492C",
"J  c #394D31",
"K  c #374735",
"L  c #3A5338",
"P  c #2D5131",
"I  c #175438",
"U  c #4B462A",
"Y  c #4D4A2D",
"T  c #464528",
"R  c #55492C",
"E  c #54582C",
"W  c #524E31",
"Q  c #5B4D32",
"!  c #435539",
"~  c #565335",
"^  c #494B31",
"/  c #6B4E2F",
"(  c #576E2D",
")  c #6A7A2D",
"_  c #5A600F",
"`  c #351C47",
"'  c #311450",
"]  c #14394A",
"[  c #37224A",
"{  c #3C3D42",
"}  c #3C324A",
"|  c #3C2653",
" . c #3C3853",
".. c #2B3354",
"X. c #021070",
"o. c #39096B",
"O. c #141E59",
"+. c #423A54",
"@. c #463A56",
"#. c #462A50",
"$. c #48176F",
"%. c #462468",
"&. c #641554",
"*. c #1A4545",
"=. c #194647",
"-. c #105155",
";. c #234B4B",
":. c #3D4246",
">. c #285453",
",. c #315352",
"<. c #385859",
"1. c #33534D",
"2. c #36634C",
"3. c #39654E",
"4. c #3A6A4B",
"5. c #3D6A53",
"6. c #3A6752",
"7. c #376F55",
"8. c #10556D",
"9. c #3E4D69",
"0. c #3B4A66",
"q. c #375371",
"w. c #067677",
"e. c #106A6B",
"r. c #32756B",
"t. c #10704C",
"y. c #414246",
"u. c #44454A",
"i. c #494A4E",
"p. c #47484B",
"a. c #4C4D52",
"s. c #48425C",
"d. c #525255",
"f. c #54555A",
"g. c #5B5B5D",
"h. c #57585B",
"j. c #4C554B",
"k. c #47634B",
"l. c #436B55",
"z. c #447656",
"x. c #516B4F",
"c. c #6E6954",
"v. c #414E6A",
"b. c #434965",
"n. c #43526D",
"m. c #465B67",
"M. c #5D5E62",
"N. c #565A69",
"B. c #475673",
"V. c #494D76",
"C. c #5D6165",
"Z. c #4B6E6C",
"A. c #636364",
"S. c #6A6B6C",
"D. c #656769",
"F. c #6C6D72",
"G. c #6F7075",
"H. c #717276",
"J. c #77787C",
"K. c #7B7B7C",
"L. c #757679",
"P. c #746D6A",
"I. c #6D5059",
"U. c #850405",
"Y. c #940E0E",
"T. c #AC0A0A",
"R. c #912E2C",
"E. c #AD2C2F",
"W. c #A0271D",
"Q. c #CC0909",
"!. c #CC272E",
"~. c #E21F1F",
"^. c #8F581F",
"/. c #981256",
"(. c #936661",
"). c #CD4440",
"_. c #088C05",
"`. c #4C8D09",
"'. c #58AE03",
"]. c #5A852C",
"[. c #699420",
"{. c #63C700",
"}. c #358F79",
"|. c #109360",
" X c #4C8C52",
".X c #53886D",
"XX c #798278",
"oX c #6B8F76",
"OX c #5CA15D",
"+X c #38CE49",
"@X c #9A9510",
"#X c #928E72",
"$X c #9A9D68",
"%X c #B7C327",
"&X c #010D8F",
"*X c #0517A9",
"=X c #4C0E8A",
"-X c #582B90",
";X c #622B96",
":X c #5803B0",
">X c #662FA8",
",X c #67219B",
"<X c #0B708E",
"1X c #34718E",
"2X c #1C639A",
"3X c #544D93",
"4X c #476A8A",
"5X c #7B7C80",
"6X c #737B84",
"7X c #6A7893",
"8X c #6151A9",
"9X c #6613C7",
"0X c #2952CC",
"qX c #8F0CA3",
"wX c #856DAD",
"eX c #058485",
"rX c #109293",
"tX c #2F948C",
"yX c #2BA997",
"uX c #0AB0B0",
"iX c #28AFAE",
"pX c #1A8FAC",
"aX c #4E8D94",
"sX c #728C8E",
"dX c #62A4A5",
"fX c #28C9B4",
"gX c #0699CB",
"hX c #0DAEDC",
"jX c #10CECD",
"kX c #2ACCCC",
"lX c #1DE7EE",
"zX c #4BCBCC",
"xX c #65B5BC",
"cX c #868687",
"vX c #97989A",
"bX c #8C908F",
"nX c #A89A8E",
"mX c #8EAC95",
"MX c #B1AE8F",
"NX c #939CA8",
"BX c #94ACAD",
"VX c #A8A9AA",
"CX c #B6B7B8",
"ZX c #AFAFAE",
"AX c #A69EAD",
"SX c #9BCBB1",
"DX c #AAB6CC",
"FX c #98A8C6",
"GX c #C6C7C8",
"HX c #D5D6D8",
"JX c #CECFD1",
"KX c #E8E9EB",
"LX c #F8F8FA",
"PX c #EEEFF1",
"IX c #DEDFE1",
"UX c #C2B9B8",
/* pixels */
"8 8 8 8 8 8 8 8 8 8 8 8 8 8 8 8 8 8 8 8 8 8 8 8 8 8 8 8 8 8 8 8 8 8 8 8 8 8 8 8 8 8 8 8 8 8 8 8 8 8 8 8 8 8 8 8 8 8 8 8 8 8 8 8 8 8 8 8 8 8 8 8 8 8 8 8 8 8 8 8 8 8 8 8 8 8 8 8 8 8 8 8 8 8 8 8 8 8 8 8 8 8 8 8 8 8 8 8 8 8 8 8 8 8 8 8 8 8 8 8 8 8 8 8 8 8 8 8 8 8 8 8 8 8 8 8 8 8 8 8 8 8 8 8 8 8 8 8 8 8 8 8 8 8 8 8 8 8 8 8 8 8 8 8 8 8 8 8 8 8 8 8 8 8 8 8 8 8 8 8 8 8 8 8 8 8 8 8 8 8 8 8 8 8 8 8 8 8 8 8 8 8 8 8 8 8 8 8 8 8 8 8 8 8 8 8 8 8 8 8 8 8 8 8 8 8 8 8 8 8 8 8 8 8 8 8 8 8 8 8 8 8 8 8 8 8 8 8 8 8 8 8 8 8 8 8 ",
"8 8 8 8 8 8 8 8 8 8 8 8 8 8 8 8 8 8 8 8 8 - * * - 8 8 8 8 8 8 8 8 8 8 8 8 8 8 8 8 8 8 8 8 8 8 8 8 8 8 8 8 8 8 8 8 8 8 8 8 8 8 8 8 8 8 8 8 8 8 8 8 8 8 8 8 8 8 8 8 8 8 8 8 8 8 8 8 8 8 8 8 8 8 8 8 8 8 8 8 8 8 8 8 8 8 8 8 8 8 8 8 8 8 8 8 8 8 8 8 8 8 8 8 8 8 8 8 8 8 8 8 8 8 8 8 8 8 8 8 8 8 8 8 8 8 8 8 8 8 8 8 8 8 8 8 8 8 8 8 8 8 8 8 8 8 8 & = = & = = = = 8 % & & = & & 8 & 8 & 8 = % & 8 8 & & 8 & - % & & & 8 = 8 = & = & = % & & & & = & & = = 8 & # & 8 & = & % 8 8 8 8 8 * 8 * * * 8 * * 8 * - - 8 - * - 8 8 8 8 8 8 ",
"8 8 8 8 - * * * * * 8 - * * * * * - 8 8 8 ] 8.8.] 8 - 8 8 8 8 8 8 8 8 8 8 8 8 8 8 8 8 8 8 8 8 8 8 8 8 8 8 8 8 8 8 8 8 8 8 8 8 8 8 8 8 8 8 8 8 8 8 8 8 8 8 8 8 8 8 8 8 8 8 8 8 8 8 8 8 8 8 8 8 8 8 8 8 8 8 8 8 8 8 8 8 8 8 8 8 8 8 8 8 8 8 8 8 8 8 8 8 8 8 8 8 8 8 8 8 8 8 8 8 8 8 8 8 8 8 8 8 8 8 8 8 8 8 8 8 8 8 8 8 8 8 8 8 8 8 8 8 8 8 8 8 & p.l z a.l l :.z i G.A.M.z D.u.8 a.g a.g y.F.a.= 8 f.f.& i.g S.M.f.g.= y.i z D.:.A.a.H.f.M.p.h.l y.M.k l g i.H.a.p u.{ u.M.i 8 z - y =.r =.] 8.e ] 8.r -.] ] 8 ] 8.r - 8 8 r F _.",
"] * 8 - y <XgXgXgX<X; 8.gXgXgXgX<Xr - 8 8.hXuXuXhXrXy - 8 8 8 8 8 8 8 8 8 8 8 8 8 8 8 8 8 8 8 8 8 8 8 8 8 8 8 8 8 8 8 8 8 8 8 8 8 8 8 8 8 8 8 8 8 8 8 8 8 8 8 8 8 8 8 8 8 8 8 8 8 8 8 8 8 8 8 8 8 8 8 8 8 8 8 8 8 8 8 8 8 8 8 8 8 8 8 8 8 8 8 8 8 8 8 8 8 8 8 8 8 8 8 8 8 8 8 8 8 8 8 8 8 8 8 8 8 8 8 8 8 8 8 8 8 8 8 8 8 8 8 8 8 8 8 8 8 8 8 O J.5X5XbXh.i.L.A.X 5Xf.F.d.VXJ.{ CXp.VXS.J.M.L.k u.J.A.g CXi.D.M.cXF.O H.i M.cXh.vXl cXa.vX5XG.g.L.M.d.cXbXp.sX{ O vXF.M.ZXk = { * ] <X8.<X8.<X8.8.8.] pX8.8.- 8.<X=.* 8 9 2 _.F ",
"-.; e ; <XhXgXgXgXpXo <XhXgXgXhXhX<Xo 8.hXe.8 * =.pX<Xr - 8 8 8 8 8 8 8 8 8 8 8 8 8 8 8 8 8 8 8 8 8 8 8 8 8 8 8 8 8 8 8 8 8 8 8 8 8 8 8 8 8 8 8 8 8 8 8 8 8 8 8 8 8 8 8 8 8 8 8 8 8 8 8 8 8 8 8 8 8 8 8 8 8 8 8 8 8 8 8 8 8 8 8 8 8 8 8 8 8 8 8 8 8 8 8 8 8 8 8 8 8 8 8 8 8 8 8 8 8 8 8 8 8 8 8 8 8 8 8 8 8 8 8 8 8 8 8 8 8 8 8 8 8 8 8 8 8 8 % M.vXbXD.G.H.M.cX8 D.u.H.h.vXJ.K.vXcXA.vXJ.S.J.g u.L.5XJ.vXL.g.p.5XC.O L.f.D.L.h.G.O H.{ vXL.H.M.F.J.L.S.L.{ F.g 8 bXH.S.AX{ & :.* t <X<X8.8.<X8.8.8.8.<X8.e.] 8.<X] * 8 9 2 _.F ",
"=.; 8 * gXhX8 ; ; ; ; <XhXr o r hX<Xr gXe.o 8 y ] y pX] - 8 8 8 8 8 8 8 8 8 8 8 8 8 8 8 8 8 8 8 8 8 8 8 8 8 8 8 8 8 8 8 8 8 8 8 8 8 8 8 8 8 8 8 8 8 8 8 8 8 8 8 8 8 8 8 8 8 8 8 8 8 8 8 8 8 8 8 8 8 8 8 8 8 8 8 8 8 8 8 8 8 8 8 8 8 8 8 8 8 8 8 8 8 8 8 8 8 8 8 8 8 8 8 8 8 8 8 8 8 8 8 8 8 8 8 8 8 8 8 8 8 8 8 8 8 8 8 8 8 8 8 8 8 8 8 8 8 8 = k { { g y.d.8 M.:.k g a.l h.{ z - a.g z z M.{ = - a.a.{ 8 l z p u.d.= { M.{ f.{ p & z g g l h.g { g.k g g p z 8 g l l :.a.i 8 k 8 r ] ] y ] -.8 ] -.r =.y ] -.t y t - 8 8 e S F ",
"-.* e ; <XhXhXgXgX8.o <XhX] r ] hX<X* 8.gX=.* y t * <X8.- 8 8 8 8 8 8 8 8 8 8 8 8 8 8 8 8 8 8 8 8 8 8 8 8 8 8 8 8 8 8 8 8 8 8 8 8 8 8 8 8 8 8 8 8 8 8 8 8 8 8 8 8 8 8 8 8 8 8 8 8 8 8 8 8 8 8 8 8 8 8 8 8 8 8 8 8 8 8 8 8 8 8 8 8 8 8 8 8 8 8 8 8 8 8 8 8 8 8 8 8 8 8 8 8 8 8 8 8 8 8 8 8 8 8 8 8 8 8 8 8 8 8 8 8 8 8 8 8 8 8 8 8 8 8 8 8 8 8 8 = & & - & % 8 O & = = & = % & & 8 & - & & # & 8 8 & % & 8 = = 8 & % 8 & # & % & - 8 & - = = # 8 & # = = = 8 = 8 = = = & & 8 8 8 8 8 - * - * * 8 * * 8 * - * * - 8 - 8 8 8 8 8 9 ",
"=.; 8 8 8 <XgXpXhXhX8 <XhXhXhXhXhX8.e pXhX<Xo * 8 - <X8.- 8 8 8 8 8 8 8 8 8 8 8 8 8 8 8 8 8 8 8 8 8 8 8 8 8 8 8 8 8 8 8 8 8 8 8 8 8 8 8 8 8 8 8 8 8 8 8 8 8 8 8 8 8 8 8 8 8 8 8 8 8 8 8 8 8 8 8 8 8 8 8 8 8 8 8 8 8 8 8 8 8 8 8 8 8 8 8 8 8 8 8 8 8 8 8 8 8 8 8 8 8 8 8 8 8 8 8 8 8 8 8 8 8 8 8 8 8 8 8 8 8 = 8 8 8 8 8 8 = = 8 8 8 8 8 8 8 8 8 8 8 8 8 8 8 8 8 8 8 8 8 8 8 8 8 8 8 8 8 8 8 8 8 8 8 8 8 8 8 8 8 8 8 8 8 8 8 8 e 8 8 8 8 8 e r - 8 8 8 8 8 8 8 8 8 - * 8 8 = 8 = = = = 8 = 8 7 8 8 8 - 8 8 8 7 8 = 7 - & = 8 8 = ",
"-.* 8 8 8 * * o 8.hXy <XhX<X<X<X8.* t <XpXhX8.] o =.pX] - 8 8 8 8 8 8 8 8 8 8 8 8 8 8 8 8 8 8 8 8 8 8 8 8 8 8 8 8 8 8 8 8 8 8 8 8 8 8 8 8 8 8 8 8 8 8 8 8 8 8 8 8 8 8 8 8 8 8 8 8 8 8 8 8 8 8 8 8 8 8 8 8 8 8 8 8 8 8 8 8 8 8 8 8 8 8 8 8 8 8 8 8 8 8 8 8 8 8 - r e 8 8 8 8 8 8 8 8 8 8 8 8 8 8 8 8 8 8 8 i y.i = l a 8 8 g g - i 8 8 8 8 8 e 8 a g 8 8 8 8 8 8 8 8 8 8 8 8 8 8 8 8 8 8 8 r r - 8 8 8 8 8 8 8 8 8 8 _.e 8 8 - @ * * 8 8 * w.rX] * 8 8 8 8 8 8 8 r ] ] y p l a { { z l a l i g 8 8 r t t r = l a y.l a p.g g a z ",
"hXhXhX-.t hXhXhXhXhX- <XhXe o ; ; 8 * r hXgXhXgX] pX8.r 8 8 8 8 8 8 8 8 8 8 8 8 8 8 8 8 8 8 8 8 8 8 8 8 8 8 8 8 8 8 8 8 8 8 8 8 8 8 8 8 8 8 8 8 8 8 8 8 8 8 8 8 8 8 8 8 8 8 8 8 8 8 8 8 8 8 8 8 8 8 8 8 8 8 8 8 8 8 8 8 8 8 8 8 8 8 8 8 8 8 8 8 8 8 8 8 8 8 - r ] 8 8 8 8 8 8 8 8 8 8 8 8 8 8 8 8 8 8 8 = k d.{ M.f.h.g.p.a.a.i f.i.d.a.M.f.:.h.A.p.= 8 8 8 8 8 8 8 8 8 8 8 8 8 8 8 8 8 8 8 =.r 8 8 8 8 8 8 8 8 9 S _.S 9 - t w.eXrX8 8 * eXuX-.@ 8 8 8 8 8 8 - y 8.8.] x M.i.M.f.{ D.p.f.g i.8 8 r ] ] r - D.p.M.d.a.p M.:.z { ",
"pXpXgX] y pXpXpXpX=.@ 8.pXr 8 8 8 8 - y ] 8.gX<X<X8.r - 8 8 8 8 8 8 8 8 8 8 8 8 8 8 8 8 8 8 8 8 8 8 8 8 8 8 8 8 8 8 8 8 8 8 8 8 8 8 8 8 8 8 8 8 8 8 8 8 8 8 8 8 8 8 8 8 8 8 8 8 8 8 8 8 8 8 8 8 8 8 8 8 8 8 8 8 8 8 8 8 8 8 8 8 8 8 8 8 8 8 8 8 8 8 8 8 8 8 8 r ] 8 8 8 8 8 8 8 8 8 8 8 8 8 8 8 8 8 8 8 8 8 p.D.d.a.D.a.d.z :.a f.f.u.a.d.y.M.g.i.{ = 8 8 8 8 8 8 8 8 8 8 8 8 8 8 8 8 8 8 e ] e 8 8 8 8 8 8 8 8 9 F F F 9 8 r ] =.-.8 8 * w.rX=.* 8 8 8 8 8 8 - y 8.8.] p M.g.i.d.{ y.A.i.p.u.= 8 y ] ] r x M.M.h.a.a.{ a.p.a.g ",
"* ; ; - 8 ; ; ; ; * 8 * * 8 8 8 8 8 8 8 ; ] ] r =.8 8 8 8 8 8 8 8 8 8 8 8 8 8 8 8 8 8 8 8 8 8 8 8 8 8 8 8 8 8 8 8 8 8 8 8 8 8 8 8 8 8 8 8 8 8 8 8 8 8 8 8 8 8 8 8 8 8 8 8 8 8 8 8 8 8 8 8 8 8 8 8 8 8 8 8 8 8 8 8 8 8 8 8 8 8 8 8 8 8 8 8 8 8 8 8 8 8 8 8 8 8 8 8 e 8 8 8 8 8 8 8 8 8 8 8 8 8 8 8 8 8 8 8 i l i k a p g g k g g h.a i i k g p g p g 8 8 8 8 8 8 8 8 8 8 8 8 8 8 8 8 8 8 8 e 8 8 8 8 8 8 8 8 8 8 8 e 9 e 8 8 8 * * * 8 8 8 r y - 8 8 8 8 8 8 8 8 e y y r u p p a l k e g i z i 8 8 r y y e a 8 a z g u { e g l 8 ",
"& & & % % & & & & & % & & % % % % % % % & O O % O % % % % % % % % % % % % % % % % % % % % % % % % % % % % % % % % % % % % % % % % % % % % % % % % % % % % % % % % % % % % % % % % % % % % % % % % % % % % % % % % % % % % % % % % % % % % % % % % % % % % % % % % % % % % % % % % % % % % % % % % % % % % # O # O O O O O O O & = O % # O O O O O O % % % % % % % % % % % % % % % % % % % % % % % % % % % % % % % % % % % % % % & & % % % # # % % % % % % % % % % % % % # O O # O O % O # O # % % % % % % O % O O O % O % O O % ",
"i.i.i.i.i.i.i.i.i.i.i.i.i.i.i.i.i.i.i.i.i.a.a.i.a.i.i.i.i.i.i.i.i.i.i.i.i.i.i.i.i.i.i.i.i.i.i.i.i.i.i.i.i.i.i.i.i.i.i.i.i.i.i.i.i.i.i.i.i.i.i.i.i.i.i.i.i.i.i.i.i.i.i.i.i.i.i.i.i.i.i.i.i.i.i.i.i.i.i.i.i.i.i.i.i.i.i.i.i.i.i.i.i.i.i.i.i.i.i.i.i.i.i.i.i.i.i.i.i.i.i.i.i.i.i.i.i.i.i.i.i.i.i.i.i.i.i.i.i.i.a.i.a.i.i.a.i.i.a.i.p.a.i.i.a.a.i.a.i.i.i.i.i.i.i.i.i.i.i.i.i.i.i.i.i.i.i.i.i.i.i.i.i.i.i.i.i.i.i.i.i.i.i.i.i.i.i.i.i.i.i.i.i.i.i.i.i.i.i.i.i.i.i.a.a.a.a.a.a.a.a.a.a.a.a.a.a.a.a.a.a.a.a.a.a.a.a.a.a.a.a.a.a.a.a.a.",
"H.H.H.H.H.H.H.H.H.H.H.H.H.H.H.H.H.H.H.H.H.H.H.H.H.H.H.H.H.H.H.H.H.H.H.H.H.H.H.H.H.H.H.H.H.H.H.H.H.H.H.H.H.H.H.H.H.H.H.H.H.H.H.H.H.H.H.H.H.H.H.H.H.H.H.H.H.H.H.H.H.H.H.H.H.H.H.H.H.H.H.H.H.H.H.H.H.H.H.H.H.H.H.H.H.H.H.H.H.H.H.H.H.H.H.H.H.H.H.H.H.H.H.H.H.H.H.H.H.H.H.H.H.H.H.H.H.H.H.H.H.H.H.H.H.H.H.H.H.H.H.H.H.H.H.H.H.H.H.H.H.H.H.H.H.H.H.H.H.H.H.H.H.H.H.H.H.H.H.H.H.H.H.H.H.H.H.H.H.H.H.H.H.H.H.H.H.H.H.H.H.H.H.H.H.H.H.H.H.H.H.H.H.H.H.H.H.H.H.H.H.H.H.F.A.A.A.A.A.A.A.A.A.A.A.A.A.D.D.D.D.D.D.D.D.D.D.D.D.D.D.D.D.D.D.D.",
"O O O O + O O O O O O O O O O O O O O O O O O O O O O O O O O O O O O O O O O O O O O O O O O O O O O O O O O O O O O O O O O O O O O O O O O O O O O O O O O O O O O O O O O O O O O O O O O O O O O O O O O O O O O O O O O O O O O O O O O O O O O O O O O O O O O O O O O O O O O O O O O O O O O O O O O O O O O O O O O O O O O O O O O O O O O O O O O O O O O O O O O O O O O O O O O O O O O O O O O O X X + O O O O O O O O O O O O O O O O O O # X g 5XJ.5XJ.J.J.J.J.J.5XJ.J.J.G.F.F.F.F.F.F.F.F.F.F.F.F.F.F.F.F.F.F.",
"i i i i g p a i 8 e u 8 u 8 a i i 8 8 u i 8 8 8 8 8 8 8 8 8 8 8 8 8 8 8 8 8 8 8 8 8 8 8 8 8 8 8 8 8 8 8 8 8 8 8 8 8 8 8 8 8 8 8 8 8 8 8 8 8 8 8 8 8 8 8 8 8 8 8 8 8 8 8 8 8 8 8 8 8 8 8 8 8 8 8 8 8 8 8 8 8 8 8 8 8 8 8 8 8 8 8 8 8 8 8 8 8 8 8 8 8 8 8 8 8 8 8 8 8 8 8 8 8 8 8 8 8 8 8 8 8 8 8 8 8 8 8 8 8 8 8 8 8 8 8 8 8 8 8 8 8 8 8 8 8 8 8 8 8 8 8 8 8 8 8 8 8 8 8 8 8 8 8 8 8 8 8 8 8 8 8 8 8 8 8 8 e 8 g a.f.{ i 8 8 8 8 8 i i = 8 8 8 8 8 p 8 8 8 8 & M.LXLXLXLXLXLXLXLXLXPXLXLXLXd.z { { { { { { { { { { { { { { { { { ",
"C.h.u.a.y.M.g.M.y.l S.{ h.a d.z D.{ d.u.D.a.:.{ = 8 8 8 8 8 8 8 8 8 8 8 8 8 8 8 8 8 8 8 8 8 8 8 8 8 8 8 8 8 8 8 8 8 8 8 8 8 8 8 8 8 8 8 8 8 8 8 8 8 8 8 8 8 8 8 8 8 8 8 8 8 8 8 8 8 8 8 8 8 8 8 8 8 8 8 8 8 8 8 8 8 8 8 8 8 8 8 8 8 8 8 8 8 8 8 8 8 8 8 8 8 8 8 8 8 8 8 8 8 8 8 8 8 8 8 8 8 8 8 8 8 8 8 8 8 8 8 8 8 8 8 8 8 8 8 8 8 8 8 8 8 8 8 8 8 8 8 8 8 8 8 8 8 8 8 8 8 8 8 8 8 8 8 8 8 8 8 8 8 8 8 8 8 & { 5XD.D.i 8 8 8 8 = l a.:.a 8 8 = k d.i.a z a.O d.LXZXCXJXDXGXCXHXGXZXKXKXKXg O & & & & & & & & & & & & & & & & & ",
"{ M.f.y.8 p.g.D.a.i.S.F.f.z a.g.G.h.F.S.i.a.D.u.& 8 8 8 8 8 8 8 8 8 8 8 8 8 8 8 8 8 8 8 8 8 8 8 8 8 8 8 8 8 8 8 8 8 8 8 8 8 8 8 8 8 8 8 8 8 8 8 8 8 8 8 8 8 8 8 8 8 8 8 8 8 8 8 8 8 8 8 8 8 8 8 8 8 8 8 8 8 8 8 8 8 8 8 8 8 8 8 8 8 8 8 8 8 8 8 8 8 8 8 8 8 8 8 8 8 8 8 8 8 8 8 8 8 8 8 8 8 8 8 8 8 8 8 8 8 8 8 8 8 8 8 8 8 8 8 8 8 8 8 8 8 8 8 8 8 8 8 8 8 8 8 8 8 8 8 8 8 8 8 8 8 8 8 8 8 8 8 8 8 8 8 8 8 & u.H.a.vX8 8 8 8 8 = g M.M.y.& 8 & u.{ g.h.A.f.O f.LXJXvXvXVXvXVXVX5XvXPXKXKXg = 8 8 8 8 8 8 8 8 8 8 8 8 8 8 8 8 8 ",
"% { k y.g g g g { { g { g 8 u.y.g y.i :.8 a i p & = = = = = = = = = = = = = = = = = = = = = = = = = = = = = = = = = = = = = = = = = = = = = = = = = = = = = = = = = = = = = = = = = = = = = = = = = = = = = = = = = = = = = = = = = = = = = = = = = = = = = = = = = = = = = = = = = = = = = = = = = = = = = = = = = = = = = = = = = = = = = = = = = = = = = = = = = = = = = = = = = = = = = = = 8 8 8 8 8 8 = l A.cXVXi 8 8 8 8 = g u.g g - 8 8 u a.k y.y.{ % d.LXHXGXHXVXCXKXGXDXHXLXLXVX& 8 8 8 8 8 8 8 8 8 8 8 8 8 8 8 8 8 8 ",
"g i a i a a a a i i a i a p i i a i a i p a a a p p p p p p p p p p p p p p p p p p p p p p p p p p p p p p p p p p p p p p p p p p p p p p p p p p p p p p p p p p p p p p p p p p p p p p p p p p p p p p g p p p p p p p p p p p p p p p p p p p p p p p p p p p p p p p p p p p p p p p p p p p p p p p p p a p p a a a p a a a p a a a a a a a a a a a a a a a a a a a a a a a a a a a a p i % 8 8 8 8 8 8 8 & 8 8 8 8 8 8 8 8 & = 8 8 8 8 8 & = = & 8 # f.HXGXJXGXVXDXGXJXJXGXGXbXi = 8 8 8 8 8 8 8 8 8 8 8 8 8 8 8 8 8 8 ",
"L.J.L.J.L.L.L.J.J.J.J.J.J.L.K.J.J.K.J.K.J.J.J.J.J.L.L.J.J.J.J.J.J.J.J.J.K.K.K.K.K.K.K.J.K.K.K.K.K.K.J.K.K.J.J.J.L.J.J.K.K.K.K.K.K.K.K.K.K.K.K.K.K.K.K.K.K.K.K.K.K.K.K.K.K.K.K.K.K.K.K.K.K.K.K.K.K.K.K.K.K.K.L.K.K.K.K.K.K.5XK.K.5XK.K.5X5X5X5X5X5X5XsXsXsXsXsXsXsXcX5X5XcXcXcXcXcXcXcXcXcXsXcXcXcX5X(.(.XXXXXXcXcXcXcXcXcXcXcXcXcXcXcXcXcXcXcXcXcXcXcXcXcXcXcXcXcXcXcXcXcXcXcXcXcXcXcXcXcXcXcXcXcXH.- 8 8 8 8 8 N.cX5X- 8 8 8 8 8 8 8 8 8 8 8 8 8 8 8 8 8 q O M.M.X = & 8 = & & & = = O 8 8 8 8 8 8 8 8 8 8 8 8 8 8 8 8 8 8 8 8 ",
"o                                                                 .                   .       .     .     o o 1 D : : :         X X X X X X . . . % . . . . . . . . . % . . . . . . % . . . . . % . : ; 2 6 -.y r = # % ; . % ; . ; % % % % % % % % % % % % % % % % ; ; % % % % % % % % ; - % ; = r y ] ' w q 8 ; - - ; ; ; u - ; - u - - u - ; u - - u - - - - - - - - - - - - - - - - u u q h ` wXD.O 8 8 8 8 AXPXcX& 8 8 8 8 q < < , < < 8 8 q < < , < < O M.M.O 8 8 8 8 8 8 8 8 8 e 8 8 8 8 8 8 8 8 8 8 8 8 8 8 8 8 8 8 8 8 ",
"< , o       X X X X X X . .   % % X . . . . . . . % % . . . . . % ; . . . =.e.e.y 7 7 - . % - - . . - . @ < > m `.D 6 2 % % % % % % % % % % % % % u % % % % % % % % % u ; % % ; ; % u - % ; ; ; u ; - 6 D L yX=.;.y = - u % u u ; a - ; - - - - - - - - - - - - - - u a - - - - - - - - u p - - e j *.q.;X` [ h q a a - u u k u u u p u u p a u k u u k u u u u u u u u u u u u u a a u k g [ | %.;X#X& 8 8 8 8 NXIXF.& 8 8 8 8 q < < , < < 8 8 q < < , < < O M.M.O 8 8 8 8 8 ; * e 8 ; - 8 8 8 8 8 8 8 8 8 8 8 8 8 8 8 8 8 8 8 ",
"N d o                     X   % .   X X X X X X   % %   . . . . . ; . . 7 uXr.r.rXrXuXt   i j e . . - . o < > m `.6 6 2 : . . . % % % % % % % % % - % % % % % % % % % u % % % % % % u ; % % % ; u % ; 4 D P rX=.;.r & - u % - u % u - ; ; ; ; ; ; - - - - - - - - - u u ; - - - - - - - u a - - e t *.>.-X` ` h 8 a a - u u p u - u p u u p u - p u u k u u u u u u u u u u u u u u u u k p h [ %.;XXX& 8 8 8 8 cXCXN.& 8 8 8 8 q < < , < < 8 8 q < < , < < O M.M.O 8 8 8 - e <XgXgXgX<Xr * 8 8 8 8 8 8 = 8 8 8 8 8 8 8 8 8 8 8 ",
"s s o                     X   % .   X X X X X X   % %   . . . . . ; X   y eX< u u , r.e.o u p u X . - . o < > m `.6 6 2 : . . . % % % % % % % % % - % % % % % % % % % u % % % % % % u ; % % % ; u % ; 4 D P rX=.;.r & - u % - u % a - ; ; ; ; ; ; - - - - - - - - - u u ; - - - - - - - u a - - e t *.>.-X` ` h 8 a a - u u p u - u p u u p u - p u u k u u u u u u u u u u u u u u u u k p h [ %.;XXX& 8 8 - a { & y.8 8 8 8 8 q < < , < < 8 8 q < < , < < O M.M.O 8 8 - y gXgX<X-.<XgXhX-.* 8 8 8 8 i p & = = = = 8 8 8 8 8 8 ",
"> o                       X   % .   X X X X X X   % %   . . . . # % o o *.eXa j p u e.rX;.>.>.j ; % - . o < > m `.6 6 2 : . . . % % % % % % % % % - % % % % % % % % % u % % % % % % u ; % % % ; u % ; 4 D P rX=.;.r & - u % - u % a - ; ; ; ; ; ; - - - - - - - - - u u ; - - - - - - - u a - - e t *.>.-X` ` h 8 a a - u u p u - u p u u p u - p u u k u u u u u u u u u u u u u u u u k p h [ %.;XXX& 8 8 = g z   i.8 8 8 8 8 q < < , < < 8 8 q < < , < < O M.M.O 8 8 8 gXgX7 o ; o o pXhXy - 8 8 = g f.a.y.i.{ g M.l = 8 8 8 ",
"> o .                     X   % .   X X X X X X   % %   . . . . . t rXrXuXe.a j a a j rXrXeXrXiXp & - . o < > m `.6 6 2 : . . . % % % % % % % % % - % % % % % % % % % u % % % % % % u ; % % % ; u % ; 4 D P rX=.;.r & - u % - u % a - ; ; ; ; ; ; ; - - - - - - - - u u ; - - - - - - - u a - - e t *.>.-X` ` h 8 a a - u u p u - u p u u p u - p u u k u u u u u u u u u u u u u u u u k p h [ %.;XXX& 8 8 = g z   i.8 8 8 8 8 q < < , < < 8 8 q < < , < < O M.M.O e ; 8.hX7 o x K K - . gX<X; 8 8 = p M.a.A.M.A.h.D.k = 8 8 8 ",
"1 o .                     X   % .   X X X X X X   % %   . . . .   e.w.j ;.a j p a a p f u , a yXp ; - . o < > m `.6 6 2 : . . . % % % % % % % % % - % % % % % % % % % u % % % % % % u ; % % % ; u % ; 4 D P rX=.;.r & - u % - u % a - ; ; ; ; ; ; ; - - - - - - - - u u ; - - - - - - - u a - - e t *.>.-X` ` h 8 a a - u u p u - u p u u p u - p u u k u u u u u u u u u u u u u u u u k p h [ %.;XXX& 8 8 = g {   i.8 8 8 8 8 q < < , < < 8 8 q < < , < < O M.M.O e ; <XgXo c z x d.g.; <XgX- 8 8 8 i z u { d.i { g g - 8 8 8 ",
"< o o                     .   % .   . . . . . . . % % . . . . . o e.>., a a j p a p p l p p p yX>.; - . o < > m `.6 6 2 % . O O % % % % % % % % % , % % % % % % % % % u ; % % % ; % u ; % ; ; ; u ; ; 4 D J tX=.;.r ; , u % , u ; a - ; - - - - - - - - - - - - - - u a - - - - - - e - u p - - e t *.q.-X` ` h 8 a a - u u p u u u p u u p u - p u u k u u u u u u u u u u u u u u u u k p h [ %.;XXX& 8 8 = g y.  i.8 8 8 8 8 q < < , < < 8 8 q < < , < < O M.M.O e ; pX<Xo k x x vXGXp.] pX8 8 8 8 8 & 8 8 8 = % 8 8 8 8 8 8 ",
"o o                           # .             X   # #   X X X X   w.-.e y r j r r r r j r r a e.uXe.o . o < > m `.6 6 2 : . . . . + X X X X X + O 7 + + $ $ O $ O $ O r $ $ $ $ $ O r $ O $ $ $ r $ $ 3 D P rX-.=.y $ 7 r O = e O r $ $ # % o o o o o o o o o o o o , , o o o o o o o o 1 , o ; * y *.>.-X` ` h - u u - - - p - - u a - - p u - p u u p - u u u u u u u u u u u u u u u p a h [ %.;XXX& 8 8 = g y.  a.8 8 8 8 8 q < < , < < 8 8 q < < , < < O M.M.O e ; <XgXo a x x x k o <X<X* 8 = g M.g i.f.h.g g M.M.a.= 8 8 ",
"U.U.b b b b b b b b b b b b b b b b b b b b b b b b b b b b b n b Z.f.A Z Z Z Z Z Z Z Z C C C B 1.eX; $ , s v m `.D 6 4 * @ & 4 6 D D D Y.Y.A Y.Y.Y.Y.Y.Y.Y.T.T.T.T.T.W.T.T.T.T.T.T.W.W.W.W.W.T.T.Y.T.W.W.W.E.E.E.W.T.T.T.W.W.W.W.W.T.T.R.R.A.Z.aXtXyXyXyXyXyXiXiXiXiXiXiXiXyXyXyXrXrXrXrXtXe.;.;.>.;.0.,X` [ h p k k p p p x p p g l p p x c p x p g x p p p p p g g g g g g g c c c g x l } | %.;XXX& 8 8 = g y.  a.8 8 8 8 8 q < < , < < 8 8 q < < , < < O M.M.O e * ] hX] o a c p % 7 <X-.* 8 & l f.p.p.S.h.{ d.A.S.M.8 8 8 ",
"n v v v v v v v v v v v v v v v v v v v v v v v v v v v v v B C A tXi.B C C C C C C C Z C Z Z Z I.aXA B ; < v m `.D 6 ; 6 G `.`.[.@X).~.~.~.Y.A Y.~.Y.A A A A A A A A Z A A A A A A Z Z / / ^.@X@X/ A v Z / D.V Z v C C.aXaXG.C.V g.aXxXzXkXiXiXrXrXrXrXrXeXeXw.r.r.r.tXr.Z.Z.G.L.(.(.bXiXjXlXlXkXfXkXkXpXq. .h , , , 1 , , f , , , f , , f , , f , , f , , , , , , , , , , , , , , , , f f h ` $.;XXX& 8 8 = g y.  a.8 8 8 8 8 q < < , < < 8 8 q < < , < < O M.M.O 8 8 * <XhX] . % . 7 pX<X8 8 8 8 i a.z u.y.a.i { p.a.y.8 8 8 ",
"> > o o o o o o o o o o o o o , o o o o o o o o o , ; o o o , g a tX;.a p p k c p p p k p p k c l tXC R.Y.B < C ].6 D `.`.G 5 T.Q.b v T.K Z Y.3 Y.R.W.3 3 3 3 3 3 3 3 4 3 3 3 3 3 3 4 2 3 2 2 3 P `.'.G 6 P rX=.=.eXrXeXe.=.t =.uXjXuXe.=.t t t t t t t t t t t t t *.;.t t t t t j V W.Q.W.;.w.rXeX-.tXiXiXkXfXiXyXtXw.e.e.r.e.>.>.>.>.>.>.>.>.>.>.>.<.>.>.>.>.>.>.>.>.>.>.>.>.>.>.>.>.<.>.q.q.4X3XK.& 8 8 = g y.  d.8 8 8 8 8 q < < , < < 8 8 q < < , < < O M.M.O 8 8 8 8 <X=.* 8 - r <Xr - 8 8 8 8 = = = = = 8 = = = = 8 8 8 ",
"v > 1 o o o o o o o o o o o o 1 1 o o o o o o o o 1 1 o 1 1 rXrXrXiXk f f f x f f f f x f f c d z rXc g V R.Z C ( ! [.G $ n ~.R.2 t Y.Z K P R.Q.W.I R.m 2 2 A m 2 4 4 5 4 4 4 4 4 4 5 6 4 4 4 4 a ; 6 `.[.P }.e.iXrXt t ;.t e.lXiX>.t t *.*.=.=.=.=.=.=.=.=.=.=.=.=.;.;.=.=.=.=.=.=.=.-.=.R.~.V -.tXiX>.=X` [ ..>.r.tXrXrXyXiXiXiXiXiXiXiXiXiXiXiXiXiXiXiXiXiXiXiXiXiXiXiXiXiXiXiXiXiXiXiXiXiXiXkX3XK.& 8 8 = g y.  d.8 8 8 8 8 q < < , < < 8 8 q < < , < < O M.M.O 8 8 8 8 ; @ 8 r 8 @ ; 8 8 8 8 8 8 8 8 8 8 8 8 8 8 8 8 8 8 8 ",
"v > 1 o o o o o o o o o o o o 1 1 o o o o o o o o 1 1 o o e rXf l c f f f f x c f f f x f f c d l tXx f f V Z R.[.].J 3 Y.~.x I C !.W.j j x K E.V P Z n 3 < !.W.4 2 2 6 4 2 2 2 4 2 6 4 2 4 4 4 5 4 6 6 `.{.iXjXr.=.*.=.;.e.lXe.y ;.=.*.*.*.*.*.*.*.*.*.*.*.*.*.*.*.;.;.*.*.*.=.=.*.*.*.;.-.V ~.p.-.tXkX-X` ` q @ , , o o o , , ; , , ; ; , , ; u , , f , , , , , , , , , , , , , , , , f q w w $.;XXX& 8 8 = g y.  d.8 8 8 8 8 q < < , < < 8 8 q < < , < s O M.M.O 8 8 8 - r <XgXgXhX<Xy * 8 8 8 8 8 = = 8 8 8 8 8 8 8 8 8 8 8 ",
"v > 1 o o o o o o o o o o o o 1 1 o o 1 1 1 1 1 o 1 1 o 1 r tX< f x f f f f x f f f f x f f c d k tXx f d V B / @XL P W.Q.t Z W.W.C K x x K x K K K C W.3 n Z Z m 2 2 5 4 2 4 2 4 2 6 4 2 4 4 2 6 4 6 D D  XkXe.e.-.=.t e.lXe.j =.;.*.*.*.*.*.*.*.*.*.*.*.*.*.*.*.*.;.;.*.*.*.*.=.=.=.*.;.>.=.:.~.d.e.tXkX` ` h 8 a a e e e p u e u p e e p a e g u u j u u u u u u u u u u u u u u u u j p h [ %.-XXX& 8 8 = g y.  d.8 8 8 8 8 a 5 5 4 5 5 8 8 a 5 5 4 5 5 # M.M.O 8 8 - t gXgX<X] <XgXhX-.* 8 8 8 = l p & 8 8 = = = 8 8 8 8 8 ",
"< < o o o o o o o o o o o o o ; o o o o o o o o o ; ; o o y rX, g k a p p p k p p p p k p p k k c yX:.f d V C [.^./ R.~.t Z W.V V j j j j j j j j K j W.2 n Z Z v $ 2 a 2 2 2 2 2 2 4 4 2 4 2 m W.2 6 6 P fXfXOXe.-.t -.lXe.t =.t ;.*.*.*.*.*.*.*.*.*.*.*.*.*.*.*.*.;.;.*.*.*.*.=.=.=.*.;.>.;.=.:.~.l.e.0XpXw h - a a - - - p u - u p - - p u - p u u p - u u u u u u u u u u u u u u u p a h [ %.-XXX& 8 8 = g y.  d.8 8 8 8 8 u 5 4 a 5 4 8 8 u 5 5 4 5 5 # M.M.O 8 8 8 gXgX& o ; o o <XhXy - 8 = l a.d.z { M.i.i.k a.d.& 8 8 ",
"R.Y.Y.U.b b b b b b b b b U.b U.U.b U.U.U.U.U.U.b U.U.b U.Z aXA Z Z Z Z Z Z Z Z Z Z Z Z Z Z C C B r.iXr.s V ]./ ( R.~.H P W.c t j x K J J J J L L ! P R.m W.~ / W.D D D D D D D D D D 6 6 4 $ Y.!.4 6 6 yX}.yXOX X-.t jXrXy =.=.*.;.*.*.*.*.*.*.*.*.*.*.*.*.*.*.*.*.;.;.*.*.*.*.=.=.=.*.;.>.=.;.-.a.~.1X3XpXr.q e u a - - - p u - u p - - p u - p u u p u u u u u u u u u u u u u u u u p a h [ %.-XXX& 8 8 = g u.  d.8 8 8 8 8 5 5 5 5 5 5 e 8 u 5 5 4 5 5 # M.M.O e ; 8.hX7 ; z K K - . gX<X; 8 & l i.a.M.A.h.M.A.M.D.p.= 8 8 ",
"n A n v v v v v v v v v v n v n n v n n n n n n v n A A n i.tXA C Z C C C C Z Z Z Z Z Z Z Z Z Z Z Y.I.tX< ( ( R ) ~.R.K j W.( ( ].].].].].].].].].].].) ^.^.].) ^.`.`.[.`.[.^.`.`.`.[.[.`.[.`.^.E.s : |.aXE.yXe.+XI rXfXj *.=.=.t ;.*.*.*.*.*.*.*.*.*.*.*.*.*.*.*.*.;.;.*.*.*.*.*.*.*.*.=.>.*.=.;.e./ ).0X0.iX..* u a - q 8 p q - u p - - p u - p u u p - u u u u u u u u u u u u u u u p a h [ %.-XXX& 8 8 = g u.  d.8 8 8 8 0 @X%X%X@X%X%Xa 9 a 5 5 4 5 5 # M.M.O e ; <XgXo c x x h.D., <XgX- 8 8 8 z g g k g M.p k g g 8 8 8 ",
"v v > 1 1 1 1 1 1 1 1 1 1 1 1 < 1 1 1 1 1 1 1 1 1 < N d < <.r.B V V d d d c x k c d d V d c k x N C f.aXR.].C Q ~.R./ ^.W.^.( ( ! J J J K K K K K ! K ^ T.W.P ^ W.6 6 H 6 R.E.m 6 6 H D D D D ^.^.@X].uX/ !.yXe. X+XjX>.;.*.;.;.*.>.=.*.*.*.*.=.=.=.=.=.=.=.=.=.=.*.;.>.=.=.=.=.=.=.=.=.;.>.=.;.;.>.e.E./.8.1XpX* p a 2 2 2 a 2 2 u p u u p u u p i i k u u u u u u u u u u u u u u i u k h [ [ %.-XXX& 8 8 = g u.  d.8 8 8 8 8 5 5 5 5 H 5 e 8 a 5 5 4 5 5 # M.M.O e ; pX<Xo k x x vXCXy.] <X8 8 8 8 8 = 8 = 8 8 & 8 8 8 8 8 8 ",
"v v v v v v v v v v v v v v v v v v v v v v v v v B u.y.V r.r.B V V V V V R.W.W.Z V V V C R.W.Z V V u.iXfX(.Z !.E.R.^.!.R.P K J J L L L L L L ! ! ! ! L / / L ! W.D D H T W.R.Z ~.R P T !.Z D R.R.Z fX+X^.E.yX}.r.kXtX] >.=.>.>.=.>.;.;.;.;.;.;.;.;.;.;.;.;.;.;.;.;.>.>.;.>.>.>.>.>.>.>.>.>.>.>.>.>.r.r.!.I.0.iX>.4 } %.-X-X;X;X;X;X>X;X;X;X;X;X;X;X;X>X;X;X;X;X;X;X;X;X;X;X;X;X;X;X;X;X>X,X>X>X9X>XXX& 8 8 = g p.  f.8 8 8 8 8 u 5 4 4 5 4 8 8 u a u 4 5 5 # M.M.O e ; <XgXo a x x x p o <X<X* 8 = g M.g i.h.g.g k M.M.a.= 8 8 ",
"v v > > > > > > > > > > > > > > > > > > > > > > > r.iXtXtXyX1.B N V N d C T.Z A W.W.T.C C W.Z W.d N V E }.r.W.~.E.^.].Y / H H H H H J J J J J J J ! J J P P J J W.6 6 D m Z R W.W.Z D R.R.W.5 R./ c.rX4.^.).aXt.yXjX X;.=.t =.=.t ;.*.*.*.*.*.*.*.*.*.*.*.*.*.*.*.*.=.;.*.*.*.*.*.*.*.*.=.;.*.*.=.>.e.<X8X~.0.8.0X,X-X$.| [ | ` ` [ [ h ` | [ ` | [ [ } h [ [ [ [ [ [ [ [ [ [ [ [ [ [ [ } [ | %.$.;XXX& 8 8 = g p.  f.8 8 8 8 8 q , , r y r 8 9 ) %X@XH t j # M.M.O e * ] hX] o u p p % r <X-.* 8 & l h.p.p.S.h.{ d.A.S.M.8 8 8 ",
"v v > > > > > > > > > > > > > < > > > > > > > > > tX:.B B B B N N V f c A W.l d d c A W.W.A j W.A N ^ ) 6.aX~.!.^.( W ! / / P J J J J J J J J J J ! J J J J J P W.m D D R.Z ^ ~.Q W.D E.P R.m R./ XXt.4.^.^.OX|.lX6.^. X] *.=.=.*.;.=.*.*.*.*.*.*.*.*.*.*.*.*.*.*.*.;.;.*.*.*.*.*.*.=.*.;.>.*.=.=.>.e.1X0XR.!.>X8X4X` | $.-X;X,X,X,X,X,X,X>X,X,X>X,X,X>X,X,X,X,X,X,X,X,X,X,X,X,X,X,X,X,X>X,X>X>X9X>XXX& 8 8 = g p.  f.8 8 8 8 8 8 q q e r r 8 7 m _ R a r r O M.M.O 8 8 ; <XhX] o % . 7 pX<X8 8 8 8 i i.l y.{ p.i { u.p.{ 8 8 8 ",
"v v > > > > > > > > > > > > > < > > > > > > > > > tX:.B N N N N N Z W.W.T.A x N N N N Z A N V Z T.Y.( ( Z ~.XX@X^./ ! ^ ^ ^.^ J J J J J J J J J J ! J J J J J P Z m S W.W.^ J R ^ R.W.R.I R.Z Z c.^.t.~ ^.c.@XfXuX/ !.OX2.] =.=.z I.=.*.*.*.*.*.*.*.*.*.*.*.*.*.*.*.;.;.*.*.*.*.*.*.=.*.;.>.*.*.=.>.e.1X3X3X).E.3X8X,X-X$.%.%.| | | #.` ` #.| ` #.[ [ #.` [ [ [ [ [ [ [ [ [ [ [ [ [ [ [ #.| %.%.-X;XXX& 8 8 = g p.  h.8 8 8 8 7 v n n ;.w.e.r 8 q , 1 w.uXrX7 M.C.O 8 8 8 - <X] * 7 8 r e.r - 8 8 8 8 & = = = & 8 = & = = 8 8 8 ",
"v v > > > > > > > > > > > > > < > > > > > > > > > tXy.B N N N N c R.Y.C A N V N N N N V d N V x B W.].Z ~.R.yX].) ^./ ! J / / P J J J J J J J J J ! J J J J J P / Q.W.R.P J J J P W.~.Q P Z W./ aXR.t.^.c.c.!.zXl./ E.~ R.=.;.t r.dXt *.*.*.*.*.*.*.*.*.*.*.*.*.*.*.;.;.*.*.*.*.*.*.*.*.;.>.*.*.=.>.e.e.9X>X-X!./.2Xq.w ` ` | ` ` [ | ` ` | [ ` #.[ [ #.` [ [ [ [ [ [ [ [ [ [ [ [ [ [ [ #.| %.%.-X;XXX& 8 8 = g p.  h.8 8 8 8 7 n Y.U.e.rXeXr 8 q < < -.w.e.$ M.M.O 8 8 8 8 @ & 8 4 u 9 * 8 8 8 8 8 8 8 8 8 8 8 8 8 8 8 8 8 8 8 ",
"v v > > > > > > > > > > > > > < > > > > > > > > > tXV B N N N N c R.A c d N V N N N N V N N V V B ^./ Q.R.E.dXx.) E ^.W ^ ^ ^.^ J J J J J J J J J ! J J J J J J R W.!.R.P J J J J / Q L J L Q.P..XW.t.R.x.x.zX(.^./ E.E.).I =.j yXxXN =.*.*.*.*.*.*.*.*.*.*.*.*.*.*.;.;.*.*.*.*.*.*.*.*.;.>.*.*.=.>.e.3X9X>X>XV.!.(.pX` ` ` #.` ` [ | ` ` | [ ` #.[ [ #.` [ [ [ [ [ [ [ [ [ [ [ [ [ [ [ #.| %.%.-X;XXX& 8 8 = g p.  h.8 8 8 8 7 n U.U.e.eX<Xr 8 q < < e r r O M.M.O 8 8 8 9 u _ @X@X@X^.5 9 8 8 8 8 8 8 8 = = 8 8 8 8 8 8 8 8 8 ",
"B C v > > > > > > > > > > > > < > > > > > > > > > tXV N N N N N c W.A d N N V N N N N V N N V k C ~.~.R.W.^.}.fXOXE / ^.J J Q / P J J J J J J J J ! J J J J J J J P J ! J J J J J P L ! J P ~.L.7.R./ ^.x.}.kXE.@X@XR.E.^.].=.e.yXkXZ.t *.*.*.*.*.*.*.*.*.*.*.*.*.*.;.;.*.*.*.*.*.*.*.*.;.>.*.*.=.-.q.8X9X>X9.q.0.!.(.0.' ` #.` ` [ #.` ` | [ ` #.[ [ #.` [ [ [ [ [ [ [ [ [ [ [ [ [ [ [ #.| %.%.-X;XXX& 8 8 = g i.  h.8 8 8 8 7 n U.U.e.eXeXr 8 q < < y t t # M.M.O 8 8 9 5 @X@X_ 6 _ @X@XT 9 8 8 8 8 8 8 l l & 8 = 8 8 8 8 8 8 ",
"A C v > > > > > > > > > > > > v > > > > > > > > 1 tXV B B B B B f W.A f N d V d f k k x c f C R.Q.~.E.W.^.) Z Z.OX_ E ^.Q J ^ / ^ J J J J J J J J ! J J J J J J J J J ! J J J J J J ! L L H C.Z.7.j.R.^.z.kXiXz.^.^.j.2.R.[.7.E.tXr.rXt =.*.*.*.*.*.*.*.*.t *.*.*.*.;.;.*.*.*.*.*.*.*.*.;.>.*.*.=.>.8X8X9X3X3X9.0.q.R.!.R.#.| ' ' [ | ` ` | [ ` | [ [ | ` [ [ [ ` 1X0.` [ [ [ [ [ [ [ [ | | | %.=X;XXX& 8 8 = g i.  h.8 8 8 8 7 n U.U.e.eXeXr 8 q < < y t t # M.M.O 8 8 e @X@X% + - # + _ @X4 9 8 8 8 8 8 d.a.g.p.y.a - 8 8 8 8 ",
"B v < < < < < < < < < < < < < < < < 1 ;.iXrXrXrXrXtXV x x V V V z R.Z V C B Z A A n U.Y.T.Q.Q.E.) V C E ].Q / x.iX( E E ^.^ J Q / P H J J J J J J ! J J J J J J J J J ! J J J J J J ! L J L yX6.5.k.!.^.yXkX.Xr.E.E. X>.I.E.(.bXyXr.tXt =.*.t *.*.*.*.*.*.e.=.*.*.*.=.;.*.*.*.*.*.*.*.*.=.>.*.*.=.3X8X8X8X-X3X0.0.0.0.4XE.~.!.R.R.Z &.M #.#.#.[ #.#.#.#.[ #.#.#.M tX0.` #.#.#.#.#.#.#.#.#.#.%.%.$.;XXX& 8 8 = g i.  g.8 8 8 8 7 n U.U.e.eXeXr 8 q < < r y r O M.M.O u 0 _ @X; & z ^ ^ a + @X) 0 8 8 8 8 8 d.d.C.k F.8 8 8 8 8 8 ",
"iXuXuXuXuXuXuXuXuXuXuXuXuXuXuXuXuXuXuXjXjXuXuXuXuXuXjXjXjXkXiXkXkXkXkXkXkXkXiXzXdXdXcX(.(.Z B ].( ^ W ].E Q / / yXfXE ~ / / ! ! ^.W L ! ! ! ! ! ! ! ! ! ! ! ! ! ! ! ! ! ! ! ! ! ! ! ! ! ^ }.}.k.z.5.~.c.lX.X.X}.E.R.OX Xd.~.(.lXtXr.yX;.;.iXrX;.>.>.>.>.;.jXtX;.>.>.>.>.>.>.>.>.>.>.>.>.>.<.>.>.q.>X>X8X8X3X3XV.9.V.V.1XpX#.I.R.E.E.!.!.!.!.!.!.!.!.!.!.!.!.!.!.!.).!.!.!.!.!.!.!.!.!.!.!.!.!.!.!.I.XX& 8 8 = g i.  g.8 8 8 8 7 n U.U.e.rXeXr 8 q < < =.e.-.$ M.M.O e 9 ) @X+ c x k ^ ^ O _ @X8 8 8 8 8 = l k = l u.& 8 8 8 8 8 ",
"v v 1 1 1 1 1 1 1 1 1 1 < 1 1 < < < > r.;.> < < 1 d V x x C R.k V V x z z :.1.,.>.r.rXuXjXjXiXOXC B ( ].U Q Q / ) tXyXE Y ^.Y J Q / P J J J J J J ! J J J J J J J J J ! J J J J J J ! J L tX3.6.l.6.W.iXfXx.tX}.^.^.2.OXtX!.dXfXr.r.yXt t iXkX=.*.*.*.*.*.kXrXt =.*.;.;.*.*.*.=.=.=.=.*.;.>.=.*.-X9X3X1X8X3X3X9.0.0.9. .pX0.[ ' ' ` | ` ` #.[ [ #.#.#.#.[ #.[ [ M iXq.M [ [ [ #.#.#.#.[ #.#.%.%.$.;XXX& 8 8 = g i.  g.8 8 8 8 7 n U.U.e.rXeXr 8 q q , rXjXjX7 g.C.O e 9 ^._ + p y.g.x ^ & _ @X8 8 8 8 8 e O & g e 8 i i 8 8 8 8 ",
"v v > > > > > > > > > > > > > > > > > r.p > > > > B N B d A Y.f N C B B B B C B B B B B B :.yXkXjXr.].R W Q Q / ].E iXk.U / / J ^ / ^ J J J J J J L J J J J J J J J J ! J J J J J J ! H }.}.2.6.5.2.}.lXz. XtXr.z.Z.}.}.kXaXlXOX2.r.aXt =.tXtX-.t *.*.*.-.dXtXt *.*.=.;.*.*.=.=.*.*.*.*.=.>.*.0.9X>Xq.1X8X-X3X0.0.0.0...1X1X` [ ` | | ` ` | [ | #.#.#.#.` [ [ [ ` kXq.` [ [ [ [ [ [ [ [ | | | %.=X;XXX& 8 8 = g i.  g.8 8 8 8 7 n U.U.e.rXeXr 8 < B v rXjXuX7 g.C.O e 0 _ @X+ ; ZXcXp x + @X@X9 8 8 8 8 z y.i.g.8 f.M.A.g = 8 8 ",
"v v > > > > > > > > > > ;.rXw.tXtXeXrXrX1 > > > > < V N f A W.f N V N N N N V V N N V V N C ) C r.kXkX5.C Q Q / ].E tXz.R Y ^.W J Q / P J J J J J L J J J J J J J J J ! J J J J J J ! L tX6.3.6.5.2.kXtXx. XtXr.z.tXjXtXkXiXiXz. X<.xXj >.tXtXe.y t *.t e.bXaX*.*.*.;.;.*.*.t t =.=.*.*.=.>.*.>X9X3Xq.1X8X-X3X0.0.0.0.0.0.pX+.` ` | #.` ` | ` } Z E. .&.D...[ | ` kXq.w [ [ [ [ [ [ [ ` #.| %.%.=X;XXX& 8 8 = g i.  g.8 8 8 8 7 n U.U.e.rXeXr 7 Y.Q.Q.tXjXjX7 g.C.O e 9 5 @Xm 9 cXp a O 4 @X_ 0 8 8 8 { A.h.A.{ z A.A.F.l = 8 8 ",
"v v j rXw.eXeXeXeXeXeXw.rXf > < < 1 1 > < < < < < N N N f A W.f N V N N N N V N N N N V s ( ( V C ) .XjXfXx.Z / ].E tXz.m ^ / / J ^ / ^ J J J J J L J J J J J J J J J ! J J J J J J ^ r.}.2.6.6.k.yXkXk.z. XtXr.z.tXkXkXyXjX6.<. Xk.iX>.e.tXZ.iXe.uXrXy e.J.dXeXt *.>.e.*.*.rXrXt :.=.t >.;.0.9X-Xq.1X1X8X-X3X0.0.0.0.0. .1X4Xw | tXq.w ` #.+.1XI.E. .&.zX0.#.pX| kX1X` [ [ [ [ [ [ [ ` #.| | %.=X;XXX& 8 8 = k i.  g.8 8 8 8 7 n U.U.e.rXeXr 7 Y.Q.Q.tXjXjX7 g.C.O 8 8 9 _ %X5 + % O 4 @X@X9 8 8 8 8 8 z g l p i p.{ p.i 8 8 8 ",
"v v r.;.> < < < < < < < > > > > > > > > d N N N N N N N f A W.f N V N N N N V N N N N V V ].V V ( ( C Y tXkXiXx.) _ .XfXl.U ^ ^.W J / / P J J J J L J J J J J J J J J ! J J J J J J ! tX6.3.6.2.}.lX7.4.z. XtXr.z.yXfXiX7.lX7.<.z. XtXjXw.tXV iXkXdXiXy rXG.R.yX*.t tXkX=.-.iXiXr.yXR.<.>.<.>X9X0.q.1X1X8X-X3Xq. .pXpX0.9.q.pX` iXlX1X` [ #.b.iXaXkX1XN.zXq.` iX0.kX1X` [ [ [ [ [ [ [ ` #.| | %.=X;XXX& 8 8 = k a.  M.= 8 8 8 7 n U.U.e.rXeXr 7 Y.Q.Q.tXjXjX7 g.C.O 8 8 8 9 _ 5 * ; * 4 _ u 8 8 8 8 8 8 = - = 8 8 & = & 8 8 8 8 ",
"v v r.a > > > > > > > > > > > > > > > > s d N N s d N d c A R.f N V N N N N V N N N N N ( ( V Y ].Y W Y C Q tXkXfXz.R z.yXC ^ / / J ^ ^.J J J J J L J J J J J J J J J ! J J J J J H r.}.2.6.3.3.lXtX2.5.z..XtXr.z.yX}.7.5.fX X<.,. Xr.iXjX<.z iXiXZ rXrXzXf.p.aX-.t tXdXkXjXsXR.lXkX(.jXtXzX8X-Xq.1Xq.4X8X-X3Xq.q.kXlXlXiX .6Xq.lXfX1X` [ #.s.kXkXlXkXH.xXF.Z kXq.zXtX` [ [ [ [ [ [ [ ` #.| | %.=X;XXX& 8 8 = k d.  M.= 8 8 8 7 n U.U.e.rXeXr 7 Y.Q.Q.tXjXjX7 g.C.O 8 8 8 8 @ 7 ] 8.] r @ 8 8 8 8 8 8 8 8 8 8 8 8 8 8 8 8 8 8 8 ",
"tXZ.tX1 > > > > > > > > > > > > > > > > d d N N f A W.W.W.T.A f N V N N N N V N N N N V ].V V ( ( U W Y W Q Z / yXjXfXz.yX! U ^ ^.W J / / P J J J ! J J J J J J J J J ! J J J J J J tX5.3.3.2.kXiX1.5.k.}.lXtXyX}.iXr.k.5.3.OX6.,. Xz.d.zX>.1.r.r.>.yXdXI.,.y.sXe.j aXtXlXkXr.~.cXkXzXaXfXlXzX1X1XlX1XkX8X3X3Xq.kXkXlXlXkX@.(.iXlXsXaXtXw #.q.lXlXlXzX(.iXxXsXlX1XdXaX[ ` [ [ [ [ [ [ ` #.| %.%.=X;XXX& 8 8 = k d.  M.= 8 8 8 7 n U.U.e.rXeXr 7 Y.Q.Q.tXjXjX7 g.C.O 8 8 8 * -.gXgXgXgXgX8.8 8 8 8 8 8 8 8 = = - 8 = 8 8 8 8 8 8 ",
"C B < > > > > > > > > > > > > > > > > > d s d N f W.A B B B d N N V N N N N V N N N s ( ( N U ].Y U W Y Y Q Q / ) E }.jXlXkX}.m / / H ^ / J H J J L H J J J J J J J J ! J J J J H 7.tX2.2.2.fXfXk.3.6.k.}.kXtXkXyXyXr.3.5.2. X X1.6. X/ E.>.,.1.1.1.kXtX;.,.:.J.e.-.kXp.sXkX:.d.Q.tXsX!.kXkXlXlXkXxXiXzX8X-X%.1XlXzXcX(.dX1XkXaXzX(.xXlXiXtXkXlXlXaXxXxXaXlXkXlXpXsXsX..` ` ` ` ` ` ` ` | | | %.=X;XXX& 8 8 = k d.  A.= 8 8 8 7 n U.U.e.rXeXr 7 Y.Q.Q.tXjXuX7 g.C.O 8 8 ; 8.gX2Xy % 0 8.hX2X* 8 8 8 8 = a { { k 8 k a 8 8 8 8 8 ",
"v v v > > > > > > > > > > v > v v v v v N N N N d W.C d V V N N V V N V V N V V V V V ].Y V ( ) Y W ~ W W Q Q / ].E E ~ }.kXlXtXC ^.~ L / / L L L ! L L L L L L L L L ! ! L L L ! tXz.k.5.kXfXk.l.5.5.k.tXfXfXjXiXiXr.l.l.5.l.OX6.<. Xx.i.<.<.<.<.,.tX<.<.<.1.L.r.e.tXV sXkX:.>.R.a.i.(.lXwXkX5XkXsXiXxXaX3X%.iXlXxX~.~.cXiXbXsXcX!.zXzXxXzXlXlXcXR.).lXD.lXkXlXpXK.cX1X#.| | | | | | | #.#.%.%.-X;XXX& 8 8 = k d.  A.= 8 8 8 7 n U.U.e.rXeXr 7 Y.Q.Q.tXjXuX7 g.C.O 8 - y gX2Xo , p a o ] gX] ; 8 8 8 = a F.F.h.D.H.k = 8 8 8 8 ",
"B B < v v v v v v v v v v B B B B B B B N N N N d W.C d N N N N V V N N N N V V V N ( ( V U [.~ Y W ~ W W Q Q / ) E E ~ R W yXlXiXc.^.C k.c.J L L ! L L L L L L L L L ! L L L H 5.}.k.tXlXyX2.5.l.5.5.k.yXyXlXlXfXiX5.l.l.5.5. X X<.6. X<.,.,.,.,.,.1.,.,.<.>.(.xXiXr.1.tXtX1.<.<.<.,.r.lX3XzX!.E.(.lXdXlX4X3XlXkXsX~.E.dXxX(.lX(.~.zXzXaXxXlXdXR.@.~.zXf.N.1XzXiX5X(.lX .| | | | | | [ #.| %.%.-X;XXX& 8 8 = k d.X A.= 8 8 8 7 n U.U.e.eXeXr 7 Y.Q.Q.tXjXuX7 g.C.O e ; 2XgX. u K K x a   2X2X; 8 8 8 8 8 f.d.p.f.a.k - 8 8 8 8 ",
"B B B v v v v v v v v v v d s N N d d d s s s N f W.C d N N N d N V d N N N V N N N ].W N ( ) Y Y Y W Y Y Q Q / ) E E W ^ Y m k.jXlXiXiXlXdXR H H T 5 5 5 5 5 5 5 5 5 T H H J L yXfXkXkXr.1.3.3.k.3.5.k.yXyXlXyXkXyX2.5.5.3.5.l. X5.,. Xz.;.,.,.,.,.,.,.,.,.>.V zXkXr.,.,.1.,.,.,.,.1.8XlXB.(.E.~.P.xXaXlX4X1XlX6XI.E.Z jXdX(.zX).E.iXxXtXdXlXaXZ 0.E.(.s.#.1XxXxXsX).lX0.[ ` ` ` ` ` ` | [ | %.=X;XXX& 8 8 = k d.X A.= 8 8 8 7 n U.U.e.eX<Xr 7 Y.Q.Q.tXjXuX7 g.C.O e ; 2X2Xo k x x cXVXV 8.gX8 8 8 8 & 8 & = & 8 8 8 & = 8 8 8 ",
"B B B s s s s s s s s B B s s N N s d d d d d N f W.C d N N N N N V N N N N V N s E ( V V ].W W Y Y W Y Y Q Q / ) E E E Y Y ^ C j.fXkXiXiXjXkXfXiXiXyXiXyXyXyXyXyXiXiXiXiXfXkXjXjXyX}.2.2.6.2.r.tX2.5.k.yX}.yX5.kXyX2.5.l.3.5.6. X X,.3. X,.,.,.,.,.,.,.,.,.,.1.kXlX<.<.,.,.,.,.,.1.v.8XiXB.0.I.I.I.!.N.dX1XpXlX~.I.B.@.iXbX(.bXE.4X(.dXtXaXkXpX@.s.@.!.@.+.1XdXxXsX).lXkX0.` [ ` ` ` ` | | | %.=X;XXX& 8 8 = k d.X A.= 8 8 8 7 n Y.U.e.rXeXr 7 Y.Q.Q.tXjXjX7 g.C.O e ; 2X2Xo c x x H.cXc ] 2X8 8 8 8 { 8 k g z 8 = l z g 8 8 8 ",
"B B B s s s s s s s s s s s s N N s d d d d d N d W.C d N N N N N V N N N N V N N ].Y V E ( U W Y Y W Y Y Q Q / ) E E W Y Y Y ^ U l.tXR.U L kXz.yXjXjX}.tXtXtXtXtX}.}.}.r.7.2.tX7.L 3.6.3.6.2.tXlX5.3.7.fX X}.7.yXtX2.5.5.3.5.5.5.OX<.,. Xz.,.,.,.,.,.,.,.,.,.:.kXlX<.<.,.,.,.,.,.,.3X>Xb.n.n.9.q.N.(.4X8XaXpXdX~.I.q.s.iXcX(.(.R.pX!.(.1X6XkXtX#.s. .E.@.+.q.dXbX4X(.xXlXq.w [ ` ` ` ` | | | %.=X;XXX& 8 8 = k d.X A.= 8 8 8 7 v U.b -.eXw.r 7 b T.T.tXuXuX7 M.C.O e ; 8.gX. ; x x c ;   2X<X* 8 = l M.z i.D.g.l y.D.D.h.= 8 8 ",
"B B B s s s s s s s s s s s s N N s d d d d d N d W.C d N N N N N V N N N N V N Y ( V U ].W Y W Y Y W Y Y Q Q / ) E E W Y Y Y Y Y R T / / H r.jXyXT tX2.5 5 H H 5 H 5 T H H 2.tX2.6.5.6.3.6.2.yXiX}.! tXyXz.tXr.r.7.6.5.5.3.5.l.2. Xz.,.6. X,.,.,.,.,.,.,.,.,.1.tXkX,.<.,.,.,.,.1.9.>X3X9.B.v.v.n.q.q.4X8XaXiX(.~.I.q.s.pX#XE.~.R.1X).R.0.E.sXpX#.@.@.I.@.+.q.sX(.r.I.).lXtXw [ ` ` ` ` | | | %.=X;XXX& 8 8 = k d.X A.= 8 8 8 7 v b n -.w.e.r 7 n T.Y.r.uXrX$ M.C.O 8 - r gX2X. ; 4 - : ] 2X] - 8 = k g.i.a.A.g.l d.M.D.h.8 8 8 ",
"C C N s s s s s s s s s s s s N N s d d d d d N d W.C d N N N N N V N N N N V N ) Y N ( ].V W W Y Y W Y Y Q Q / ) E E W Y Y Y Y Y Y W W ^.^ T Z.j.H }.}.H J fXyXH L J ! L H }.r.2.2.5.6.3.3.3.yXyX}.! yX}.z.tXr.z.7.6.5.5.3.5.5.3.z.OX1.,. X5.,.,.,.,.,.,.,.,.,.1.,.<.<.,.,.,.,.1.3X>Xv.n.n.v.v.n.B.B.4X8XaXiX).!.I.q.s.tX(.E.!.f.q.).R.0.W.6XpX#.@.@.s.+.@.q.dX!. .Z ~.zXiX[ ` ` ` ` ` | [ | %.=X;XXX& 8 8 = k d.X A.= 8 8 8 7 v b n -.w.e.r 7 n T.T.r.uXrX7 M.C.O 8 8 ; -.hX8.o & % y 2X8.- 8 8 8 8 k i g a g 8 p g g p 8 8 8 ",
"p.p.V s s s s s s s s s s s s N N s d d N N N N N W.C d N N N N N V N N N N N Y ) N V ].E U Y W Y Y W Y Y Q Q / ) E E W Y Y Y Y Y Y Y Y / / J R / J 7.yX5 r.tXyX2.H J ! H 2.tX2.3.2.5.6.3.3.7.yXtXtX! iX.X XtXr.r.7.6.5.5.3.5.5.3.5. Xz.,.5. X,.,.,.,.,.,.,.,.,.,.,.<.<.,.,.,.,.0.>X3X9.n.n.v.v.n.B.B.4X3XaXkX!.E.N.B.9.D.F.I.R.q.q.).I...Z 4XtX@.@.@.s.+.@.0.I.E.0.I.~.F.iX..` ` ` ` ` | [ | %.=X;XXX& 8 8 = k f.X D.= 8 8 8 7 v b n -.w.e.r 7 n T.Y.r.uXrX7 M.C.O 8 8 8 ; ] 0 9 9 9 9 ] - 8 8 8 8 8 = 8 = 8 = 8 = = = = 8 8 8 ",
"V V N s s s s s s s s s s s s N N s s d d f f f d W.N d N d N N N V d N N N N ( E N E ].V U Y W U Y W Y Y Q R / ) E E W Y Y Y Y Y Y Y Y R ^.^ J / ~ H yXJ yX2.}.r.H J ! H }.r.2.3.2.5.6.3.2.7.yX}.yX2.iX X XtXr.r.7.6.5.5.3.5.5.3.5.z. X1.,. X6.,.,.,.,.,.,.,.,.,.,.,.<.,.,.,.1.3X>XV.9.n.n.v.v.n.B.B.4X3X(.zX!.s.n.n.q.R.R.B.f.n.q.E.6X .@.1XtX@.@.@.s.+.@. .Z E...I.~.R.iX0.` ` ` ` ` | [ | %.=X;XXX& 8 8 = k f.X D.= 8 8 8 7 v b n -.w.e.r 7 n T.Y.r.uXrX7 M.C.O 8 8 8 8 & D _ `._ D * 8 8 8 8 8 8 8 8 8 8 8 8 8 8 8 8 8 8 8 ",
"B B B s s s s N N N N N N N N N N N N N B A A C A W.V N N N N N N V N N N N Y ].V V ].( U Y W W Y Y ~ Y R Q Q / ) E E E W W W W W W W W ^ / / J Q / H tX}.yXJ r.yXH L ! L yXr.3.3.3.5.3.6.6.r.yX}.yX3.iXz. XtXr.r.7.5.5.l.6.5.l.6.l.6. Xz.,.z. X,.,.,.,.,.,.,.,.,.,.<.<.,.,.,.<.>X3X9.n.n.B.n.n.n.B.B.4X8XE.xX).b.B.B.q.h.I.B.n.n.q.I.4Xq.@.s.s.s.@.@.s.@.@. .I.E.0.@.~.R.sX1X` [ [ [ [ #.| %.%.=X;XXX& 8 8 = k f.X D.= 8 8 8 7 v b n -.w.e.r 7 n T.Y.r.uXrX7 M.C.O 8 8 8 8 _ '.[._ [.{.[.4 9 8 8 8 i - & = = 8 8 8 8 = & 8 8 8 ",
"C C N N N N N N N N N N N N N V V N c A T.Y.Y.Y.Y.R.V V V V V V V V V V V N ) E V E ].W W W ~ ~ W W ~ W Q Q Q / ) ( E ~ ~ ~ ~ ~ ~ ~ ~ ~ ~ Q ^.! ! ^.W 2.kXyXT 2.yX! ! ! r.iXjX7.5.5.l.7.kXiXr.yXl.fX}.iXz. XtXr.Z.z.l.l.l.5.l.l.l.z.l.z. X<.<.OX5.<.<.<.<.<.<.<.<.<.<.<.<.<.<.3X>XV.n.n.B.B.n.B.B.B.B.4X8XE.dX).N.B.B.B.B.B.B.B.B.B.B.4X4X@.s.@.b.s.s.s.s.s.b.I.R.0.I.!.E.).yX#.| | | | @.#.%.%.-X;XXX& 8 8 = k h.X D.= 8 8 8 7 v b n -.w.e.r 7 n T.Y.r.uXrX7 M.C.O 8 8 9 _ @X6 + O + 2 '.[.8 8 = k M.y.{ k a f.d.d.{ l a.g = 8 ",
"B B B s s s s s s s s s s s s N N B f Y.A p f f f d N s d d d d N V d N s V ].V N ) ( Y U U Y W U U W Y Y Q R / ) E E W Y Y Y Y Y Y Y Y Y ^ / Q H / / H tXtX5 L yXJ H L yXiXyX}.kX}.! yXtXyXtXyX! }.iXyXz. XtXr.r.7.6.5.5.3.5.5.3.l.5.2. X5.,.z. X;.,.,.,.,.,.,.,.,.,.<.,.,.,.>X3X0.v.9.v.n.9.v.n.B.q.4X3X/.(.I.b.n.n.9.v.v.B.n.n.n.B.v.aXb.+.+.s.+.+.s.+.+.+.@.@. .@.E.~.!.iX[ ` ` ` ` | ` | %.=X;XXX& 8 8 = k h.X D.= 8 8 8 7 v b n -.w.e.r 7 n T.Y.r.uXrX7 M.C.O e 9 D '.6 + c x x & ; [._ 9 = z y.D.d.f.M.i.S.F.g.H.F.p - 8 ",
"B B B s s s s s s s s s s s s N N B f Y.A f B N B N N d N N N N N V N N s ( ( N Y ].U W U U Y W U Y W Y Y Q R / ) E E W Y Y Y Y Y Y Y Y Y Y Q ^.^ ^ ^.^ H H J J yXL H 7.iXtXr.lXiXtX5.fX2.tXfXtXk.r.kXtXx. XtXr.r.7.6.5.l.3.5.5.3.l.5.3.z. X,.1. X<.,.,.,.,.,.,.,.,.<.<.,.1.V.>XV.9.v.v.n.n.v.v.n.B.B.4X3X/.R.q.v.n.n.v.n.n.B.n.n.n.B.b.4X4X+.+.s.+.@.s.+.@.@.+.+.@.+.I.~.E.kXq.w ` ` ` | [ | %.=X;XXX& 8 8 = k h.X D.= 8 8 8 7 v b n -.w.e.r 7 n T.Y.r.uXrX7 M.C.O e 9 _ '.+ p z z ^ ^ + `.[.9 - p d.{ i d.p.i { { l y.{ g = 8 ",
"B B B s s s s s s s s s s B B N N B f Y.A f N d s N N d N N N N N V N N N ].U V ( ( U W U U Y W U Y W Y Y Q R / ) E E W Y Y Y Y Y Y Y Y Y W Y / Q L / / P J J H yX7.5 tXiX}.3.iX7.yXtXyXL r.lX}.k.6.lXtXx. XtXr.r.7.6.5.5.3.5.5.3.l.5.6.3.OX5.,.z. X;.,.,.,.,.,.,.,.,.<.,.,.8X3X9.v.v.v.n.n.9.v.n.B.B.4X3X/.R.q.v.n.n.v.n.n.B.n.n.n.B.v.B.aX+.+.s.+.+.s.+.+.+.+.@.@. .@.!.E.kX1Xw ` ` ` | ` | %.=X;XXX& 8 8 = k h.X S.= 8 8 8 7 v b n -.w.e.r 7 n T.Y.r.uXrX7 M.C.O e 9 `._ + c x z x ^ & D [.8 8 8 = & = k & & & & & = = 8 8 8 ",
"B B B s s s s s s s s s s f f c f f a Y.A f N d s N N d N N N d N V N s ( ( V Y ].U Y W U U Y W U Y W Y Y Q R / ) E E W Y Y Y Y Y Y Y Y Y Y Y Q / ! Y ^.J J J H 7.iXyXkXtX7.2.2.2.iXlX}.2.2.iXr.k.2.kX}.z. XtXr.r.7.6.5.l.3.5.5.3.l.5.6.3.z. X,.<. X,.,.,.,.,.,.,.,.,.<.1.V.>XV.9.v.v.v.n.n.9.v.n.B.B.4X3XI.I.q.v.n.n.v.n.n.B.n.n.n.B.n.b.4Xv.+.s.+.+.s.+.+.+.+.+.@.+.@.E.R.P.jX..` ` ` | ` | %.=X;XXX& 8 8 = k h.X S.= 8 8 8 7 v b n -.w.e.r 7 n T.Y.r.uXrX7 M.C.O e 9 _ [.+ c p S.VXc + _ [.8 8 8 8 e u.l p.a.k l u.a 8 8 8 8 ",
"B B B s s s s s s s s s B Y.Y.R.R.Y.A T.B d N d s N N d N N N d N V N N ].V V ( ( V Y W U U Y W U Y W Y Y Q R / ) E E W Y Y Y Y Y Y Y Y Y Y W Y ^.Q J / Q P J J L r.kXtXL 2.2.3.2.7.r.3.2.3.2.3.5.3.5.5.z. XtXr.r.7.6.5.5.3.5.5.3.l.5.6.6.3.OX6.,. Xz.;.,.,.,.,.,.,.,.<.,.3X>X9.9.v.v.v.n.n.9.v.n.B.B.4X3XV.V.V.v.n.n.v.n.n.B.n.n.n.B.n.b.4X4X#.s.+.+.s.+.+.+.+.+.+.+.@.E.#.).lXq.w [ ` | ` | %.=X;XXX& 8 8 = l g.. S.= 8 8 8 7 v b n -.w.e.r 7 n T.Y.r.uXrX7 M.C.O e 9 D {.; O c x CXz X [._ 9 8 8 8 8 d.a.C.A.:.u.cXd.= 8 8 8 ",
"V V N s s s s s s s B f Y.Y.A A A A A A s d d d s N N d N N N d N V s E ( N Y ].U U Y W U U Y W U Y W Y Y Q R / ) E E W Y Y Y Y Y Y Y Y Y Y Y Y / / J Y ^.J J J H 2.}.3.6.2.2.2.3.2.3.3.2.3.3.3.5.3.4.4.z. XtXr.r.7.6.5.5.3.5.5.3.l.5.6.6.2. X X,.2. X,.,.,.,.,.,.,.<.,.9.>X3X0.v.9.v.v.n.n.9.v.n.B.B.4X3XV.V.V.v.n.n.v.n.n.B.n.n.n.B.v.v.B.aX+.s.+.+.s.+.+.+.+.+.+.+.@.R. .I.lXq.w [ ` | ` | %.=X;XXX& 8 8 = l g.. S.= 8 8 8 7 v b n -.w.e.r 7 n T.Y.r.uXrX7 M.C.O 8 8 8 [.'.2 O % - u `.'.u 8 8 8 8 = z u.d.f.z i d.a.8 8 8 8 ",
"p.V V s s s s s s s B f Y.A a d f f f f s d d d s N N d N N N N N V d ].U N ( ( V U Y W U U Y W U Y W Y Y Q R / ) E E W Y Y Y Y Y Y Y Y Y Y Y Y Y ^.W J / Q P J H tX7.3.3.2.2.2.2.2.5.3.3.3.3.3.5.3.4.4.z. XtXr.r.7.6.5.5.3.5.5.3.l.5.6.6.6.6.OX2.,. Xz.,.,.,.,.,.,.,.,.3X>Xv.9.9.9.9.v.n.n.9.v.n.B.q.4X3XV.V.V.v.n.n.v.n.n.B.n.n.n.B.n.n.v.4XB.@.@.@.s.+.+.+.+.+.+.+.+.@. .I.lX1Xw [ ` | ` | %.=X;XXX& 8 8 = l g.. S.= 8 8 8 7 v b n -.w.e.r 7 n T.Y.r.uXrX7 M.C.O 8 8 9 4 '.D 9 - & 4 '.5 9 8 8 8 8 8 8 8 8 8 8 8 = 8 8 8 8 8 ",
"W.W.T.Y.Y.Y.Y.Y.Y.Y.Y.Y.T.B s N N B B B s s s d s N N s N d d d N N Y ( N V ].Y U U U W U U Y W U U W U Y Q R / ) E E W Y Y Y Y Y Y Y Y Y Y Y Y Y / / H Y / J H 2.tX2.5.2.2.2.2.2.2.5.3.2.3.2.3.5.3.4.4.z. X}.r.r.7.3.6.5.3.5.5.3.l.6.3.6.6.2. X X,.3. X,.,.,.,.,.,.,.n.>X3X0.9.9.9.9.9.n.n.9.v.n.B.q.4X3XV.V.V.v.n.n.v.v.v.B.n.v.n.B.v.v.n.B.4X@.+.+.s.+.+.+.+.+.+.+.+.+. .I.lX1Xw ` ` | ` | %.=X;XXX& 8 8 = l g.. S.= 8 8 8 7 v b n -.w.e.r 7 n T.Y.r.uXrX7 M.C.O 8 8 8 9 8 8 8 8 8 8 e 8 8 8 8 8 8 8 8 8 8 8 8 8 8 8 8 8 8 8 ",
"A A C C C C C C C C C C N N N V V N N N N N V V N V V N V V V V V V ].W V ( ].Y W W W ~ W W ~ ~ W W ~ W W Q Q / ) E E ~ ~ W W W W ~ ~ ~ ~ ~ ~ ~ ~ ~ ^.~ ! / ~ J tXr.3.l.5.5.5.5.5.5.l.5.5.5.5.5.l.5.l.z.z. XtXr.z.7.5.l.l.5.l.l.5.z.l.l.l.l.l.z.OX6.<. Xz.,.<.<.<.<.<.3X>XB.n.n.n.n.n.n.B.B.n.n.B.B.B.4X8X3XV.B.B.B.B.n.B.n.B.B.B.B.B.B.B.B.B.aXn.@.s.b.s.s.s.s.s.s.s.s.s.s.I.zXpX` | | #.#.%.%.-X;XXX& 8 8 = l g.. S.= 8 8 8 7 v b n -.w.e.r 7 n T.Y.r.uXrX7 M.C.O 8 8 8 8 8 8 8 8 8 8 8 8 8 8 8 8 8 8 8 8 8 8 8 8 8 8 8 8 8 8 ",
"B B s s s s s s s s s s s N s N N s N N N N N N d N N d N N N N N W ( N V ].E Y U U Y W U U Y W Y Y W Y Y Q Q / ) E E W Y Y Y Y Y Y Y Y Y Y Y Y W W / / J Q / 2.tX2.2.5.3.3.3.3.3.2.5.6.3.3.3.3.5.3.6.5.z. XtXr.r.7.6.5.5.3.5.5.3.l.5.6.6.6.5.3. Xz.,.5. X,.,.,.,.1.0.>X3X0.v.v.v.v.v.9.n.n.v.v.n.B.q.4X3XV.V.V.v.n.n.v.n.n.B.n.v.n.B.n.n.B.b.4X4X#.@.s.+.+.+.+.+.+.+.+.@. .&.xXtXw [ ` | [ | %.=X;XXX& 8 8 & l g.. S.= 8 8 8 7 v b n -.w.e.r 7 n T.Y.r.uXrX7 M.M.# e 8 8 8 8 8 8 8 8 8 8 8 8 8 8 8 8 8 8 8 8 8 8 8 8 8 8 8 8 8 ",
"B B B s s s s s s s s s s s s N N s s s s s s d s N N s d N N N s ].Y N E ) U Y U U Y W U U Y W U Y W Y Y Q R / ) E E W Y Y Y Y Y Y Y Y Y Y Y Y Y ~ Y ^.Y J / .Xr.2.2.5.2.2.2.2.2.2.5.3.2.3.3.3.5.2.4.4.z. XtXr.r.7.6.5.5.3.5.5.3.l.5.3.6.6.6.3.5. X1.,. X6.,.,.,.1.3X>Xv.0.9.9.9.9.9.9.v.n.9.v.n.B.q.4X3XV.V.n.v.n.n.v.v.v.n.v.v.n.n.v.v.B.v.B.4X+.+.s.+.+.+.+.+.+.+.+.+. .#.).aX` ` ` | ` | %.=X;XXX& 8 8 & l g.. F.= 8 8 8 7 v b n -.w.e.r 7 n T.Y.r.uXrX7 i.J.  & & & & & & & & & & & & & & & & & & & & & & & & & & & & & & ",
"B B B s s s s s s s s s s s s N N s s s s s s d s N N s d N N s T ].N N ].E Y Y U U Y W U U Y W U Y W Y Y Q R / ) E E W Y Y Y Y Y Y Y Y Y Y Y Y Y ~ ^ / / H ~ aX2.2.2.5.2.2.2.2.2.2.5.3.2.3.3.3.5.2.4.4.z. XtXr.r.7.6.5.5.3.5.5.3.l.5.6.6.6.6.6.2. Xz.,.l. X;.,.,.,.>X3X0.9.9.9.9.9.9.9.v.n.9.9.n.B.q.4X3XV.V.V.v.n.n.v.v.v.B.v.v.n.n.v.v.B.n.b.4Xb.+.s.+.+.+.+.+.+.+.+.+. .@.~.aX` ` ` | ` | %.=X;XXX& 8 8 & l g.. F.= 8 8 8 7 v b n -.w.e.r 7 n T.Y.r.uXrXr * cXG.:.u.u.y.y.y.y.y.y.y.y.y.y.y.y.y.y.y.y.y.y.y.y.y.y.y.y.y.y.y.",
"B B B s s s s s s s s s s s s N N s s s s s s d s N N s d N N s ( E N E ].V W Y U U Y W U U Y W U Y W Y Y Q R / ) E E W Y Y Y Y Y Y Y Y Y Y Y Y Y ~ Y R ^.T r..Xk.2.2.5.2.2.2.2.2.2.5.3.2.3.3.3.5.2.4.4.z. XtXr.r.7.3.5.5.3.5.5.3.l.5.6.6.6.6.6.3.z. X,.,. X2.,.1.V.>XV.0.9.9.9.9.9.9.9.v.n.9.9.9.B.q.4X3XV.V.V.v.n.n.v.v.v.B.v.v.n.n.v.v.n.n.b.4X4X#.s.+.+.+.+.+.+.+.+.+. .@.~.aX` ` ` | ` | %.=X-XXX& 8 8 & l g.. G.= 8 8 8 7 v b n -.w.e.r 7 n T.Y.r.uXrXy & O d.S.S.S.S.S.S.S.S.S.S.S.S.S.S.F.F.F.F.F.F.F.F.F.F.F.F.F.F.S.S.",
"B B s s s s s s s s s s s s s N N s s s s s s d s N N s d N s V ].V N ) E T W Y U U Y W U U Y Y U Y W Y Y Q R / ) E E W Y Y Y Y Y Y Y Y Y Y Y Y Y ~ Y Y / Q tXx.c.2.2.5.2.2.2.2.2.2.5.3.2.3.3.3.5.2.4.4.z. XtXr.r.7.3.6.5.3.5.5.3.l.6.6.6.6.6.6.6.3. X5.,.z. X;.,.>X3Xn.9.9.9.9.9.9.9.9.v.n.9.9.9.q.q.4X3XV.V.V.v.n.n.9.v.v.B.v.v.n.n.v.v.n.n.v.B.aX+.s.+.+.+.+.+.+.+.+.+.+.+.!.aX` ` ` | ` | %.=X-XXX& 8 8 & l C.. H.= 8 8 8 7 v b n -.w.e.r 7 n T.Y.r.uXrXr l 5XS.S.S.S.S.F.F.S.S.F.S.S.F.F.S.D.D.D.D.D.D.D.D.D.D.D.D.D.D.D.D.",
"C V N s s s s s s s s s s s s N N s s s s s s s s N N s d N s ( E V U ].U U W Y U U Y W U U Y Y U Y W Y Y Q R / ) E E W Y Y Y Y Y Y Y Y Y Y Y Y Y ~ Y ^ R S.}.k.c.3.2.5.2.2.2.2.2.2.5.3.2.2.3.3.5.2.4.4.z. XtXr.r.7.3.6.5.3.5.5.3.l.6.3.6.6.6.6.6.3.z. X,.1. X1.V.>XV.9.9.9.9.9.9.9.9.9.v.n.9.9.9.q.q.4X3XV.V.V.v.n.n.9.v.v.n.v.v.n.n.v.v.n.n.v.v.4Xn.@.+.+.+.+.+.+.+.+.+.+. .E.aX..` ` | ` | %.=X-XXX& 8 8 & l A.. H.= 8 8 8 7 v b n -.w.e.r 7 n T.Y.r.uXrX7 h.LXLXLXLXLXLXLXLXLXLXLXLXLXLXLXJX{ i.p.p.p.p.p.p.p.p.p.p.p.p.p.p.",
"C V N s s s s s s s s s s s s N N s s s s s s s s N N s N s N ].V V ( ( T U W Y U U Y W U U Y Y U Y W Y Y Q R / ) E E W Y Y Y Y Y Y Y Y Y Y Y Y Y ~ Y Y ^ aXx.2.x.x.2.5.2.2.2.2.2.2.5.3.2.2.2.3.5.3.4.4.z. XtXr.r.7.3.6.5.3.5.5.3.l.6.3.6.6.6.6.6.6.3.OX5.,.z. X;X8X9.n.9.9.9.9.9.9.9.9.v.n.9.9.9.q.q.4X3XV.V.V.v.n.n.9.v.v.n.v.v.n.n.v.v.n.n.v.n.B.4X@.+.+.+.+.+.+.+.+.+.+. .#.aX..` ` | ` | %.=X-XXX& 8 8 & l A.. H.= 8 8 8 7 v b n -.w.e.r 7 n T.Y.r.uXrX7 d.LXHXVXHXGXIXCXCXIXGXJXGXHXKXPXZXX & % % % % % % % % % % % % % & ",
"C V N s s s s s s s s s s s s N N s s s s s s s s N N s d s E E N Y ].T U U Y Y U U U W U U Y Y U U W U Y Q R / ) E E W Y U Y Y Y Y Y Y Y Y Y Y Y W Y U l..Xc.3.k.c.2.6.2.2.2.2.2.2.6.3.2.2.2.2.5.2.4.4.z. X}.r.r.5.3.3.5.2.5.5.2.5.6.3.3.3.3.3.3.3.2.z. X,.2.Z.>XV.9.v.0.9.9.9.9.9.9.0.9.n.9.9.9.q.q.4X3XV.V.n.9.n.n.9.9.9.n.9.9.v.n.9.v.n.n.9.n.n.4Xs. .+.+.+.+.+.+.+.+.+. .#.aX..` ` | ` ' | $.-XXX& 8 8 & l A.. H.= 8 8 8 7 v b n -.w.e.r 7 n T.Y.r.uXrX7 d.LXCXsXvXVXvX5XAXvXVXvXvXCXPXLXZX% e 8 8 8 8 8 8 8 8 8 8 8 8 8 8 ",
"C B N N N N N N N N N N N N N V N N N N N N N N N V V N N N ].U V ) ( U Y Y W W Y Y W ~ Y Y W W Y W ~ W W Q Q / ) E E E W W W W W W W W W W W W W ~ W R tXl.c.x.6.c.x.5.6.6.6.6.6.6.l.5.6.6.6.5.l.5.5.z.z. XtXr.z.7.5.5.l.6.l.l.5.l.l.5.5.5.5.5.5.5.5.5.OX5.<.8X8Xv.n.n.v.n.n.n.n.n.n.n.n.B.n.n.n.B.B.4X8XV.V.V.n.B.B.n.n.n.B.n.n.n.B.n.n.B.B.n.B.v.4XB.@.@.@.@.@.@.@.@.@.@.s.#.aX0.` [ #.| %.%.=X;XXX& 8 8 & l A.. H.= 8 8 8 7 v b n -.w.e.r 7 n T.Y.r.uXrX7 d.LXHXHXGXHXCXGXGXCXHXCXJXJXLXLXD.# 8 8 8 8 8 8 8 8 8 8 8 8 8 8 8 ",
"C C N N N N N N N N N N N N N V N N N N N N N N N V V N N E ( N U ].Y Y Y Y W W Y Y Y W Y Y W W Y Y ~ W W Q Q / ) E E E W W W W W W W W W W W W W ~ R l.tXk.x.c.3.k.c.5.6.6.6.6.6.3.5.5.6.6.6.6.l.6.5.z.z. XtXr.z.7.5.5.l.6.5.l.5.l.5.5.5.5.5.5.5.5.5.6. X Xn.8X7X9.n.n.v.n.n.n.n.n.n.n.n.B.n.n.n.B.B.4X3XV.V.V.n.n.B.n.n.n.B.n.n.n.B.n.n.B.n.n.B.v.B.4X+.@.@.@.@.@.@.@.@.@.s.#.sX0.` [ #.| %.%.=X-XXX& 8 8 & l A.. H.= 8 8 8 7 v b n -.w.e.r 7 n T.Y.r.uXrX7 f.KXJXHXHXHXHXHXCXGXHXHXJXHXGXL.& 8 8 8 8 8 8 8 8 8 8 8 8 8 8 8 8 ",
"B B s s s s s s s s s s s s s N N s s s s s s s s N N s s ].T d ( ( C U U T Y Y U U U W U U Y Y U U W U Y Q R / ) E E W Y U Y Y Y Y Y Y Y Y Y Y Y ~ U tXl.k.k.c.k.2.c.x.2.2.2.2.2.2.6.3.2.2.2.2.5.2.4.4.z. X}.r.r.5.3.3.5.2.6.5.2.5.6.3.3.3.3.3.3.3.3.3.6. X3X>XZ.Z.0.n.0.0.0.0.9.9.9.0.9.n.0.9.9.q.q.4X3XV.V.n.9.n.n.9.9.9.n.9.9.v.n.9.9.n.v.9.n.v.v.aX+.+.+.+.+.+.+.+.+.+. .#.6Xq.w ` [ ` ' | $.-XXX& 8 8 & l A.. H.= 8 8 8 7 v b n -.w.e.r 7 n T.T.r.uXrX7 M.C.O e 8 8 8 8 i u 8 8 8 8 = # 8 8 8 8 8 = = = = 8 8 - - - - 8 8 ",
"B B B s s s s s s s s s s s s N N s s s s s s s s N N s E ( N V ].W T U U U Y Y U U Y W U U Y Y U U W Y Y Q R / ) E E W Y Y Y Y Y Y Y Y Y Y Y Y Y R k.tXk.k.k.x.c.2.k.c.2.2.2.2.2.2.6.3.2.2.2.3.5.2.4.4.z. X}.r.r.7.3.6.5.2.5.5.2.l.6.3.3.3.3.3.6.6.6.6.2.Z.8X3Xm..X9.n.0.9.9.9.9.9.9.9.v.n.9.9.9.q.q.4X3XV.V.n.9.n.n.9.9.9.n.v.v.n.n.v.v.n.n.9.n.n.b.4XB.#.+.+.+.+.+.+.+.+.+.#.L.q.w ` | ` | | =X-XXX& 8 8 & l A.. L.= 8 8 8 7 v n v =.8.-.r 7 v U.U.e.eX<X$ M.M.O 8 = & = & = & 8 8 8 8 8 8 8 8 8 7 v b n n v ; 0 X.X.X.X.0 8 ",
"B B B s s s s s s s s s s s s N N s s s s s s s s N N s ].U N E ( U U U U U Y Y U U U W U U Y Y U U W U Y Q R / ) E E W Y Y Y Y Y Y Y Y Y Y Y Y Y R }.z.k.k.k.k.c.k.2.c.k.2.2.2.2.2.6.3.2.2.2.3.5.2.3.4.z. X}.r.r.5.3.6.5.2.5.5.2.5.6.3.3.3.3.3.3.6.6.6.4.3X8Xn.9.Z.Z.9.0.9.9.9.9.9.9.9.v.n.9.9.9.q.q.4X3XV.V.n.9.n.n.9.9.9.n.v.v.n.n.9.9.n.n.9.n.v.b.4X1X#.+.+.+.+.+.+.+.+.+.#.(.1Xw ` | ` ' | =X-XXX& 8 8 & l A.. L.= 8 8 8 7 < v v ] -.-.e 7 v b b -.<Xw.$ M.C.+ l :.{ { d.a { i 8 8 8 8 8 8 8 8 7 v T.U.U.b ; O.*XX.&X&X0 8 ",
"B B s s s s s s s s s s s s s N N s s s s s s s s N N U ( N V ].E Y U U U U Y Y U U U W U U Y Y U U W U Y Q R / ) E E W Y Y Y Y Y Y Y Y Y Y Y Y U k.tXk.k.k.k.k.c.c.2.x.c.2.2.2.2.2.6.3.2.2.2.3.5.2.3.4.z. X}.r.r.5.3.6.5.2.5.5.2.5.6.3.3.3.3.3.3.3.6.4.l.>X7XZ.9.m..X9.0.9.9.9.9.9.9.0.v.n.9.9.9.q.q.4X3XV.V.n.9.n.n.9.9.9.n.9.9.v.n.9.9.n.n.9.n.v.v.n.tX+.+.+.+.+.+.+.+.+.+.} (.1Xw ` | ` ' | =X-XXX& 8 8 & l A.. L.= 8 8 8 7 < v v *.-.-.e 7 v U.b -.eXw.$ M.C.X d.f.A.z f.8 d.g.d.8 8 8 8 8 8 8 7 n T.b U.b , O.*XX.&X&X0 8 ",
"C B N s s s s s s s s s s s s N N s s s s s s s s N N ( Y N E ) V Y U U U U Y Y U U U W U U Y Y U U W U Y Q R / ) E E W Y Y Y Y Y Y Y Y Y Y Y Y U .XZ.k.k.k.k.k.k.c.k.5.c.k.2.2.2.2.6.3.2.2.2.3.5.2.3.4.z. X}.r.r.5.3.3.5.2.5.5.2.5.6.3.3.3.3.3.3.3.6.4.3X>XZ..Xn.v..Xm.0.9.9.9.9.9.9.0.9.n.9.9.9.q.q.4X3XV.V.n.9.n.n.9.9.9.n.9.9.v.n.9.9.n.n.9.n.v.n.b.1XB.#.+.+.+.+.+.+.+.+. .R.aXw ` | ` ' | =X-XXX& 8 8 & l A.. L.= 8 8 8 7 < v v *.-.-.e 7 v U.b -.eXw.$ M.C.X y.l p.i u.8 f.i.u.e 8 8 8 8 8 8 7 n Q.T.T.U.; X.*X*X*X&X0 8 ",
"p.p.V s s s s s s s s s s s s N N s s s s s s s s N U ( N N ].E U Y T U U U Y U U U U W U U Y Y U U W U Y Q R / ) E E W Y Y Y Y Y Y Y Y Y Y Y Y ! tXk.k.k.k.k.k.k.c.x.6.x.c.2.2.2.2.6.3.2.2.2.3.5.2.3.4.z. X}.r.r.5.3.3.5.2.5.5.2.5.6.3.3.3.3.3.3.3.3.6.8X3Xm..XZ.9.Z.Z.0.9.9.9.9.9.9.0.9.n.0.9.9.q.q.4X3XV.V.n.9.n.n.9.9.9.n.9.9.v.n.9.9.n.v.9.n.v.v.n.q.4X#.+.+.+.+.+.+.+.+. .R.aX` ` | ` ' o.=X-XXX& 8 8 & l D.. L.= 8 8 8 7 < v v *.-.-.e 7 v b b -.eXw.$ M.M.O e 8 8 8 8 8 i 8 8 8 8 8 8 8 8 8 7 n Y.U.b n , O.&X&XX.X.0 8 ",
"V V N s s s s s s s s s s s s N N s s s s s s s s B ( E N E ].C U Y T U U T Y U U U U W U U Y Y U U W U Y Q R / ) E E W Y Y Y Y Y Y Y Y Y Y Y U r..Xj.k.k.k.k.k.k.k.c.l.3.c.k.2.2.2.6.3.2.2.2.2.5.2.3.4.z. X}.r.r.5.3.3.5.2.6.5.2.5.3.3.3.3.3.3.3.6.4.B.>XB.m.Z..X9.n..Xv.0.0.0.0.0.0.0.9.n.0.9.9.q.q.4X3XV.V.n.9.n.n.9.9.9.n.9.9.v.n.9.9.n.v.9.n.v.v.n.9.4X+.+.+.+.+.+.+.+.+. .R.aX` ` [ ` ' o.$.-XK.& 8 8 & l D.. J.= 8 8 8 7 < v v *.-.-.e 7 v U.b -.eXw.$ M.M.O 8 8 8 8 8 8 = 8 8 8 8 8 8 8 8 8 8 - = = = = 8 8 = = = = 8 8 ",
"B B B s s s s s s s s s s s s N N s N N N d N N s V ].N N ].E T Y Y U U U U W Y U U Y W U U Y W U Y W Y Y Q R / ) E E W Y Y Y Y Y Y Y Y Y Y Y W tXx.k.k.k.k.k.k.k.k.c.c.2.x.c.2.3.2.5.3.2.2.2.3.5.3.4.4.z. X}.r.r.7.3.6.5.3.5.5.3.l.6.3.3.3.6.6.6.6.6.8X3Xm.m.m..Xm.v.Z.Z.0.9.9.9.9.9.9.v.n.9.9.9.q.q.4X3XV.V.n.9.n.n.9.v.v.B.v.v.n.n.v.v.n.n.9.n.v.v.B.b.4Xn.+.+.+.+.+.+.+.+. .R.sX..` | ` | %.=X-XK.& 8 8 & l D.. J.= 8 8 8 7 < v v *.-.-.e 7 v U.b -.eXw.$ M.M.& i i i i i i i i i i i i i i i i i i i i i i i i i i i i i i ",
"C C N N N N N N N N N N N N N V N N N N N N N V N ( E V W ].U Y W W Y Y W Y W W Y Y W ~ W W W W W W ~ W W Q Q / ) E E ~ W W W W W W W W W ~ R Z.}.x.x.x.x.x.x.x.x.k.x.c.l.l.c.l.6.6.5.5.6.5.6.5.l.5.5.z.z. XtXr.z.7.5.5.l.5.5.l.5.l.5.5.5.5.5.5.l.4.B.>XB.m.m.m.Z..Xn.B..Xn.n.n.n.n.n.n.n.B.n.n.n.B.B.4X3XV.V.V.n.B.B.n.n.n.B.n.n.n.B.n.n.B.n.n.B.n.n.B.v.4X4X@.s.@.@.@.@.@.@.0.Z 6Xq.` #.| %.%.=X-XK.& 8 8 & l D.. J.= 8 8 8 7 < v v *.-.-.e 7 v U.b -.eXw.$ M.M.# i 8 8 8 8 8 8 8 8 8 8 8 8 8 8 8 8 e e e e e 8 8 e e e e 8 8 ",
"B B s s s s s s s s s s s s s N N s s s s s s s N ].V d ( E C T U Y T T U T Y U T T U W U U Y Y U U W U U Q R / ) E E Y Y U Y Y Y Y Y Y Y Y Y tXk.k.k.k.k.k.k.k.k.k.k.c.x.2.x.x.2.2.6.3.2.2.2.2.5.2.3.4.z. X}.r.r.5.2.3.5.2.6.6.2.5.3.3.3.3.3.3.3.3.3X8Xm.m.m.m.m..Xm.v.Z.Z.0.0.0.0.0.0.9.n.0.0.9.q.q.4X3XV.V.n.9.n.n.0.9.9.n.9.9.v.n.9.9.n.v.9.n.9.9.n.9.9.1X . . . . . . .+. .A L.8.w | ` ' o.$.-XXX& 8 8 & l D.. K.= 8 8 8 7 < v v *.-.-.e 7 v U.b -.eXw.$ M.M.O 8 - 8 = = 8 8 8 8 8 8 8 8 8 8 8 8 , 1 1 1 1 - 0 0 0 0 0 9 8 ",
"B B B s s s s s s s s s s s s N N s s s s s s s ( ( N T ].C U T U Y T U U U Y Y U U U W U U Y Y U U W U Y Q R / ) E E W Y U U Y Y Y Y Y Y U z.}.j.x.k.k.k.k.k.k.k.k.k.x.c.3.k.c.3.2.6.3.2.2.2.2.6.2.3.4.z. X}.r.r.5.3.3.5.2.6.5.2.5.3.3.3.3.3.3.4.m.>XV.m.m.m.m.m.Z.Z.n.m..X9.0.0.0.0.0.9.n.0.9.9.q.q.4X3XV.V.n.9.n.n.9.9.9.n.9.9.v.n.9.9.n.v.0.n.v.v.n.9.0.1X9.}  . . . . . . .#.(.1Xw | ` ' o.=X-XK.& 8 8 & l S.. K.= 8 8 8 7 < v v *.-.-.e 7 v U.b -.eXw.$ M.M.O e i u a a 8 8 i = 8 & 8 8 8 8 8 7 v Y.U.U.b ; O.&X&X&XX.0 8 ",
"B B B s s s s s s N N N s s s N N s s s s s s d ) V V ( ( V T T U Y T U U U Y U U U U Y W W W Y U U W U Y Q R / ) E E W Y Y W W Y Y Y Y Y U tXl.k.x.k.k.k.k.k.x.k.k.k.k.c.k.2.c.x.2.6.3.2.2.2.2.l.5.5.4.z. X}.r.r.5.3.3.5.2.6.5.2.l.l.5.3.3.3.3.2.3X8Xm.m.m.m.m.m.m..XZ.n.Z.Z.0.0.0.0.0.9.n.0.9.9.q.q.4X8XV.V.n.9.n.n.9.9.9.n.9.9.9.n.9.9.n.B.n.B.9.v.n.9.0.1X1X}  . . . . . .+.[ I.1Xw | ` ' o.$.-XK.& 8 8 & l S.. K.= 8 8 8 7 < v v *.-.-.e 7 v U.b -.eXw.$ M.C.X u.d.h.u.A.i p.d.l i d.g = 8 8 8 7 n T.U.U.b ; O.*XX.X.&X0 8 ",
"B B s s s s s s s V N V N s s N N s s s s s s E ( N W ].Y W T T U Y T U U T Y U U U U W ~ U ~ W U U W U Y Q R / ) E E W U ~ Y ~ W U Y Y U l.}.j.k.x.k.k.k.k.x.x.x.x.k.k.x.c.2.k.c.2.6.3.2.2.2.3.l.6.z.4.z. X}.r.r.5.2.6.5.2.6.5.2.z.5.z.5.3.3.4.m.>X3Xm.m.m.m.m.m.m.Z.Z.n.Z..X0.0.0.0.0.9.n.0.9.9.q.q.4X3X3X3Xn.9.n.n.9.9.9.n.9.9.9.n.9.9.B.n.B.B.9.v.n.9.9.q.1X . . . . . . .+.[ 0.tXw | ` ' o.$.-XK.& 8 8 & z S.. K.= 8 8 8 7 > v v *.-.-.e 7 v U.b -.eXw.$ M.C.X a.a.M.g i.i d.{ D.d.F.a = 8 8 8 7 n T.U.Y.b , O.*X&X&X&X0 8 ",
"B B B s s s s s s N N V N s s N N s s s s s s ].T N ( ( U Y T T U Y T T U T Y Y U U U W W W ~ Y U U W U Y Q R / ) E E W U W W ~ W U Y Y U tXl.k.k.k.k.k.k.k.k.x.x.x.k.x.k.c.k.2.c.x.2.3.2.2.2.2.l.6.l.4.z. X}.r.r.5.2.3.5.2.6.5.2.l.l.l.5.2.3.4.3X>Xm.m.m.m.m.m.m.m.m..Xm.n.Z.m.0.0.0.0.9.n.0.0.9.q.q.4X8X3X3Xn.0.n.n.0.9.9.n.9.9.9.n.9.0.B.n.B.B.9.9.n.9.9.0.1X0.}  . . . . .+.} ..tXw | ` ' o.$.-XK.& 8 8 & z S.. K.= 8 8 8 7 > v v *.-.-.e 7 v U.b -.eXw.$ M.C.O k i k 8 l = { u.k a.{ g = 8 8 8 7 b Q.T.T.U.; X.*X*X*X&X0 8 ",
"V V N s s s s s s s s s s s s N N s s s d s Y ( d V ].U T T T T U Y T U U T Y Y U U U W U U Y Y U U W U Y Q R / ) E E W Y Y Y Y U Y Y U k.tXk.k.k.x.k.k.k.k.k.k.k.k.k.x.k.x.c.3.k.c.6.3.2.2.2.2.5.2.3.4.z. X}.r.r.5.2.6.5.2.5.5.2.5.6.2.3.3.4.m.>X3Xm.m.m.m.m.m.m.m.m.Z.Z.0.m.Z.0.9.0.0.9.n.0.0.9.q.q.4X3XV.V.n.9.n.n.0.9.9.n.9.9.v.n.9.9.n.n.9.n.9.9.n.9.9.0.1XB.#. . . . . .+.} [ tXw [ ` ' o.$.-XK.& 8 8 & z S.. K.= 8 8 8 7 > v v *.-.-.e 7 v U.b -.eXw.$ M.M.O 8 8 = 8 = 8 = = = & = 8 8 8 8 8 7 < v v > > * 0 O.O.0 0 9 8 ",
"V p.N s s s s s s s nXP.s nXI.N nXnX(.< cX(.( nXP.E $X#X#XC #X#XC #X#XnXW c.nXU c.#XT (.#XnX~ ~ MXW c.nXnXc.Q $X) ( $X~ c.#XnXP.U nXc.Q dXdXbXk.bXsXk.mXoXk.bXbXmXk.oXbXk.sX#XmXz.c.mX2.oXmX2.sXdXBXz..XmX XdXdXBX.X5.SXZ.z.SXz..XmXmXoX2.BX.X3XwXNXsXm.sXsXm.NXsXm.NXbXoX0.sXmX<.sXNXBXn.7XBX0.7XNXq.aX8XNX3X4XFXn.7XNXBX7Xn.FX4XB.FXB.4XNXNX7X9.BX7XB.NXBXNXq.dXAXN.} +. . .+.} ` aX[ ` ` ' o.$.-XK.& 8 8 & z S.. 5X= 8 8 8 7 < v v *.-.-.e 7 v U.b -.eXw.$ M.M.O u 8 8 8 e 8 8 8 e e 8 8 8 8 8 8 8 7 r r r e 8 8 2 2 2 2 8 8 ",
"B B B s s s s s s s VX(.s UXP.V ZXZXnX< nXMX( nX(.].nXnXMXC #XnXC #XMXMXW c.MXU #XMXT #XnXMX~ c.MXW c.MXMX(.Q $X) ( MX~ c.nXMX#XT MX(.! xXmXmXk.mXbXk.mXoXk.mXmXmXk.bXmXk.mXbXnXz.S.#X2.sXSX2.sXmXSXz..XSX XdXBXSXoX5.SX.Xz.SXz..XBXSXsX2.SXsX>XwXBXNX<.NXNX<.BXsXm.NXNXmXm.NXBXz.NXFXDXB.7XDX0.sXFXq.dX8XFX3X7XDXB.7XFXDX7Xn.DX4XB.DXB.7XFXFXsX0.DX7XB.FXDXNX0.dXDXD.}  . . . .} w aX&...1X' o.$.-XK.& 8 8 & z S.. 5X= 8 8 8 7 < v v *.-.-.e 7 v U.b -.eXw.$ M.C.& a i i i , u g i , i i i i i i i i i i i i i i i i i i i i i ",
"C C N N N N N N N N nX(.s ZXP.V VXZXnX< nX$XT nX$X( #XnXnXC #XnXC #XMXMXW c.MXU (.MXT #X#XMX~ c.MX~ c.MXMX(.Q $X) ( MX~ c.nXMX#XU MX(.}.BXmXmXk.mXbXk.mXoXk.mXmXmXk.sXmXk.bXmX#Xk.oXnXL sXSX2.sXmXSXz..XSX XdXxXSXoX5.SX.Xz.SXz..XBXSXsX3.SX7X>XNXBXNXm.NXsXm.BXsXm.NXNXBXz.sXNXz.NXFXFXB.7XDX0.sXFXq.dX8XFX3X4XDXB.7XFXDX7Xn.DX4XB.DXB.7XBXFXsX9.DX7XB.FXFXNXb.dXDXF. .@.@.@.@.@.` aXR.pXiX4X$.=X-XXX& 8 8 & z S.. 5X= 8 8 8 7 < v v *.-.-.e 7 v U.b -.eXw.$ M.M.O 8 8 * 8 e.gXgXgX<X8 * 8 8 8 8 - = = = = - & = 8 = 8 & = - 8 ",
"B B B s s s s s s s nX(.< ZXI.N VXZXnX< #XOXs nX$XT #XnXnX5 #XnX5 #XMXMXY c.MXT P.MX5 #XnXMX~ ~ MXY c.MXMXc.R $X) ( MX~ c.nXMX#XC MXXXtXmXmXmXL mXbXL mXoXk.mXmXmX1.sXmX1.bXmXnX~ .XZXj.sXSX1.sXmXSXz..XSX XdXxXSXoX3.SXZ.l.SXz..XBXSXsX2.BX8X8XBXBXNX<.NXsX<.BXsXm.NXNXNXz.NXNX<.mXFXFXv.7XDX0.7XFXq.aX8XFX3X4XDXv.7XFXDX7X0.DX4XB.DXB.4XBXFXsX0.DX7Xn.FXFXNX0.dXFXD.} +. . .+. .w 1X(.1X| pX' =X-XK.& 8 8 & z S.. 5X= 8 8 8 7 < v v *.-.-.e 7 v U.b -.eXw.$ M.M.O e - r gXgX<X] <XgXgXr - 8 8 = { f.g a p i { y.g e l u.a i 8 ",
"B B s s s s s s s s nXnX(.ZXbX(.VXVXnX(.$X$X(.MX$X#XnX#XMX(.nXMX(.nXnXMX#X#XMX#X#XMX#XnX#XMX#X#XMX#X#XMXMX#X(.$X[.#XMX#X#X#XMXnX#XMXdXdXmXmXmXoXmXmXoXmXmXoXmXmXmXoXmXmXoXmXmXmX(.mXSX(.mXSXsXBXmXSXsXsXSXoXdXxXSXdXsXSXsXsXSXsXmXmXSXmXsXNX8XsXBXBXBXsXBXNXsXBXNXsXBXNXBXsXmXBXsXsXBXFXsXNXFXsXNXFXsXdX8XFX7XNXFXsXNXFXFXNXsXDXNXsXDXsXNXNXFXNXsXFXNXsXFXFXFXsXFXxXD.}  . . . . .w 2X6X4Xw pXo.1X8XP.& 8 8 & z S.. cX= 8 8 8 7 < v v *.-.-.e 7 v U.b -.eXw.$ M.M.O e * <XgXy o ; o r gX<X* 8 8 & d.F.D.A.C.F.i.M.M.M.M.A.g.i.= ",
"B B s s s s s s s s nXUXUXUXUXUXUXZXUXMX$XZXZX$XMXMXMXnXMXMXMXMXMXMXMXMXMXMXMXMXMXMXMXMX#XMXMXMXMXMXMXMXMXMXnX$X$XMXMXMXUXnXMXMXMXMXxXBXBXmXBXBXZXBXBXZXBXBXmXmXZXBXZXBXBXZXmXSX#XMXSXmXnXSXSXSXmXSXSXSXSXmXxXSXSXSXSXSXSXSXSXSXSXBXSXSXSXwXwXBXBXBXBXBXBXBXBXBXBXBXBXNXBXBXmXBXDXBXmXDXFXDXDXDXDXFXFXFX8XFXFXDXDXDXDXFXDXDXDXDXDXDXDXDXDXBXFXDXDXDXDXDXDXFXDXDXDXxXN.}  . . . . .w q.iX1Xw 1XV.pX-XK.& 8 8 & z S.. cX= 8 8 8 7 < v v *.-.-.e 7 v U.b -.eXw.$ M.M.O 8 r hX-.o x K j o ] hXt * 8 = l u.d.a.M.f.y.a.:.a.{ :.M.z & ",
"B B s s s s s s s s c.P.P.(.P.P.P.P.(.OXXXP.c.[.c.P.P.c.P.c.P.P.c.(.c.P.c.P.(.c.P.P.c.(.c.P.P.P.(.c.(.P.(.(.(.(.[.XX#Xc.(.c.P.P.(.sXaXXXoXoXoXoXoXoXoXoXoXoXoXoXoXoXoXoXoXoXoXoXXX(.oXoX(.oXoXsXoXsXoXoXoXOXyXaXsXsXoXsXoXoXsXoXsXoXoXoX7X8X7XsXsXsXsXsXsXsXsXsXsXsXsXsXsX7XsXsX7XsXoXsX7X7X7X7X7XsXaXaX8X7X7X7X7X7X7X7X7X7X7XsX7X7XsX7X7X7X7X7X7XsX7X7X7X7X7X7X7XdXB.}  . . . . .w 0.kXB.M 2XcX4X=XXX& 8 8 & z F.. cX= 8 8 8 7 < v v *.-.-.e 7 v b b -.eXw.$ M.M.# * ] gXy , x ^ vXA.7 gX-.; 8 8 8 & & 8 & % = & = = = 8 { 8 8 ",
"B B s s s s s s s s < < < < < s < < s ( 5 < ( E 5 T T N 5 N N N C T N N C N T C N N C T C C T T C C U T T R C / ) E Y T T T T T T tXk.1.2.2.2.k.k.k.k.2.2.k.k.k.k.k.k.k.k.k.k.k.2.c.k.2.j.j.1.2.2.1.2.2.4.z.}.7.7.2.2.2.2.1.2.2.1.3.2.2.-X>Xm.<.<.<.<.<.<.<.<.<.<.<.m.m.<.<.m..X<.0.Z.m.0.0.0.0.0.0.q.4X3XV.v.0.0.0.0.0.0.0.0.0.0.0.0.0.0.0.0.0.0.0.0.0.0.0.0.0.0.q.1X}  . . . . .w ..lXI.Q.&.kX6X/.XX& 8 8 & z H.. cX= 8 8 8 7 < v v *.-.-.e 7 v U.b -.eXw.$ M.M.O * ] hX] ; x z cXA.r gX] * 8 8 = z l i y.{ z y.i 8 i 8 8 8 8 ",
"C B B s s s s s s s s s s d s N V V ( E N T ].T T Y Y W W Y U U U Y T U U U Y ~ W W U W U U Y W U U W Y Y Q R / ) ~ ~ ~ W U Y U z.}.! k.k.k.k.k.k.x.x.x.x.x.k.k.k.k.k.x.x.x.x.x.k.x.c.3.k.c.3.2.l.l.l.l.z. X}.r.r.5.3.6.5.2.5.5.2.5.l.m.8X3Xm.m.m.m.m.m.m.m.m.m.m.m.m.m.C.m.m.Z.Z.9.m..X9.n.m.n.9.q.q.4X3XV.V.n.9.9.B.n.n.9.n.9.9.9.n.9.9.n.v.9.n.v.9.n.n.n.m.v.9.9.1X . . . . . .` ..kXE.E.E.aX).&.XX& 8 8 & z H.. cX= 8 8 8 7 < v v *.-.-.e 7 v U.b -.eXw.$ M.M.O 8 8 gX<Xo u p ;   -.<Xe 8 8 8 8 d.d.- d.g.A.M.z a.D.a.h.k = ",
"V V N s s s s s s s s s s s s N N ^ ].V s ( ( C T U U ~ j.^ T T U Y T T T T Y W j.~ U Y U U Y Y U U W U U Q R / ) ~ ~ j.~ U U U tXl.k.k.k.k.k.k.k.k.x.x.x.x.k.k.k.k.k.k.x.x.x.x.k.k.c.k.2.x.x.2.5.l.l.x.z. X}.r.r.7.2.3.6.2.3.6.2.5.l.3X3Xm.m.m.m.m.m.m.m.m.m.m.m.m.m.m.C.C.m.m..Xm.0.Z.m.9.N.N.9.q.q.4X3XV.V.v.0.9.n.N.N.0.n.0.0.9.n.0.0.n.9.0.n.9.9.n.m.m.C.m.0.0.1X0.}  . . . .` ` b.!.Z @.@./.;XK.& 8 8 & z H.. cX= 8 8 8 7 < v v *.-.-.e 7 v U.b -.eXw.$ M.M.O e * -.hX8.o $ % -.gX-.* 8 8 8 8 a.d.u.g.a.g.g.l u.i.u.f.{ & ",
"C V B s s s s s s s s s d N s N V E ( N T ].U U U Y W W ~ Y U U Y W U U U U W W ~ W Y W U Y W W Y Y W Y R Q Q / ].E ~ ~ W Y U l.tXk.k.k.k.k.k.k.k.x.x.x.x.x.k.k.k.k.k.x.x.x.x.x.k.k.x.c.3.k.c.3.5.l.l.z.z. XtXr.r.7.6.5.5.3.5.5.3.5.m.8X3Xm.m.m.m.m.m.m.m.m.m.m.m.m.m.Z.Z.Z.m.m..XZ.9.Z..Xn.m.n.n.q.q.4X8XV.V.V.9.n.n.n.n.v.B.9.9.n.n.9.9.n.n.9.B.v.v.B.n.n.B.n.n.b.4XB.#.+.+.+.+.` ` M ~.&.%.%.-X-XK.& 8 8 & z H.. cX= 8 8 8 7 < v v *.-.-.e 7 v U.b -.eXw.$ M.M.O 8 8 ; <X8.@ * ; ] 8.* 8 8 8 8 8 i i a p i e i 8 8 8 8 i 8 8 ",
"< < 1 , , , , , , , , , , , , < , G 6 , _ _ 6 5 5 5 5 5 5 5 5 5 5 5 5 5 5 5 5 5 5 5 5 5 5 5 5 5 5 5 5 5 5 C m m _ T 5 5 5 5 5 r.2.J L L L L L L L L L L L L L L L L L L L L L L L L L Q L P ~ ! ;.P P P 2.4.}.2.2.>.P P 1.P P 1.P P %.-X0.,.,.,.,.,.,.,.,.,.,.,.,.,.,.,.,.,.,.,.<.z.,...z.<.......0.0.q.-X0.0...............0.......0.....0.....0.....0.............0.q.h [ [ [ [ w 0 w Q.M ' ' o.8XH.O 8 8 & { L.. cX= 8 8 8 7 < v v *.-.-.e 7 v U.b -.eXw.$ M.M.O 8 8 8 @ - ] 8.=.8 @ 8 8 8 8 8 8 8 8 8 = & 8 8 = = 8 8 8 8 8 ",
"g.g.g.g.g.g.g.g.g.g.g.g.g.g.g.g.M.A.M.M.A.A.A.A.A.A.A.A.A.A.A.A.A.A.A.A.A.A.A.A.A.A.A.A.A.A.A.A.A.A.A.A.A.A.A.A.A.A.A.A.A.A.A.F.D.D.D.D.D.D.D.D.D.D.D.D.D.D.D.D.D.D.D.D.D.D.D.D.D.D.D.S.S.D.S.S.D.D.D.D.D.D.D.D.D.D.S.D.D.S.D.D.S.S.F.F.S.S.S.S.S.S.S.S.S.S.S.S.S.S.S.S.S.S.S.S.S.G.S.S.F.F.S.S.S.S.S.S.S.S.S.S.S.S.S.S.S.S.S.F.F.F.F.F.F.F.F.F.F.F.F.F.F.F.F.F.F.F.F.G.S.S.S.S.S.D.D.D.(.S.D.D.F.bXp = 8 8 8 i 5XcXS.& 8 8 8 7 < v v *.-.-.e 7 v U.b -.eXw.$ M.M.O 8 8 * -.gXhXgXhXgX-.* 8 8 8 8 8 8 8 8 i k i = g g = 8 8 8 8 ",
"a.a.a.a.a.a.a.a.a.a.a.a.a.a.a.a.a.a.a.a.a.a.a.a.a.a.a.a.a.a.a.a.a.a.a.a.a.a.a.a.a.a.a.a.a.a.a.a.a.a.a.a.a.a.a.a.a.a.a.a.a.a.a.i.a.a.a.i.a.i.a.a.a.a.a.a.a.a.a.a.a.a.a.a.i.i.i.i.i.i.i.i.i.i.i.i.i.i.i.i.i.i.i.i.i.a.a.a.a.a.i.i.i.i.i.i.i.i.i.i.i.i.i.i.i.i.i.i.i.i.i.i.i.i.i.i.i.i.i.i.i.i.i.i.i.i.i.i.i.i.i.i.a.a.a.a.a.a.a.a.a.a.a.a.a.a.a.a.a.a.a.a.a.a.a.a.a.a.a.i.a.a.a.a.a.a.a.a.a.a.a.a.i.8 = 8 8 8 8 & a u.= = 8 8 8 7 > v v *.-.-.e 7 v U.b -.eXw.$ M.M.O e * ] hX<Xy & 7 <XhX] * 8 8 8 8 8 8 8 f.a.M.l M.F.l = 8 8 8 ",
"# % # # % # # # % O X X X X X X X . X X . X X X X X + + X . % % % % % % % % % % % % % % % % % % % O X X X X X X X X X X X X X O . X O % # % # O O O O O O O O O O O O O % % % % % % % % % # % % % # $ # # # # # % % % % % % % # % % % % % % % % % % % % % % % % % % % % % % O O O O O O O O O O O O O O & & # O + + + + + + X X X X X X X X X X X X X X X X X X X X X X X X X X X X X X X X X X X 8 8 8 8 8 i l = p p k 8 8 8 7 < v v *.-.-.e 7 v U.b >.eXw.$ M.M.O 8 - gX<Xo , a f a 8.<X8 8 8 8 8 8 8 - { D.a.A.f.f.l = 8 8 8 ",
"8 8 8 8 8 8 8 8 8 l y.{ :.:.{ :.:.:.{ :.:.:.:.:.:.y.{ z y.{ 8 8 8 8 8 8 8 8 8 8 8 8 8 8 8 8 8 8 8 l y.:.{ :.:.:.{ { { :.:.:.y.l { u.g - 8 8 i k k k k l l l l l l x z l 8 8 8 8 8 8 8 8 8 8 8 8 8 , , , , , , , 9 0 0 0 0 0 8 8 8 8 8 8 8 8 8 8 8 8 8 8 8 8 8 8 8 8 8 8 8 8 g k k k k l l l l l x x z a 8 a 8 g d.a.d.d.d.d.d.d.d.d.d.d.d.f.f.f.f.f.f.f.h.h.h.h.h.g.g.g.g.g.g.g.g.g.g.g.M.M.M.M.M.a 8 8 8 = u.f.l f.D.f.a = 8 8 8 8 8 7 7 7 8 8 q q q 7 r r O M.M.O - t hX] ; x d.JXp.0 pXt * 8 8 8 8 8 8 l l a g g g g = 8 8 8 ",
"8 = = = e = 8 # h.PXPXPXPXPXPXPXPXPXPXPXPXPXPXPXPXLXJXGXPXLXK.# 8 8 8 8 8 e 8 = = = = = = & = % h.LXPXPXPXPXPXPXLXPXLXPXPXPXPXCXKXPXHXg = 8 p vXZXZXZXCXCXCXCXCXGXGXJXbX= 8 8 e i 8 & = = = = 8 7 , U.U.U.b b 1 0 &X&X&XX.X.0 8 8 8 8 8 8 8 8 8 8 8 8 8 8 8 8 8 8 8 8 8 8 & D.ZXVXZXZXCXCXCXCXCXGXGXGX{ = i & { ZXZXZXZXZXZXZXZXCXCXCXCXCXCXCXCXCXCXUXGXGXGXGXGXGXGXGXGXGXGXGXGXJXJXJXJXJXJXJXHXGXk = 8 8 = y.h.p.d.D.f.a = 8 8 9 5 T 5 _ 5 9 8 9 5 5 5 4 _ O M.M.# * ] gX7 , k p.M.4 & <X] * 8 8 8 8 8 8 & = = = & & 8 8 8 8 8 ",
"d.z g l d.g l % L.HXJXGXKXPXCXHXKXKXIXKXPXKXPXPXKXPXJXJX5XvXCXO e = d.{ a.g u.y.a k g k g p.{ O K.GXGXKXKXGXIXKXZXDXVXKXPXKXPXCXJXd.KXa.% 8 a VXvXbXvXvXVXZXVXVXvXVXGXbX= = y.a.z h.z k k l k 8 7 , Y.Y.U.U.b 1 0 &X&XX.&XX.0 8 8 8 8 8 8 8 8 8 8 8 8 8 8 8 8 8 8 8 8 8 8 & S.ZXVXVXbXVXZXZXbXZXVXZXGX{ = i & z VXVXVXVXVXVXVXVXVXZXZXZXZXZXCXvXVXbXK.vXvXcXZXCXCXCXCXCXCXCXGXGXGXGXGXGXGXGXGXJXCXg = 8 8 8 i l i g a k 8 8 8 8 u T 5 _ ) _ 8 8 u T _ ) 5 U + C.M.O - y hX-.o k k k ; y pXy - 8 8 8 = p.p.g h.d.i.8 i.h.M.g = 8 ",
"F.M.M.M.D.L.d.% F.vXvXbXZXVXvXvXbXVXVXVXKXPXKXKXKXPXJXGXvXVXVXO 8 = { D.p.O i.A.A.g.M.h.M.S.y.& F.vXVXAXVXbXVXIXcXZXZXKXKXKXPXCXGXcXJXa.% 8 a VX5XK.H.L.vXvXF.K.bXL.GXbX= & a.d.h.A.M.H.S.y.M.8 7 1 T.Y.U.Y.U.1 0 *X&XO.&X&X0 8 8 8 8 8 8 8 8 8 8 8 8 8 8 8 8 8 8 8 8 8 8 & S.VXbXvXF.bXvXvXJ.H.S.vXGXz = i & { VXVXVXVXVXVXVXVXZXZXZXZXZXZXCXbXvXbX5XF.K.D.CXCXCXCXCXCXGXGXGXGXGXGXGXGXGXGXGXJXCXg = 8 8 8 8 & 8 u e = 8 8 8 8 8 u 8 a u 4 8 8 8 , 4 6 4 u O M.M.O 8 - <XpX7 % 2 ; # <X<X8 8 8 8 8 8 a.a.u.h.S.p.y.C.A.F.z & 8 ",
"{ u.{ u.p.u.{ & J.CXVXZXZXZXVXVXVXGXGXCXKXPXKXKXKXPXJXJXL.vXCXO 8 8 z u.i.g l a.{ u.:.:.{ a.y.& H.HXHXVXGXvXZXIXvXCXGXKXKXKXPXCXGXa.KXd.% 8 a vXvXVXvXbXvXVXvXVXvXVXGXbX& - k a { { y.p.{ a a.8 7 < T.T.U.Y.U.1 0 *X*X&X&X&X0 8 8 8 8 8 8 8 8 8 8 8 8 8 8 8 8 8 8 8 8 8 8 & S.ZXcXvXvXVXvXbXVXvXvXVXGXz = i & z VXVXVXVXVXVXVXVXVXZXZXZXZXZXCXvXcXbXvXvXvXvXvXvXVXCXCXCXCXCXGXGXGXGXGXGXGXGXGXGXCXg = 8 8 8 8 i f.M.A.a - 8 8 8 9 5 5 5 5 5 8 8 * y t t r t O C.M.# e * y hX<Xo & @ 8.pXy - 8 8 8 8 = { a.z a.p.y.a a.u.d.g 8 8 ",
"= = = = = = 8 # g.LXLXPXPXLXPXLXPXPXPXPXPXPXPXPXPXLXHXJXPXLXcXO 8 8 8 = = 8 = = = = = = 8 & 8 % g.LXPXPXPXLXPXPXPXPXPXPXPXPXLXCXPXPXHXk = 8 p vXZXVXZXCXCXCXCXCXCXCXGXcX= 8 8 8 = = = = = 8 = 8 7 < Q.T.T.T.U.1 O.*X*X*X&X&X0 8 8 8 8 8 8 8 8 8 8 8 8 8 8 8 8 8 8 8 8 8 8 & D.ZXVXZXZXCXCXCXCXCXUXGXCXz = i & { ZXZXZXZXZXZXZXCXCXCXCXCXCXCXCXCXCXGXGXGXGXGXGXGXGXGXGXGXGXGXGXGXJXJXJXJXJXJXJXHXGXg = 8 8 8 & u.A.A.S.g = 8 8 8 u T T _ @X_ 8 8 r -.=.8.-.e.O d.L.  = & @ y y % = & 7 y @ & & & & & & % # % # # % & # % % % & & ",
"e e e e u e e e 8 y.a.i.a.a.a.a.a.a.a.a.a.a.a.a.i.a.u.y.a.p.8 8 8 8 8 e e 8 e e e e e e e e e 8 8 :.a.i.a.i.a.a.a.a.a.a.a.i.a.{ p.d.k 8 e 8 i z z z z z z z z z { z { z 8 8 e 8 e e e e e 8 e 8 e , v < < < < , 0 O.0 0 0 0 9 e 8 8 8 8 8 8 8 8 8 8 8 8 8 8 8 8 8 8 8 8 8 8 k z z z z z z z z z z { { p e a 8 k h.h.h.h.h.h.g.g.g.g.g.g.g.g.g.g.M.M.M.M.M.A.A.A.A.A.A.A.A.A.A.A.D.D.D.D.D.D.D.D.D.g 8 e 8 e 8 g i.:.a.i 8 8 8 8 u 5 u 5 5 5 8 8 e r t =.] =.8 8 cXS.z { { z z { { { z z { { { { { { { { { { { { { { { { { { { { ",
"O O O O O O O O O X X X X X X X X X X X X X X X X X X X   X O O O O O O O O O O O O O O O O O O O X X X X X X X X X X X X X X X X   X O O O O X X X X X X X X X X X X X O O O O O O O O O O O O O O O O O O # O O : . . . # O O O O O O O O O O O O O O O O O O O O O O O O + X X X X X X X X X X X X O O % O O X X X X X X X X X X X X X X X X X X X X X X X X X X X X X X X X X X X X X X X X X O O O O O O O X X X O O O O O O + O + + + O O O O O . . . O + % h.G.G.G.G.G.G.G.G.G.G.G.G.G.G.G.G.G.G.G.G.G.G.G.G.G.G.G.G.G.G.",
"G.G.G.G.F.F.H.F.F.H.H.H.G.H.H.G.G.H.H.H.H.H.H.H.H.H.H.H.H.H.G.G.G.G.G.G.G.G.G.G.G.G.G.G.G.G.G.G.G.H.H.H.H.H.H.H.H.H.H.H.H.H.H.H.H.H.H.G.G.G.G.H.H.H.H.H.H.H.H.H.H.H.H.H.G.G.G.G.G.G.G.G.G.G.G.G.G.H.H.H.H.H.H.G.G.G.G.G.G.G.G.G.G.G.G.G.G.G.G.G.G.G.G.G.G.G.G.G.G.G.G.G.G.G.H.H.H.H.H.H.H.H.H.H.H.H.H.H.G.G.G.H.H.H.H.H.H.H.H.H.H.H.H.H.H.H.H.H.H.H.H.H.H.H.H.H.H.H.H.H.H.H.H.H.H.H.H.H.H.H.H.H.H.G.G.G.G.G.G.H.H.H.H.G.G.G.G.G.G.H.H.H.H.H.G.G.G.G.G.G.G.G.G.H.G.A.D.D.D.D.D.D.D.D.D.D.D.D.D.D.D.D.D.D.D.D.D.D.D.D.D.D.D.D.D.D.",
"LXLXLXLXLXLXPXLXLXLXLXLXLXLXLXLXLXLXLXPXh.i.a.a.a.a.a.a.a.a.a.a.a.a.a.a.a.a.a.a.a.a.a.a.a.a.a.a.a.a.a.a.a.a.a.a.a.a.a.a.a.a.a.a.a.a.a.a.a.a.a.a.a.a.a.a.a.a.a.a.a.a.a.a.a.a.a.a.a.a.a.a.a.a.a.a.a.a.a.a.a.a.a.a.a.a.a.a.a.a.a.a.a.a.a.a.a.a.a.a.a.a.a.a.a.a.a.a.a.a.a.a.a.a.a.a.a.a.a.a.a.a.a.a.a.a.a.a.a.a.a.a.a.a.a.a.a.a.a.a.a.a.a.a.a.a.a.a.a.a.a.a.a.a.a.a.a.a.a.a.a.a.a.a.a.a.a.a.a.a.a.a.a.a.a.a.a.a.a.a.a.a.a.a.a.a.a.a.a.a.a.a.a.a.a.a.a.a.a.a.a.a.a.a.a.a.a.a.a.a.a.a.a.a.a.a.a.a.a.a.a.a.a.a.a.a.a.a.a.a.a.a.a.a.a.a.",
"JXLXCXCXJXGXCXCXJXGXvXJXJXGXVXJXCXKXKXHX8 O % % % % % % % % % % % % % % % % % % % % % % % % % % % % % % % % % % % % % % % % % % % % % % % % % % % % % % % % % % % % % % % % % % % % % % % % % % % % % % % % % % % % % % % % % % % % % % % % % % % % % % % % % % % % % % % % % % % % % % % % % % % % % % % % % % % % % % % % % % % % % % % % % % % % % % % % % % % % % % % % % % % % % % % % % % % % % % % % % % % % % % % % % % % % % % % % % % % % % % % % % % % % % % % % % % % % % % % % % % % % % % % % % % % % % % % % % % ",
"JXLXJXAXvXvXvXbXHXCXcXAXVXvXVXvXZXPXPXHXa 8 8 8 8 8 8 8 8 8 8 8 8 8 8 8 8 8 8 8 8 8 8 8 8 8 8 8 8 8 8 8 8 8 8 8 8 8 8 8 8 8 8 8 8 8 8 8 8 8 8 8 8 8 8 8 8 8 8 8 8 8 8 8 8 8 8 8 8 8 8 8 8 8 8 8 8 8 8 8 8 8 8 8 8 8 8 8 8 8 8 8 8 8 8 8 8 8 8 8 8 8 8 8 8 8 8 8 8 8 8 8 8 8 8 8 8 8 8 8 8 8 8 8 8 8 8 8 8 8 8 8 8 8 8 8 8 8 8 8 8 8 8 8 8 8 8 8 8 8 8 8 8 8 8 8 8 8 8 8 8 8 8 8 8 8 8 8 8 8 8 8 8 8 8 8 8 8 8 8 8 8 8 8 8 8 8 8 8 8 8 8 8 8 8 8 8 8 8 8 8 8 8 8 8 8 8 8 8 8 8 8 8 8 8 8 8 8 8 8 8 8 8 8 8 8 8 8 8 8 8 8 8 8 8 8 ",
"KXLXIXCXvXGXGXGXHXHXGXGXCXvXHXJXGXPXLXVX% 8 8 8 8 8 8 8 8 8 8 8 8 8 8 8 8 8 8 8 8 8 8 8 8 8 8 8 8 8 8 8 8 8 8 8 8 8 8 8 8 8 8 8 8 8 8 8 8 8 8 8 8 8 8 8 8 8 8 8 8 8 8 8 8 8 8 8 8 8 8 8 8 8 8 8 8 8 8 8 8 8 8 8 8 8 8 8 8 8 8 8 8 8 8 8 8 8 8 8 8 8 8 8 8 8 8 8 8 8 8 8 8 8 8 8 8 8 8 8 8 8 8 8 8 8 8 8 8 8 8 8 8 8 8 8 8 8 8 8 8 8 8 8 8 8 8 8 8 8 8 8 8 8 8 8 8 8 8 8 8 8 8 8 8 8 8 8 8 8 8 8 8 8 8 8 8 8 8 8 8 8 8 8 8 8 8 8 8 8 8 8 8 8 8 8 8 8 8 8 8 8 8 8 8 8 8 8 8 8 8 8 8 8 8 8 8 8 8 8 8 8 8 8 8 8 8 8 8 8 8 8 8 8 8 8 ",
"HXHXHXHXGXHXHXHXHXHXHXIXCXCXIXHXHXHXAXa - 8 8 8 8 8 8 8 8 8 8 8 8 8 8 8 8 8 8 8 8 8 8 8 8 8 8 8 8 8 8 8 8 8 8 8 8 8 8 8 8 8 8 8 8 8 8 8 8 8 8 8 8 8 8 8 8 8 8 8 8 8 8 8 8 8 8 8 8 8 8 8 8 8 8 8 8 8 8 8 8 8 8 8 8 8 8 8 8 8 8 8 8 8 8 8 8 8 8 8 8 8 8 8 8 8 8 8 8 8 8 8 8 8 8 8 8 8 8 8 8 8 8 8 8 8 8 8 8 8 8 8 8 8 8 8 8 8 8 8 8 8 8 8 8 8 8 8 8 8 8 8 8 8 8 8 8 8 8 8 8 8 8 8 8 8 8 8 8 8 8 8 8 8 8 8 8 8 8 8 8 8 8 8 8 8 8 8 8 8 8 8 8 8 8 8 8 8 8 8 8 8 8 8 8 8 8 8 8 8 8 8 8 8 8 8 8 8 8 8 8 8 8 8 8 8 8 8 8 8 8 8 8 8 8 8 ",
"i i i i a u u u i i i e a a u i u a & = 7 7 7 7 7 7 7 7 7 7 7 7 7 7 7 7 7 7 7 7 8 8 8 8 8 8 8 8 i 8 8 8 8 8 8 8 8 8 8 8 8 8 = = = = = = = = = = = = = = 8 8 i 8 8 9 9 9 9 9 9 9 9 9 9 9 9 9 9 9 8 8 8 8 8 8 8 8 8 8 8 8 i e 8 8 8 8 8 8 8 8 8 8 8 8 = = = = = = = = = = = = = = = 8 8 i 8 8 * * * * * * * * * * * * * * - - - - - 8 8 8 8 8 8 8 8 i 8 8 8 8 8 8 8 8 8 8 8 8 8 = = = = = = = = = = = = = = 8 8 i 8 8 - - - - - - - - - - - - - - - - - - 8 8 8 8 8 8 8 8 8 i 8 8 8 8 8 8 8 8 8 8 8 8 = = = = = = = = = = = = = = ",
"8 8 8 = & 8 8 8 8 8 = 8 = = 8 8 = i e 8 < < < < < < < 1 1 1 1 1 1 1 1 1 1 1 1 1 1 1 1 1 1 , 8 8 i 8 8 i i i i a a a a a a p p p g p p g g g g g g k k k 8 8 i 8 2 6 6 6 6 6 6 6 6 6 6 6 6 6 6 6 2 2 2 2 2 2 2 2 2 2 - 8 i e 8 u i i i i a a a a a a p p p g p p g g g g g g k k g 8 8 i 8 r t t t t t t t t t t y y y y y y y y y y y y y r 7 8 8 i 8 8 u i i i a a a a a a p p p g p p g g g g g g k k g 8 8 i 8 9 w w w w w w w w w w w w w w w 9 9 9 9 9 9 9 9 9 9 8 8 i 8 8 i i i i a a a a a a p p p g p p g g g g g g k k ",
"8 8 8 i k 8 = = = 8 g 8 8 8 8 8 8 i 8 = U.Q.T.T.T.T.T.T.T.T.T.Y.Y.U.Y.U.U.b b b b b n n n > 7 8 i = p g.g.g.A.A.A.D.S.S.S.H.S.H.H.L.K.K.cXcXcXcXcXbXbXcXi 8 i 8 2 '.{.'.'.'.'.'.'.'.'.`.`.`.`.`.`.`.G G G G G G G G 3 9 i i = l g.g.g.A.A.A.D.S.S.S.F.H.H.H.K.K.K.cXcXcXcXcXbXvXH.- 8 i * t uXuXuXuXuXuXuXuXuXrXrXrXeXeXeXeX|.w.w.w.w.e.e.e.-.7 8 i 8 8 i.g.g.M.A.A.D.S.S.S.F.S.H.H.L.K.K.cXcXcXcXcXbXvXH.- 8 i - w :X:X:X:X:X:X:X:X:X:X=X=X=X=X=X=Xo.o.o.o.o.o.o.o.w - 8 i = a h.g.g.A.A.A.D.S.S.S.F.S.H.H.K.K.K.cXcXcXcXbXbXvX",
"8 8 & { F.{ u.d.{ d.d.& 8 8 8 8 8 i 8 = U.Q.Q.Q.T.T.T.T.T.T.T.!.T.T.E.U.U.U.b b b b b n n > 7 8 i = p g.g.A.A.A.D.S.S.S.H.a.g.D.d.H.cXcXcXcXcXbXbXbXvXcXu 8 i 8 2 '.{.{.{.'.'.'.'.'.'.`.G G G G `.`.`.G G G G G G G 3 9 i i = l A.g.A.A.D.D.S.S.H.S.a.h.A.d.K.cXcXcXcXcXbXbXbXvXH.= 8 i * t uXjXjXuXuXuXuXuXuXuXw.e.eXe.w.eXeX<Xw.w.w.w.e.e.-.7 8 i 8 8 d.A.A.A.A.D.S.S.S.H.d.i.S.d.H.cXcXcXcXcXbXbXbXvXH.= 8 i - w :X9X:X:X:X:X:X:X:X:Xo.$.=Xo.=X=X=X$.o.o.o.o.o.o.' - 8 i = a g.g.A.A.A.D.S.S.H.S.i.d.A.d.K.cXcXcXcXcXbXbXbXvX",
"8 8 & y.F.A.K.h.M.A.i.& 8 8 8 8 8 i 8 = U.Q.Q.Q.T.T.T.T.T.T.T.T.T.T.T.U.U.U.b b b b b n n > 7 8 i = p g.g.g.A.A.D.D.S.S.H.g.g.S.A.H.K.K.cXcXcXcXcXbXbXK.u 8 i 8 2 '.{.{.{.'.'.'.'.'.'.`.G `.G G `.`.`.G G G G G G G 3 9 i i = l g.g.A.A.A.D.S.S.S.S.h.g.D.A.J.K.cXcXcXcXcXcXbXvXS.= 8 i * t jXjXjXuXuXuXuXuXuXuXeXw.eXw.w.eXeXw.w.w.w.e.e.e.-.7 8 i 8 8 d.g.g.A.A.D.D.S.S.H.g.g.A.A.H.K.K.cXcXcXcXcXcXvXS.= 8 i - w :X9X9X:X:X:X:X:X:X:X$.=X=Xo.=X=X=Xo.o.o.o.o.o.o.' - 8 i = a g.g.g.A.A.D.D.S.S.S.h.g.D.A.J.K.cXcXcXcXcXbXbXvX",
"8 8 8 a { l l a a z g - 8 8 8 8 8 i 8 = Y.Q.Q.Q.Q.Q.T.T.T.T.T.T.T.U.U.U.U.U.U.b b b b n n > 7 8 i = p g.g.A.A.D.D.S.S.F.H.L.L.L.K.K.cXcXcXcXcXbXbXbXbXcXu 8 i 8 2 '.{.{.{.{.'.'.'.'.'.'.'.`.`.`.`.`.`.`.G G G G G G 3 9 i i = x A.g.A.A.D.D.S.S.H.H.L.K.K.K.K.cXcXcXcXcXbXbXbXvXS.= 8 i * t jXjXjXjXjXuXuXuXuXuXuXuXrXrXrXeXeXeXw.w.w.w.e.e.-.7 8 i 8 8 d.A.A.A.A.D.S.S.S.H.L.J.K.K.K.cXcXcXcXcXbXbXbXvXS.= 8 i - w 9X9X9X9X:X:X:X:X:X:X:X:X=X=X=X=X=X=Xo.o.o.o.o.o.' - 8 i = a g.g.A.A.D.D.S.S.H.H.L.L.K.K.K.cXcXcXcXcXbXbXbXvX",
"8 8 8 8 & = = - 8 & = 8 8 8 8 8 8 i 8 8 v v v v v v v v v v v v v v > > > > > > 1 1 1 1 1 1 8 8 i 8 u p p p g g g k k k k k k l l x x x x z z z z z z z e 8 i 8 2 D D D D D D D D D D D D D 6 6 6 6 6 6 6 6 6 2 2 3 2 8 i e 8 u p p p g g g k k k k k k l l x x x z z z z z z { l 8 8 i - y -.-.-.-.-.-.-.-.=.=.=.=.=.] t t t t t y y y y y y 7 8 i 8 8 a p p g g g c k k k k k l l x x x x z z z z z z l 8 8 i - 9 ' ' ' ' ' ' ' ' ' ' ' ' ' ' w w w w w w w w 9 9 9 8 8 i 8 e p p p g g g k k k k k k l l x x x z z z z z z { ",
"8 8 8 8 8 8 8 8 8 8 8 8 8 8 8 8 8 i 8 8 7 7 7 7 7 7 7 7 7 7 7 7 7 7 7 7 7 7 7 7 7 7 7 7 7 8 8 8 i 8 8 = = = = = = = = = = = = = = = = = = = = = = = & = 8 8 i 8 8 9 9 9 9 9 9 9 9 9 9 9 9 9 9 9 9 9 9 9 9 9 9 9 8 8 8 8 i e 8 8 = = = = = = = = = = = = = = = = = = = = = = = & = 8 8 i 8 8 * * * * * * * * * * * * * * * * * * * * - - - - 8 8 8 i 8 8 8 = = = = = = = = = = = = = = = = = = = = = = & = 8 8 i 8 8 - - - - - - - - - - - - - - - - - - - - - - - - 8 8 8 i 8 8 = = = = = = = = = = = = = = = = = = = = = = = & ",
"8 8 8 8 8 8 8 8 8 8 8 8 8 8 8 8 8 i 8 8 8 8 8 8 8 8 8 8 8 8 8 8 8 8 8 8 8 8 8 8 8 8 8 8 8 8 8 8 i 8 8 8 8 8 8 8 8 8 8 8 8 8 8 8 8 8 8 8 8 8 8 8 8 8 8 8 8 8 i 8 8 8 8 8 8 8 8 8 8 8 8 8 8 8 8 8 8 8 8 8 8 8 8 8 8 8 8 8 i e 8 8 8 8 8 8 8 8 8 8 8 8 8 8 8 8 8 8 8 8 8 8 8 8 8 8 8 8 8 i 8 8 8 8 e 8 8 8 8 8 8 8 8 8 8 8 8 8 8 8 8 8 8 8 8 8 8 8 8 i 8 8 8 8 8 8 8 8 8 8 8 8 8 8 8 8 8 8 8 8 8 8 8 8 8 8 8 8 8 i 8 8 8 8 8 8 8 8 8 8 8 8 8 8 8 8 8 8 8 8 8 8 8 8 8 8 8 8 8 i 8 8 8 8 8 8 8 8 8 8 8 8 8 8 8 8 8 8 8 8 8 8 8 8 8 8 ",
"8 8 8 = = 8 = = = = 8 8 8 8 8 8 8 i 8 8 8 8 8 8 8 8 8 8 8 8 8 8 u 8 8 8 8 8 8 8 8 8 8 8 8 8 8 8 i 8 8 8 8 8 8 8 8 8 8 8 8 8 8 8 8 8 8 8 8 e 8 e 8 8 8 8 8 8 i 8 8 8 8 9 9 e 9 9 8 8 8 8 8 8 8 8 8 8 8 8 e 8 8 8 8 8 8 8 i e 8 8 8 8 = 8 8 - 8 8 8 8 8 8 8 8 8 8 u 8 8 i e 8 8 8 8 8 8 i 8 8 8 8 * * r * * 8 8 8 8 8 8 8 8 8 8 u i e i 8 8 8 8 8 8 i 8 8 8 8 = - 8 8 = 8 8 8 8 8 8 8 8 8 8 8 8 8 i i 8 8 8 8 8 i 8 8 8 8 = - 8 - - 8 8 8 8 8 8 8 8 i 8 8 8 e 8 8 8 8 8 8 8 i 8 8 8 8 = 8 8 = 8 8 8 8 8 8 8 8 8 8 8 8 8 8 8 8 8 8 ",
"8 = a h.l i g a p p a i 8 8 8 8 8 i 8 8 8 8 8 8 8 8 8 8 8 8 8 8 f.y.= 8 8 8 8 8 8 8 8 8 8 8 8 8 i 8 8 8 8 g z z x u 8 8 8 8 8 8 8 8 = l p.y.i y.l = 8 8 8 8 i 8 8 8 9 6 G G `.D 9 8 8 8 8 8 8 8 8 8 d.u.f.g.u.= 8 8 8 8 i e 8 8 8 e z x z k 8 8 8 8 8 8 8 8 8 8 p u.a.g y.i 8 8 8 8 8 i 8 8 8 * 8.uXrXeXt * 8 8 8 8 8 8 8 & { a.u.a.a.g = 8 8 8 8 i 8 8 8 8 g p.u.i.g 8 8 8 8 8 8 8 - p :.u.z a.l p.8 8 8 8 8 i 8 8 8 - o.:X:X:X' - 8 8 8 8 8 8 = k M.f.h.M.{ a.& 8 8 8 8 i 8 8 8 8 l p.u.u.i 8 8 8 8 8 8 = g y.{ u.y.u.y.p.g = ",
"8 = k K.p.D.D.M.h.M.H.u.& 8 8 8 8 i 8 8 8 8 8 8 8 8 8 8 8 8 8 i f.a.8 8 8 8 8 8 8 8 8 8 8 8 8 8 i 8 8 8 l k & % u { u 8 8 8 8 8 8 8 8 d.h.{ z :.{ - 8 8 8 8 i 8 8 9 D `.3 : 2 G D 9 8 8 8 8 8 8 8 & y.d.g.D.i.8 8 8 8 8 i e 8 8 8 p.k % % p z 8 8 8 8 8 8 8 8 - g { l :.{ 8 8 8 8 8 8 i 8 8 @ e.rXy 7 t eX=.* 8 8 8 8 8 8 & a.C.p.f.a.a 8 8 8 8 8 i 8 8 = k p.8 % & u.k = 8 8 8 8 8 8 e { g a.d.z l = 8 8 8 8 i 8 8 ; $.:X9 & w :X' = 8 8 8 8 8 8 a D.M.H.D.H.A.& 8 8 8 8 i 8 8 = { { & % i a.a 8 8 8 8 8 8 e u.{ d.u.a.i.i.l = ",
"8 = g u.d.A.u.{ h.A.f.k = 8 8 8 8 i 8 8 8 8 8 8 8 8 8 8 8 8 8 = y.l = 8 8 8 8 8 8 8 8 8 8 8 8 8 i 8 8 a l   : u . u x - 8 8 8 8 8 8 8 g l z g z g 8 8 8 8 8 i 8 8 e `.4 +.k 8 O `.4 9 8 8 8 8 8 8 - g l y.:.z = 8 8 8 8 i e 8 = z l . S.a X g k = 8 8 8 8 8 8 = z z k { { 8 8 8 8 8 8 i 8 * t uXO ; vXd $ eX8 8 8 8 8 8 8 - g u.{ p.d.u 8 8 8 8 8 i 8 8 8 i.& . a y.- z 8 8 8 8 8 8 8 8 g g l l k i 8 8 8 8 8 i 8 - w :X: 2 p : 9 :X8 8 8 8 8 8 - l { z { u.l z 8 8 8 8 8 i 8 = g u.. ; 4 . i u.= 8 8 8 8 8 8 p l l l l l z i 8 ",
"8 8 8 = 8 & = & { z & 8 8 8 8 8 8 i 8 8 8 8 8 8 8 8 8 8 8 8 8 8 & & = 8 8 8 8 8 8 8 8 8 8 8 8 8 i 8 = k u x S.c u % x 8 8 8 8 8 8 8 8 = & = = & 8 8 8 8 8 8 i 8 9 6 `.O VXH.x @ G D 9 8 8 8 8 8 8 8 = & & & & 8 8 8 8 8 i e 8 = y.8 % A.y.; - x 8 8 8 8 8 8 8 8 = & 8 & & 8 8 8 8 8 8 i 8 @ 8.<Xo x cXy.. w.t * 8 8 8 8 8 8 & & & & & 8 8 8 8 8 8 i 8 = p :.. 4 d.H.. k a 8 8 8 8 8 8 8 8 = = & & 8 8 8 8 8 8 i 8 ; o.=X: k M.VXa =X` - 8 8 8 8 8 & = & & & & & 8 8 8 8 8 i 8 = z k . a y.k . u.e 8 8 8 8 8 8 8 = & = & & = 8 8 ",
"8 8 8 8 8 z i g i g 8 8 8 8 8 8 8 i 8 8 8 8 8 8 8 8 8 8 8 8 i i g a g 8 8 8 8 8 8 8 8 8 8 8 8 8 i 8 = z g a d.p ; % z 8 8 8 8 8 8 8 8 8 g e g k 8 8 8 8 8 8 i 8 9 6 '.X 4 z c + G D 9 8 8 8 8 8 8 8 i g g g a 8 8 8 8 8 i e 8 = y.u . u a % 8 x - 8 8 8 8 8 8 8 8 g 8 k g 8 8 8 8 8 8 i 8 * -.rXo g c a . w.y - 8 8 8 8 8 i g a a g u i 8 8 8 8 8 i 8 8 a u.X 2 a - . l a 8 8 8 8 8 8 8 8 g e g k e 8 8 8 8 8 i 8 ; ' =X: p p.f.; $.w - 8 8 8 8 i g 8 a g a p g i 8 8 8 8 i 8 = l l X - g.S.% p.8 8 8 8 8 8 8 8 8 g 8 k g 8 8 8 ",
"8 8 8 = g C.M.h.f.h.u 8 8 8 8 8 8 i 8 8 8 8 8 8 8 8 8 8 8 = k g.a.A.g.k = 8 8 8 8 8 8 8 8 8 8 8 i 8 8 i i.%   % . g k = 8 8 8 8 8 8 = k { y.d.d.8 8 8 8 8 8 i 8 8 9 `.G + ; O 6 G e 8 8 8 8 8 8 8 i A.{ h.:.a.= 8 8 8 8 i e 8 = g u.O % % O x a 8 8 8 8 8 8 8 = z z u.f.p.= 8 8 8 8 8 i 8 8 r uX=.o - o -.w.* 8 8 8 8 8 8 u M.A.M.F.u.M.8 8 8 8 8 i 8 8 8 u.p . % . e z 8 8 8 8 8 8 8 = k { :.d.d.e 8 8 8 8 8 i 8 8 8 :X' : ;   ' $.- 8 8 8 8 8 8 a.i.D.d.C.g.C.y.= 8 8 8 i 8 8 i i.- . : % k z = 8 8 8 8 8 8 = z z u.f.p.= 8 8 ",
"8 8 8 = g M.y.g.f.a.i 8 8 8 8 8 8 i 8 8 8 8 8 8 8 8 8 8 8 8 u d.a.D.h.l = 8 8 8 8 8 8 8 8 8 8 8 i 8 8 = x z & & u x 8 8 8 8 8 8 8 8 = l l u.{ { 8 8 8 8 8 8 i 8 8 9 6 '.- & & G 6 9 8 8 8 8 8 8 = p D.a.f.h.{ = 8 8 8 8 i e 8 8 = y.g % & a k 8 8 8 8 8 8 8 8 = { l u.{ l = 8 8 8 8 8 i 8 8 * -.rX@ & 7 w.y - 8 8 8 8 8 8 8 h.h.S.D.S.G.i 8 8 8 8 i 8 8 8 a p.- & = l i 8 8 8 8 8 8 8 = l l y.:.{ 8 8 8 8 8 8 i 8 8 ; ' =X; & 8 $.i - 8 8 8 8 = g f.M.J.d.D.M.A.u.= 8 8 8 i 8 8 = l { & & 8 x 8 8 8 8 8 8 8 8 = { l u.{ l = 8 8 ",
"8 8 8 8 e l = i g z 8 8 8 8 8 8 8 i 8 8 8 8 8 8 8 8 8 8 8 8 8 a l g z 8 8 8 8 8 8 8 8 8 8 8 8 8 i 8 8 8 8 8 8 8 8 8 8 8 8 8 8 8 8 8 8 8 l i i i 8 8 8 8 8 8 i 8 8 8 9 9 8 8 8 8 9 8 8 8 8 8 8 8 8 8 l l l y.k 8 8 8 8 8 i e 8 8 8 8 8 8 8 8 8 8 8 8 8 8 8 8 8 8 i l i a i 8 8 8 8 8 8 i 8 8 8 * 8 8 8 8 - - 8 8 8 8 8 8 8 a z g g l a g 8 8 8 8 8 i 8 8 8 8 8 8 8 8 8 8 8 8 8 8 8 8 8 8 8 l a i i 8 8 8 8 8 8 i 8 8 8 - 8 8 8 8 - - 8 8 8 8 8 = g y.i g z g l l p - 8 8 8 i 8 8 8 8 8 8 8 8 8 8 8 8 8 8 8 8 8 8 i l i a i 8 8 8 ",
"8 8 8 8 8 = 8 8 = = 8 8 8 8 8 8 8 i 8 8 8 8 8 8 8 8 8 8 8 8 8 8 = = = 8 8 8 8 8 8 8 8 8 8 8 8 8 i 8 8 8 8 8 8 8 8 8 8 8 8 8 8 8 8 8 8 8 = 8 8 8 8 8 8 8 8 8 i 8 8 8 8 8 8 8 8 8 8 8 8 8 8 8 8 8 8 8 = = = & = 8 8 8 8 8 i e 8 8 8 8 8 8 8 8 8 8 8 8 8 8 8 8 8 8 8 = 8 8 8 8 8 8 8 8 8 i 8 8 8 8 8 8 8 8 8 8 8 8 8 8 8 8 8 8 = 7 7 = 8 7 8 8 8 8 8 i 8 8 8 8 8 8 8 8 8 8 8 8 8 8 8 8 8 8 8 = 8 8 8 8 8 8 8 8 8 i 8 8 8 8 8 8 8 8 8 8 8 8 8 8 8 8 8 & 8 8 = = = = 8 8 8 8 8 i 8 8 8 8 8 8 8 8 8 8 8 8 8 8 8 8 8 8 8 = 8 8 8 8 8 8 ",
"8 8 8 8 8 8 8 8 8 8 8 8 8 8 8 8 8 i 8 8 7 7 7 7 7 7 7 7 7 7 7 7 7 7 7 7 7 7 7 7 7 7 7 7 7 8 8 8 i 8 8 9 9 9 9 9 9 9 9 7 7 7 7 7 7 7 7 7 8 8 8 8 8 8 8 8 8 8 i 8 8 9 9 9 9 9 9 9 9 9 9 9 9 9 9 9 9 9 9 9 9 9 9 9 9 9 8 8 i e 8 8 9 9 9 9 9 9 9 9 9 9 9 9 9 8 8 8 8 8 8 8 8 8 8 8 8 8 8 i 8 8 * * * * * * * * * * * * * * * * * * * * * * * * - 8 8 i 8 8 - - - - - - - - - - - - - - - - - - - - - - - - 8 8 8 i 8 8 - - - - - - - - - - - - - - - - - - - - - - - - 8 8 8 i 8 8 = = = = = = = = = = = = = = = = 7 7 7 7 7 7 8 8 ",
"8 8 8 8 8 8 8 8 8 8 8 8 8 8 8 8 8 i 8 8 v n n n n n n v v v v v v v v v v v v v v > > > > 1 8 8 i 7 4 m m m m m m m m m m 5 5 6 6 6 6 6 6 6 , , , , ; ; - 8 i 8 2 G G G G G G G G D D D D D D D D D D D D D 6 6 6 6 2 8 i e 8 3 S S S S S S S S S S 3 3 3 3 3 3 3 3 3 3 3 3 3 3 : - 8 i - y e.e.e.e.e.e.8.-.-.-.-.-.-.-.-.-.-.=.=.=.] t t t y 7 8 i 8 9 O.O.O.O.O.O.O.O.O.O.O.O.O.O.0 0 0 0 0 0 0 0 0 0 0 8 8 i - 9 o.o.o.o.o.o.o.o.' ' ' ' ' ' ' ' ' ' ' ' w w w w 9 8 8 i = w M M M M M M M M M M M M M w w w w w w w w w , , ",
"8 8 8 8 8 8 8 8 8 8 8 8 8 8 8 8 8 i 8 = U.Q.Q.Q.Q.T.T.T.T.T.T.U.U.U.U.U.U.U.U.b b b b n b > 7 8 i 9 5 ^.^.^.^.^.^.^.^._ _ _ _ m _ _ m m m m m m m m m 6 ; 8 i 8 2 '.{.{.{.{.'.'.'.'.'.'.`.`.`.`.`.`.`.`.G G G G G G 3 9 i e 9 S _._._._._._._._.F F F F F F F F S S S S S S S 3 3 = 8 i * t jXjXjXjXjXuXuXuXuXuXuXeXeXeXrXeXeXeXw.w.w.w.e.e.-.= 8 i 8 0 *X*X*X*X*X*X*X*X&X&X&XX.X.X.X.X.X.X.X.X.X.X.O.O.0 = 8 i - w 9X9X9X9X:X:X:X:X:X:X:X=X=X=X=X=X=X=Xo.o.o.o.o.o.' - 8 i = w /./././././././././.&.&.&.&.&.&.&.&.M M M M M M ",
"8 8 8 8 8 8 8 8 8 8 8 8 8 8 8 8 8 i 8 = U.Q.T.T.T.T.T.T.T.T.T.b b v b U.U.U.b b b b b n n > 7 8 i 9 5 ^.^.^.^.^.^.^._ _ _ _ m m m _ m m m m m m m m 6 6 ; 8 i 8 2 '.{.{.'.'.'.'.'.'.'.`.G G D `.`.`.G G G G G G G G 3 9 i e 9 S _._._._._._.F F F F S S 3 S F S S S S S S S 3 3 3 = 8 i * t uXjXuXuXuXuXuXuXuXuXrXw.e.-.eXeXeXw.w.w.w.e.e.e.-.7 8 i 8 0 *X*X*X*X*X*X*X&X&X&XX.X.O.O.X.X.X.X.X.X.X.O.O.O.0 = 8 i - w :X9X:X:X:X:X:X:X:X:X=Xo.' o.=X=X=Xo.o.o.o.o.o.o.' - 8 i = w /./././././././././.&.&.M M &.&.&.M M M M M M M ",
"8 - = 8 8 8 8 = 8 8 8 8 8 8 8 8 8 i 8 = U.Q.Q.Q.Q.T.T.T.T.T.T.U.U.U.U.U.U.U.U.b b b b n n > 7 8 i 9 m ^.^.^.^.^.^.^.^._ _ _ _ _ m _ m m m m m m m m m 6 ; 8 i 8 2 '.{.{.{.{.'.'.'.'.'.'.`.`.`.`.`.`.`.G G G G G G G 3 9 i e 9 S _._._._._._._._.F F F F F S F S S S S S S S S 3 3 = 8 i * t jXjXjXjXjXuXuXuXuXuXuXeXrXeXrXeXeXeXw.w.w.w.e.e.-.7 8 i 8 0 *X*X*X*X*X*X*X*X&X&X&XX.X.X.X.X.X.X.X.X.X.X.O.O.0 = 8 i - w 9X9X9X9X:X:X:X:X:X:X=X=X=X=X=X=X=X=Xo.o.o.o.o.o.' - 8 i = w /./././././././././.&.&.&.&.&.&.&.&.M M M M M M ",
"- p i.i e u i k i i i { a 8 8 8 8 i 8 = U.Q.T.T.T.T.T.T.T.Y.U.U.U.U.U.U.b b b b b n n n n > 7 8 i 9 m ^.^.^.^.^._ _ _ _ _ _ _ m m m m m m m m m m 6 6 1 ; 8 i 8 2 '.{.'.'.'.'.'.'.'.`.`.`.`.`.`.`.G G G G G G G G G 3 9 i e 9 S _._._._.F F F F F F F F F S S S S S S S S 3 3 3 3 = 8 i * t uXuXuXuXuXuXuXuXrXrXrXrXeXeXeXw.w.w.w.w.e.e.e.-.-.7 8 i 8 0 *X*X*X*X*X&X&X&X&X&X&XX.X.X.X.X.X.X.X.X.O.O.O.O.0 = 8 i - w :X:X:X:X:X:X:X:X:X=X=X=X=X=X=Xo.o.o.o.o.o.o.o.o.w - 8 i = w /./././././././.&.&.&.&.&.&.&.&.M M M M M M M M ",
"& d.g p.f.M.M.A.f.a.f.g.M.g = 8 8 i 8 8 1 1 1 1 o o o o o o o @ , , @ @ @ @ o o o o o o o @ 8 8 i 8 , , , ; ; ; ; ; ; ; ; ; ; ; ; ; ; ; ; ; ; % % % % % - 8 i 8 - 2 2 2 2 2 2 2 ; ; ; : ; 2 ; ; ; : : : : : : : : : ; 8 i e 8 2 2 $ $ $ $ $ $ $ $ $ $ = = $ $ $ $ $ $ # # # # # # 8 8 i 8 r y 7 7 7 7 7 7 $ 7 $ $ r r 7 $ $ $ $ $ $ $ $ $ $ $ 8 8 i 8 8 0 0 0 0 0 0 0 0 0 0 0 0 0 0 0 0 & & & # # # # # # 8 8 i 8 9 9 9 9 9 9 9 9 9 9 9 @ 9 9 @ & @ @ @ @ # # # # O & 8 8 i 8 q q q * * * * * * * * * q 9 * * * @ @ @ @ @ @ @ @ ",
"= { p.i.f.u.u.f.:.{ h.i.d.z & 8 8 i 8 8 :.a.a.a.d.f.d.f.f.f.f.f.e j a.i.a.d.d.d.f.h.f.f.g.u.= e i 8 u g j k l z z z { { { y.g 8 g k k l x z z { { { y.:.u 8 i 8 8 u.a.a.a.d.d.d.f.f.d.h.a.8 z a.i.a.d.d.d.h.h.f.f.g.z = i e 8 i k k l x z z { +.{ +.y.a 8 c k k x z z { +.{ { y.z 8 8 i 8 a p.i.i.d.d.d.d.f.d.d.h.k q p.i.i.d.d.d.d.h.f.d.h.d.u 8 i 8 8 p k k x x z z ^ z y.y.a 8 k k k x x z z y.:.{ y.z 8 8 i 8 a p.i.a.d.d.d.d.h.d.f.f.i p i.i.i.d.d.d.f.h.f.d.g.p.8 8 i 8 e j j k l z z z :.z :.:.8 u j j k x z z z :.:.:.y.",
"8 8 i 8 8 8 8 e 8 8 u 8 i 8 8 8 8 i 8 & K.CXCXZXVXVXCXCXCXJXJXCXu i.CXCXZXZXZXCXVXVXGXJXHXcX% i i = p D.S.S.S.S.L.K.L.bXbXvXu.& h.S.S.S.S.H.L.H.K.bXvXcXi 8 i 8 e vXCXCXVXVXVXUXZXCXJXHXVX% S.CXCXZXZXZXCXVXZXGXJXHXM.% i i = z S.S.S.S.S.L.K.K.bXbXbXk u A.S.S.S.S.L.H.H.cXbXvXH.= 8 i = k VXCXZXVXVXCXCXZXGXJXHXd.u VXCXCXZXZXCXZXVXCXJXHXCXi 8 i 8 8 h.S.S.S.S.H.K.L.cXbXbXk u A.S.S.S.S.L.H.H.cXbXvXH.= 8 i = k VXCXZXVXVXCXCXZXGXJXGXa y.CXCXZXZXZXCXZXVXUXJXHXbX& e i = p A.S.S.S.S.K.K.K.bXvXcX8 k D.S.S.S.S.L.H.L.cXbXvX",
"8 8 8 8 8 8 8 8 8 8 8 8 8 8 8 8 8 i 8 & J.ZXZXvXK.cXbXvXvXGXGXZX8 i.ZXZXVXF.J.vXbX5XZXGXJXJ.% i i = p A.D.D.d.h.h.D.A.K.cXbXy.& f.D.S.d.p.g.A.g.D.cXbXK.u 8 i 8 8 bXZXZXbXcXcXvXbXvXGXJXvX% D.ZXZXvXS.5XvXbXcXCXGXJXg.% i i = x D.D.A.a.h.g.D.A.cXbXcXg u g.D.D.i.i.M.A.h.F.cXbXS.= 8 i = g VXZXVXK.cXcXvXbXCXGXGXi.u vXZXZXK.F.bXvXcXvXGXGXVXu 8 i 8 8 f.D.D.d.h.h.D.A.K.bXcXg u g.D.D.i.i.M.A.h.F.cXbXS.= 8 i = g VXZXVXK.cXcXvXbXCXGXCXa y.ZXZXVXG.L.vXvX5XVXGXJXcX& e i = a A.D.A.a.h.g.D.A.cXbXL.- k A.D.A.u.d.A.A.h.K.cXbX",
"8 8 8 8 8 8 8 8 8 8 8 8 8 8 8 8 8 i 8 & K.CXZXVXbXvXvXvXVXGXGXZX8 i.ZXZXZXbXvXvXZXvXCXGXJXJ.% i i = p A.D.S.g.A.D.S.S.cXcXbXy.= f.D.S.C.A.A.H.H.H.cXbXK.u 8 i 8 8 bXZXZXVXbXvXvXvXZXGXJXvX% D.CXZXVXbXvXvXZXvXCXGXJXh.% i i = x D.D.D.g.A.D.S.F.cXcXcXg u M.D.S.g.A.A.H.S.L.cXbXS.= 8 i = g VXZXZXvXvXvXvXvXCXGXGXi.u VXZXZXvXvXvXZXVXVXGXGXVXu 8 i 8 8 f.D.S.M.A.D.S.S.cXcXcXg u M.D.S.g.A.A.H.S.L.cXbXS.= 8 i = g VXZXZXvXvXvXvXvXCXGXCXa y.ZXZXZXbXvXvXZXvXZXGXJXcX& e i = a A.D.D.g.A.D.S.F.cXbXL.- k D.D.D.g.A.D.L.S.K.cXbX",
"8 8 8 8 8 8 8 8 8 8 8 8 8 8 8 8 8 i 8 = L.ZXVXZXCXCXCXCXCXCXUXZXe i.ZXVXVXZXCXCXCXCXCXCXGXL.& i i = p g.A.A.S.F.H.L.K.K.K.cX{ = d.A.A.S.S.H.L.J.K.K.cXH.u 8 i 8 u bXVXVXZXCXCXCXCXCXCXGXvX% D.ZXVXZXCXCXCXCXCXCXCXGXh.% i i = x A.A.D.S.H.H.L.K.K.K.K.g u g.A.A.S.S.H.L.K.K.K.cXA.- 8 i = k vXVXVXZXCXCXCXCXCXCXGXi.u vXVXVXZXCXCXCXCXCXCXGXVXu 8 i 8 8 d.A.A.S.S.H.L.K.K.K.K.p u g.A.A.S.S.H.L.K.K.K.cXA.- 8 i = k vXVXVXZXCXCXCXCXCXCXZXa y.VXVXVXZXCXCXCXCXCXCXGXcX& e i = a g.A.A.S.H.H.L.K.K.cXS.- k A.A.D.S.F.H.L.K.K.K.cX",
"8 8 8 8 8 8 8 8 8 8 8 8 8 8 8 8 8 i 8 8 k x x x x z z z z z z z i p z x x x x z z z z z { k 8 e i 8 8 i a a a a p p p p g g i 8 i a a a a p p p p g g p 8 8 i 8 8 k x x x x z z z z z z z e j x x x x z z z z z z { g = i e 8 u a a a a a p p p p g g i 8 a a a a a p p p p g g p 8 8 i 8 i l x x x x z z z z z { g i x x x x x z z z z z z z 8 8 i 8 8 i a a a a p p p p g g i 8 a a a a a p p p p g g p 8 8 i 8 i l x x x x z z z z z z i p z x x x x z z z z z { k 8 8 i 8 8 i a a a a p p p p g p 8 u a a a a a p p p p g g ",
"8 8 8 8 8 8 8 8 8 8 8 8 8 8 8 8 8 i 8 8 & X X X X X X X X X X X O O X X X X X X X + + X X & 8 8 i 8 8 % O # O O O O O O O O # % # # # O O O O O % O O & 8 8 i 8 8 # X X X X X X X X X X X O + X X X X X X X O + X + = 8 i e 8 8 # O # O O O O O O O O % % # # # O O O O # % O O = 8 8 i 8 8 O X X X X X X X X X X + O X X X X X X X X O X X # 8 8 i 8 8 & O # O O O O O O O O # % # # # O O O O # % O O = 8 8 i 8 8 O X X X X X X X X X X O O X X X X X X X + + X X & 8 8 i 8 8 & O # O O O O O O O O % % # # O O O O O % # O O ",
"8 = 8 8 - 8 8 8 8 8 8 8 8 8 8 8 8 i 8 = k H.L.L.L.L.L.L.L.L.L.J.L.L.L.L.L.L.L.L.J.D.D.sXH.a = e i 8 8 i.g.f.h.h.h.h.h.h.h.h.h.h.h.h.h.h.h.h.h.h.p.g.C.l = 8 i 8 = y.J.H.L.L.L.L.L.L.L.L.J.L.L.L.L.L.L.L.L.J.A.F.cXD.8 8 i e 8 i d.h.h.h.h.h.h.h.h.h.h.h.h.h.h.h.h.h.h.g.d.i.M.M.g = 8 i 8 = d.J.H.L.L.L.L.L.L.L.L.L.L.L.L.L.L.L.L.L.H.M.K.sX{ = 8 i 8 = z g.f.h.h.h.h.h.h.h.h.h.h.h.h.h.h.h.h.g.d.i.M.M.g = 8 i 8 = d.J.H.L.L.L.L.L.L.L.L.L.L.L.L.L.L.L.L.J.S.D.5XL.g = 8 i 8 8 u.g.f.h.h.h.h.h.h.h.h.h.h.h.h.h.h.h.h.g.a.a.C.d.",
"8 g i - g & & i i = = e = = 8 8 8 i u O VXLXLXLXLXLXLXLXLXLXLXLXLXLXLXLXLXLXLXLXLXHXHXIXPXbXO i i & :.CXCXCXCXCXCXCXCXCXCXCXZXCXCXCXCXCXCXCXCXZXbXZXvXvX8 8 i 8 8 GXLXLXLXLXLXLXLXLXLXLXLXLXLXLXLXLXLXLXLXLXGXKXHXLXM.O i i % g.CXCXCXCXCXCXCXCXCXCXCXCXCXCXCXCXCXCXCXCXVXvXVXVXcX& 8 i & k KXLXLXLXLXLXLXLXLXLXLXLXLXLXLXLXLXLXLXLXPXGXPXIXJX= 8 i 8 8 vXCXCXCXCXCXCXCXCXCXCXZXCXCXCXCXCXCXCXCXVXvXVXVXcX& 8 i & k KXLXLXLXLXLXLXLXLXLXLXLXLXLXLXLXLXLXLXLXHXHXKXPXvXO i i & z ZXCXCXCXCXCXCXCXCXCXCXZXCXCXCXCXCXCXCXCXvXVXvXZX",
"{ f.l i.M.u.y.a.D.g y.:.a.{ = 8 8 i e & VXCXGXGXCXJXJXJXGXHXJXZXKXKXKXKXKXKXKXKXPXGXJXS.vXVX+ i i % d.bXcXvXcXvXvXvXbXvXVXcXvXZXVXVXVXVXVXVXVXVXcX5Xy.vXa = i - p CXCXJXDXGXJXJXJXGXIXGXCXPXKXKXKXKXKXKXKXPXDXJXd.DX5X+ i i # D.cXbXbXcXvXvXvXbXvXvXsXvXVXVXVXVXVXVXVXZXvXbXD.f.vX& 8 i % u.GXCXJXCXGXJXJXGXGXIXDXDXPXKXKXKXKXKXKXKXIXGXVXC.HXi 8 i = g cXcXvXcXbXvXvXvXbXVXbXcXZXVXVXVXVXVXVXZXvXbXD.f.vX& 8 i % u.GXCXJXCXGXJXJXGXGXIXDXDXPXKXKXKXKXKXKXPXJXJXL.bXCXO i i % p.bXcXvXcXvXvXvXbXvXVXcXbXZXVXVXVXVXVXVXZXbXvXp.K.",
"i g.S.g.D.G.D.i.d.g.H.G.f.d.8 8 8 i e & VXZXAXvXvXcXbXCXvXVXcXbXKXKXKXKXKXKXKXKXPXJXGXcXZXvXO i i % a.bXH.H.G.S.M.K.K.L.H.g.vXZXVXVXVXVXVXVXVXVXcXcXM.vXa = i 8 a DXVXVXvXvXcXvXCXvXVX5XVXPXKXKXKXKXKXKXKXPXGXGXK.GXL.O i i # D.cXH.H.G.D.A.cXL.J.F.M.VXZXVXVXVXVXVXVXZXvXbXH.S.cX= 8 i % u.GXvXVXvXvXcXNXZXvXVXJ.CXPXKXKXKXKXKXKXPXIXDXVXcXJXi 8 i = p bXL.L.F.G.C.F.cXH.K.M.5XZXVXVXVXVXVXVXZXvXbXH.S.cX= 8 i % u.GXvXVXvXvXcXNXZXvXVXJ.CXPXKXKXKXKXKXKXPXJXGXbXVXVXO i i % u.bXH.L.G.F.M.J.5XL.L.h.bXZXVXVXVXVXVXVXZXbXbXA.cX",
"a z g l l k g { a k { k p p 8 8 8 i e & ZXGXHXJXGXGXJXKXHXGXZXGXPXPXPXPXPXPXPXPXLXJXHXbXDXVX+ i i % a.vXbXvXbXbXbXAXAXvXcXcXVXZXZXZXZXZXZXZXZXVXbXbXM.VXi - i 8 i GXGXHXJXGXGXHXIXHXCXZXJXLXPXPXPXPXPXPXPXLXGXIXL.IXJ.+ i i # D.vXvXvXbXbXbXVXvXvXcXcXVXZXZXZXZXZXZXZXCXAXvXK.G.vX& 8 i % y.JXGXHXGXGXGXHXIXHXCXCXHXLXPXPXPXPXPXPXLXKXGXDXcXKXe 8 i = a vXbXAXbXbXbXvXVXvXcXcXvXZXZXZXZXZXZXZXCXAXvXK.G.vX& 8 i % y.JXGXHXGXGXGXHXIXHXCXCXHXLXPXPXPXPXPXPXLXHXHXvXZXCXO i i % u.vXbXvXbXbXbXvXAXvXcXcXVXZXZXZXZXZXZXZXCXbXAXC.bX",
"8 = = = = = = & 8 = & = = - 8 8 8 i e % S.IXHXHXHXHXHXHXHXHXHXHXHXHXHXHXHXHXHXJXHXCXCXKXHXd.% i i = p bXvXvXvXvXvXvXvXvXvXvXvXvXvXvXvXvXvXvXvXvXL.vXVXF.= 8 i 8 & bXIXHXHXHXHXHXHXHXHXHXHXJXHXHXHXHXHXHXJXHXVXGXKXGXz & i i & { vXvXvXvXvXvXvXvXvXvXvXvXvXvXvXvXvXvXvXvXbXK.VXVXf.& 8 i 8 8 ZXIXHXHXHXHXHXHXHXHXHXHXJXHXHXHXHXHXJXHXJXVXHXKXcX& 8 i 8 = G.VXvXvXvXvXvXvXvXvXvXvXvXvXvXvXvXvXvXvXbXK.VXVXf.& 8 i 8 8 ZXIXHXHXHXHXHXHXHXHXHXHXJXHXHXHXHXHXJXHXCXZXKXHXM.% i i = i cXvXvXvXvXvXvXvXvXvXvXvXvXvXvXvXvXvXvXvXsXcXVXvX",
"8 8 8 8 8 8 8 8 8 8 8 8 8 8 8 8 8 i 8 8 & 8 8 8 8 8 8 8 8 8 8 8 8 8 8 8 8 8 8 8 8 8 8 8 8 & 8 8 i 8 8 = 8 8 8 8 8 8 8 8 8 8 8 8 8 8 8 8 8 8 8 8 8 8 8 = 8 8 i 8 8 & 8 8 8 8 8 8 8 8 8 8 8 8 8 8 8 8 8 8 8 8 8 8 8 = = 8 i e 8 = 8 8 8 8 8 8 8 8 8 8 8 8 8 8 8 8 8 8 8 8 8 8 8 8 = 8 8 i 8 8 & 8 8 8 8 8 8 8 8 8 8 8 8 8 8 8 8 8 8 8 8 8 8 8 & 8 8 i 8 8 = 8 8 8 8 8 8 8 8 8 8 8 8 8 8 8 8 8 8 8 8 8 8 8 = 8 8 i 8 8 & 8 8 8 8 8 8 8 8 8 8 8 8 8 8 8 8 8 8 8 8 8 8 8 & 8 8 i 8 8 = 8 8 8 8 8 8 8 8 8 8 8 8 8 8 8 8 8 8 8 8 8 8 - ",
"8 8 8 8 8 8 8 8 8 8 8 8 8 8 8 8 8 i 8 8 8 8 8 8 8 8 8 8 8 8 8 8 8 8 8 8 8 8 8 8 8 8 8 8 8 8 8 8 i 8 8 8 8 8 8 8 8 8 8 8 8 8 8 8 8 8 8 8 8 8 8 8 8 8 8 8 8 8 i 8 8 8 8 8 8 8 8 8 8 8 8 8 8 8 8 8 8 8 8 8 8 8 8 8 8 8 8 8 i e 8 8 8 8 8 8 8 8 8 8 8 8 8 8 8 8 8 8 8 8 8 8 8 8 8 8 8 8 8 i 8 8 8 8 8 8 8 8 8 8 8 8 8 8 8 8 8 8 8 8 8 8 8 8 8 8 8 8 8 i 8 8 8 8 8 8 8 8 8 8 8 8 8 8 8 8 8 8 8 8 8 8 8 8 8 8 8 8 8 i 8 8 8 8 8 8 8 8 8 8 8 8 8 8 8 8 8 8 8 8 8 8 8 8 8 8 8 8 8 i 8 8 8 8 8 8 8 8 8 8 8 8 8 8 8 8 8 8 8 8 8 8 8 8 8 8 ",
"8 8 8 8 8 8 8 8 8 8 8 8 8 8 8 8 8 i 8 8 8 8 8 8 7 7 7 8 8 8 8 8 8 8 8 8 8 8 8 7 7 7 8 8 8 8 8 8 i 8 8 8 8 8 = = 8 8 8 8 8 8 8 8 8 8 8 8 8 = 8 8 8 8 8 8 8 8 i 8 8 8 8 8 9 9 9 8 8 8 8 8 8 8 8 8 8 8 8 9 9 9 8 8 8 8 8 8 i e 8 8 8 8 8 = = 8 8 8 8 8 8 8 8 8 8 8 8 8 = 8 8 8 8 8 8 8 8 i 8 8 8 8 8 * @ * 8 8 8 8 8 8 8 8 8 8 8 * @ * 8 8 8 8 8 8 8 i 8 8 8 8 8 = = = 8 8 8 8 8 8 8 8 8 8 8 8 = 8 8 8 8 8 8 8 8 i 8 8 8 8 8 - ; - 8 8 8 8 8 8 8 8 8 8 8 - ; - 8 8 8 8 8 8 8 i 8 8 8 8 8 = = 8 8 8 8 8 8 8 8 8 8 8 8 = = 8 8 8 8 8 ",
"= = = 8 & 8 8 8 8 8 8 8 8 8 8 8 8 i 8 8 8 8 8 7 B n v 7 7 8 8 8 8 8 8 8 8 7 8 v v < 7 8 8 8 8 8 i 8 8 8 - 8 g k a = 8 8 8 8 8 8 8 8 8 = i k p 8 8 8 8 8 8 8 i 8 8 8 8 9 D G D 8 9 8 8 8 8 8 8 8 8 9 8 D D 6 9 8 8 8 8 8 i e 8 8 8 = u k k i = 8 8 8 8 8 8 8 8 8 = a k a 8 8 8 8 8 8 8 i 8 8 8 * 8 -.e.=.* - 8 8 8 8 8 8 8 8 * ] 8.=.e * 8 8 8 8 8 i 8 8 8 8 8 p k g 8 8 8 8 8 8 8 8 8 8 = a k a 8 8 8 8 8 8 8 i 8 8 8 - 8 ' o.` - 8 8 8 8 8 8 8 8 - - ' o.` - - 8 8 8 8 8 i 8 8 8 8 8 g k a = 8 8 8 8 8 8 8 8 8 8 g k i 8 8 8 8 ",
"g l k i { 8 8 = 8 - 8 8 - 8 8 8 8 i 8 8 8 8 8 Y.Y.n Y.Y.< 7 8 8 8 8 8 8 7 < Y.Y.v b n 8 8 8 8 8 i 8 8 = p p.{ z p.z 8 8 8 8 8 8 8 8 8 l p.k g z a 8 8 8 8 8 i 8 8 8 e `.`.G `.G 4 9 8 8 8 8 8 8 9 6 '.`.G G G 8 8 8 8 8 i e 8 8 = k p.z z p.k = 8 8 8 8 8 8 8 8 { p.g k z i 8 8 8 8 8 i 8 8 * t rXrXw.uXrXe 8 8 8 8 8 8 8 * w.uXe.e.<X] * 8 8 8 8 i 8 8 8 8 y.y.l y.y.u 8 8 8 8 8 8 8 8 { p.g k z i 8 8 8 8 8 i 8 8 - w =X=Xo.=Xo.8 8 8 8 8 8 8 - 8 =X:Xo.o.$.q - 8 8 8 8 i 8 8 8 a p.{ x p.z 8 8 8 8 8 8 8 8 i u.y.p x l 8 8 8 ",
"d.a.= y.G.d.u.g.y.f.h.M.u.f.z & 8 i 8 8 8 7 b b $ $ $ n U.7 8 8 8 8 8 8 q T.v 7 :.O n v 7 8 8 8 i 8 8 e p.u X X % :.p 8 8 8 8 8 8 = g u.. a - & { e 8 8 8 8 i 8 8 9 G G + 9 h D G 8 8 8 8 8 8 8 e '.D 9 { + G D 9 8 8 8 i e 8 8 a p.& .   - y.i 8 8 8 8 8 8 = z { X k % u z 8 8 8 8 8 i 8 8 - rX8.o o o w.e.* 8 8 8 8 8 * 8.rX. V , y eXr 8 8 8 8 i 8 8 = { l X . . k z 8 8 8 8 8 8 = z { X k % u z 8 8 8 8 8 i 8 8 - =Xo.  c 4 o.o.- 8 8 8 8 8 - =Xo.: ! : ' $.- 8 8 8 8 i 8 8 8 p.i X X % { g 8 8 8 8 8 8 8 u.p . k . k k 8 8 ",
"D.d.8 y.z :.u.S.M.L.f.a.f.D.a.e 8 i 8 8 7 , T.# - h.VXr n < 7 8 8 8 8 7 n U.X h.ZX- @ b 8 8 8 8 i 8 = x x X 4 D.f.% z 8 8 8 8 8 8 = p.8   H.h.  p k = 8 8 8 i 8 9 4 '.O ; bXbX  G 6 9 8 8 8 8 9 G `.X g.ZX- ; `.8 8 8 8 i e 8 = y.a . a L.z - x = 8 8 8 8 8 8 i.% % cXz   k p 8 8 8 8 i 8 * -.rXo u H.vX. <Xr - 8 8 8 8 - uXy o VXS.  8.-.* 8 8 8 i 8 8 i p.. ; p.L.% l i 8 8 8 8 8 8 i.% % cXz   k p 8 8 8 8 i 8 = ' =X: u CXd.  =Xq - 8 8 8 - w :X. p CXz . $.w - 8 8 8 i 8 = l z X 2 A.g.O z 8 8 8 8 8 = g y.  c cX4 O z 8 8 ",
"i g g 8 8 i 8 p g g i u k i.g g = i 8 8 7 < Y.# p d.D.# v v 7 8 8 8 8 7 n n $ z p.k % n , 8 8 8 i 8 = { p : a a.c O x 8 8 8 8 8 8 8 u.& - k x ; 8 l = 8 8 8 i 8 9 6 `.O c j.p.O D D 9 8 8 8 8 9 G G O K p.k % G 4 8 8 8 i e 8 - y.- ; p d.4 & x 8 8 8 8 8 8 i y.. u x k % p g = 8 8 8 i 8 @ e.w.o k A.h.. e.t * 8 8 8 8 r rX$ a p.u.; =.e.* 8 8 8 i 8 = p { . u y.p.. k a 8 8 8 8 8 i y.. u x k % p g = 8 8 8 i 8 ; o.$.: x j.z : o.w - 8 8 8 = ' =X: k p.z : o.' - 8 8 8 i 8 = z g . a i.x . x 8 8 8 8 8 = k x . p x p . l i 8 ",
"- 8 8 8 8 = i & % & = & = 8 = 8 8 i 8 8 8 q T.% = p ; $ b < 7 8 8 8 8 7 v Y.+ u p = 1 b 8 8 8 8 i 8 = l z   - - . - z 8 8 8 8 8 8 = u.i . 4 2 . g g = 8 8 8 i 8 8 e '.% ; p 4 + G 6 9 8 8 8 8 9 D `.+ u p & 2 G 8 8 8 8 i e 8 = { g   4 - . a k = 8 8 8 8 8 8 i.& : u - . l a 8 8 8 8 i 8 * =.uXo u a ; & eXr 8 8 8 8 8 * uXt o p a o e.-.* 8 8 8 i 8 8 i i.O % 4 % O z u 8 8 8 8 8 8 i.& : u - . l a 8 8 8 8 i 8 - ` :X: 4 p ; % =X8 8 8 8 8 - w :X# ; p 4 : =Xw - 8 8 8 i 8 = k y.  - - . = z 8 8 8 8 8 - a u.X ; u % % z 8 8 ",
"& { f.f.y.u.f.l i.l j i.l = 8 8 8 i 8 8 8 7 n T.# % $ n n 7 8 8 8 8 8 8 7 T.n O % % U.v 7 8 8 8 i 8 8 8 i.g . O & z i 8 8 8 8 8 8 8 a a.- . . u z 8 8 8 8 8 i 8 8 9 G '.O % + G G 9 8 8 8 8 8 8 9 '.G + % % `.D 9 8 8 8 i e 8 8 u a.u . . 8 z e 8 8 8 8 8 8 = k i.% . . p l 8 8 8 8 8 i 8 8 * rXeXo % % w.-.* 8 8 8 8 8 * =.uX7 O . =.<X8 8 8 8 8 i 8 8 = z u.O . O k k 8 8 8 8 8 8 = k i.% . . p l 8 8 8 8 8 i 8 8 ; =X=X: % # $.' - 8 8 8 8 8 ; $.:X: % : o.o.- 8 8 8 8 i 8 8 8 p.k . O % z a 8 8 8 8 8 8 = y.z . . O x g 8 8 ",
"= l G.D.M.J.L.A.H.M.M.D.f.8 8 8 8 i 8 8 8 8 8 n q 8 8 v q 8 8 8 8 8 8 8 7 < v 7 8 q v 7 8 8 8 8 i 8 8 8 i g 8 8 i a 8 8 8 8 8 8 8 8 - g i 8 8 a i 8 8 8 8 8 i 8 8 8 8 D e 8 8 D e 8 8 8 8 8 8 8 9 6 D 9 8 u D 9 8 8 8 8 i e 8 8 = g p 8 8 i i 8 8 8 8 8 8 8 8 8 k u 8 8 p 8 8 8 8 8 8 i 8 8 - r 8.8 8 e =.8 8 8 8 8 8 8 8 * -.t - - =.y * 8 8 8 8 i 8 8 8 8 k 8 8 8 p 8 8 8 8 8 8 8 8 8 k u 8 8 p 8 8 8 8 8 8 i 8 8 - q o.8 8 8 ' 8 8 8 8 8 8 8 8 8 o.8 8 8 ' 8 8 8 8 8 8 i 8 8 8 i g 8 8 u a 8 8 8 8 8 8 8 8 e k 8 8 8 p 8 8 8 ",
"8 i z k { { l l l l u.M.g 8 8 8 8 i 8 8 8 8 8 7 8 8 8 7 8 8 8 8 8 8 8 8 8 7 7 8 8 8 7 8 8 8 8 8 i 8 8 8 8 = 8 8 8 8 8 8 8 8 8 8 8 8 8 = 8 8 8 8 8 8 8 8 8 8 i 8 8 8 8 9 8 8 8 9 8 8 8 8 8 8 8 8 8 9 9 8 8 8 9 8 8 8 8 8 i e 8 8 8 8 8 8 8 8 8 8 8 8 8 8 8 8 8 8 = 8 8 8 8 8 8 8 8 8 8 i 8 8 8 8 * 8 8 8 * 8 8 8 8 8 8 8 8 8 * - 8 8 * - 8 8 8 8 8 i 8 8 8 8 = 8 8 8 8 8 8 8 8 8 8 8 8 8 = 8 8 8 8 8 8 8 8 8 8 i 8 8 8 8 ; 8 8 8 - 8 8 8 8 8 8 8 8 8 ; 8 8 8 - 8 8 8 8 8 8 i 8 8 8 8 = 8 8 8 8 8 8 8 8 8 8 8 8 8 = 8 8 8 8 8 8 8 ",
"8 8 & & = & & = & = = e & 8 8 8 8 i 8 8 8 8 8 8 8 8 8 8 8 8 8 8 8 8 8 8 8 8 8 8 8 8 8 8 8 8 8 8 i 8 8 8 8 8 8 8 8 8 8 8 8 8 8 8 8 8 8 8 8 8 8 8 8 8 8 8 8 8 i 8 8 8 8 8 8 8 8 8 8 8 8 8 8 8 8 8 8 8 8 8 8 8 8 8 8 8 8 8 i e 8 8 8 8 8 8 8 8 8 8 8 8 8 8 8 8 8 8 8 8 8 8 8 8 8 8 8 8 8 i 8 8 8 8 8 8 8 8 8 8 8 8 8 8 8 8 8 8 8 8 8 8 8 8 8 8 8 8 8 i 8 8 8 8 8 8 8 8 8 8 8 8 8 8 8 8 8 8 8 8 8 8 8 8 8 8 8 8 8 i 8 8 8 8 8 8 8 8 8 8 8 8 8 8 8 8 8 8 8 8 8 8 8 8 8 8 8 8 8 i 8 8 8 8 8 8 8 8 8 8 8 8 8 8 8 8 8 8 8 8 8 8 8 8 8 8 ",
"8 i { :.h.g.k = k h.f.d.l = 8 8 8 i 8 8 8 8 8 i 8 i 8 i 8 8 8 8 8 8 8 8 8 8 i = i 8 i 8 8 8 8 8 i 8 8 8 8 e 8 u 8 e 8 8 8 8 8 8 8 8 8 e 8 8 8 8 8 8 8 8 8 8 i 8 8 8 8 8 e 8 i u e 8 8 8 8 8 8 8 8 8 i = i 8 i 8 8 8 8 8 i e 8 8 8 8 8 8 e 8 8 8 8 8 8 8 8 8 8 8 u 8 8 8 e 8 8 8 8 8 8 i 8 8 8 8 i = i 8 i 8 8 8 8 8 8 8 8 8 i 8 8 e u 8 8 8 8 8 8 i 8 8 8 8 i 8 e 8 e 8 8 8 8 8 8 8 8 8 u 8 8 8 e 8 8 8 8 8 8 i 8 8 8 8 8 a 8 e u i 8 8 8 8 8 8 8 8 i = i 8 i 8 8 8 8 8 8 i 8 8 8 8 e 8 u 8 e 8 8 8 8 8 8 8 8 8 u 8 u 8 e 8 8 8 ",
"= g M.g.A.F.z 8 M.A.D.M.i.= 8 8 8 i 8 8 8 = g M.g i.g.g.g = 8 8 8 8 8 8 = y.d.g h.h.d.e 8 8 8 8 i 8 8 = z { a u.u.{ 8 8 8 8 8 8 8 8 8 u.k k p.p.l = 8 8 8 8 i 8 8 8 = a.a.l M.i.a.8 8 8 8 8 8 8 = y.d.g h.h.d.e 8 8 8 8 i e 8 8 8 y.l g p.u.z 8 8 8 8 8 8 8 8 i p.p z p.p.g = 8 8 8 8 i 8 8 = z h.p d.h.f.i 8 8 8 8 8 8 8 i M.l { g.g.{ = 8 8 8 8 i 8 8 = g p.a { u.u.a 8 8 8 8 8 8 8 i p.p z p.p.g = 8 8 8 8 i 8 8 & y.y.u.l a.a.f.z = 8 8 8 8 = k M.g a.g.h.g = 8 8 8 8 i 8 8 = l y.a u.u.y.8 8 8 8 8 8 8 = k u.i y.u.u.i 8 8 ",
"- a d.a.i.d.a.u p.a.a.d.u.= 8 8 8 i 8 8 8 & l h.i.p.S.h.{ & 8 8 8 8 8 8 = p.d.u.d.S.d.p = 8 8 8 i 8 8 8 { y.z y.d.{ i 8 8 8 8 8 8 8 i u.{ z a.a.z 8 8 8 8 8 i 8 8 8 l a.D.a f.D.a.i 8 8 8 8 8 8 = p.d.u.d.S.d.p = 8 8 8 i e 8 8 e y.{ z p.a.{ 8 8 8 8 8 8 8 = g u.{ z d.p.l = 8 8 8 8 i 8 8 = y.f.p.a.S.f.k = 8 8 8 8 8 = g f.a.u.D.M.u.= 8 8 8 8 i 8 8 = k u.z { d.u.g = 8 8 8 8 8 = g u.{ z d.p.l = 8 8 8 8 i 8 8 l l y.u.l g S.h.y.& 8 8 8 8 & z h.p.i.S.h.l & 8 8 8 8 i 8 8 8 z y.z y.d.:.i 8 8 8 8 8 8 = l y.z { d.y.p = 8 ",
"8 8 i = = = i 8 = = = 8 i 8 8 8 8 i 8 8 8 8 u p.l { { u.i 8 8 8 8 8 8 8 = g u.k y.{ y.8 8 8 8 8 i 8 8 - g z g l k l 8 8 8 8 8 8 8 8 8 l k g l l p 8 8 8 8 8 i 8 8 8 = j { l { { { = 8 8 8 8 8 8 = g u.k y.{ y.8 8 8 8 8 i e 8 8 8 k l g l l g - 8 8 8 8 8 8 8 8 z g k k z i 8 8 8 8 8 i 8 8 - p p.k y.z u.8 8 8 8 8 8 8 8 8 y.z z { y.g = 8 8 8 8 i 8 8 8 u z g l k z e 8 8 8 8 8 8 8 8 z g k k z i 8 8 8 8 8 i 8 8 8 i l a.z z z u.p - 8 8 8 8 8 i p.k :.z u.i 8 8 8 8 8 i 8 8 8 p z g l k l 8 8 8 8 8 8 8 8 i z g l k l 8 8 8 ",
"8 8 8 8 8 8 8 8 8 8 8 8 8 8 8 8 8 i 8 8 8 8 8 & = = = & 8 8 8 8 8 8 8 8 8 = & = & = = 8 8 8 8 8 i 8 8 8 8 = 8 = = = 8 8 8 8 8 8 8 8 8 = = = = = 8 8 8 8 8 8 i 8 8 8 8 8 = = = & = 8 8 8 8 8 8 8 8 = & = & = = 8 8 8 8 8 i e 8 8 8 = = - = = - 8 8 8 8 8 8 8 8 8 = - = = = 8 8 8 8 8 8 i 8 8 8 8 & = & = & 8 8 8 8 8 8 8 8 8 & = = = & - 8 8 8 8 8 i 8 8 8 8 = 8 = = = 8 8 8 8 8 8 8 8 8 = - = = = 8 8 8 8 8 8 i 8 8 8 8 = & = = = & 8 8 8 8 8 8 8 8 & = = = & 8 8 8 8 8 8 i 8 8 8 8 = 8 = = = 8 8 8 8 8 8 8 8 8 = 8 = = = 8 8 8 ",
"8 8 8 8 8 8 8 8 8 8 8 8 8 8 8 8 8 i 8 8 8 8 8 8 8 8 8 8 8 8 8 8 8 8 8 8 8 8 8 8 8 8 8 8 8 8 8 8 i 8 8 8 8 8 8 8 8 8 8 8 8 8 8 8 8 8 8 8 8 8 8 8 8 8 8 8 8 8 i 8 8 8 8 8 8 8 8 8 8 8 8 8 8 8 8 8 8 8 8 8 8 8 8 8 8 8 8 8 i e 8 8 8 8 8 8 8 8 8 8 8 8 8 8 8 8 8 8 8 8 8 8 8 8 8 8 8 8 8 i 8 8 8 8 8 8 8 8 8 8 8 8 8 8 8 8 8 8 8 8 8 8 8 8 8 8 8 8 8 i 8 8 8 8 8 8 8 8 8 8 8 8 8 8 8 8 8 8 8 8 8 8 8 8 8 8 8 8 8 i 8 8 8 8 8 8 8 8 8 8 8 8 8 8 8 8 8 8 8 8 8 8 8 8 8 8 8 8 8 i 8 8 8 8 8 8 8 8 8 8 8 8 8 8 8 8 8 8 8 8 8 8 8 8 8 8 ",
"8 8 8 8 8 8 8 8 8 8 8 8 8 8 8 8 8 i 8 8 8 8 8 8 8 8 8 8 8 8 8 8 8 8 8 8 8 8 8 8 8 8 8 8 8 8 8 8 i 8 8 8 8 8 8 8 8 8 8 8 8 8 8 8 8 8 8 8 8 8 8 8 8 8 8 8 8 8 i 8 8 8 8 8 8 8 8 8 8 8 8 8 8 8 8 8 8 8 8 8 8 8 8 8 8 8 8 8 i e 8 8 8 8 8 8 8 8 8 8 8 8 8 8 8 8 8 8 8 8 8 8 8 8 8 8 8 8 8 i 8 8 8 8 8 8 8 8 8 8 8 8 8 8 8 8 8 8 8 8 8 8 8 8 8 8 8 8 8 i 8 8 8 8 8 8 8 8 8 8 8 8 8 8 8 8 8 8 8 8 8 8 8 8 8 8 8 8 8 i 8 8 8 8 8 8 8 8 8 8 8 8 8 8 8 8 8 8 8 8 8 8 8 8 8 8 8 8 8 i 8 8 8 8 8 8 8 8 8 8 8 8 8 8 8 8 8 8 8 8 8 8 8 8 8 8 ",
"8 8 8 8 8 8 8 8 8 8 8 8 8 8 8 8 8 i 8 8 8 8 8 8 7 = 7 8 8 8 8 8 8 8 8 8 8 8 8 * * 8 8 8 8 8 8 8 i 8 8 8 8 8 8 8 8 8 8 8 8 8 8 8 8 8 8 8 8 8 8 8 8 8 8 8 8 8 i 8 8 8 8 8 7 = 7 8 8 8 8 8 8 8 8 8 8 8 8 * * 8 8 8 8 8 8 8 i e 8 8 8 8 8 8 8 8 8 8 8 8 8 8 8 8 8 8 8 8 8 8 8 8 8 8 8 8 8 i 8 8 8 8 8 7 = 7 8 8 8 8 8 8 8 8 8 8 8 8 * * 8 8 8 8 8 8 8 i 8 8 8 8 8 8 8 8 8 8 8 8 8 8 8 8 8 8 8 8 8 8 8 8 8 8 8 8 8 i 8 8 8 8 8 7 = 7 8 8 8 8 8 8 8 8 8 8 8 8 * * 8 8 8 8 8 8 8 i 8 8 8 8 8 8 8 8 8 8 8 8 8 8 8 8 8 8 8 8 8 8 8 8 8 8 ",
"8 8 8 8 8 8 8 8 8 = 8 8 8 8 8 8 8 i 8 8 8 8 8 = q M w = 7 8 8 8 8 8 8 8 8 8 * t I r * 8 8 8 8 8 i 8 8 8 8 8 u i 8 8 8 8 8 8 8 8 8 8 8 8 8 i e 8 8 8 8 8 8 8 i 8 8 8 8 = q M w = 7 8 8 8 8 8 8 8 8 8 * t I r * 8 8 8 8 8 i e 8 8 8 8 8 i i 8 8 8 8 8 8 8 8 8 8 8 8 8 i e 8 8 8 8 8 8 8 i 8 8 8 8 = w M q = 8 8 8 8 8 8 8 8 8 * r I t 8 * 8 8 8 8 8 i 8 8 8 8 8 q i q 8 8 8 8 8 8 8 8 8 8 8 8 i e 8 8 8 8 8 8 8 i 8 8 8 8 = w M q = 8 8 8 8 8 8 8 8 8 * y I y * 8 8 8 8 8 8 i 8 8 8 8 8 u i 8 8 8 8 8 8 8 8 8 8 8 8 e i e 8 8 8 8 ",
"8 8 8 i 8 8 8 = & g 8 8 8 8 8 8 8 i 8 8 8 8 7 &././././.q 7 8 8 8 8 8 8 8 r |.|.|.|.t.* 8 8 8 8 i 8 8 8 q c c c x a 8 8 8 8 8 8 8 8 8 i j j j j e 8 8 8 8 8 i 8 8 8 7 &././././.q 7 8 8 8 8 8 8 8 r |.|.|.|.t.* 8 8 8 8 i e 8 8 8 i c c c x i 8 8 8 8 8 8 8 8 8 a j p j j 8 8 8 8 8 8 i 8 8 8 q /./././.&.8 8 8 8 8 8 8 8 * I |.|.|.|.y * 8 8 8 8 i 8 8 8 8 f c f x c 8 8 8 8 8 8 8 8 8 a j p j j 8 8 8 8 8 8 i 8 8 8 q /./././.M 8 8 8 8 8 8 8 8 8 t.|.|.|.t.e 8 8 8 8 8 i 8 8 8 8 c c f x a 8 8 8 8 8 8 8 8 8 g j p j p 8 8 8 ",
"8 = g D.a.A.{ u.{ M.y.= 8 8 8 8 8 i 8 8 8 = &./.# :   A /.= 8 8 8 8 8 8 8 |.I o o # |.=.* 8 8 8 i 8 8 8 c q . . . x a 8 8 8 8 8 8 8 e j & . . - j 8 8 8 8 8 i 8 8 = &./.# # : &./.= 8 8 8 8 8 8 8 |.I o o # |.=.* 8 8 8 i e 8 8 q x - . X % x q 8 8 8 8 8 8 8 a j % . . e j 8 8 8 8 8 i 8 8 = /.&.: :   /.&.= 8 8 8 8 8 * I |.& o o I |.8 8 8 8 8 i 8 8 8 f f O .   a c 8 8 8 8 8 8 8 a j % . . e j 8 8 8 8 8 i 8 8 = /.&.X a = A M = 8 8 8 8 8 * t.|.. o . t.|.* 8 8 8 8 i 8 8 8 c u . . . c a 8 8 8 8 8 8 8 j a O . . j p 8 8 ",
"8 & p.S.M.d.f.5Xh.M.D.8 8 8 8 8 8 i 8 8 7 q /.% 2 V D.r /.s 7 8 8 8 8 * =.|.o p ! f r |.8 8 8 8 i 8 8 p f . 4 z :.- f 8 8 8 8 8 8 8 j - . a c ; a p 8 8 8 8 i 8 7 q /.% 2 x a : /.B = 8 8 8 8 * =.|.o p ! f r |.8 8 8 8 i e 8 7 c q . u y.l q p 8 8 8 8 8 8 8 j % % p p % j i 8 8 8 8 i 8 = M /.X u p.C.u /.q 8 8 8 8 8 * |.y @ x y.@ t.t.* 8 8 8 i 8 8 q x O ; c p.8 f q 8 8 8 8 8 8 j % % p p % j i 8 8 8 8 i 8 = M /.X u CXK . /.q 8 8 8 8 8 y |.O 4 K z @ |.t * 8 8 8 i 8 8 a f . - x y.- f 8 8 8 8 8 8 i j . - c a & j 8 8 ",
"8 8 a 8 l k { l l k l { = 8 8 8 8 i 8 8 = s /.: p j.VXa M M = 8 8 8 8 * t.I @ c L.ZXe t.r 8 8 8 i 8 7 c q % u g.A.O a 8 8 8 8 8 8 8 j % - a K.d.& a 8 8 8 8 i 8 = s /.: p h.d.: &.M $ 8 8 8 8 * t.I @ c L.ZXe t.r 8 8 8 i e 8 8 c * ; a S.i.% p 8 8 8 8 8 8 e j . 4 k cXz - a 8 8 8 8 i 8 $ M &.$ c D.vX& A w 7 8 8 8 8 r |.$ a z ZXA.y t.* 8 8 8 i 8 8 i f . u ^ K.- q u 8 8 8 8 8 e j . 4 k cXz - a 8 8 8 8 i 8 $ M &.: x g.V # A w 7 8 8 8 * I |.o c d.CXx I I * 8 8 8 i 8 7 p u % u h.D.O a 8 8 8 8 8 8 a a . u p.cXu r e 8 ",
"8 8 8 8 # 8 & & & % & & 8 8 8 8 8 i 8 8 7 q /.# 2 k , X A s 7 8 8 8 8 * t.|.o a x , $ t.8 8 8 8 i 8 7 p p X 4 u . & f 8 8 8 8 8 8 8 j = . u u . e i 8 8 8 8 i 8 7 q /.# : L.vX  /.M = 8 8 8 8 * t.|.o a x , $ t.8 8 8 8 i e 8 7 c q . u 4 X - a 8 8 8 8 8 8 8 j % % a 4 . i e 8 8 8 8 i 8 = M /.X u k ; O /.q 8 8 8 8 8 - |.r @ k k o I I * 8 8 8 i 8 8 q c . ; a % . p q 8 8 8 8 8 8 j % % a 4 . i e 8 8 8 8 i 8 = M /.X u c 4 # /.q 8 8 8 8 * y |.. 4 x a . t.y 8 8 8 8 i 8 8 a f X 4 u . % f 8 8 8 8 8 8 i j . - a ; O a 8 8 ",
"8 e A.p.k a.{ k k z k z i 8 8 8 8 i 8 8 8 = &./.. % # M A 7 8 8 8 8 8 8 8 |.I . % O t.I * 8 8 8 i 8 8 8 x q . . % p u 8 8 8 8 8 8 8 i j % . . = a 8 8 8 8 8 i 8 8 = &./.. % r A /.7 8 8 8 8 8 8 8 |.I . % O t.I * 8 8 8 i e 8 8 q x & . . & f 8 8 8 8 8 8 8 8 a j O . . e a 8 8 8 8 8 i 8 8 7 /.A . % # A M 7 8 8 8 8 8 * I |.# % . y t.e 8 8 8 8 i 8 8 8 c f . . O q a 8 8 8 8 8 8 8 a j O . . e a 8 8 8 8 8 i 8 8 7 /.A . % # A M = 8 8 8 8 8 * t.|.. % . I t.* 8 8 8 8 i 8 8 8 x q . . % a u 8 8 8 8 8 8 8 j i . . . u i 8 8 ",
"8 i G.A.H.D.H.A.S.D.D.J.k = 8 8 8 i 8 8 8 8 q &.q = 7 M q 7 8 8 8 8 8 8 * t t.* - r I 8 8 8 8 8 i 8 8 8 i p 8 8 q i 8 8 8 8 8 8 8 8 8 a i 8 8 i e 8 8 8 8 8 i 8 8 8 q &.q = & &.q 7 8 8 8 8 8 8 * t t.* - r I 8 8 8 8 8 i e 8 8 8 a i 8 8 u u 8 8 8 8 8 8 8 8 8 p 8 8 8 i 8 8 8 8 8 8 i 8 8 7 w &.7 - q M 8 8 8 8 8 8 8 8 * t.y * * I t * 8 8 8 8 i 8 8 8 8 f 8 8 8 i 8 8 8 8 8 8 8 8 8 p 8 8 8 i 8 8 8 8 8 8 i 8 8 7 w &.7 = q M 8 8 8 8 8 8 8 8 r t.8 - 8 I r 8 8 8 8 8 i 8 8 8 i p 8 8 8 i 8 8 8 8 8 8 8 8 e p 8 8 8 i 8 8 8 ",
"8 i l { u.z :.y.a.y.p.u.i 8 8 8 8 i 8 8 8 8 8 = 8 8 8 7 8 8 8 8 8 8 8 8 8 * * 8 8 8 * 8 8 8 8 8 i 8 8 8 8 8 8 8 8 8 8 8 8 8 8 8 8 8 8 8 8 8 8 8 8 8 8 8 8 8 i 8 8 8 8 = 8 8 8 = 7 8 8 8 8 8 8 8 8 * * 8 8 8 * 8 8 8 8 8 i e 8 8 8 8 8 8 8 8 8 8 8 8 8 8 8 8 8 8 8 8 8 8 8 8 8 8 8 8 8 i 8 8 8 7 = 8 8 8 7 8 8 8 8 8 8 8 8 8 * 8 8 8 * 8 8 8 8 8 8 i 8 8 8 8 8 8 8 8 8 8 8 8 8 8 8 8 8 8 8 8 8 8 8 8 8 8 8 8 8 i 8 8 8 7 = 8 8 8 7 8 8 8 8 8 8 8 8 8 * 8 8 8 * 8 8 8 8 8 8 i 8 8 8 8 8 8 8 8 8 8 8 8 8 8 8 8 8 8 8 8 8 8 8 8 8 8 ",
"8 = & & & & & = % & & & = 8 8 8 8 i 8 8 8 8 8 8 8 8 8 8 8 8 8 8 8 8 8 8 8 8 8 8 8 8 8 8 8 8 8 8 i 8 8 8 8 8 8 8 8 8 8 8 8 8 8 8 8 8 8 8 8 8 8 8 8 8 8 8 8 8 i 8 8 8 8 8 8 8 8 8 8 8 8 8 8 8 8 8 8 8 8 8 8 8 8 8 8 8 8 8 i e 8 8 8 8 8 8 8 8 8 8 8 8 8 8 8 8 8 8 8 8 8 8 8 8 8 8 8 8 8 i 8 8 8 8 8 8 8 8 8 8 8 8 8 8 8 8 8 8 8 8 8 8 8 8 8 8 8 8 8 i 8 8 8 8 8 8 8 8 8 8 8 8 8 8 8 8 8 8 8 8 8 8 8 8 8 8 8 8 8 i 8 8 8 8 8 8 8 8 8 8 8 8 8 8 8 8 8 8 8 8 8 8 8 8 8 8 8 8 8 i 8 8 8 8 8 8 8 8 8 8 8 8 8 8 8 8 8 8 8 8 8 8 8 8 8 8 ",
"= k k g i a i 8 p g i a z e 8 8 8 i 8 8 8 8 8 e = 8 8 8 8 8 8 8 8 8 8 8 8 8 - 8 8 8 8 8 8 8 8 8 i 8 8 8 8 8 8 8 8 8 8 8 8 8 8 8 8 8 8 8 8 8 8 8 8 8 8 8 8 8 i 8 8 8 8 8 8 8 8 8 8 8 8 8 8 8 8 8 8 8 - 8 8 8 8 8 8 8 8 8 i e 8 8 8 8 8 8 8 8 8 8 8 8 8 8 8 8 8 8 8 8 8 8 8 8 8 8 8 8 8 i 8 8 8 8 8 = 8 8 8 8 8 8 8 8 8 8 8 8 8 = 8 - 8 8 8 8 8 8 8 i 8 8 8 8 8 8 8 8 8 8 8 8 8 8 8 8 8 8 8 8 8 8 8 8 8 8 8 8 8 i 8 8 8 8 8 8 8 8 8 8 8 8 8 8 8 8 8 8 8 - 8 - 8 8 8 8 8 8 8 i 8 8 8 8 8 8 8 8 8 8 8 8 8 8 8 8 8 8 8 8 8 8 8 8 8 8 ",
"= i.C.D.d.M.k = C.D.d.f.d.g = 8 8 i 8 8 8 8 8 y.f.d.i d.{ = 8 8 8 8 8 8 8 i a.y.d.f.k = 8 8 8 8 i 8 8 8 i :.u.l a u.u 8 8 8 8 8 8 8 = l z { :.:.8 8 8 8 8 8 i 8 8 8 g d.d.a.d.d.i.8 8 8 8 8 8 8 8 i a.y.d.f.k = 8 8 8 8 i e 8 8 8 p y.u.g j y.8 8 8 8 8 8 8 8 = z l :.y.{ 8 8 8 8 8 8 i 8 8 8 8 i.f.a.i h.g = 8 8 8 8 8 8 = k a.p.d.f.a - 8 8 8 8 i 8 8 8 e { y.z i u.i 8 8 8 8 8 8 8 = k z { :.y.e 8 8 8 8 8 i 8 - p g.p a.p.a.p.h.8 8 8 8 8 8 8 & y.u.a.d.a.8 8 8 8 8 8 i 8 8 8 p y.u.g j y.8 8 8 8 8 8 8 8 = z l :.y.{ 8 8 8 ",
"= i.a.{ { a.d.i y.{ { a.M.g = 8 8 i 8 8 8 8 = { M.a.u.a.i.= 8 8 8 8 8 8 8 8 f.i.D.M.y.& 8 8 8 8 i 8 8 8 8 y.u.{ z u.g = 8 8 8 8 8 8 = p p.{ f.:.a = 8 8 8 8 i 8 8 8 i g.a.S.h.S.a.i 8 8 8 8 8 8 8 8 f.i.D.M.y.& 8 8 8 8 i e 8 8 8 i p.y.{ z u.i 8 8 8 8 8 8 8 = k u.y.d.{ u 8 8 8 8 8 i 8 8 8 8 p.M.a.u.f.:.& 8 8 8 8 8 8 8 i g.p.F.f.z & 8 8 8 8 i 8 8 8 8 { p.{ z u.g = 8 8 8 8 8 8 - a p.{ f.y.g = 8 8 8 8 i 8 & z h.{ d.C.u.z p.= 8 8 8 8 8 8 = l g.a.F.d.p = 8 8 8 8 i 8 8 8 i p.y.{ z u.i 8 8 8 8 8 8 8 = k u.y.d.{ u 8 8 ",
"8 a i 8 8 8 g e 8 8 8 8 g 8 8 8 8 i 8 8 8 8 8 h.:.a.z a.l = 8 8 8 8 8 8 8 8 l { p.a.g = 8 8 8 8 i 8 8 = g y.l z k { e 8 8 8 8 8 8 8 8 i g z z { 8 8 8 8 8 8 i 8 8 & y.a.u.u.i.p.u.= 8 8 8 8 8 8 8 8 l { p.a.g = 8 8 8 8 i e 8 8 = z { z l l { 8 8 8 8 8 8 8 8 8 a g { z l 8 8 8 8 8 8 i 8 8 = p h.{ a.l a.g = 8 8 8 8 8 8 8 e l u.u.a.i 8 8 8 8 8 i 8 8 = g u.l { g { i 8 8 8 8 8 8 8 8 i g z z { 8 8 8 8 8 8 i 8 8 i d.z { i.d.{ g = 8 8 8 8 8 8 = p l i.u.i.8 8 8 8 8 8 i 8 8 = z { z l l { 8 8 8 8 8 8 8 8 8 a g { z l 8 8 8 ",
"8 8 8 8 8 8 = 8 8 8 8 8 - 8 8 8 8 i 8 8 8 8 8 = 8 = = = = 8 8 8 8 8 8 8 8 8 = = = = 8 8 8 8 8 8 i 8 8 8 8 8 8 = 8 = 8 8 8 8 8 8 8 8 8 8 8 - = = 8 8 8 8 8 8 i 8 8 8 = = = = = = = 8 8 8 8 8 8 8 8 8 = = = = 8 8 8 8 8 8 i e 8 8 8 8 8 8 - 8 = 8 8 8 8 8 8 8 8 8 8 8 = = - 8 8 8 8 8 8 i 8 8 8 8 = 8 = = = 8 8 8 8 8 8 8 8 8 8 = = = = 8 8 8 8 8 8 i 8 8 8 8 8 8 = 8 = 8 8 8 8 8 8 8 8 8 8 8 - = = 8 8 8 8 8 8 i 8 8 8 = = 8 = = 8 8 8 8 8 8 8 8 8 8 8 = = = = 8 8 8 8 8 8 i 8 8 8 8 8 8 - 8 = 8 8 8 8 8 8 8 8 8 8 8 = = - 8 8 8 ",
"8 8 8 8 8 8 8 8 8 8 8 8 8 8 8 8 8 i 8 8 8 8 8 8 8 8 8 8 8 8 8 8 8 8 8 8 8 8 8 8 8 8 8 8 8 8 8 8 i 8 8 8 8 8 8 8 8 8 8 8 8 8 8 8 8 8 8 8 8 8 8 8 8 8 8 8 8 8 i 8 8 8 8 8 8 8 8 8 8 8 8 8 8 8 8 8 8 8 8 8 8 8 8 8 8 8 8 8 i e 8 8 8 8 8 8 8 8 8 8 8 8 8 8 8 8 8 8 8 8 8 8 8 8 8 8 8 8 8 i 8 8 8 8 8 8 8 8 8 8 8 8 8 8 8 8 8 8 8 8 8 8 8 8 8 8 8 8 8 i 8 8 8 8 8 8 8 8 8 8 8 8 8 8 8 8 8 8 8 8 8 8 8 8 8 8 8 8 8 i 8 8 8 8 8 8 8 8 8 8 8 8 8 8 8 8 8 8 8 8 8 8 8 8 8 8 8 8 8 i 8 8 8 8 8 8 8 8 8 8 8 8 8 8 8 8 8 8 8 8 8 8 8 8 8 8 ",
"8 8 8 8 8 8 8 8 8 8 8 8 8 8 8 8 8 i 8 8 8 8 8 8 8 8 8 8 8 8 8 8 8 8 8 8 8 8 8 8 8 8 8 8 8 8 8 8 i 8 8 8 8 8 8 8 8 8 8 8 8 8 8 8 8 8 8 8 8 8 8 8 8 8 8 8 8 8 i 8 8 8 8 8 8 8 8 8 8 8 8 8 8 8 8 8 8 8 8 8 8 8 8 8 8 8 8 8 i e 8 8 8 8 8 8 8 8 8 8 8 8 8 8 8 8 8 8 8 8 8 8 8 8 8 8 8 8 8 i 8 8 8 8 8 8 8 8 8 8 8 8 8 8 8 8 8 8 8 8 8 8 8 8 8 8 8 8 8 i 8 8 8 8 8 8 8 8 8 8 8 8 8 8 8 8 8 8 8 8 8 8 8 8 8 8 8 8 8 i 8 8 8 8 8 8 8 8 8 8 8 8 8 8 8 8 8 8 8 8 8 8 8 8 8 8 8 8 8 i 8 8 8 8 8 8 8 8 8 8 8 8 8 8 8 8 8 8 8 8 8 8 8 8 8 8 ",
"8 8 8 8 8 8 8 8 8 8 8 8 8 8 8 8 8 i 8 8 8 8 8 8 8 = 8 8 8 8 8 8 8 8 8 8 8 8 8 8 7 8 8 8 8 8 8 8 i 8 8 8 8 8 8 8 8 8 8 8 8 8 8 8 8 8 8 8 8 8 8 8 8 8 8 8 8 8 i 8 8 8 8 8 8 = 8 8 8 8 8 8 8 8 8 8 8 8 8 8 9 8 8 8 8 8 8 8 i e 8 8 8 8 8 8 8 8 8 8 8 8 8 8 8 8 8 8 8 8 8 8 8 8 8 8 8 8 8 i 8 8 8 8 8 8 = 8 8 8 8 8 8 8 8 8 8 8 8 8 * - 8 8 8 8 8 8 8 i 8 8 8 8 8 8 8 8 8 8 8 8 8 8 8 8 8 8 8 8 8 8 8 8 8 8 8 8 8 i 8 8 8 8 8 8 = 8 8 8 8 8 8 8 8 8 8 8 8 8 - 8 8 8 8 8 8 8 8 i 8 8 8 8 8 8 8 8 8 8 8 8 8 8 8 8 8 8 8 8 8 8 8 8 8 8 ",
"8 8 & & 8 8 8 8 8 8 8 8 8 8 8 8 8 i 8 8 8 8 8 = 8 w q $ 8 8 8 8 8 8 8 8 8 8 7 q < 8 7 8 8 8 8 8 i 8 8 8 8 8 8 q 8 8 8 8 8 8 8 8 8 8 8 8 8 i u = 8 8 8 8 8 8 i 8 8 8 8 = 8 w q $ 8 8 8 8 8 8 8 8 8 8 9 u 4 8 9 8 8 8 8 8 i e 8 8 8 8 8 8 8 8 8 8 8 8 8 8 8 8 8 8 = 8 i 8 = 8 8 8 8 8 8 i 8 8 8 8 = q w 8 = 8 8 8 8 8 8 8 8 8 * - t r * - 8 8 8 8 8 i 8 8 8 8 8 8 q 8 8 8 8 8 8 8 8 8 8 8 = 8 i 8 = 8 8 8 8 8 8 i 8 8 8 8 = q w 8 = 8 8 8 8 8 8 8 8 8 = 8 w 8 ; 8 8 8 8 8 8 i 8 8 8 8 8 8 q 8 8 8 8 8 8 8 8 8 8 8 = 8 i 8 = 8 8 8 ",
"8 e { :.i & 8 = & g p = 8 8 8 8 8 i 8 8 8 8 = $.qXqXqX$.8 8 8 8 8 8 8 8 8 8 b T.Y.T.v 7 8 8 8 8 i 8 8 8 8 k l l l i 8 8 8 8 8 8 8 8 8 a u.u.p.:.e 8 8 8 8 8 i 8 8 8 = $.qXqXqX$.8 8 8 8 8 8 8 8 8 e G '.`.'.D 9 8 8 8 8 i e 8 8 8 q l l l l q 8 8 8 8 8 8 8 8 8 g p.y.i.z 8 8 8 8 8 8 i 8 8 8 8 $.qXqXqX$.= 8 8 8 8 8 8 8 * =.uXrXuXeXr - 8 8 8 8 i 8 8 8 8 p x l } h 8 8 8 8 8 8 8 8 8 g p.y.i.z 8 8 8 8 8 8 i 8 8 8 8 $.qXqXqX$.= 8 8 8 8 8 8 8 - o.:X=X:Xo.- 8 8 8 8 8 i 8 8 8 8 g l l z i 8 8 8 8 8 8 8 8 8 x i.y.i.j 8 8 8 ",
"8 8 d.M.g.i.u.f.d.f.D.p = 8 8 8 8 i 8 8 8 = $.qX9 % & qX,X$ 8 8 8 8 8 8 7 Y.b % % 1 T.v 7 8 8 8 i 8 8 8 l p O . & } i 8 8 8 8 8 8 8 i i.u O % k i.8 8 8 8 8 i 8 8 = $.qX9 % & qX,X$ 8 8 8 8 8 8 9 `.G % % 4 '.D 9 8 8 8 i e 8 8 8 x q O . 8 } 8 8 8 8 8 8 8 = g p.- O % { y.= 8 8 8 8 i 8 8 $ ,X,X% % * qX$.$ 8 8 8 8 8 * ] uXt O % w.uX* 8 8 8 8 i 8 8 8 p l % O O k g 8 8 8 8 8 8 = g p.- O % { y.= 8 8 8 8 i 8 8 $ ,X,X% % q qX$.$ 8 8 8 8 8 ; o.:X& % & :X$.; 8 8 8 8 i 8 8 8 k h # . & z i 8 8 8 8 8 8 = z { % O = i.k = 8 ",
"8 = :.u.a.M.{ F.d.D.a.u.8 8 8 8 8 i 8 8 8 q qX* ; k 4 : qX` = 8 8 8 8 7 v Y.$ u c $ 1 T.7 8 8 8 i 8 8 p k . - a 2 q k 8 8 8 8 8 8 = y.a X u -   z l = 8 8 8 i 8 8 q qX* ; k ;   qX` = 8 8 8 8 9 D `.+ a c + 6 '.9 8 8 8 i e 8 = k a . 4 p - a g = 8 8 8 8 8 8 i.= . u ; . u.p = 8 8 8 i 8 = ` qX: 2 x j q qXq 8 8 8 8 8 * rX=.o k 4 o rX8.@ 8 8 8 i 8 8 8 x % % a a = l 8 8 8 8 8 8 8 i.= . u ; . u.p = 8 8 8 i 8 = ` qX. 2 k 2 9 qX8 8 8 8 8 - i :X% ; k ; : :Xw - 8 8 8 i 8 8 a k . - a u 8 l 8 8 8 8 8 8 a p.. ; u . & i.8 8 ",
"8 8 i i 8 a 8 g g g e { i 8 8 8 8 i 8 8 = ` qX: c j.i.: $.$.$ 8 8 8 8 7 n n $ x h.x % Y., 7 8 8 i 8 = g q % u A.H.& h 8 8 8 8 8 8 8 u.& - c g.- u { = 8 8 8 i 8 = ` qX: c i.VXj $.$.$ 8 8 8 8 9 G G @ k S.h.. `.4 9 8 8 i e 8 8 l = ; a L.g.% h 8 8 8 8 8 8 i y.. 4 x h.% k l = 8 8 8 i 8 $ $.$.: c S.CXu $.w = 8 8 8 8 r rX$ a y.K., -.<X@ 8 8 8 i 8 8 i k . u y.cXa q i 8 8 8 8 8 i y.. 4 x h.% k l = 8 8 8 i 8 $ $.$.: x d.y.: qX` = 8 8 8 = ' =X: c d.H.: =X' ; 8 8 8 i 8 = g i : u g.K.& p 8 8 8 8 8 = k x . u u.i.. y.a 8 ",
"8 8 8 8 p 8 & & & & & = 8 8 8 8 8 i 8 8 = w qX: ; H.vX  qX| = 8 8 8 8 7 n b $ 4 vXS.o T.8 8 8 8 i 8 = g p . u c ; % g 8 8 8 8 8 8 8 p.- : a S.x p { = 8 8 8 i 8 = w qX: 4 z S.2 $.` = 8 8 8 8 9 G G + a S.cX2 '.e 8 8 8 i e 8 - l 8 . a p : - h 8 8 8 8 8 8 e i.O ; c H.u z k = 8 8 8 i 8 = | qX  a z a . ,Xw - 8 8 8 8 8 uX7 ; x vXV e.w.@ 8 8 8 i 8 8 i l . - p u . h q 8 8 8 8 8 e i.O ; c H.u z k = 8 8 8 i 8 = | qX  , cXbX  qXw = 8 8 8 - ` :X: 4 i.vX4 =X' - 8 8 8 i 8 - h h X u c ; O g 8 8 8 8 8 = g y.X - y.S.& u.i 8 ",
"8 8 8 8 h.a.l { { z z = 8 8 8 8 8 i 8 8 8 = ,X$.. ; p $.qX8 8 8 8 8 8 8 q T.v . - a U.n 7 8 8 8 i 8 8 8 z - . . . p i 8 8 8 8 8 8 = k u.O .   = { i 8 8 8 8 i 8 8 = ,X$.. ;   w $.8 8 8 8 8 8 8 u '.D O : X G G 9 8 8 8 i e 8 8 i l % . . % h q 8 8 8 8 8 8 = z z . .   u { 8 8 8 8 8 i 8 8 8 qX$.: ; . $.$.= 8 8 8 8 8 * e.rX. %   y rXy * 8 8 8 i 8 8 8 k a . % . q h 8 8 8 8 8 8 = z z . .   u { 8 8 8 8 8 i 8 8 8 qX$.. ; u $.,X= 8 8 8 8 8 - =Xo.: %   ' =X8 8 8 8 8 i 8 8 8 x 8 . : . a a 8 8 8 8 8 8 8 p.p . . X g x 8 8 ",
"8 8 8 i d.a.M.C.f.K.d.= 8 8 8 8 8 i 8 8 8 - w qXq & # $.` = 8 8 8 8 8 8 7 v n 7 & , b 8 8 8 8 8 i 8 8 8 p g = = 8 a 8 8 8 8 8 8 8 8 8 { p & = g p = 8 8 8 8 i 8 8 - w qX8 & - $.w = 8 8 8 8 8 8 9 D G 9 = u G 8 8 8 8 8 i e 8 8 8 g a = = i i 8 8 8 8 8 8 8 8 8 y.e = - k i 8 8 8 8 8 i 8 8 = ` ,X= = 8 $.q 8 8 8 8 8 8 8 8 rXt & * -.=.* 8 8 8 8 i 8 8 8 q k 8 = 8 p 8 8 8 8 8 8 8 8 8 y.e = - k i 8 8 8 8 8 i 8 8 = ` ,X= & = $.w - 8 8 8 8 8 - w =X8 = - o.i - 8 8 8 8 i 8 8 8 a g = = 8 p 8 8 8 8 8 8 8 = p { = = 8 k 8 8 8 ",
"8 8 8 g a.z { g g { g 8 8 8 8 8 8 i 8 8 8 8 - = 8 8 8 = = 8 8 8 8 8 8 8 8 7 7 8 8 8 7 8 8 8 8 8 i 8 8 8 8 8 8 8 8 8 8 8 8 8 8 8 8 8 8 = 8 8 8 8 8 8 8 8 8 8 i 8 8 8 - = 8 8 8 = - 8 8 8 8 8 8 8 8 9 9 8 8 8 9 8 8 8 8 8 i e 8 8 8 8 8 8 8 8 8 8 8 8 8 8 8 8 8 8 = 8 8 8 8 8 8 8 8 8 8 i 8 8 8 = = 8 8 8 = 8 8 8 8 8 8 8 8 8 * 8 8 8 - * 8 8 8 8 8 i 8 8 8 8 8 8 8 8 8 8 8 8 8 8 8 8 8 8 = 8 8 8 8 8 8 8 8 8 8 i 8 8 8 = = 8 8 8 = - 8 8 8 8 8 8 8 - = 8 8 8 - 8 8 8 8 8 8 i 8 8 8 8 8 8 8 8 8 8 8 8 8 8 8 8 8 8 = 8 8 8 8 8 8 8 ",
"8 8 8 = & & & 8 & & = = - 8 8 8 8 i 8 8 8 8 8 8 8 8 = 8 8 8 8 8 8 8 8 8 8 8 8 8 8 8 8 8 8 8 8 8 i 8 8 8 8 8 8 8 8 8 8 8 8 8 8 8 8 8 8 8 8 8 8 8 8 8 8 8 8 8 i 8 8 8 8 8 8 8 8 8 8 8 8 8 8 8 8 8 8 8 8 8 8 8 8 8 8 8 8 8 i e 8 8 8 8 8 8 8 8 8 8 8 8 8 8 8 8 8 8 8 8 8 8 8 8 8 8 8 8 8 i 8 8 8 8 8 8 8 8 8 8 8 8 8 8 8 8 8 8 8 8 8 8 8 8 8 8 8 8 8 i 8 8 8 8 8 8 8 8 8 8 8 8 8 8 8 8 8 8 8 8 8 8 8 8 8 8 8 8 8 i 8 8 8 8 8 8 8 8 8 8 8 8 8 8 8 8 8 8 8 8 8 8 8 8 8 8 8 8 8 i 8 8 8 8 8 8 8 8 8 8 8 8 8 8 8 8 8 8 8 8 8 8 8 8 8 8 ",
"8 u z { f.h.k = g f.d.d.k = 8 8 8 i 8 8 8 8 8 8 8 8 a 8 e 8 8 8 8 8 8 8 8 8 8 8 i i 8 8 8 8 8 8 i 8 8 8 e 8 8 8 8 8 8 8 8 8 8 8 8 8 8 8 8 8 8 8 8 8 8 8 8 8 i 8 8 8 8 8 8 e 8 i i i 8 8 8 8 8 8 8 8 8 8 8 8 8 8 8 8 8 8 i e 8 8 8 i 8 8 8 8 8 8 8 8 8 8 8 8 8 8 8 8 8 8 8 8 8 8 8 8 8 i 8 8 8 e i = 8 8 e 8 8 8 8 8 8 8 8 8 8 8 8 8 8 e 8 8 8 8 8 i 8 8 8 e 8 8 8 8 8 8 8 8 8 8 8 8 8 8 8 8 8 8 8 8 8 8 8 8 8 i 8 8 8 8 i 8 u u i 8 8 8 8 8 8 8 8 8 8 u 8 u 8 e 8 8 8 8 8 i 8 8 8 i 8 8 8 8 8 8 8 8 8 8 8 8 8 8 8 8 8 8 8 8 8 8 ",
"= g M.g.A.F.z 8 M.A.D.M.i.= 8 8 8 i 8 8 8 8 = g d.& i.D.d.i 8 8 8 8 8 8 8 = f.a g C.M.g = 8 8 8 i 8 8 = g { z g k u.u.k = 8 8 8 8 8 = g y.8 y.u.y.i 8 8 8 8 i 8 8 8 u d.p.p.8 h.u.g.8 8 8 8 8 8 8 8 M.a :.h.g.z = 8 8 8 i e 8 8 = l z { a { u.u.p 8 8 8 8 8 8 = z z i u.u.{ 8 8 8 8 8 i 8 8 = i a.y.u.g g.h.u.= 8 8 8 8 8 = a M.8 a.h.h.g = 8 8 8 i 8 8 - a { z k g p.u.k = 8 8 8 8 8 = g u.8 y.u.u.i 8 8 8 8 i 8 8 8 = i.y.i f.a.u.& 8 8 8 8 8 8 & { a.e h.f.d.i 8 8 8 8 i 8 8 = l z { a { u.u.p 8 8 8 8 8 8 = z z i u.u.{ 8 8 ",
"- a d.a.a.f.a.u i.a.d.d.u.= 8 8 8 i 8 8 8 = k g a.8 :.f.f.j = 8 8 8 8 8 a j u.k a f.D.u.= 8 8 8 i 8 8 g g :.h.:.l a.i.l = 8 8 8 8 8 a u.i.l { d.y.p = 8 8 8 i 8 = g g p.M.M.i d.i.:.= 8 8 8 8 8 u u.S.p.u.D.M.u.= 8 8 8 i e 8 8 g k u.g.z z d.u.k = 8 8 8 8 8 g i.u.l u.d.{ i 8 8 8 8 i 8 - k l a.F.M.{ M.D.i.8 8 8 8 8 8 i a.D.y.p.S.h.{ & 8 8 8 i 8 8 g g { f.y.l a.a.z 8 8 8 8 8 8 i y.a.l { d.y.g = 8 8 8 i 8 8 u l :.f.a a.:.f.& 8 8 8 8 8 8 g M.M.y.d.S.d.g = 8 8 8 i 8 8 g k u.g.z z d.u.k = 8 8 8 8 8 g i.u.l u.d.{ i 8 ",
"8 8 i 8 - 8 i 8 = 8 - e i 8 8 8 8 i 8 8 8 8 8 8 l k l g i.8 8 8 8 8 8 8 8 8 g k z a :.k = 8 8 8 i 8 8 8 z z g l k l z p 8 8 8 8 8 8 8 i z g l k z 8 8 8 8 8 i 8 8 8 8 g l u.z y.{ a = 8 8 8 8 8 8 8 y.{ { :.u.g = 8 8 8 i e 8 8 8 { k g k l k z i 8 8 8 8 8 8 8 g z g z l l 8 8 8 8 8 i 8 8 = z a.g y.z y.y.z = 8 8 8 8 8 8 i u.z :.{ p.i 8 8 8 8 i 8 8 - l { p l k l l g 8 8 8 8 8 8 8 i z g l k z 8 8 8 8 8 i 8 8 8 8 { { p.i.:.l = 8 8 8 8 8 8 8 g p.l u.{ u.8 8 8 8 8 i 8 8 8 { k g k l k z i 8 8 8 8 8 8 8 g z g z l l 8 8 ",
"8 8 8 8 8 8 8 8 8 8 8 8 8 8 8 8 8 i 8 8 8 8 8 8 = - = 8 & 8 8 8 8 8 8 8 8 8 8 = = 8 = = 8 8 8 8 i 8 8 8 = = = = - = = 8 8 8 8 8 8 8 8 8 = 8 = = = 8 8 8 8 8 i 8 8 8 8 = = = = = = 8 8 8 8 8 8 8 8 8 = = = = & - 8 8 8 8 i e 8 8 8 = 8 = = = = = 8 8 8 8 8 8 8 8 8 = 8 = = = 8 8 8 8 8 i 8 8 8 = = = & = = = = 8 8 8 8 8 8 8 8 = = = = & 8 8 8 8 8 i 8 8 8 = = = = - = = 8 8 8 8 8 8 8 8 8 = - = = = 8 8 8 8 8 i 8 8 8 8 = = & = = = 8 8 8 8 8 8 8 8 8 = = = = = 8 8 8 8 8 i 8 8 8 = 8 = = = = = 8 8 8 8 8 8 8 8 8 = 8 = = = 8 8 ",
"8 8 8 8 8 8 8 8 8 8 8 8 8 8 8 8 8 i 8 8 8 8 8 8 8 8 8 8 8 8 8 8 8 8 8 8 8 8 8 8 8 8 8 8 8 8 8 8 i 8 8 8 8 8 8 8 8 8 8 8 8 8 8 8 8 8 8 8 8 8 8 8 8 8 8 8 8 8 i 8 8 8 8 8 8 8 8 8 8 8 8 8 8 8 8 8 8 8 8 8 8 8 8 8 8 8 8 8 i 8 8 8 8 8 8 8 8 8 8 8 8 8 8 8 8 8 8 8 8 8 8 8 8 8 8 8 8 8 8 i 8 8 8 8 8 8 8 8 8 8 8 8 8 8 8 8 8 8 8 8 8 8 8 8 8 8 8 8 8 i 8 8 8 8 8 8 8 8 8 8 8 8 8 8 8 8 8 8 8 8 8 8 8 8 8 8 8 8 8 i 8 8 8 8 8 8 8 8 8 8 8 8 8 8 8 8 8 8 8 8 8 8 8 8 8 8 8 8 8 i 8 8 8 8 8 8 8 8 8 8 8 8 8 8 8 8 8 8 8 8 8 8 8 8 8 8 ",
"8 8 8 8 8 8 8 8 8 8 8 8 8 8 8 8 8 i e 8 e e e e e e e e e e e e e e e e e e e e e e e e e e 8 i i 8 e e e e e e e e e e e e e e e e e e e e e e e e e e e e i e e e e e e e e e e e e e e e e e e e e e e e e e e e e 8 i i 8 e e e e e e e e e e e e e e e e e e e e e e e e e e 8 e i 8 e e e e e e e e e e e e e e e e e e e e e e e e e e e e i e e e e e e e e e e e e e e e e e e e e e e e e e e e 8 e i 8 e e e e e e e e e e e e e e e e e e e e e e e e e e 8 i i 8 e e e e e e e e e e e e e e e e e e e e e e e e e ",
"8 8 8 8 8 8 8 8 8 8 8 8 8 8 8 8 8 i i i i i i i i i i i i i i i i i i i i i i i i i i i i i i i i i i i i i i i i i i i i i i i i i i i i i i i i i i i i i i i i i i i i i i i i i i i i i i i i i i i i i i i i i i i i i i i i i i i i i i i i i i i i i i i i i i i i i i i i i i i i i i i i i i i i i i i i i i i i i i i i i i i i i i i i i i i i i i i i i i i i i i i i i i i i i i i i i i i i i i i i i i i i i i i i i i i i i i i i i i i i i i i i i i i i i i i i i i i i i i i i i i i i i i i i i i i i i i i ",
"8 8 8 8 8 8 8 8 8 8 8 8 8 8 8 8 8 i 8 8 8 8 8 8 8 8 8 8 8 8 8 8 8 8 8 8 8 8 8 8 8 8 8 8 8 8 8 8 8 8 8 8 8 8 8 8 8 8 8 8 8 8 8 8 8 8 8 8 8 8 8 8 8 8 8 8 8 8 8 8 8 8 8 8 8 8 8 8 8 8 8 8 8 8 8 8 8 8 8 8 8 8 8 8 8 8 8 8 8 8 8 8 8 8 8 8 8 8 8 8 8 8 8 8 8 8 8 8 8 8 8 8 8 8 8 8 8 8 8 8 8 8 8 8 8 8 8 8 8 8 8 8 8 8 8 8 8 8 8 8 8 8 8 8 8 8 8 8 8 8 8 8 8 8 8 8 8 8 8 8 8 8 8 8 8 8 8 8 8 8 8 8 8 8 8 8 8 8 8 8 8 8 8 8 8 8 8 8 8 8 8 8 8 8 8 8 8 8 8 8 8 8 8 8 8 8 8 8 8 8 8 8 8 8 8 8 8 8 8 8 8 8 8 8 8 8 8 8 8 8 8 8 8 8 8 8 ",
"8 8 8 8 8 8 8 8 8 8 8 8 8 8 8 8 8 i 8 8 8 8 8 8 8 8 8 8 8 8 8 8 8 8 8 8 8 8 8 8 8 8 8 8 8 8 8 8 8 8 8 8 8 8 8 8 8 8 8 8 8 8 8 8 8 8 8 8 8 8 8 8 8 8 8 8 8 8 8 8 8 8 8 8 8 8 8 8 8 8 8 8 8 8 8 8 8 8 8 8 8 8 8 8 8 8 8 8 8 8 8 8 8 8 8 8 8 8 8 8 8 8 8 8 8 8 8 8 8 8 8 8 8 8 8 8 8 8 8 8 8 8 8 8 8 8 8 8 8 8 8 8 8 8 8 8 8 8 8 8 8 8 8 8 8 8 8 8 8 8 8 8 8 8 8 8 8 8 8 8 8 8 8 8 8 8 8 8 8 8 8 8 8 8 8 8 8 8 8 8 8 8 8 8 8 8 8 8 8 8 8 8 8 8 8 8 8 8 8 8 8 8 8 8 8 8 8 8 8 8 8 8 8 8 8 8 8 8 8 8 8 8 8 8 8 8 8 8 8 8 8 8 8 8 8 8 ",
"8 8 8 8 8 8 8 8 8 8 8 8 8 8 8 8 8 i 8 8 8 8 8 8 8 8 8 8 8 8 8 8 8 8 8 8 8 8 8 8 8 8 8 8 8 8 8 8 8 8 8 8 8 8 8 8 8 8 8 8 8 8 8 8 8 8 8 8 8 8 8 8 8 8 8 8 8 8 8 8 8 8 8 8 8 8 8 8 8 8 8 8 8 8 8 8 8 8 8 8 8 8 8 8 8 8 8 8 8 8 8 8 8 8 8 8 8 8 8 8 8 8 8 8 8 8 8 8 8 8 8 8 8 8 8 8 8 8 8 8 8 8 8 8 8 8 8 8 8 8 8 8 8 8 8 8 8 8 8 8 8 8 8 8 8 8 8 8 8 8 8 8 8 8 8 8 8 8 8 8 8 8 8 8 8 8 8 8 8 8 8 8 8 8 8 8 8 8 8 8 8 8 8 8 8 8 8 8 8 8 8 8 8 8 8 8 8 8 8 8 8 8 8 8 8 8 8 8 8 8 8 8 8 8 8 8 8 8 8 8 8 8 8 8 8 8 8 8 8 8 8 8 8 8 8 8 ",
"8 8 8 8 8 8 8 8 8 8 8 8 8 8 8 8 8 i 8 8 8 8 8 8 8 8 8 8 8 8 8 8 8 8 8 8 8 8 8 8 8 8 8 8 8 8 8 8 8 8 8 8 8 8 8 8 8 8 8 8 8 8 8 8 8 8 8 8 8 8 8 8 8 8 8 8 8 8 8 8 8 8 8 8 8 8 8 8 8 8 8 8 8 8 8 8 8 8 8 8 8 8 8 8 8 8 8 8 8 8 8 8 8 8 8 8 8 8 8 8 8 8 8 8 8 8 8 8 8 8 8 8 8 8 8 8 8 8 8 8 8 8 8 8 8 8 8 8 8 8 8 8 8 8 8 8 8 8 8 8 8 8 8 8 8 8 8 8 8 8 8 8 8 8 8 8 8 8 8 8 8 8 8 8 8 8 8 8 8 8 8 8 8 8 8 8 8 8 8 8 8 8 8 8 8 8 8 8 8 8 8 8 8 8 8 8 8 8 8 8 8 8 8 8 8 8 8 8 8 8 8 8 8 8 8 8 8 8 8 8 8 8 8 8 8 8 8 8 8 8 8 8 8 8 8 8 ",
"8 8 8 8 8 8 8 8 8 8 8 8 8 8 8 8 8 i 8 8 8 8 8 8 8 8 8 8 8 8 8 8 8 8 8 8 8 8 8 8 8 8 8 8 8 8 8 8 8 8 8 8 8 8 8 8 8 8 8 8 8 8 8 8 8 8 8 8 8 8 8 8 8 8 8 8 8 8 8 8 8 8 8 8 8 8 8 8 8 8 8 8 8 8 8 8 8 8 8 8 8 8 8 8 8 8 8 8 8 8 8 8 8 8 8 8 8 8 8 8 8 8 8 8 8 8 8 8 8 8 8 8 8 8 8 8 8 8 8 8 8 8 8 8 8 8 8 8 8 8 8 8 8 8 8 8 8 8 8 8 8 8 8 8 8 8 8 8 8 8 8 8 8 8 8 8 8 8 8 8 8 8 8 8 8 8 8 8 8 8 8 8 8 8 8 8 8 8 8 8 8 8 8 8 8 8 8 8 8 8 8 8 8 8 8 8 8 8 8 8 8 8 8 8 8 8 8 8 8 8 8 8 8 8 8 8 8 8 8 8 8 8 8 8 8 8 8 8 8 8 8 8 8 8 8 8 ",
"8 8 8 8 8 8 8 8 8 8 8 8 8 8 8 8 8 i 8 8 8 8 8 8 8 8 8 8 8 8 8 8 8 8 8 8 8 8 8 8 8 8 8 8 8 8 8 8 8 8 8 8 8 8 8 8 8 8 8 8 8 8 8 8 8 8 8 8 8 8 8 8 8 8 8 8 8 8 8 8 8 8 8 8 8 8 8 8 8 8 8 8 8 8 8 8 8 8 8 8 8 8 8 8 8 8 8 8 8 8 8 8 8 8 8 8 8 8 8 8 8 8 8 8 8 8 8 8 8 8 8 8 8 8 8 8 8 8 8 8 8 8 8 8 8 8 8 8 8 8 8 8 8 8 8 8 8 8 8 8 8 8 8 8 8 8 8 8 8 8 8 8 8 8 8 8 8 8 8 8 8 8 8 8 8 8 8 8 8 8 8 8 8 8 8 8 8 8 8 8 8 8 8 8 8 8 8 8 8 8 8 8 8 8 8 8 8 8 8 8 8 8 8 8 8 8 8 8 8 8 8 8 8 8 8 8 8 8 8 8 8 8 8 8 8 8 8 8 8 8 8 8 8 8 8 8 ",
"8 8 8 8 8 8 8 8 8 8 8 8 8 8 8 8 8 i 8 8 8 8 8 8 8 8 8 8 8 8 8 8 8 8 8 8 8 8 8 8 8 8 8 8 8 8 8 8 8 8 8 8 8 8 8 8 8 8 8 8 8 8 8 8 8 8 8 8 8 8 8 8 8 8 8 8 8 8 8 8 8 8 8 8 8 8 8 8 8 8 8 8 8 8 8 8 8 8 8 8 8 8 8 8 8 8 8 8 8 8 8 8 8 8 8 8 8 8 8 8 8 8 8 8 8 8 8 8 8 8 8 8 8 8 8 8 8 8 8 8 8 8 8 8 8 8 8 8 8 8 8 8 8 8 8 8 8 8 8 8 8 8 8 8 8 8 8 8 8 8 8 8 8 8 8 8 8 8 8 8 8 8 8 8 8 8 8 8 8 8 8 8 8 8 8 8 8 8 8 8 8 8 8 8 8 8 8 8 8 8 8 8 8 8 8 8 8 8 8 8 8 8 8 8 8 8 8 8 8 8 8 8 8 8 8 8 8 8 8 8 8 8 8 8 8 8 8 8 8 8 8 8 8 8 8 8 ",
"8 8 8 8 8 8 8 8 8 8 8 8 8 8 8 8 8 i 8 8 8 8 8 8 8 8 8 8 8 8 8 8 8 8 8 8 8 8 8 8 8 8 8 8 8 8 8 8 8 8 8 8 8 8 8 8 8 8 8 8 8 8 8 8 8 8 8 8 8 8 8 8 8 8 8 8 8 8 8 8 8 8 8 8 8 8 8 8 8 8 8 8 8 8 8 8 8 8 8 8 8 8 8 8 8 8 8 8 8 8 8 8 8 8 8 8 8 8 8 8 8 8 8 8 8 8 8 8 8 8 8 8 8 8 8 8 8 8 8 8 8 8 8 8 8 8 8 8 8 8 8 8 8 8 8 8 8 8 8 8 8 8 8 8 8 8 8 8 8 8 8 8 8 8 8 8 8 8 8 8 8 8 8 8 8 8 8 8 8 8 8 8 8 8 8 8 8 8 8 8 8 8 8 8 8 8 8 8 8 8 8 8 8 8 8 8 8 8 8 8 8 8 8 8 8 8 8 8 8 8 8 8 8 8 8 8 8 8 8 8 8 8 8 8 8 8 8 8 8 8 8 8 8 8 8 8 ",
"8 8 8 8 8 8 8 8 8 8 8 8 8 8 8 8 8 i 8 8 8 8 8 8 8 8 8 8 8 8 8 8 8 8 8 8 8 8 8 8 8 8 8 8 8 8 8 8 8 8 8 8 8 8 8 8 8 8 8 8 8 8 8 8 8 8 8 8 8 8 8 8 8 8 8 8 8 8 8 8 8 8 8 8 8 8 8 8 8 8 8 8 8 8 8 8 8 8 8 8 8 8 8 8 8 8 8 8 8 8 8 8 8 8 8 8 8 8 8 8 8 8 8 8 8 8 8 8 8 8 8 8 8 8 8 8 8 8 8 8 8 8 8 8 8 8 8 8 8 8 8 8 8 8 8 8 8 8 8 8 8 8 8 8 8 8 8 8 8 8 8 8 8 8 8 8 8 8 8 8 8 8 8 8 8 8 8 8 8 8 8 8 8 8 8 8 8 8 8 8 8 8 8 8 8 8 8 8 8 8 8 8 8 8 8 8 8 8 8 8 8 8 8 8 8 8 8 8 8 8 8 8 8 8 8 8 8 8 8 8 8 8 8 8 8 8 8 8 8 8 8 8 8 8 8 8 ",
"8 8 8 8 8 8 8 8 8 8 8 8 8 8 8 8 8 i 8 8 8 8 8 8 8 8 8 8 8 8 8 8 8 8 8 8 8 8 8 8 8 8 8 8 8 8 8 8 8 8 8 8 8 8 8 8 8 8 8 8 8 8 8 8 8 8 8 8 8 8 8 8 8 8 8 8 8 8 8 8 8 8 8 8 8 8 8 8 8 8 8 8 8 8 8 8 8 8 8 8 8 8 8 8 8 8 8 8 8 8 8 8 8 8 8 8 8 8 8 8 8 8 8 8 8 8 8 8 8 8 8 8 8 8 8 8 8 8 8 8 8 8 8 8 8 8 8 8 8 8 8 8 8 8 8 8 8 8 8 8 8 8 8 8 8 8 8 8 8 8 8 8 8 8 8 8 8 8 8 8 8 8 8 8 8 8 8 8 8 8 8 8 8 8 8 8 8 8 8 8 8 8 8 8 8 8 8 8 8 8 8 8 8 8 8 8 8 8 8 8 8 8 8 8 8 8 8 8 8 8 8 8 8 8 8 8 8 8 8 8 8 8 8 8 8 8 8 8 8 8 8 8 8 8 8 8 ",
"8 8 8 8 8 8 8 8 8 8 8 8 8 8 8 8 8 i 8 8 8 8 8 8 8 8 8 8 8 8 8 8 8 8 8 8 8 8 8 8 8 8 8 8 8 8 8 8 8 8 8 8 8 8 8 8 8 8 8 8 8 8 8 8 8 8 8 8 8 8 8 8 8 8 8 8 8 8 8 8 8 8 8 8 8 8 8 8 8 8 8 8 8 8 8 8 8 8 8 8 8 8 8 8 8 8 8 8 8 8 8 8 8 8 8 8 8 8 8 8 8 8 8 8 8 8 8 8 8 8 8 8 8 8 8 8 8 8 8 8 8 8 8 8 8 8 8 8 8 8 8 8 8 8 8 8 8 8 8 8 8 8 8 8 8 8 8 8 8 8 8 8 8 8 8 8 8 8 8 8 8 8 8 8 8 8 8 8 8 8 8 8 8 8 8 8 8 8 8 8 8 8 8 8 8 8 8 8 8 8 8 8 8 8 8 8 8 8 8 8 8 8 8 8 8 8 8 8 8 8 8 8 8 8 8 8 8 8 8 8 8 8 8 8 8 8 8 8 8 8 8 8 8 8 8 8 ",
"8 8 8 8 8 8 8 8 8 8 8 8 8 8 8 8 8 i 8 8 8 8 8 8 8 8 8 8 8 8 8 8 8 8 8 8 8 8 8 8 8 8 8 8 8 8 8 8 8 8 8 8 8 8 8 8 8 8 8 8 8 8 8 8 8 8 8 8 8 8 8 8 8 8 8 8 8 8 8 8 8 8 8 8 8 8 8 8 8 8 8 8 8 8 8 8 8 8 8 8 8 8 8 8 8 8 8 8 8 8 8 8 8 8 8 8 8 8 8 8 8 8 8 8 8 8 8 8 8 8 8 8 8 8 8 8 8 8 8 8 8 8 8 8 8 8 8 8 8 8 8 8 8 8 8 8 8 8 8 8 8 8 8 8 8 8 8 8 8 8 8 8 8 8 8 8 8 8 8 8 8 8 8 8 8 8 8 8 8 8 8 8 8 8 8 8 8 8 8 8 8 8 8 8 8 8 8 8 8 8 8 8 8 8 8 8 8 8 8 8 8 8 8 8 8 8 8 8 8 8 8 8 8 8 8 8 8 8 8 8 8 8 8 8 8 8 8 8 8 8 8 8 8 8 8 8 ",
"8 8 8 8 8 8 8 8 8 8 8 8 8 8 8 8 8 i 8 8 8 8 8 8 8 8 8 8 8 8 8 8 8 8 8 8 8 8 8 8 8 8 8 8 8 8 8 8 8 8 8 8 8 8 8 8 8 8 8 8 8 8 8 8 8 8 8 8 8 8 8 8 8 8 8 8 8 8 8 8 8 8 8 8 8 8 8 8 8 8 8 8 8 8 8 8 8 8 8 8 8 8 8 8 8 8 8 8 8 8 8 8 8 8 8 8 8 8 8 8 8 8 8 8 8 8 8 8 8 8 8 8 8 8 8 8 8 8 8 8 8 8 8 8 8 8 8 8 8 8 8 8 8 8 8 8 8 8 8 8 8 8 8 8 8 8 8 8 8 8 8 8 8 8 8 8 8 8 8 8 8 8 8 8 8 8 8 8 8 8 8 8 8 8 8 8 8 8 8 8 8 8 8 8 8 8 8 8 8 8 8 8 8 8 8 8 8 8 8 8 8 8 8 8 8 8 8 8 8 8 8 8 8 8 8 8 8 8 8 8 8 8 8 8 8 8 8 8 8 8 8 8 8 8 8 8 ",
"8 8 8 8 8 8 8 8 8 8 8 8 8 8 8 8 8 i 8 8 8 8 8 8 8 8 8 8 8 8 8 8 8 8 8 8 8 8 8 8 8 8 8 8 8 8 8 8 8 8 8 8 8 8 8 8 8 8 8 8 8 8 8 8 8 8 8 8 8 8 8 8 8 8 8 8 8 8 8 8 8 8 8 8 8 8 8 8 8 8 8 8 8 8 8 8 8 8 8 8 8 8 8 8 8 8 8 8 8 8 8 8 8 8 8 8 8 8 8 8 8 8 8 8 8 8 8 8 8 8 8 8 8 8 8 8 8 8 8 8 8 8 8 8 8 8 8 8 8 8 8 8 8 8 8 8 8 8 8 8 8 8 8 8 8 8 8 8 8 8 8 8 8 8 8 8 8 8 8 8 8 8 8 8 8 8 8 8 8 8 8 8 8 8 8 8 8 8 8 8 8 8 8 8 8 8 8 8 8 8 8 8 8 8 8 8 8 8 8 8 8 8 8 8 8 8 8 8 8 8 8 8 8 8 8 8 8 8 8 8 8 8 8 8 8 8 8 8 8 8 8 8 8 8 8 8 ",
"8 8 8 8 8 8 8 8 8 8 8 8 8 8 8 8 8 i 8 8 8 8 8 8 8 8 8 8 8 8 8 8 8 8 8 8 8 8 8 8 8 8 8 8 8 8 8 8 8 8 8 8 8 8 8 8 8 8 8 8 8 8 8 8 8 8 8 8 8 8 8 8 8 8 8 8 8 8 8 8 8 8 8 8 8 8 8 8 8 8 8 8 8 8 8 8 8 8 8 8 8 8 8 8 8 8 8 8 8 8 8 8 8 8 8 8 8 8 8 8 8 8 8 8 8 8 8 8 8 8 8 8 8 8 8 8 8 8 8 8 8 8 8 8 8 8 8 8 8 8 8 8 8 8 8 8 8 8 8 8 8 8 8 8 8 8 8 8 8 8 8 8 8 8 8 8 8 8 8 8 8 8 8 8 8 8 8 8 8 8 8 8 8 8 8 8 8 8 8 8 8 8 8 8 8 8 8 8 8 8 8 8 8 8 8 8 8 8 8 8 8 8 8 8 8 8 8 8 8 8 8 8 8 8 8 8 8 8 8 8 8 8 8 8 8 8 8 8 8 8 8 8 8 8 8 8 ",
"8 8 8 8 8 8 8 8 8 8 8 8 8 8 8 8 8 i e 8 8 8 8 8 8 8 8 8 8 8 8 8 8 8 8 8 8 8 8 8 8 8 8 8 8 8 8 8 8 8 8 8 8 8 8 8 8 8 8 8 8 8 8 8 8 8 8 8 8 8 8 8 8 8 8 8 8 8 8 8 8 8 8 8 8 8 8 8 8 8 8 8 8 8 8 8 8 8 8 8 8 8 8 8 8 8 8 8 8 8 8 8 8 8 8 8 8 8 8 8 8 8 8 8 8 8 8 8 8 8 8 8 8 8 8 8 8 8 8 8 8 8 8 8 8 8 8 8 8 8 8 8 8 8 8 8 8 8 8 8 8 8 8 8 8 8 8 8 8 8 8 8 8 8 8 8 8 8 8 8 8 8 8 8 8 8 8 8 8 8 8 8 8 8 8 8 8 8 8 8 8 8 8 8 8 8 8 8 8 8 8 8 8 8 8 8 8 8 8 8 8 8 8 8 8 8 8 8 8 8 8 8 8 8 8 8 8 8 8 8 8 8 8 8 8 8 8 8 8 8 8 8 8 8 8 8 ",
"& & & & & & & & & & & & & & & & & = & & & & & & & & & & & & & & & & & & & & & & & & & & & & & & & & & & & & & & & & & & & & & & & & & & & & & & & & & & & & & & & & & & & & & & & & & & & & & & & & & & & & & & & & & & & & & & & & & & & & & & & & & & & & & & & & & & & & & & & & & & & & & & & & & & & & & & & & & & & & & & & & & & & & & & & & & & & & & & & & & & & & & & & & & & & & & & & & & & & & & & & & & & & & & & & & & & & & & & & & & & & & & & & & & & & & & & & & & & & & & & & & & & & & & & & & & & & & & & ",
"K.5X5X5X5X5X5X5X5X5X5X5X5X5X5X5X5XK.5X5X5X5X5X5X5X5X5X5X5X5X5X5X5X5X5X5X5X5X5X5X5X5X5X5X5X5X5X5X5X5X5X5X5X5X5X5X5X5X5X5X5X5X5X5X5X5X5X5X5X5X5X5X5X5X5X5X5X5X5X5X5X5X5X5X5X5X5X5X5X5X5X5X5X5X5X5X5X5X5X5X5X5X5X5X5X5X5X5X5X5X5X5X5X5X5X5X5X5X5X5X5X5X5X5X5X5X5X5X5X5X5X5X5X5X5X5X5X5X5X5X5X5X5X5X5X5X5X5X5X5X5X5X5X5X5X5X5X5X5X5X5X5X5X5X5X5X5X5X5X5X5X5X5X5X5X5X5X5X5X5X5X5X5X5X5X5X5X5X5X5X5X5X5X5X5X5X5X5X5X5X5X5X5X5X5X5X5X5X5X5X5X5X5X5X5X5X5X5X5X5X5X5X5X5X5X5X5X5X5X5X5X5X5X5X5X5X5X5X5X5X5X5X5X5X5X5X5X5X5X5X5X5X5X5X5XK.",
"a.a.a.a.a.a.a.a.a.a.a.a.a.a.a.a.a.a.a.a.a.a.a.a.a.a.a.a.a.a.a.a.a.a.a.a.a.a.a.a.a.a.a.a.a.a.a.a.a.a.a.a.a.a.a.a.a.a.a.a.a.a.a.a.a.a.a.a.a.a.a.a.a.a.a.a.a.a.a.a.a.a.a.a.a.a.a.a.a.a.a.a.a.a.a.a.a.a.a.a.a.a.a.a.a.a.a.a.a.a.a.a.a.a.a.a.a.a.a.a.a.a.a.a.a.a.a.a.a.a.a.a.a.a.a.a.a.a.a.a.a.a.a.a.a.a.a.a.a.a.a.a.a.a.a.a.a.a.a.a.a.a.a.a.a.a.a.a.a.a.a.a.a.a.a.a.a.a.a.a.a.a.a.a.a.a.a.a.a.a.a.a.a.a.a.a.a.a.a.a.a.a.a.a.a.a.a.a.a.a.a.a.a.a.a.a.a.a.a.a.a.a.a.a.a.a.a.a.a.a.a.a.a.a.a.a.a.a.a.a.a.a.a.a.a.a.a.a.a.a.a.a.a.a.a.a.",
"J.J.J.J.J.J.J.J.J.J.J.J.J.J.J.J.J.J.J.J.J.J.J.J.J.J.J.J.J.J.J.J.J.J.J.J.J.J.J.J.J.J.J.J.J.J.J.J.J.J.J.J.J.J.J.J.J.J.J.J.J.J.J.J.J.J.J.J.J.J.J.J.J.J.J.J.J.J.J.J.J.J.J.J.J.J.J.J.J.J.J.J.J.J.J.J.J.J.J.J.J.J.J.J.J.J.J.J.J.J.J.J.J.J.J.J.J.J.J.J.J.J.J.J.J.J.J.J.J.J.J.J.J.J.J.J.J.J.J.J.J.J.J.J.J.J.J.J.J.J.J.J.J.J.J.J.J.J.J.J.J.J.J.J.J.J.J.J.J.J.J.J.J.J.J.J.J.J.J.J.J.J.J.J.J.J.J.J.J.J.J.J.J.J.J.J.J.J.J.J.J.J.J.J.J.J.J.J.J.J.J.J.J.J.J.J.J.J.J.J.J.J.J.J.J.J.J.J.J.J.J.J.J.J.J.J.J.J.J.J.J.J.J.J.J.J.J.J.J.J.J.J.J.J.J.J.",
"O O # # # # # # # # # # # # # + O O O % # # # # # # # # # # # O O O O # # # # # # # # # # # # # # # # # # # # # # # # # # # # # # # # # # # # # # # # # # # # # # # # # # # # # # # # # # # # # # # # # # # # # # # # # # # # # # # # # # # # # # # # # # # # # # # # # # # # # # # # # # # # # # # # # # # # # # # # # # # # # # # # # # # # # # # # # # # # # # # # # # # # # # # # # # # # # # # # # # # # # # # # # # # # # # # # # # # # # # # # # # # # # # # # # # # # # # O O # O # O # # # O O O O # # # O O O O # O O ",
"y.{ e 8 8 8 8 8 8 8 8 8 8 8 8 i.a.a.k 8 8 8 8 8 8 8 8 8 8 8 i { { y.a 8 8 8 8 8 8 8 8 8 8 8 8 8 8 8 8 8 8 8 8 8 8 8 8 8 8 8 8 8 8 8 8 8 8 8 8 8 8 8 8 8 8 8 8 8 8 8 8 8 8 8 8 8 8 8 8 8 8 8 8 8 8 8 8 8 8 8 8 8 8 8 8 8 8 8 8 8 8 8 8 8 8 8 8 8 8 8 8 8 8 8 8 8 8 8 8 8 8 8 8 8 8 8 8 8 8 8 8 8 8 8 8 8 8 8 8 8 8 8 8 8 8 8 8 8 8 8 8 8 8 8 8 8 8 8 8 8 8 8 8 8 8 8 8 8 8 8 8 8 8 8 8 8 8 8 8 8 8 8 8 8 8 8 8 8 8 8 8 8 8 8 8 8 8 8 8 8 8 8 8 8 8 8 8 8 8 8 8 8 8 8 8 8 8 8 8 8 u i u e g u i 8 8 8 4 e e e e 8 8 t ] ] y 8 =.] ",
"d.d.8 8 8 -.r - r y e 8 8 8 8 C.f.F.y.& 8 t ] - 8 y r 8 8 8 i d.S.S.g = 8 ] t - r y r 8 8 8 8 8 8 8 8 8 8 8 8 8 8 8 8 8 8 8 8 8 8 8 8 8 8 8 8 8 8 8 8 8 8 8 8 8 8 8 8 8 8 8 8 8 8 8 8 8 8 8 8 8 8 8 8 8 8 8 8 8 8 8 8 8 8 8 8 8 8 8 8 8 8 8 8 8 8 8 8 8 8 8 8 8 8 8 8 8 8 8 8 8 8 8 8 8 8 8 8 8 8 8 8 8 8 8 8 8 8 8 8 8 8 8 8 8 8 8 8 8 8 8 8 8 8 8 8 8 8 8 8 8 8 8 8 8 8 8 8 8 8 8 8 8 8 8 8 8 8 8 8 8 8 8 8 8 8 8 8 8 8 8 8 8 8 8 8 8 8 8 8 8 8 8 8 8 8 8 8 8 8 8 8 8 8 8 8 = g { u.z k p.{ a 9 S S F F S e 8 8 t ] 8.y 8 -.] ",
"A.K.8 - y <X] * ] -.y - 8 8 8 g.A.z l = - -.8.8 r -.] 8 8 8 p u d.d.e 8 8 8.-.* y -.] - 8 8 8 8 8 8 8 8 8 8 8 8 8 8 8 8 8 8 8 8 8 8 8 8 8 8 8 8 8 8 8 8 8 8 8 8 8 8 8 8 8 8 8 8 8 8 8 8 8 8 8 8 8 8 8 8 8 8 8 8 8 8 8 8 8 8 8 8 8 8 8 8 8 8 8 8 8 8 8 8 8 8 8 8 8 8 8 8 8 8 8 8 8 8 8 8 8 8 8 8 8 8 8 8 8 8 8 8 8 8 8 8 8 8 8 8 8 8 8 8 8 8 8 8 8 8 8 8 8 8 8 8 8 8 8 8 8 8 8 8 8 8 8 8 8 8 8 8 8 8 8 8 8 8 8 8 8 8 8 8 8 8 8 8 8 8 8 8 8 8 8 8 8 8 8 8 8 8 8 8 8 8 8 8 8 8 8 = g a.a.a.e a.y.i 9 S S F F _.8 8 8 y t ] y 8 ] -.",
"A.D.8 8 - r 8 8 - * 8 8 8 8 8 a.d.k g 8 8 8 r - 8 * * 8 8 8 i k i.a.i 8 - r 8 8 8 * - 8 8 8 8 8 8 8 8 8 8 8 8 8 8 8 8 8 8 8 8 8 8 8 8 8 8 8 8 8 8 8 8 8 8 8 8 8 8 8 8 8 8 8 8 8 8 8 8 8 8 8 8 8 8 8 8 8 8 8 8 8 8 8 8 8 8 8 8 8 8 8 8 8 8 8 8 8 8 8 8 8 8 8 8 8 8 8 8 8 8 8 8 8 8 8 8 8 8 8 8 8 8 8 8 8 8 8 8 8 8 8 8 8 8 8 8 8 8 8 8 8 8 8 8 8 8 8 8 8 8 8 8 8 8 8 8 8 8 8 8 8 8 8 8 8 8 8 8 8 8 8 8 8 8 8 8 8 8 8 8 8 8 8 8 8 8 8 8 8 8 8 8 8 8 8 8 8 8 8 8 8 8 8 8 8 8 8 8 = z l 8 g l i g p 8 e S 2 e 3 8 8 8 t ] ] y - -.] ",
"= = 8 8 8 8 8 8 8 8 8 8 8 8 8 8 8 8 8 8 8 8 8 8 8 8 8 8 8 8 8 8 8 8 8 8 8 8 8 8 8 8 8 8 8 8 8 8 8 8 8 8 8 8 8 8 8 8 8 8 8 8 8 8 8 8 8 8 8 8 8 8 8 8 8 8 8 8 8 8 8 8 8 8 8 8 8 8 8 8 8 8 8 8 8 8 8 8 8 8 8 8 8 8 8 8 8 8 8 8 8 8 8 8 8 8 8 8 8 8 8 8 8 8 8 8 8 8 8 8 8 8 8 8 8 8 8 8 8 8 8 8 8 8 8 8 8 8 8 8 8 8 8 8 8 8 8 8 8 8 8 8 8 8 8 8 8 8 8 8 8 8 8 8 8 8 8 8 8 8 8 8 8 8 8 8 8 8 8 8 8 8 8 8 8 8 8 8 8 8 8 8 8 8 8 8 8 8 8 8 8 8 8 8 8 8 8 8 8 8 8 8 8 8 8 8 8 8 8 8 8 8 i 8 8 = = 8 = 8 8 8 9 8 8 9 8 8 8 8 8 8 8 8 - 8 ",
"8 8 8 8 8 8 8 8 8 8 8 8 8 8 8 8 8 8 8 8 8 8 8 8 8 8 8 8 8 8 8 8 8 8 8 8 8 8 8 8 8 8 8 8 8 8 8 8 8 8 8 8 8 8 8 8 8 8 8 8 8 8 8 8 8 8 8 8 8 8 8 8 8 8 8 8 8 8 8 8 8 8 8 8 8 8 8 8 8 8 8 8 8 8 8 8 8 8 8 8 8 8 8 8 8 8 8 8 8 8 8 8 8 8 8 8 8 8 8 8 8 8 8 8 8 8 8 8 8 8 8 8 8 8 8 8 8 8 8 8 8 8 8 8 8 8 8 8 8 8 8 8 8 8 8 8 8 8 8 8 8 8 8 8 8 8 8 8 8 8 8 8 8 8 8 8 8 8 8 8 8 8 8 8 8 8 8 8 8 8 8 8 8 8 8 8 8 8 8 8 8 8 8 8 8 8 8 8 8 8 8 8 8 8 8 8 8 8 8 8 8 8 8 8 8 8 8 8 8 8 8 8 8 8 8 8 8 8 8 8 8 8 8 8 8 8 8 8 8 8 8 8 8 8 8 8 "
};
