/* XPM */
static char *sc_mb_gate_mono[] = {
/* columns rows colors chars-per-pixel */
"256 256 256 2 ",
"   c #020202",
".  c #0B0B0C",
"X  c #07070A",
"o  c #190707",
"O  c #081209",
"+  c #0C0D13",
"@  c #080613",
"#  c #150C15",
"$  c #0C1416",
"%  c #131314",
"&  c #14151B",
"*  c #1B151C",
"=  c #161A1D",
"-  c #1A1A1D",
";  c #181815",
":  c #14160E",
">  c #220909",
",  c #2A0708",
"<  c #3B0606",
"1  c #3D0909",
"2  c #360708",
"3  c #2B181B",
"4  c #321A1E",
"5  c #371416",
"6  c #331409",
"7  c #182617",
"8  c #142D12",
"9  c #39240C",
"0  c #26281A",
"q  c #372615",
"w  c #28361A",
"e  c #383719",
"r  c #292C0D",
"t  c #151D23",
"y  c #1B1C22",
"u  c #1A1523",
"i  c #130F2C",
"p  c #281B24",
"a  c #341B2C",
"s  c #291D34",
"d  c #381C35",
"f  c #290C2F",
"g  c #1E2125",
"h  c #1A2E2E",
"j  c #17282A",
"k  c #1B3131",
"l  c #173638",
"z  c #133031",
"x  c #222224",
"c  c #23242B",
"v  c #2B2B2C",
"b  c #282829",
"n  c #352929",
"m  c #362829",
"M  c #2B3428",
"N  c #32352A",
"B  c #35382A",
"V  c #2B2C31",
"C  c #2B2338",
"Z  c #3A2334",
"A  c #3E2639",
"S  c #382636",
"D  c #273738",
"F  c #323334",
"G  c #34353A",
"H  c #3A3B3D",
"J  c #3A3835",
"K  c #440B0C",
"L  c #540708",
"P  c #580809",
"I  c #461C09",
"U  c #461A09",
"Y  c #451212",
"T  c #491616",
"R  c #531510",
"E  c #6B0709",
"W  c #780608",
"Q  c #6C1312",
"!  c #4B220E",
"~  c #492A0D",
"^  c #4A2713",
"/  c #552915",
"(  c #463112",
")  c #493817",
"_  c #52330D",
"`  c #6D2D14",
"'  c #461A3A",
"]  c #541839",
"[  c #4A112F",
"{  c #6D1337",
"}  c #412A3C",
"|  c #45243B",
" . c #4B322D",
".. c #6E2E2B",
"X. c #064E19",
"o. c #324A16",
"O. c #016E1C",
"+. c #396C0A",
"@. c #134C30",
"#. c #384428",
"$. c #3A4536",
"%. c #2D4B31",
"&. c #0D7129",
"*. c #367030",
"=. c #4D4B13",
"-. c #715507",
";. c #726B0E",
":. c #434936",
">. c #494D2C",
",. c #704D34",
"<. c #51701E",
"1. c #33134A",
"2. c #153948",
"3. c #372C43",
"4. c #3D3E43",
"5. c #3A3547",
"6. c #2C334D",
"7. c #02156E",
"8. c #38046E",
"9. c #101C5A",
"0. c #461C47",
"q. c #51184D",
"w. c #691752",
"e. c #482845",
"r. c #552847",
"t. c #473446",
"y. c #542D53",
"u. c #692953",
"i. c #52166E",
"p. c #522D71",
"a. c #762868",
"s. c #6B136F",
"d. c #124D50",
"f. c #3E4144",
"g. c #2A474D",
"h. c #346F4E",
"j. c #10536D",
"k. c #0B7070",
"l. c #317669",
"z. c #186852",
"x. c #464649",
"c. c #4C4D52",
"v. c #525255",
"b. c #5A5B5E",
"n. c #555659",
"m. c #505150",
"M. c #56684F",
"N. c #5D5E62",
"B. c #5C5866",
"V. c #554B74",
"C. c #724D6A",
"Z. c #5E6265",
"A. c #616265",
"S. c #6B6B6C",
"D. c #65666A",
"F. c #6C6D72",
"G. c #6C6F7E",
"H. c #6F7074",
"J. c #727374",
"K. c #7B7B7C",
"L. c #747579",
"P. c #6F726B",
"I. c #696154",
"U. c #870607",
"Y. c #940E0D",
"T. c #A80708",
"R. c #B3110E",
"E. c #912B16",
"W. c #AD2617",
"Q. c #B21C29",
"!. c #902828",
"~. c #AE2529",
"^. c #921C2F",
"/. c #CF1412",
"(. c #EF1616",
"). c #CE1C25",
"_. c #DB2425",
"`. c #925E13",
"'. c #921272",
"]. c #8B2573",
"[. c #A11359",
"{. c #D71E53",
"}. c #936561",
"|. c #E3504F",
" X c #088C29",
".X c #368A2D",
"XX c #04AF2E",
"oX c #1CA31D",
"OX c #4B8D0A",
"+X c #58AE06",
"@X c #4C882C",
"#X c #6B9914",
"$X c #13D531",
"%X c #1C9561",
"&X c #659E62",
"*X c #59F159",
"=X c #54CA19",
"-X c #9D9B0B",
";X c #A29874",
":X c #ADB854",
">X c #011D9F",
",X c #4A088A",
"<X c #6E178F",
"1X c #5803AF",
"2X c #61259C",
"3X c #0C6D8E",
"4X c #156E9C",
"5X c #7D7E81",
"6X c #4D5B91",
"7X c #6402C7",
"8X c #6B1BD3",
"9X c #0C71CF",
"0X c #B30789",
"qX c #96179B",
"wX c #C90698",
"eX c #9C6D98",
"rX c #BD3EBF",
"tX c #0A8D8D",
"yX c #09AFAF",
"uX c #1F93A4",
"iX c #6A998E",
"pX c #05A4DB",
"aX c #16D7E2",
"sX c #54EBEB",
"dX c #58C0BB",
"fX c #86878A",
"gX c #898A8D",
"hX c #848787",
"jX c #959698",
"kX c #8C8F8E",
"lX c #9C9DA1",
"zX c #ABABAC",
"xX c #A4A5A6",
"cX c #BBBBBC",
"vX c #B4B5B6",
"bX c #B0B1AF",
"nX c #ACA299",
"mX c #D0B296",
"MX c #E6B7AD",
"NX c #D29DA2",
"BX c #B7C6AB",
"VX c #A3CC99",
"CX c #C9CCB4",
"ZX c #EEC7B1",
"AX c #BCBDC1",
"SX c #A191C6",
"DX c #D2B1C9",
"FX c #DAABCE",
"GX c #C6C6C7",
"HX c #D5D6D8",
"JX c #D2CCCF",
"KX c #E8E9EB",
"LX c #F7F8FA",
"PX c #EEEFF1",
"IX c #E5D7D9",
"UX c #B8C3C3",
/* pixels */
"y y y y y y y y y y y y y y y y y y y y y y y y y y y y y y y y y y y y y y y y y y y y y y y y y y y y y y y y y y y y y y y y y y y y y y y y y y y y y y y y y y y y y y y y y y y y y y y y y y y y y y y y y y y y y y y y y y y y y y y y y y y y y y y y y y y y y y y y y y y y y y y y y y y y y y y y y y y y y y y y y y y y y y y y y y y y y y y y y y y y y y y y y y y y y y y y y y y y y y y y y y y y y y y y y y y y y y y y y y y y y y y y y y y y y y y y y y y y y y y y y y y y y y y y y y y y y y y y ",
"y y y y y y y y y - - - - y y y y y y y y y y y y y y y y y y y y y y y y y y y y y y y y y y y y y y y y y y y y y y y y y y y y y y y y y y y y y y y y y y y y y y y y y y y y y y y y y y y y y y y y y y y y y y y y y y y y y y y y y y y y y y y y y y y y y y y y y y y y y y y y y y y y y y y y y y y y = & & = = & y y & = y & = y y y y y y & - y y y y = y y - - y - - y - & & & - & & y y - y - y y = & y y y - & y y y = & & = & y y = y = y = & y = y - y & = y - y y y & y y y y y y y * y - * - y y - - * y y ",
"; ; ; - y y y - - h l l j - y y y y y y y y y y y y y y y y y y y y y y y y y y y y y y y y y y y y y y y y y y y y y y y y y y y y y y y y y y y y y y y y y y y y y y y y y y y y y y y y y y y y y y y y y y y y y y y y y y y y y y y y y y y y y y y y y y y y y y y y y y y y y y y y y y y y y y y y y y = V 4.G F V x.y c x.V y x.V x x c g c c 4.v c c c - F y c V v g v v y V x.x.4.v G 4.y g v y V y b F x.y y & V x.y x c V x.4.G x.x y V = V y V f.= V y V = 4.F & v c c b G c - g F y y g 2.y h 2.j j y h j 2.g * ",
"j.j.j.l * y - h k.uXpXpX4Xj.j - y y y y y y y y y y y y y y y y y y y y y y y y y y y y y y y y y y y y y y y y y y y y y y y y y y y y y y y y y y y y y y y y y y y y y y y y y y y y y y y y y y y y y y y y y y y y y y y y y y y y y y y y y y y y y y y y y y y y y y y y y y y y y y y y y y y y y y y = v xXx.K.N.L.fXD.n.lXf.5XF.D.A.Z.c.c.jXH gXn.jXc.N.X zX4.5X5XF.G F.S.x.c xXS.gXv.fXxXx.x.jXV bXx.S.5XhXJ.% G gXL.c n.jXc xXA.gXhXx F vXx zXv.5XhXb.lXb.D.N.iXfXG c hXL.c.xXL.& c x.y * 3Xj.l 3Xd.3Xk.2.4Xj.4Xj.2.",
"aXaXaXpX2.* h k.aXyXj.j.yXpXd.j y y y y y y y y y y y y y y y y y y y y y y y y y y y y y y y y y y y y y y y y y y y y y y y y y y y y y y y y y y y y y y y y y y y y y y y y y y y y y y y y y y y y y y y y y y y y y y y y y y y y y y y y y y y y y y y y y y y y y y y y y y y y y y y y y y y y y y y y y D.A.N.c.J.y iXF.hXx.fX  x.jXjXv.fXcXc.A.c.jXjXv.+ jX5XjXH.K.V L.F.4.  J.V A.x.hXjXv.5XAXn.fXjXH.L.= jX& Z.N.N.v.fXGXc F.V hXD.- F xXJ.jXK.N.& jXK.kX5XgXx n.F.  kXkXV zXL.& c 4.y - 2.j.j.j.> j.4X3X3Xj.3Xj.3X",
"j.j.uXaX3X# j.aXj.o * # * k.uX2.- y y y y y y y y y y y y y y y y y y y y y y y y y y y y y y y y y y y y y y y y y y y y y y y y y y y y y y y y y y y y y y y y y y y y y y y y y y y y y y y y y y y y y y y y y y y y y y y y y y y y y y y y y y y y y y y y y y y y y y y y y y y y y y y y y y y y y y y c D.fXhXN.L.kXD.n.kXH iXH.A.n.x.K.L.A.jX5Xb.c.jXb.& J.fXhXn.F.kXn.D.jXv H.4.hXv.hXfXF.K.N.jXv.L.hXK.kXF.+ G hXfXL.L.S.A.F.G hXL.y G K.gXL.v.5XfXZ.D.v.lXc.fXfXF V K.F.S.kXK.= c x.y y 2.3Xj.3Xj.j.3X3Xj.j.3Xj.d.",
"> o 2.aX3Xg uX3X* g - 2.j.* 4Xj.g y y y y y y y y y y y y y y y y y y y y y y y y y y y y y y y y y y y y y y y y y y y y y y y y y y y y y y y y y y y y y y y y y y y y y y y y y y y y y y y y y y y y y y y y y y y y y y y y y y y y y y y y y y y y y y y y y y y y y y y y y y y y y y y y y y y y y y y y 4.c V V v 4.= y 4.V y 4.b c x V y % F F c y y c y c x c x y 4.- c 4.b c g F c V G y x % V c y c V 4.= y = v H c y & b c y V f.x y c x c y c H = c y b & G V & c g y c G c - y v y y l k * j l g g g g j 2.y * ",
"k l 3XaX3X# 2.pXuX- y j g ; 3X4Xj - y y y y y y y y y y y y y y y y y y y y y y y y y y y y y y y y y y y y y y y y y y y y y y y y y y y y y y y y y y y y y y y y y y y y y y y y y y y y y y y y y y y y y y y y y y y y y y y y y y y y y y y y y y y y y y y y y y y y y y y y y y y y y y y y y y y y y y y & y = - - & y y & - y & - y y = y y = = y y y y y y y y y y & y y & - y y = y = & y y y = y y y = & y y y - & y y y - y y - & y y y y y y - & y y y - y & = y - y y y = y y y y y y - - y y * y y y y y * y y ",
"pXpXaXpXd.y 4XpXpXy * - y * 3X3Xj - y y y y y y y y y y y y y y y y y y y y y y y y y y y y y y y y y y y y y y y y y y y y y y y y y y y y y y y y y y y y y y y y y y y y y y y y y y y y y y y y y y y y y y y y y y y y y y y y y y y y y y y y y y y y y y y y y y y y y y y y y y y y y y y y y y y y y y & y y y y y y y y y y y y y y y y y y y y y y y y y y y y y y y y y y y y y y y y y y y y y y y y y y y y y y y y y y u y y y y y y y y y y y y y y - y y y y y y y y y y - - - y = y y = = = = y y - y - y y y ",
"4XuX4Xj.* h uX4XpX4Xk j ; l yXj.y y y y y y y y y y y y y y y y y y y y y y y y y y y y y y y y y y y y y y y y y y y y y y y y y y y y y y y y y y y y y y y y y y y y y y y y y y y y y y y y y y y y y y y y y y y y y y y y y y y y y y y y y y y y y y - y g y y y y y y y y y y y y y y y y y y y y y y y 4.V & g H & = = x b y - y = y y = = y - = b y y y y y y y y y y y y y y y y y y y y y y y j - y y y y y y y y y y y u  X8 u y y * # # # y y - j tXtXk - y y y y y y y y y l l l t V b c F G G G g V V g V y y y ",
"o * ; * y y # 4XpXpXaX3Xg 4X4X2.* y y y y y y y y y y y y y y y y y y y y y y y y y y y y y y y y y y y y y y y y y y y y y y y y y y y y y y y y y y y y y y y y y y y y y y y y y y y y y y y y y y y y y y y y y y y y y y y y y y y y y y y y y y y y y g 2.j y y y y y y y y y y y y y y y y y y y y y & H N.c v.v.c.c.c.x.v.A.= x.v.4.c.x.v.v.4.x.v.D.G = y y y y y y y y y y y y y y y y y y y y - 2.2.- y y y y y y y y y u j $XO.u g - 2.j.j.tXj y * l yXyXd.* y y y y y y y y g j.j.j.t v.v.x.A.b.4.D.c.x.v.c v.y y g ",
"* g y y y y g uXd.pXpX4X4X4X2.y y y y y y y y y y y y y y y y y y y y y y y y y y y y y y y y y y y y y y y y y y y y y y y y y y y y y y y y y y y y y y y y y y y y y y y y y y y y y y y y y y y y y y y y y y y y y y y y y y y y y y y y y y y y y y - z d.y y y y y y y y y y y y y y y y y y y y y y y y x.A.D.c.D.D.b.c.V c.& v.4.S.4.A.n.c.v.S.v.b.x y y y y y y y y y y y y y y y y y y y y y - l d.- y y y y y y y y y u O.oXoXg y * d.k.k.uXj y * l uXtXd.* y y y y y y y y g j.j.j.t x.A.N.c.b.F x.b.N.c.V v.- y j ",
"y y y y y y y * * uXd.j.j.2.y y y y y y y y y y y y y y y y y y y y y y y y y y y y y y y y y y y y y y y y y y y y y y y y y y y y y y y y y y y y y y y y y y y y y y y y y y y y y y y y y y y y y y y y y y y y y y y y y y y y y y y y y y y y y y y y - z j - y y y y y y y y y y y y y y y y y y y y y b c.4.x.4.4.c.G x.f.c.y b.v.4.V 4.x.H c.x.4.x.G = y y y y y y y y y y y y y y y y y y y y y l y y y y y y y y y y y y X.u X.j u y * # # * y y y g k.j.g y y y y y y y y y y d.d.d.t F x.x.G c.f.H V v.F n.G = y y ",
"y y y y y y y g y y y y g - y y y y y y y y y y y y y y y y y y y y y y y y y y y y y y y y y y y y y y y y y y y y y y y y y y y y y y y y y y y y y y y y y y y y y y y y y y y y y y y y y y y y y y y y y y y y y y y y y y y y y y y y y y y y y y y y y y y y y y y y y y y y y y y y y y y y y y y y y y g - y g y y g y y y y c.x y y y g g y y x y y y y y y y y y y y y y y y y y y y y y y y y y y y y y y y y y y y y y u g u y y y g g g g y y y y * * y y y y y y y y y y y y - y y y y y y y x y y y y y y y y y ",
"+ + + + + + + + + + + + + + + + + + + + + + + + + + + + + + + + + + + + + + + + + + + + + + + + + + + + + + + + + + + + + + + + + + + + + + + + + + + + + + + + + + + + + + + + + + + + + + + + + + + + + + + + + + + + + + + + + + + + + + + + + + + + + + + + + + + + + + + + + + + + + + + + + + + + + + + + + + + + + + + + + + + + + + + + + + + + + + + + + + + + + + + + + + + + + + + + + + + + + + + + + + + + + + + + + + + + + + + + + + + + + + + + $ + + + + + + + + + + + + + + + + + + + + + + + + + + + + + + + ",
"A.A.A.A.A.A.A.A.A.A.A.A.A.A.A.A.A.A.A.A.A.A.A.A.A.A.A.A.A.A.A.A.A.A.A.A.A.A.A.A.A.A.A.A.A.A.A.A.A.A.A.A.A.A.A.A.A.A.A.A.A.A.A.A.A.A.A.A.A.A.A.A.A.A.A.A.A.A.A.A.A.A.A.A.A.A.A.A.A.A.A.A.A.A.A.A.A.A.A.A.A.A.A.A.A.A.A.A.A.A.A.A.A.A.A.A.A.A.A.A.A.A.A.A.A.A.A.A.A.A.A.A.A.A.A.A.A.A.A.A.A.A.A.A.A.A.A.A.A.A.A.A.A.A.A.A.A.A.A.A.A.A.A.A.A.A.A.A.A.A.A.A.A.A.A.A.A.A.A.A.A.A.A.A.A.A.A.A.A.A.A.A.A.A.A.A.A.A.A.A.A.A.A.A.A.A.A.A.A.A.A.A.A.A.A.A.A.A.A.A.A.A.A.A.A.A.A.A.A.A.A.A.A.A.A.A.D.D.D.D.D.D.D.D.D.D.D.D.D.D.D.D.D.D.D.D.",
"F.F.F.F.F.F.F.F.F.F.F.F.F.F.F.F.F.F.F.F.F.F.F.F.F.F.F.F.F.F.F.F.F.F.F.F.F.F.F.F.F.F.F.F.F.F.F.F.F.F.F.F.F.F.F.F.F.F.F.F.F.F.F.F.F.F.F.F.F.F.F.F.F.F.F.F.F.F.F.F.F.F.F.F.F.F.F.F.F.F.F.F.F.F.F.F.F.F.F.F.F.F.F.F.F.F.F.F.F.F.F.F.F.F.F.F.F.F.F.F.F.F.F.F.F.F.F.F.F.F.F.F.F.F.F.F.F.F.F.F.F.F.F.F.F.F.F.F.F.F.F.F.F.F.F.F.F.F.F.F.F.F.F.F.F.F.F.F.F.F.F.F.F.F.F.F.F.F.F.F.F.F.F.F.F.F.F.F.F.F.F.F.F.F.F.F.F.F.F.F.F.F.F.F.F.F.F.F.F.F.F.F.F.F.F.F.F.F.F.F.F.F.F.F.F.F.F.F.F.F.F.F.F.F.F.S.N.N.N.N.N.N.N.N.N.N.N.N.N.N.N.N.N.N.N.N.",
"+ + + + + + + + + + + + + + + + + + + + + + + + + + + + + + + + + + + + + + + + + + + + + + + + + + + + + + + + + + + + + + + + + + + + + + + + + + + + + + + + + + + + + + + + + + + + + + + + + + + + + + + + + + + + + + + + + + + + + + + + + + + + + + + + + + + + + + + + + + + + + + + + + + + + + + + + + + + + + + + + + + + + + + + + + + + + + + + + + + + + + + + + + + + + + + + + + + + + + + + + + + + + + + + + @ X X X + + + + + + + + + + + + + + + + + + + + + + X x F.D.D.S.S.S.S.S.S.S.S.S.S.S.S.F.F.F.F.F.",
"y y y y y y y y y y y y y y y y y y y y y y y y y y y y y y y y y y y y y y y y y y y y y y y y y y y y y y y y y y y y y y y y y y y y y y y y y y y y y y y y y y y y y y y y y y y y y y y y y y y y y y y y y y y y y y y y y y y y y y y y y y y y y y y y y y y y y y y y y y y y y y y y y y y y y y y y y y y y y y y y y y y y y y y y y y y y y y y y y y y y y y y y y y y y y y y y y y y y y y y y y y y y y y y y V H H G c y y y y y y y y y y y y y y y y y y y y y & v.LXLXLXLXLXLXLXLXLXLXLXLXLXLXPXn.v.v.v.v.",
"4.c.H N.V x.V n.x.F F V - y y y y y y y y y y y y y y y y y y y y y y y y y y y y y y y y y y y y y y y y y y y y y y y y y y y y y y y y y y y y y y y y y y y y y y y y y y y y y y y y y y y y y y y y y y y y y y y y y y y y y y y y y y y y y y y y y y y y y y y y y y y y y y y y y y y y y y y y y y y y y y y y y y y y y y y y y y y y y y y y y y y y y y y y y y y y y y y y y y y y y y y y y y y y y y y y y y = c.hXgXA.F = y y y y - V c.c c y y y y g v.c.g y G G + c.LXHXzXJXKXHXKXHXKXKXcXHXPXPXHX& + % $ $ ",
"b.F b.L.x.L.v.S.n.A.D.F = y y y y y y y y y y y y y y y y y y y y y y y y y y y y y y y y y y y y y y y y y y y y y y y y y y y y y y y y y y y y y y y y y y y y y y y y y y y y y y y y y y y y y y y y y y y y y y y y y y y y y y y y y y y y y y y y y y y y y y y y y y y y y y y y y y y y y y y y y y y y y y y y y y y y y y y y y y y y y y y y y y y y y y y y y y y y y y y y y y y y y y y y y y y y y y y y y y + D.S.y 5Xv - y y y y - b v.N.b.y y y & x.4.x.A.G F.x.+ c.LXHXxXvXxXxXlXjXGXxXkXHXPXPXHXc y y y y ",
"c.N.D.v.A.c.D.c.x v.c.G = y y y y y y y y y y y y y y y y y y y y y y y y y y y y y y y y y y y y y y y y y y y y y y y y y y y y y y y y y y y y y y y y y y y y y y y y y y y y y y y y y y y y y y y y y y y y y y y y y y y y y y y y y y y y y y y y y y y y y y y y y y y y y y y y y y y y y y y y y y y y y y y y y y y y y y y y y y y y y y y y y y y y y y y y y y y y y y y y y y y y y y y y y y y y y y y y y y & c.L.hXJXG & y y y y = V A.x.c.c y y = F n.c.v.A.N.4.+ c.PXKXxXkXxXxXjXGXjXfXfXHXKXLXcX& y y y y ",
"= V y & c + y = & = & & & & & & & & & & & & & & & & & & & & & & & & & & & & & & & & & & & & & & & & & & & & & & & & & & & & & & & & & & & & & & & & & & & & & & & & & & & & & & & & & & & & & & & & & & & & & & & & & & & & & & & & & & & & & & & & & & & & & & & & & & & & & & & & & & & & & & & & & & & & & & & & & & & & & & & & & & & & & & & & & & & & & & & & & & & & & & & & & & & & & & & & & & & & & & & y y y y y y = H c.n.hXF = y y y y y x V x c y y y y = V v y F c V % c.LXPXKXLXKXjXIXLXPXKXPXLXLXKXc.& y y y y ",
"4.H 4.f.4.x.4.4.f.4.4.4.x.x.f.f.f.f.f.f.f.x.f.f.f.f.f.f.f.f.f.f.f.x.f.f.f.f.f.f.f.f.f.f.x.f.x.x.f.f.f.f.f.f.f.f.f.f.f.f.f.f.f.f.f.f.f.f.f.f.f.f.f.f.f.f.f.f.f.4.4.4.4.4.4.4.f.4.4.4.4.4.f.4.4.4.f.f.f.f.f.f.f.4.4.4.4.4.4.4.4.4.4.4.4.4.4.4.4.4.4.4.4.4.4.4.4.4.4.4.4.4.4.4.4.4.4.4.4.4.4.4.4.4.4.4.4.4.4.4.4.4.4.4.4.4.4.4.4.4.4.4.4.4.4.4.4.4.4.4.4.4.4.4.4.4.4.4.4.4.4.4.4.4.4.4.4.4.4.4.4.4.4.4.4.4.4.4.4.4.F % y y y y y y y = & + - y y y y y y y = y y y y y y y = = y = y y % v.GXjXlXlXjXkXlXjXlXlXlXjXgX4.& y y y y y ",
"L.L.L.L.K.L.K.L.L.L.K.K.K.L.L.K.K.K.K.K.K.L.K.K.K.K.K.K.K.K.K.K.K.K.K.K.K.K.K.K.K.K.K.K.K.K.K.L.K.K.K.K.K.K.K.K.K.K.K.K.K.K.K.K.K.K.K.K.K.K.K.K.K.K.K.K.K.K.K.K.K.K.K.K.K.K.K.K.K.K.K.K.K.K.K.K.K.K.K.K.K.K.K.5XiXK.iXhX5XiXhX5X5XhXhXhXhXhXhXhXhXhXhXhXhXhXhXhXhXhXhXhXhXhXhXhXhXhXhXhXhXhXhXhXhXhXhXhXhXhX;X;XhXhXhXhXhXhXhXhXhXhXhXhXhXhXhXhXhXhXhXhXhXhXhXhX&XhXhXhXhXhXhXhXhXhXhXhXhXhXhXhXhXhXhXhXhXhXhXhXkXhXy y y y y y y c F y y y y y y y y y p y y y y y y y p y y p y p + N.F.  + + + % + + + + + + + & y y y y y y ",
"                                                      o o o o o o         X             .   o r O                                   . X     O O O X.O O X X .         X   X .   X X X X . X X . O : z @.+ $ $ X X % . X . . X % . X . . . . . . . . . . . . . . . . . % . . . . . . . . . . ; + . . % % = $ 6.s # & % % % ; + % % % - % % % - % % ; - % % p u u q.a * * * ; % % % ; ; ; ; ; ; ; ; ; ; - - * 3 p a eXH.+ y y y y x c.x.x.- y y y y y p 4 4 4 4 4 3 y y p 4 4 4 4 4 p + b.L.+ c y y y y y y g g g g y y y y y y y ",
". . - X . . . . . . . . . - % . . . . . . - % . . . > 5 5 , 6 6 5 4 , % % x % . - - . ; m > 5 ;.w 7 7 ; % % % % % % % % % % % % % % x - % ; 7 0 o.oX8 8 7 7 b % ; ; ; ; ; - b % ; ; ; ; b - ; 7 7 M z.%Xj D V - ; v - ; b x ; b b ; - - - - - - - - - - - - - - - - x v - - - - - - - - x - F x x x x b D l 6Xp.C C c x b v x x x b F x x x F x x v F x b 5.S C qXr.Z S v b b b b b b b b b b b b b b F F v S A u.].kX& y y y & G H   v.g y y y y y p 4 4 4 4 4 3 y y p 4 4 4 4 4 p + b.L.+ y y y y y y y y * * y y y y y y y y ",
"X . ;   X X X X X X X . X ; . X X . . . X - . . . . > 5 5 , , , 6 5 , . . - . . % ; . % 3 > , <.r 7 ; : + . . . % % % % % % % % % . - ; % ; 7 7 o. X8 7 7 ; x % % % % % % ; x % % % % % x ; ; = 7 w z.k.j k h = ; b ; % x x % x x ; ; ; ; ; ; ; ; - - - - - - - - - - b - - - - - - - - - - v - - - g j k k V.p.s s p - x v - x - x v - x x v x x b v - x G C C ].r.m m b x x x x x x x x x x x x x x v v b S S r.a.gX* y y y & G H   m.g y y y y y p 4 4 4 4 4 3 y y p 4 4 4 4 4 p + b.L.+ y y y y y - * y l l y * - y y y y y ",
"X . ;   X X X X X X X . X ; . X X . . . X - . . . . > 5 5 , , , 6 5 , . . - . . % ; . % 3 > , <.r 7 ; : + . . . % % % % % % % % % . - ; % ; 7 7 o. X8 7 7 ; x % % % % % % ; x % % % % % x ; % = 7 w z.k.j k h = ; b ; % x x % x x ; ; ; ; ; ; ; ; - - - - - - - - - - b - - - - - - - - - - v - - - g j k k V.p.s s p - x v - x - x v - x x v x x b v - x G C C ].r.Z m b x x x x x x x x x x x x x x v v b S S r.a.gX* y y y & G H   v.g y y y y y p 4 4 4 4 4 3 y y p 4 4 4 4 4 p + b.L.+ y y y y - j 3XpXpXpXpX3Xg - y y y y ",
"X . ;   X X X X X X X . X ; . X X . . . X - . . . . > 5 5 , , , 6 5 , . . - . . % ; . % 3 > , <.r 7 ; : + . . . % % % % % % % % % . - ; + ; 7 7 o. X8 7 7 ; x % % % % % % ; x % % % % % x ; % = 7 w z.k.j k h = ; b - % x x % x x ; ; ; ; ; ; ; ; - - - - - - - - - - b - - - - - - - - - - v - - - g j k k V.p.s s p - x v - x - x v - x x v x x b v - x G C C ].r.Z m b x x x x x x x x x x x x x x v v b S S r.a.gX* y y y & G H   v.g y y y y y p 4 4 4 4 4 3 y y p 4 4 4 4 4 p + b.L.+ y y y - l pXpXuXj.j.uXpXpX2.- y y y ",
"X . ;   X X X X X X X . X ; . X X . . . X - . . . . > 5 5 , , , 6 5 , . . - . . % ; . % 3 > , <.r 7 ; : + . . . % % % % % % % % % . - ; + ; 7 7 o. X8 7 7 ; x % % % % % % ; x % % % % % x ; % = 7 w z.k.j k h = ; b - % x x % x x ; ; ; ; ; ; ; ; - - - - - - - - - - b - - - - - - - - - - v - - - g j k k V.p.s s p - x v - x - x v - x x v x x b v - x G C C ].r.Z m b x x x x x x x x x x x x x x v v b S S r.a.gX* y y y & H H   v.g y y y y y p 4 4 4 4 4 3 y y p 4 4 4 4 4 p + b.L.+ y y y g pXpXl o o o o l pXpXy y y y ",
"X . ;   X X X X X X X . X ; . X X . . . X - . . . . > 5 5 , , , 6 5 , . . - . . % ; . % 3 > , <.r 7 ; : + . . . % % % % % % % % % . - ; + ; 7 7 o. X8 7 7 ; x % % % % % % ; x % % % % % x ; % = 7 w z.k.j k h = ; b - % x x % x x ; ; ; ; ; ; ; ; - - - - - - - - - - b - - - - - - - - - - v - - - g j k k V.p.s s p - x v - x - x v - x x v x x b v - x G C C ].r.Z m b x x x x x x x x x x x x x x v v b S S r.a.gX* y y y & H H   v.g y y y y y p 4 4 4 4 4 3 y y p 4 4 4 4 4 p + b.L.+ y y ; 3XpXl o v H $.F o l pX3X; y y ",
"X . ;   X X X X X X X . X ; . X X . . . X - . . . . > 5 5 , , , 6 5 , . . - . . % ; . % 3 > , <.r 7 ; : + . . . % % % % % % % % % . - ; + ; 7 7 o. X8 7 7 ; x % % % % % % ; x % % % % % x ; % = 7 w z.k.j k h = ; b - % x x % x x ; ; ; ; ; ; ; ; - - - - - - - - - - b - - - - - - - - - - v - - - g j k k V.p.s s p - x v - - - x v - x x v x x b v - x G C C ].r.Z m b x x x x x x x x x x x x x x v v b S S r.a.gX* y y y & H H   v.g y y y y y p 4 4 4 4 4 3 y y p 4 4 4 4 4 p + b.L.+ g y y pXpXo b H H J J x   pXpX- y y ",
"X . ; X . . . . . . . . X ; % . . . . . . - . . . . , 5 5 , , , 5 5 , o . 3 . . ; ; . # 4 > , <.r 7 ; : + . . . % % % % % % % % % . - ; % ; 7 7 o. X8 7 7 ; x % % % % % % ; x % % % ; % x ; ; = 7 w z.k.j k h = ; b - % x x % x x ; - - - - - - - - - - - - - - - - 3 v - - - - - - - - 3 - v 3 3 3 x c D k p.p.s s p 3 b v - 3 - x v - x x v x x b v - x G C C ].r.Z m b x x x x x x x x x x x x b x V v b Z Z r.a.gX* y y y & H H   v.g y y y y y p 4 4 4 4 4 3 y y p 4 4 4 4 4 p + b.L.+ g - j pXj.o F J N b.bXlXb j.pXj - y ",
"  X $   X X X X X X X X   $ O X X X X X X $ X X X X o 3 3 o o o > 3 o X X = X X $ $ X O - : > <.8 7 : : . . . . : : + . . . + % % . - % . % 7 7 o. X8 7 7 ; x % % % % % % ; x % % % % % x % % ; 7 0 z.k.j k h & % x = % x x % 3 3 o o o o o o o o o o % % $ $ $ $ $ = h $ $ $ $ $ $ $ $ = = k t $ $ t z z z 6Xp.t j t = j c = y - 0 v - 7 - v 7 - b v - x G C C ].r.m m x x x x 7 7 7 7 7 7 7 7 7 7 7 b j 7 b b e.a.gX& y y y & H H   v.g y y y y y p 4 4 4 4 4 3 y y p 4 4 4 4 4 p + b.L.+ g - j pX3Xo v J N m.gXK.3 j.4Xj - y ",
"W W U.W W W W W W W W W W U.W W W W W W W Y.W W W W U.Y.Y.Y.Y.Y.Y.Y.Y.U.W U.E E Q U.W Q Q Q E -.e r 7 $ $ % % + @ # % % ; ; # # # + p 7 ; - 0 0 o. X7 7 7 7 b ; - - - - - - b ; - - - - b - - 7 j M z.k.h D V g g v 3 o 3 x j D g.d.d.d.d.z.z.z.k.k.z.g.H  ./ Q Q Q Q !.Q E.E.E.E.E.E.E.Y.Y.Y.Y.E.!.!.!.!.!.[.[.!.!...Q ../ 5 q x h 6.s C C 3.c 0 0 M x V 5.S C qXr.S S n x 7 b Z e.r.u.u.u.u.u.u.u.u.a.a.u.a.a.].].gX* y y y & H H   v.x y y y y y p 4 4 4 4 4 3 y y p 4 4 4 4 4 p + b.L.+ y y * uXpXo 7 J J F v ;   4X3X- y y ",
"T.T.T.T.T.T.T.T.T.T.T.T.T.T.T.T.T.T.T.T.T.T.T.T.R.R.T.R.R.T.T.T.R.R.R././.(.(.(./.Y.Y.R.R.R././././.).W.Q 3 8 +.@X#X#X#X#X#X#X#X@X<.B u * 0 w w o..Xh M h b v x x x x x x b v x x x x x v x x b M M z.%XD D D b 3 n g.tXuXuXuXuXuXtXtXtXtXtXtXuX}.}.|.|._.).Q.Q.~.~.~.~.~.!.!.!.!.!.!.}.}.}.gX}.!.Y.W.!.!.!.~.Q.~.Q.Q.W.W.{.{._._.{.0X2X2X2X2X2X2X2Xp.F b 5.3.3.qXy.} A v t.qXqXqX].].].].].].].].].].].].].].].qX].hX* y y y & H H   n.x y y y y y p 4 4 4 4 4 3 y y p 4 4 4 4 4 p + b.L.+ y y * j.pXd.  - b v x o 2.4Xd.* y y ",
"X . ; X . . . . . . . . . ; % . . . . . . - o , , , , 5 5 , , , 5 5 , , 1 T 1 P U.Y.1 O = o > <.r 9 U W W./.`.OX+.o.r r r r r o.+.+.#XOXw @ ; 7 o. X8 8 ; ; x . % % % % % ; x . % % % % x % % ; 7 0 z.k.j l g % z.uXuXk.d.g.j V b g g g t T /./.R.Q T b h z z z z z z d.z z z z z z z l l d.k.tXyXk.z $ l z 6X8.t j $ 1.2X2Xi.3.] ..Q._.~.s 3.s 1.i.2X2Xi.F s s ].r.m x ].0Xw.| m b b b b b b b b b b F S m Z A r.a.gX* y y y & H H   n.x y y y y y p 4 4 4 4 4 3 y y p 4 4 4 4 4 p + b.L.+ y y y - yXaXd.. + + . 2.yX3X- y y y ",
"> > 5 > > > > > > > > > > 5 , > > > > > > 4 2 K K K K Y Y K K K Y T K K K T o o 3 R Y.T.4 o 2 <.w : $ OX+Xe Y./.Q $ 7 7 7 7 7 7 ; : 0 o.+XOX7 ; o. X8 7 7 ; x % % % % % % - x % % % ; % x ; ; = 7 w z.k.j c g.yXtXg.g = V D j D D h z z ~._...k z z z z k k k k k k D D k k k k k k k k V h F x D l.yXz.x l p.p.p p 2X2Xy.V p C s C 6.d ~._.] s s V F s 2X2XC C ].r.m 0X].m b Z Z Z Z Z Z Z Z Z Z Z Z } } | e.e.u.].gX* y y y & H :.  n.x y y y y y p 4 4 4 4 4 3 y y p 4 4 4 4 4 p + b.L.+ y y y y g yXd.* y y * 2.3Xy y y y y ",
"o > 3 o > > > > > > > > o 3 > > > > > > > 3 2 1 1 1 1 Y Y 1 1 1 Y T 1 1 K T > > 5 3 . E /.K > ;.r r +X<.: 7 8 ~ /.Y.8 7 7 7 7 7 7 7 w 7 : +.+Xr w  X8 7 7 ; x % % % % % % ; x % % % % % x ; % = 7 w z.k.& k.yXd.= D k z D D j D D z b ).Q.k z k k k k k k k k k k k k D k k k k k k k k k k g.l k g l yX3X7 6Xp.p 2X2Xp C 3.s s s C 3.s j .._.] s S 3.s c 2X2XC ].| ].].b Z Z Z Z Z Z Z Z Z Z Z Z Z Z } } | e.e.u.].gX* y y y & H x.  n.x y y y y y p 4 4 4 4 4 3 y y p 4 4 4 4 4 p + b.L.+ y y y y - - - y y y y y y y y y y y ",
"o > 3 o o > > > > > > > o 3 > > > > > > > 3 2 1 1 1 1 Y Y 1 1 1 Y T 1 1 K T 6 , 3 3 , # R R.K <.w +X+.: 8 7 r 8 7 /.Y.8 7 7 7 7 7 7 w 0 7 ; +.+Xo. X8 7 7 ; x % % % % % % ; x % % % % % x ; % = 7 w z.k.z.aXg.j z D k j D D j D l h _.!.z z k k k k k k k k k k k k k D k k k k k k k k k k g.k k l k k yX%Xp.p.2X,Xp s C 3.s s s C 3.s C j ..(.d C 3.s 3.G 2X2Xa.].qXZ | Z Z Z Z Z Z Z Z Z Z Z Z Z Z } } A | e.u.].gX* y y y & H x.  n.x y y y y y x q q q q q 0 y y x q q q q q m + b.L.+ y y y y y y - * ; ; * - y y y y y y ",
"o > 3 o o > > > > > > > o 3 > > > > > > > 3 2 1 1 1 1 Y Y 1 1 1 Y T 1 1 K T K 1 3 3 > 6 4 P R.;.+X+.7 r 7 7 7 7 8 7 /.Q 8 r 7 7 7 7 w 0 7 r 7 +.=X X8 7 7 ; x % % % % % % ; x % % % % % x ; % = 7 M z.tXyXg.l z h D k j D D j D l Q.~.z k k k k k k k k k k k k k k k D k k k k k k k k k k g.k k k l l l yX4X8X2Xs 1.s C 3.s s s C 3.s C C 6.^.).C 3.s C t.C 2XqXwXe.| A Z Z Z Z Z Z Z Z Z Z Z Z Z Z } } A | e.u.a.gX* y y y & 4.x.  n.x y y y y y b e e e e e 0 y y b e e e e e M + b.L.+ y y y y y ; j d.k.3Xd.j ; y y y y y ",
"o > 3 o o > > > > > > > o 3 > > > > > > > 3 2 1 1 1 1 Y Y 1 1 1 Y T 1 1 K T K 1 3 3 > , T 6 E -XOX9 r 8 7 7 7 7 7 8 q (.! 8 7 7 7 7 w 0 7 r w r OX+X$ 8 7 ; x % % % % % % ; x % % % % % x ; % = 7 M d.aXd.@.g.z h D k j D l j l !.).z h k k k k k k k k k k k k k k k D k k k k k k k k k k g.k k k l @.2.z.dX1Xs 1.s s C 3.s s s C 3.s C C 3.s ).!.6.s C 5.3.1.rX].A | A Z Z Z Z Z Z Z Z Z Z Z Z Z Z } } A | e.u.a.gX* y y y & 4.x.  b.x y y y y y b e e e e e 0 y y b e e e e e M + b.L.+ y y y y * j.pXaXpXpXaXpXj.* y y y y ",
"o > 3 o o > > > > > > > o 3 > > > > > > > 3 2 1 1 1 1 Y Y 1 1 1 Y T 1 1 K T K 1 5 3 > , T 2 =.-X` e r 8 7 7 7 7 7 q 7 Q /.8 7 7 7 7 w 0 7 r w w o.=X+.$ 7 ; x % % % % % % ; x % % % % % x ; % = 7 0 uXuXz g.l z h D k j D D z  .(.v z h k k k k k k k k k k k k k k k D k k k k k k k k k k g.k k k l l d.g.8X4Xd 3.s s C 3.s s s C 3.s C C 3.C ' _.} s C 5.3.0.rXs.| | A Z Z Z Z Z Z Z Z Z Z Z Z Z Z } } A | e.u.a.gX* y y y & 4.x.  b.x y y y y y b e e e e e 0 y y b e e e e e M + b.L.+ y y y * j.pX4X2.t t 2.4XaXj.* y y y ",
"o > 3 o o > > > > > > > o 3 > > > > > > > 3 2 1 1 1 1 Y Y 1 1 1 Y T 1 1 K T K 1 Y Y > , T 1 #X`.W._ r 8 7 7 7 7 9 9 9 r /.E.8 r 7 7 w 0 7 r w w o.oX+X8 ; ; x % % % % % % ; x % ; ; % % x ; % 7 : d.aXk.l g.g.z h D k j D D z )...z h h h k k k k k k k k k k k k k k D k k k k k k k k k k g.k k k l 2.@.2X8XpXg.d C s C S s s s C 3.s C C 3.C j ~.~.j C t.3.].rXqX| | Z Z Z Z Z Z Z Z Z Z Z Z Z Z Z } } A | e.u.a.gX* y y y & 4.x.  b.x y y y y y b e e e e e 0 y y b e e e e e M + b.L.+ y y * 2.pXuX+ o 0 0 o . uXpX2.* y y ",
"o > 3 o o > > > > > > > o 3 > > > > > > > 3 2 1 1 1 1 Y Y 1 1 1 Y T 1 1 K T K 1 Y T , 6 5 <.;.-.E.E.r 8 7 7 7 7 9 9 9 q ! (.q 8 7 7 w 0 7 r w w o. XOXOX+ ; x % % % % % % ; x % ; 3 % % x ; % = 7 yX%X%Xl g.g.z h D k j D l .._.l h h h h k k k k k k k k k k k k k k D k k k k k k k k k k g.k k k l l g.2X6X6XuXd C s C S s s s C 3.s s s 3.C C | _.Z C 5.0.qXqXqXi.| A Z Z Z Z Z Z Z Z Z Z Z Z Z Z } } A | e.u.a.gX* y y y & 4.x.  b.x y y y y y b e e e e e 0 y y b e e e e e M + b.L.+ y y ; 4XpX% % J $.:.$.; + pXuX; y y ",
"o > 3 o o o > > > > > > o 3 > > > > > > o 3 2 1 1 1 1 Y Y 1 1 1 Y T 1 1 K T 1 1 Y T K K / #X! ;._ W./ r 7 7 7 7 9 9 9 9 r R.R.8 r 7 w 0 7 r w w o..Xw +X8 % x % % % % % % - x % 3 3 % % x ; ; : z.uXz.tXl g.g.z h D k j l D /. .l h h h h k k k k k k k k k k k k k k D k k k k k k k k k k g.k k k l @.2XV.6Xp.uXj.f s C S s C s C 3.s s s 3.C s C ~.^.C 3.a.qXa.<X2XZ A Z Z Z Z Z Z Z Z Z Z Z Z Z Z } } A | e.u.a.gX* y y y & 4.x.  b.x y y y y y b e e e e e 0 y y b e e e e e M + b.L.+ g - j pXuXo v J J :.m.x.o uXpXg - y ",
"o > 3 o > > > > > > > > o 3 > > > > , 2 , 5 1 1 1 1 1 Y Y 1 K 1 Y T 1 1 K T K 1 Y T 1 K ;.-.R ;._ ` E.9 r 7 r 9 9 9 9 9 9 q (.9 8 7 w 0 r r w w o.oX8 OXOX# b % % % % # # # p , 5 3 % ; x ; ; ; yXg.z.tXl g.g.z h D k h l !.Q.l D h k h h k k k k k k k k k k k k k k D k k k k k k k k k k g.k k k k 6.8Xg.6X2Xg.uXs s C S s C s C 3.s C s 3.C s C .._.C 3.qXi.qXa.2Xe.Z Z Z Z Z Z Z Z Z Z Z Z Z Z Z } } Z | | u.a.gX* y y y & 4.x.  b.x y y y y y b e e e e e 0 y y b e e e e e M + b.L.+ g - j pXj.o F J N D.JXcXn d.uXj - y ",
"o > 3 o o o o o o o o o o 3 > o > o , K < T 1 1 1 1 1 Y Y 1 K 1 Y T 1 1 1 T 1 1 Y T < I #XR R ;._ ~ W./ 7 8 r 9 9 9 9 9 9 8 Y.R.8 7 w q r 8 r w o.oXw 8 +Xw p + o . % 7 8 h %.w q 3 # o p ; o z.tXw z.%Xl g.l z j D h j D _.m l D j h h h h h h z c h h h h h h h h k D h k h h h h k k k h D k k k z 2X6Xg.6X6X3.uXj.f C S s s s C 3.s s s 3.s s C 3.)...p.qX1.qXu.<Xi.a d d d d Z Z Z Z Z Z Z Z Z a } A d | | w.a.gX* y y y & 4.x.  b.x y y y y y 0 e e e e e 0 y y b e e e e e M + b.L.+ g - g pX4Xo v J F H c.$.o 3X4Xg y y ",
"> 3 4 > > > > > > > > > > 4 3 > > > 5 Y K T Y Y Y Y Y T T Y 5 5 Y T Y Y Y T Y Y T T 1 ;.;.R / ;.=.) ` E.q q q q q q q q ^ 0 w (.q 8 B ( q w w o.o..Xo.w @XOXf 0 &. XXXXXXXXX.X.X.X.X.X X@.- # yXd.%.l.tXg.g.g.l k g.D l ..Q.z D D k k k k k D D l D D l D D D D D D D g.D D D D D D D D D D g.D D D 6.2Xg.g.6X6X6.V.uXa 3.3.C C C S 5.C C C 5.C C 3.6.!.Q.qX].3.qXu.p.2XZ A A A A A A A A A A A A A A t.t.| e.e.u.a.gX* y y y & 4.x.  b.x y y y y y y p p p p p p y y p 4 4 4 4 4 p + b.L.+ y y ; 4XpX. : N J J N : + 4X3X* y y ",
"3 3 4 > 3 3 3 3 3 3 3 3 3 4 3 3 3 3 5 Y Y T T Y Y Y Y T T R Q Q Q T Y T T T T T T T T #X` / ` ;.=._ _ W./ q ( ( ( ( ( ( ( e 8 Y.W.8 B ) e w o.o.o..Xe %.w #X*..X X@.@.h 7 b N q m n %.&. XoX%XuXh %.l.tXg.g.g.l k g.D l _. .l g.g.D D D D D D D D F D D D D D D D D D g.D D D D D D D D D D g.D D k 2X2Xg.g.6X6X6.6.uXg.S 5.C S S 3.5.S S S 5.S S 3.5.A _.wXy.y.qXa.y.2Xe.} } } } } } } } } } } } } } t.t.e.r.r.a.a.gX* y y y & 4.x.  N.x y y y y t R U.W W W W Q y y p 4 4 4 4 4 p + b.L.+ y y * 2.pX4X+ % - - % % 3X4Xl - y y ",
"o > 3 o o o o o o o o o o 3 > o o o 2 1 < T 1 < 1 1 1 Y 5 T.T.Y./.T 1 1 1 T 1 1 Y K =.;.R / R ;._ _ ~ ` E.r 9 9 9 9 9 9 9 r 8 9 (.9 w q 9 r r r o..Xe 8 @.=X@X3 ; ; 7 7 8 8 M q q q 7 ; b 8 yX%X@.k z.%Xl g.l z j D z / ).l j D D j h h h h h h z v b z h h h h h h k D h h h h h h h k k h D k h D 2X6.6.g.6X2X6.3.3XuXf 3.s s s C 3.s s s 3.s s C A j ~.{.1.0.qXs.0.2Xi.a d a a a a a a a a Z Z Z a } A d | | w.a.gX* y y y & 4.x.  N.x y y y y y T R R R R R T y y p 4 4 4 4 4 p + b.L.+ y y y * 3XaXj.o $ % # j.pXd.- y y y ",
"o > 3 o > o > > > > > > o 3 > > > > 2 K 1 T K 1 1 1 2 5 5 T.K , R.R 1 K K T 1 1 Y T #X_ / / R ;._ _ ~ ~ W.! 9 9 9 9 9 9 9 9 9 r R.Y.w ^ 9 r w w o..Xq &.oX=.#X0 8 7 7 7 7 7 B q q q 0 8 w d.uX&.$X@.z.tXl g.g.h h D z )...l j D D h k h h h h k k v V k k k k k k k k D h k k k k k k k k k g.k h p.2X2.g.g.6X2X6.6.6.uX6.S s s s C 3.s C s 3.C s C 3.j [._.0.q.qXa.e.s.<Xm Z Z Z Z Z Z Z Z Z Z Z Z Z } } A | | w.a.gX* y y y & 4.x.  A.x y y y y y y p p p p p y y y p 4 4 4 4 4 p + b.L.+ y y y y * j.l - y y y h d.* y y y y ",
"o > 3 o o o o > > > > > o 3 > > > > 2 1 1 T K 1 1 1 Y.T.T.R.K 1 R.R 2 K K T 1 1 K =.;.Y / R R ;._ _ ~ 9 E.` r 9 9 9 9 9 9 9 9 q Q /.( q 9 q w e o.*.*.XXo.q #X=.= 8 7 0 7 7 n q q q 0 8 0 uXk.j &.$X%XtXl g.D h b l  ./.l k j D D h h h h h h k k n v z k k k k k k k D h k k k k k k k k k g.k h 2X6.6.g.g.6X2X6.6.3.4X4Xa s s s C 3.s s s 3.C s C S d wX_.w.1.qXa.r.q.2XZ Z Z Z Z Z Z Z Z Z Z Z Z a } A Z | | w.a.gX* y y y & 4.x.  A.x y y y y y 3 3 3 3 3 3 3 y y p 4 4 4 4 4 p + b.L.+ y y y y y * - y y y y - * y y y y y ",
"o > 3 o o o o > > > > > o 3 > o > o 2 1 1 T K 1 1 L R.Q Q L 1 2 R.Q 2 K K T 1 1 K #X_ U / R R ;._ _ ~ ~ / W.9 9 9 9 9 9 9 9 9 9 q /.E.q 9 q w e o.@X.Xo.e e >.#X7 7 7 0 7 7 n q q q 0 7 %.yXl @.l *.$Xk.l g.D b b l ~.!.l D j D D h h h h h h h k n v z k k k k k k k D h k k k k k k k k k g.h 6.2XD 6.g.g.6X2X6.6.6.g.uXS s s s C 3.s C s 3.C s C V w.qX~.~.1.qXu.q.e.2Xe.m Z Z Z Z Z Z Z Z Z Z Z a } A d | | w.a.gX* y y y & 4.x.  A.x y y y y y p 3 3 3 3 3 3 y y p 4 4 4 4 4 p + b.L.+ y y y y y y u u y y u u y y y y y y ",
"o > 3 o o o o > > > > > o 5 1 2 2 2 1 1 1 T K 1 1 L T.5 Y 1 K 2 T.Q 2 K K T 1 1 ~ #XU ! / R R ;._ _ ~ ! 9 E./ 9 9 9 9 9 9 9 9 9 r Y./.q 9 q e ( =..Xo.o.o.e ) #Xo.7 0 q 7 7 n q q q 0 : l.l.z @.%.%.%X%X2.g.G v b G _.v l D j D D h h h h h h h k n v k h k k k k k k D h k k k k k k k k k g.h 2Xp.D 6.g.g.6X2X6.6.6.C uXg.p C s C 3.s s s 3.C s C V qXs.u._.1.qXu.q.e.<Xi.m Z Z Z Z Z Z Z Z Z Z Z a } A d | | w.a.gX* y y y & x.x.  N.x y y y y t P U.W W W U.Q y y p 4 4 4 4 4 p + b.L.+ y y y y y u =.;.-X-X`.=.u y y y y y ",
"o > 3 o o o o > > > > > o 5 K 1 1 1 1 1 1 T K 1 2 P T.5 Y 1 K 2 T.Q , 1 K T K < ;.-.Y ! / R R ;._ _ ~ ! ! ` E.r 9 9 9 9 9 9 9 9 9 9 /./ q 9 ( ~ .X.Xe o.o.e B <.<.= q q 7 7 n q q q 0 7 uX%.@.@.%.%.z.yXz.2.G n j !.Q.z D k j D D h h h h h h h h n n h v k k k k k k D h k k k k k k k k k %.6.2X6.6.6.6.g.6X2X6.6.6.C l.4Xf C s C 3.s s s 3.C s C e.0X0.y._.u.qXa.q.e.i.2Xm Z Z Z Z Z Z Z Z Z Z Z a } A d | | w.a.gX* y y y & G x.y F.c y y y y t Q U.U.U.U.U.E y y p 4 4 4 4 4 p + b.L.+ y y y y y `.-X-X;.;.-X-X-Xx y y y y ",
"o > 3 o o o o > > > > > o 5 K 1 1 1 1 1 1 T K 1 2 P T.5 Y 1 K 2 U.R.T.P 1 T 1 K #X/ I ! / R R ;._ _ ~ ~ ! ! W.! 9 9 9 9 9 9 9 9 9 r R.W.r ( ~ o..X@Xo.o.e e ) e #X0 q q 7 7 n q q q 9 g.uXM @.@.%.%.z.tXXXg.J n v /. .z D l j D D j h h h h h h h n n V v k k k k k k D h k k k k k k k k k %.p.2XD 6.6.6.g.6X2X6.6.6.6.6.uXC s s C 3.s s s 3.C s c a.].d y.Q.^.qXa.r.e.e.2XZ Z Z Z Z Z Z Z Z Z Z Z a } A d | | w.a.gX* y y y - V jXGXzXc y y y y t Q U.U.U.U.U.E y y p 4 4 4 4 4 p + b.L.+ y y y y -X-X=.+ @ @ + =.-X-Xu y y y ",
"o > 3 o o o o > > > > > o 5 K 1 1 1 1 1 1 T K 1 2 P T.5 Y 1 K 1 Y R T.W 2 T < =.;.T ! ! / R R ;._ _ ~ ~ ! 9 E.` r 9 9 9 9 9 9 9 9 9 ` (.9 q ~ .X<.*.o.o.e e >.q <.=.3 q 7 7 n q q q 6 %Xv.M @.@.%.%.%X%X%X%XA v ..).h j D l j D D j h h h h h h h n n v n k k k k k k D h k k k k k k k k k D 2X6.6.6.6.6.g.6X2X6.6.6.6.3.uXj.f s C 3.s s s 3.s s c qXw.3.y.^.).qXa.r.q.| 2Xq.m Z Z Z Z Z Z Z Z Z Z a } A d | | w.a.gX* y y y - V vXKXjXu y y y y t Q U.U.U.U.U.E y y p 4 4 4 4 4 p + b.L.+ y y u =.-X=.@ 0 N J x @ =.-X=.u y y ",
"o > 3 o o o o o > > > > o Y K 1 1 1 1 1 1 T K 1 2 E Y.5 Y 1 1 1 Y 5 U.U.2 T < ;.=.! I ! / R R ;._ _ ~ ~ ! ! / W.9 9 9 9 9 9 9 9 9 9 e /.Q 9 o..X=.@Xo.o.e e >.q =.#X3 q 7 0 n q q q N uXJ D @.%.%.%.%X%X@.$XJ b W.~.z j D l c D D j h h h h h h b n n v n h k k k k k D h k k k k k k k k h p.2XD 6.6.6.6.g.6X2X6.6.6.6.3.l.uXf C C 3.s s s 3.s s S qX0.0.y.q._.qXs.r.q.A <Xi.m Z Z Z Z Z Z Z Z Z Z a } A d | | w.a.gX* y y y - V vXHXiX= y y y y t Q U.U.U.U.U.E y y p 4 4 4 4 4 p + b.L.+ y y u -X-X@ 0 H $.:.x.b @ -X-Xu y y ",
"o > 3 o o o o o > > > > o Y K 1 1 1 1 1 1 T K 1 2 E Y.5 Y 1 1 1 Y 5 U.U.6 T ! ;.T / I ! / R R ;._ _ ~ ~ ! ! ! E./ 9 9 9 9 9 9 9 9 9 q E./.q .X=.=.@Xo.o.e e ) e q #Xe q 0 q n q q 6 h.l.B N k %.%.$.z.%XD %X*.[ /. .h j D D b D D j h h h h h h v n n v n h k k k k k D h k k k k k k k k j 2Xp.D 6.6.6.6.g.6X2X6.6.6.6.6.6.uX6.s C 3.s s s 3.s y w.qXd 0.y.1.).{.i.q.q.e.i.2Xm Z Z Z Z Z Z Z Z Z Z a A A d | | w.a.gX* y y y - V jXvXG.y y y y y t Q U.U.U.U.U.E y y p 4 4 4 4 4 p + b.L.+ g u x -X;.@ N J N J :.J @ ;.-Xx y y ",
"o > 3 o > o o o > > > > o Y K 1 1 1 1 1 1 T K 1 2 E Y.5 T 1 K 1 Y 5 W U.6 Y -.-.T / I ! / / R ;._ _ ~ ~ ! ! ! ` E.r 9 9 9 9 9 9 9 9 ( ^ /.=..X( =.@Xo.o.e e ) e q <.<.3 q q n q q q uX$.J B M %.%.$.z.%X%.f.%X!./.F v j l D m D l h h h h h h h v n n n n V k k k k k D h k k k k k k k k k 2X6.6.6.6.6.g.g.6X2X6.6.6.6.6.3.uXl.f C 3.s s s 3.s y ].a.d 0.y.1.^.{.i.q.q.0.e.2XZ Z Z Z Z Z Z Z Z Z Z a A A d | | w.a.gX* y y y & G x.& v.g y y y y t Q U.U.U.U.U.E y y p 4 4 4 4 4 p + b.L.+ g u x -X=.@ N J S.H H J @ =.-Xx u y ",
"o > 3 o o o o o o o o o o Y 1 < < < < < < Y 1 1 2 E Y.5 Y < 1 1 K 5 W Y.2 T ;.~ ! ^ I ! / R R ;._ ~ ~ ! ! I ! ! W.9 9 9 9 9 9 9 9 9 ^ r R.`.o.) =..Xo.o.e e ) e e e #Xq q q n q 6 $.uX0 $.N N %.%.$.h.l.%.$.h._.Q F n b D V m F k j h j h h h h v n m n n h h h h h k D h h h h h h h k j p.2Xk 6.6.6.6.6.g.6X2X6.6.6.6.6.6.j.uXf C S s s s 3.s s 0Xy.d 0.y.0.q._.w.q.0.0.d 2X0.a a a a a a a a a a a A A d ' ' w.a.gX* y y y & x.c.  S.x y y y y t Q U.U.U.U.U.E y y p 4 4 4 4 4 p + b.L.+ g y y -X-X@ ; hXGXN H v @ -X-Xy y y ",
"> 3 4 > 3 3 6 1 Y Y Y Y 1 T Y Y Y Y Y Y Y T T Y 5 Q Y.5 T Y Y Y T T W Y.5 =.;.T / / ^ / / / ` ;.=._ _ / / / / ^ E.` q ( ( ( ( ( ( ( ) e ` _.=.=.=.@X#.>.>.>.>.) ) e #X=.q B  .n q l.l.B :.J J $.$.:.h.l.$.g.,._.J  .J n G J n H D D D D D F F D J J J J  .D D D D D D g.D D D D D D D D k 2X6X6.6.6.6.g.g.g.6X6X6.6.6.6.6.g.6.uX6.S 5.C S S 5.C y.qXt.e.e.y.y.p._.^.y.y.y.e.2Xp.n } A A A A A A A } A t.t.| e.e.u.a.hX* y y y & x.c.  D.x y y y y t Q U.U.U.U.U.E y y p 4 4 4 4 4 p + b.L.+ y y i ;.-X0 X xXn.b v @ 0 -X;.i y y ",
"> 3 4 > 3 3 6 Y Y Y Y Y Y T Y Y Y Y Y Y Y T T Y 5 W Y.5 T Y Y Y T T Q Y.5 ;.=.T / / ^ / / / ` ;.=._ _ / / / / ^ ` W.q ( ( ( ( ( ( ( ) ^ *._.` o.=.@X#.>.>.>.>.) ) e =.#Xq B  .q B uX$.J :.J J $.$.:.h.l.$.g.~.`.*. .J n J J n } G D D D D F J D J J J J  .F F D D D D g.D D D D D D D D 6.2Xg.6.6.6.6.g.g.g.6X6X6.6.6.6.6.g.3.4X6Xd 5.C S S t.V ].].t.e.e.y.y.p.{.Q.y.y.y.e.p.2Xn A A A A A A A A } A t.t.| e.e.u.a.hX* y y y & x.c.  D.x y y y y t Q U.U.U.U.U.E y y p 4 4 4 4 4 p + b.L.+ y y y x -X-Xe = . % . e -X-Xg y y y ",
"o > 3 o o o , < < < < < < Y 1 < < < < < < Y 1 2 , E U.6 Y < 1 1 K 5 E Y.6 #X! I ! ^ I ! / R R ;._ _ ~ ! ! I I ! ! W.! 9 9 9 9 9 9 9 ^ e .XE.W.o.=..Xo.o.e e ) e e e e #Xq q n 6 g.%Xq N $.N N B #.$.h.l.$.$._.>..X} n m n n m J D b c h h b m b m m m m m b v h h h k D h h h h h h h j p.2X6.6.6.6.6.6.6.g.6X2X6.6.6.6.6.6.C g.uXp 3.s s s 3.s qXq.e.1.1.y.q.1.'._.q.0.0.d 0.2Xa a a a a a a a a a a A A d ' ' w.a.gX* y y y & x.c.  D.x y y y y t Q U.U.U.U.U.E y y p 4 4 4 4 4 p + b.L.+ y y y u e -X=.& - - i =.-X0 y y y y ",
"o > 3 o o o , 1 < 1 1 1 < Y K 1 1 1 1 1 1 T K P K Y.Y.5 Y 1 K 1 Y Y E U.=.;.Y ! ^ ^ I ! / / R ;._ _ ~ ~ ! ! ! ! 9 E.` r 9 9 9 9 9 9 ^ *.*./ (.) =.@Xo.o.e e ) e e e q <.<.4 B 6 %Xg.N B $.B B B #.$.h.l.%...).M .X:.m m J n m J F m v b b v n n n n n n n v n k k k k D h k k k k k k h 2X6.6.6.6.6.6.6.6.g.6X2X6.6.6.6.6.6.6.6.uX6.S s s s C q.qX3.e.1.0.y.q.0.qX_.w.0.0.0.3.2X3.a d d d d d d d Z a A A d | | w.a.gX* y y y & x.m.  S.x y y y y t Q U.U.U.U.U.E y y p 4 4 4 4 4 p + b.L.+ y y y y u 0 y y y y y y 0 u y y y y ",
", , 5 , , , 2 < < 1 1 1 < Y K < 1 1 1 1 1 Y T.T.T.T.E 5 Y 1 1 1 Y Y P R.`.E.U I ^ ^ I ! / R R ;._ _ ~ ! ! ! ! ! ! / W.9 9 9 9 9 9 9 ) .Xe w /.E.o.@Xo.o.e e ) e e e e =.#Xq e M uXN N N $.B B B #.$.h.l.%.~.!.D %..Xa m J n m J J m n v v v n n n n n n n n n h z h k D h k k k k k h 6.2XD 6.6.6.6.6.6.6.g.6X2X6.6.6.6.6.6.6.C 4Xl.d s s s V ].].S e.1.0.y.q.0.qX).^.1.0.0.d 2Xi.p d a a a a a a d a A A d ' ' w.a.hX* y y y & x.m.  S.x y y y y t Q U.U.U.U.U.E y y p 4 4 4 4 4 p + b.L.+ y y y y y t y - * ; - y t y y y y y ",
"< 1 Y < 1 < < < < < 1 1 < Y K < 1 1 1 1 < T T.K 2 2 2 Y Y 1 K 1 Y T < U.`./.R I ^ ^ I ! / R R ;._ _ ~ ! ! ! ! ! ! ! E./ 9 9 9 9 q 6 o.*.q w E./.o.@Xo.o.e e ) e e e e e #X=.5 h.l.q B N $.B B B #.$.h.l. ._. .N N .XB m J n m J J m n n n n n n n n n n n n n V k b V D h k k V k k j ,X2Xk 6.6.6.6.6.6.6.g.6X2X5.6.6.6.6.6.6.3.g.uXZ s s s C qXq.3.e.1.0.y.q.0.qX[.).0.0.0.d i.<Xp d a a a a a a d a A A d ' ' w.a.hX* y y y & x.m.  S.x y y y y t Q U.U.U.U.U.E y y p 4 4 4 4 4 p + b.L.+ y y y y y * - j 2.2.j - - y y y y y ",
"< 1 Y < < < < < < < 1 1 < Y K < 1 1 1 1 < T T.K 1 K 1 Y Y 1 K 1 Y T 2 =.<.Y.Q 9 ^ ^ I ! / R R ;._ _ ~ ! ! ! ! ! ! ! ` E.r 9 9 9 9 9 .Xo.q e ) (.=..Xo.o.e e ) e e e e q <.<.4 uXg.N N N $.B B B #.$.h.l.!.).%.B n h.*.a J n m J J m n n n n n n n n n n n n n V V v V D h k v n k k h 2X6.D 6.6.6.6.6.6.6.g.6X2X5.6.6.6.6.6.6.6.3.uX5.p s s y.qXd e.e.1.0.y.q.0.qXa._.q.0.0.d i.2Xp d a a a a a a d a A A d ' ' w.a.hX* y y y & x.m.  S.x y y y y t Q U.U.U.U.U.E y y p 4 4 4 4 4 p + b.L.+ y y y y - l 4XpXpXpXpX4Xk - y y y y ",
"< 1 Y < < < < < < < 1 1 < Y K < 1 1 1 1 < T T.K 1 1 1 Y Y 1 1 1 Y T < #X( W.Q 9 ^ ^ I ! / R R ;._ _ ~ ~ ! ! ! ! ! ! ! W.9 9 9 9 9 e .Xe e e o.W.E..Xo.o.e e ) e e e e e =.#X$.uXN N N N $.B B B #.$.h.l./...%.B N $..Xm J n m J J m n n n n n n n n n n n n n v v v v G h k v n V h 6.2XD 6.6.6.6.3.6.6.6.g.6X2X5.6.6.6.6.6.6.6.C 4X6Xf C y a.].s e.e.1.0.y.q.0.qXi.).^.1.0.3.0.2Xa a a a a a a a d a A A d ' ' w.a.hX* y y y & x.v.  S.x y y y y t Q U.U.U.U.U.E y y p 4 4 4 4 4 p + b.L.+ y y y - 2.pX9X3X2.2.3X9XpX2.- y y y ",
"< 1 Y < < < < < < < 1 1 < Y K < 1 1 1 1 < T T.K 1 1 1 Y Y 1 1 1 Y Y ~ ;.6 W.Y.I ^ ^ I ! / R R ;._ _ ~ ~ ! ! ! ! ! ! 9 E.` 9 9 9 6 *.*.q e e o.` _..Xo.o.e e ) e e e e e q ;.&Xl.q N N N $.B B B #.$.h.Z./.$.$.B B J .X%.Z n m J n m n n n n n n n n n n n n n v v n v G b k n n V j 2Xp.D 6.6.6.6.3.6.6.6.g.6Xp.e.t.6.6.6.5.3.6.C j.uXf s y qXw.d e.e.1.0.y.q.0.qXi.~.Q.1.0.0.d 2X3.a a a a a a a d a A A d ' ' w.a.hX* y y y & x.v.  S.x y y y y t Q U.U.U.U.U.E y y p 4 4 4 4 4 p + b.L.+ y y - j 9X9Xt o : : o t 9X9Xj - y y ",
"< 1 Y < < < < < < < < 1 < Y K < 1 1 1 1 < T T.K 1 1 1 Y Y 1 1 1 Y K -.-.6 ` R././ ^ I ! / R R ;._ ( ~ ! ! ! ! ! ! ! ! ` E.r 9 9 q .X>.e e e e o./.;.o.o.e e ) e e e e e q =.iXD N N N N $.B B B #.$.z.}.W.g.$.B B J *.*.Z J m J n m n n n n n n n n n n n n n n n n v J v k n n v h 2X6.3.3.6.3.6.3.6.6.6.g.6Xp.e.e.5.3.6.5.3.6.6.6.uX6.p d 0X3.1.e.e.1.0.y.q.0.qXi.w._.0.3.0.d 2Xi.p d a a a a a a a A A d ' ' w.a.hX* y y y & x.v.  S.x y y y y t Q U.U.U.U.U.Q y y p 4 4 4 4 4 p + b.L.+ y y ; 3X9Xt o F H :.H : t 9X4X; y y ",
"< 1 Y < < < < < < < < 1 < Y K < 1 1 1 1 < R R.1 1 1 1 Y Y 1 1 1 Y T #X~ I / 9 Y.` ^ I ! / R R -.` Y.` ~ ! ! ! ! ! ! ! ! W.! 9 6 o.*.( e e e ) o.E.W.o.o.e e ) e e e e e q $.iXB N N N N $.B B B #.$.h._...g.$.B B $.B .XJ n m J J m n n n n n n n n n n n n n n n n n  .n V n n b 6.2XD 3.S 6.3.3.A 6.5.6.4.6Xp.e.e.3.3.6.t.3.3.6.C uXj.* w.qXd 1.e.e.1.0.y.q.0.qXw.q._.{ 1.0.d i.<Xp d a a a a a a a A A d ' ' w.a.hX* y y y & x.v.  S.x y y y y t R W W W W W P y y p 4 3 3 3 4 p + b.L.+ g y y 9X9Xo b J H J H v o 9X9Xy y y ",
"< 1 Y < < < < < < < < 1 < Y K < 1 1 1 1 2 R R.2 1 1 1 Y Y 1 1 1 1 =.;.Y ! / 9 Y.` q I ! / R R W.W.W.R.~ ! ! ! ! ! ! ! 9 E.` r 6 .Xo.) e e e e o.=./.=.o.e e ) e e e e e 9 l.&X=.v N N N $.B B B #.%.,.).%.$.$.B B $.n *.*.m m J n m m n n n n n n n n n n n n n n n n  .n n n n b p.p.S } A 6.A 3.A 6.5.6.4.6Xp.e.e.e.3.6.t.A 3.6.3.V.uX* ].a.d 1.e.e.1.0.y.q.0.qXw.1.Q.^.1.0.d i.2Xp d a a a a a a a A A d ' ' w.a.hX* y y y & x.v.  S.x y y y y t R E E E E E P y y p 3 3 3 3 3 p + b.L.+ g - j 9Xj.o F J N A.GXbXn j.9Xj - y ",
"< 1 Y < < < < < < < < 1 < Y K < 1 1 1 1 2 R T.2 1 1 1 Y Y 1 1 1 1 ;.=.U ! / 9 Q /.Y.I ! / ! Q W._ _ R.~ ! ! ! ! ! ! ! ! ` E.9 e .Xq ) e e e e =.o._.E.o.e e ) e e e e e e uXM.<.v B N N $.B B B #.%.W.!.%.$.$.B B $.N %..Xn m J J m m m n n n n n n n n n n n n n n n  .n n n n n <Xe.} } A 5.} } } 3.5.5.4.6Xp.e.e.e.A t.t.A 3.3.6.t.uX3.0Xy.3.1.e.e.1.0.y.q.0.qXw.0.{ ).1.0.3.0.2Xa a a a a a a a a A A d ' ' w.a.hX* y y y & x.v.  F.x y y y y t R W E E E W P y y p 3 3 3 3 3 p + b.L.+ g - j 9X3Xo v J F x.P.A.; j.4Xg y y ",
"< 1 Y < < < < < < < < < < Y 1 < < < 1 1 2 R T.2 1 1 < Y Y < 1 1 Y #X! I I / I I / R.Y.! / ! Q W._ / R.! ! ! ! ! ! Q ! ! ! E.U *.*.9 ) e e e e ) o.`./.o.e e ) e e e e 9 h.uX>.@XB N N N $.N N B %.>._.M.%.$.$.B N $.B N .X$.a J n m m m m m m m m m m m n n n n n n n  .n n n n y.<XS } } } 5.} } } } t.t.4.6Xp.e.e.e.} t.t.A 3.3.6.| 4X6X'.3.1.d e.e.d 0.y.0.0.qXw.0.q._.] 1.1.d 2X1.a a a a a a a a A Z d ' ' w.a.hX* y y y & x.v.  H.x y y y y t R W E E E E P y y p 3 3 3 3 3 p + b.L.+ y y ; 9X9Xo - F J F v % . 4X3X- y y ",
"Y T T Y Y Y Y Y Y Y Y Y Y T T Y T T Y 5 5 / R.Y T T T T T T T Y =.;.T / / / / / ) ` R./.W.` ` W.=._ R./ ^ / / ` R./.R./.E.E.E..X>.) >.>.) =.=.=.>.@X/.=.#.>.>.) ) ) >.) %XM.:.@X<.J $.$.:.$.$.$.%.!.~.%X$.x.x.$.$.:.$.J *.h.}  . .J  . . . . . . .J J  . . . . . . . . . . .} B <Xp.} t.t.t.x.t.t.t.t.t.t.x.6Xp.y.y.t.t.t.t.t.t.t.5.y.l.SXa.t.e.e.y.y.e.y.y.y.y.qXa.y.y.).^.5.y.e.2Xp.S } } } } } } } t.t.e.r.r.a.a.hX* y y y & x.v.  J.x y y y y t R W E E E E P y y p 3 3 3 3 3 p + b.L.+ y y * d.pXj.X ; x b - . d.4X2.* y y ",
"< 1 Y < 1 1 1 1 1 1 1 1 < Y K 1 1 1 P W E Y.R.2 K 1 1 Y Y 1 K < ;.=.U ! ! / I I / ^ 9 R W.R./.W._ ( R.R.Q ! ! Y.Y.9 Y.Y.W.R E..Xq e ) e e e e =.=..XW.W.o.) ) e e e e B uX#.:.>.@Xv B N $.B B B %./.,.l.$.f.$.B B $.B N $..Xm J J m n n n n n n v ....v n n n n n n n  .n n n A <X} } } } } t.} } } t.t.t.4.V.p.e.e.e.} t.t.A 3.} 5.t.5.qXq.e.3.1.e.e.1.0.y.q.0.qXw.q.1.^.).1.0.d <X<Xp d a a d d Z a A A d | | w.a.hX* y y y & x.v.  J.c y y y y t R W E E E E P y y p 3 3 3 3 3 p + b.L.+ y y y - 4XpXj.o + + . 2.9Xj.- y y y ",
"< 1 Y < < < < < < < < < < Y K < 1 < R.Y.U.Y.E 2 1 1 1 Y Y 1 1 U #X/ I I I / I I ^ ^ I ! ^ ! Q ;._ _ ~ Y.Y.9 9 Y.Q ! 9 ! R.U <.*.q e ) e e e e =.=..X` /.e e ) e e e 9 h.%Xe :.B @X#.N N $.N N M  ./.h.l.$.$.$.B N $.B N J .X%.Z J m m m m m m m b W.!.b m n n n n n n  .n n n y.s.S } } } A t.} } } } t.t.4.V.p.e.e.e.} t.t.A A } 3.t.w.eXf.0.0.d e.e.d 0.y.0.0.qXw.q.0.0._.] 1.d i.<Xp a a a a a a a A Z d ' ' w.a.hX* y y y & x.v.  J.c y y y y t R W E E E E P y y p 3 3 3 3 3 p + b.L.+ y y y y - 4X2.- y y - 2.j.- y y y y ",
"< 1 Y < < < < < < < < < < Y K < < K T.2 , 5 1 1 1 1 1 Y Y 1 < =.;.T I I I / I I ^ ^ I ! / R R ;._ _ ~ ` R.! Y./.R ! ! ! R.^ @X` w e ) e e e e =.=.@Xo./.` w ) e e e 9 %Xh.#.:.B <.<.v N $.N B %.W.~.z.l.$.$.$.B B $.B N J *.*.Z J m m m m m m m b Q.!.b m n n n n n n  .n n n <Xy.A } } } } t.} } } } t.t.4.V.p.e.e.e.} t.t.} } } e.4.'.eXV.] 0.' e.e.1.0.y.q.0.qXw.q.q.1.Q.^.1.d 0.2Xa a a a a a a a A Z d ' ' w.a.hX* y y y & x.v.  J.c y y y y t R W E E E E P y y p 3 3 3 3 3 p + b.L.+ y y y y y * - y y y y - - y y y y y ",
"< 1 Y < < < < < < < < < < Y K < 2 K T.1 1 T K 1 1 1 1 Y Y 1 < ;._ ! I I I / I I ^ ^ I ! / R R ;._ _ ~ ! Y././.! ! ! ! ! R.`..XE.e e ) e e e e =.=.@Xo.E.W.w ) e e e #.uX#.#.:.B >.@Xv N $.N N B /.>.h.l.$.$.$.B N $.B N J $..XJ n m m m m m m m b ).!.b m n n n n n n  .n n A <X} } } } } } t.} } } } t.t.4.V.p.e.e.e.} t.t.} } } } t.'.u.6Xr.' ' e.e.d 0.y.q.0.qXw.q.q.1.{ ).1.0.3.2Xd a a a a a a a A Z d ' ' w.a.hX* y y y & x.n.  J.c y y y y t R W E E E E P y y p 3 3 3 3 3 p + b.L.+ y y y y y y u u g g u u y y y y y y ",
"< 1 Y < < < < < < < < < < Y K < 2 L T.2 < T 1 1 1 1 < Y Y < I ;.I / I I I / I I ^ ^ I ! / R R ;._ _ ~ ! 9 Q Q ! ! ! ! ~ Q `.o.E._ r ) e e e e =.=.@Xo.=.(.) ) e e 9 h.%Xe #.:.#.B #X#.M $.B M ..).%.h.l.$.$.$.B N $.B N $.B *.*.m m m m m m m m v _.!.b m n n n n n n  .n 0 y.s.n } } } } } t.} } } } t.t.4.V.p.e.e.e.} t.t.} } } A u.'.| 6XV.[ ' e.r.' 0.y.q.q.qXw.q.0.0.1._.{ 1.d 2X0.p a a a a a a A Z d ' ' w.a.hX* y y y & x.n.  J.c y y y y t R W E E E E P y y p 3 3 3 3 3 p + b.L.+ y y y y y u =.#X#X#X#X=.u y y y y y ",
"< 1 Y < < < < < < < < < < Y K < 2 L T.2 < T 1 1 1 1 < Y Y 2 -.;.Y / I I I / I I ! ^ I ! / R R ;._ _ ~ ! ! ! ! ! ! ! ! ! Q W.e ` ` r ) e e e e =.=..Xo.o.W.E.#.e e 9 %X$.B #.:.#.B <.<.v $.B M /...%.h.l.$.$.$.B N $.B N $.J %..Xm m m m m m m m m ).!.b m n n n n n n  .n n <Xy.A } } } } } t.} } } } t.t.4.V.p.e.e.e.} t.t.} } } G ].].| V.6X[ ] r.r.] ] y.q.q.qXw.q.0.0.1.^.Q.1.d <Xi.p a a a a a a A Z d ' ' w.a.hX* y y y & x.n.  J.c y y y y t R W E E E E P y y p 3 3 3 3 3 p + b.L.+ y y y y g #X#X#X<.<.#X#X#Xx y y y y ",
"< 1 Y < < < < < < < < < < Y K 1 2 P T.2 < T 1 1 1 1 < Y Y < #X_ I / I I I / I I ! ^ I ! / R R ;._ _ ~ ! ! ! ! ! ! ! ! U =.W.( _ E.e ) e e e e =.=..Xo.o.` /.#.e e #.uXB #.#.:.#.#.>.@XM $.M  ./.#.$.h.l.$.$.$.B N $.B N J J N .XJ m n m m m m n  .).!.v m n n n n n n  .n } <XA } } } } } } t.} } } } t.t.4.V.p.e.e.e.} t.t.} } } A ].u.r.y.6X] ] ] r.] ] r.q.q.qXw.q.q.0.1.' _.] d i.<Xp a a a a a a A Z d ' ' w.a.hX* y y y & x.n.  L.c y y y y t R W E E E E P y y p 3 3 3 3 3 p + b.L.+ y y y y #X-Xo.@ @ @ @ o.-X#Xy y y = ",
"< 1 Y < < < < < < < < < < 5 2 , , L T.2 < T 1 1 1 1 < Y K ~ ;.U ! ^ I I I / I I ! ^ I ! / R R ;._ _ ~ ! ! ! ! ! ! ! ! U <.W.( e E._ e e e e e =.=..Xo.o.e /.` w 9 h.l.e #.#.:.#.#.B @X#.J M W.E.@.$.h.l.$.$.$.B N $.B N J $.n *.*.a n m m m m v  .Q.!.n n n n n n m n } 0 p.s.n } } } } } } t.} } } } t.t.4.V.p.e.e.e.} t.t.} } A r.'.e.r.r.6Xy.] ] r.] ] r.q.q.qXw.q.q.0.0.1.Q.Q.s q.2Xp a a a a a a A Z d ' ' w.a.hX* y y y & x.n.  L.c y y y y t R W E E E E P y y p 3 3 3 3 3 p + b.L.+ y y u =.#Xo.@ x J J b @ o.#X<.u y y ",
"< 1 Y < < < < < < < < < < Q U.U.W T.T., < T 1 1 1 1 < Y K =.-.K ! ^ I I I / I I ! ^ I ! / R R ;._ _ ~ ! ! ! ! ! ! ! I ( @XR.( e ` E.e e e e e =.=..Xo.o.o.E./.w e uX$.B #.#.:.#.#.B <.<.F  .(. .%.$.h.l.$.$.$.B N $.B N J J N $..Xa m m m m m v / W.!. . .n n n n m n } m <Xe.A } } } } } } t.} } } } t.t.4.V.p.e.e.e.} t.t.} } S ].].e.r.] 6XV.[ ] r.] ] u.q.q.qXw.q.q.0.1.1.0.(.] 1.2Xa a a a a a a A Z d ' ' w.a.hX* y y y & x.n.  L.c y y y y t R W E E E E P y y p 3 3 3 3 3 p + b.L.+ y y u #X#X@ 0 H H :.x.v @ #X#Xu y = ",
"< 1 Y < < < < < < < < < K /.U.U.U.U.L 2 < T 1 1 1 1 < Y Y ;.~ U ! ^ I I I / I I ! ^ I ! / R R ;._ _ ~ ! ! ! ! ! ! ! U *.<.R.( ( ( E.) e e e e =.=..Xo.o.e e (./ %.uXe #.#.#.:.#.#.#.>.#X%.!.W.D #.$.h.l.$.$.$.B N $.B N J J N J .XB m m m m m b ..!.!...Q.n n n n m n J } <XA } } } } } } } t.} } } } t.t.4.p.p.e.e.e.} t.t.} } S '.a.e.r.r.V.6X[ ] r.] ] u.q.q.'.w.q.r.0.1.' 1.{ (.' 2Xd a a a a a a A Z d ' ' w.a.hX* y y y & x.n.  L.c y y y y t R W E E E E P y y p 3 3 3 3 3 p + b.L.+ g u x #X<.@ N J J N :.J @ <.#Xx y y ",
"< 1 Y < < < < < < < < 2 L R., , , , 2 1 < Y 1 1 1 1 1 K _ ;.U I ! ^ I I I / I I ! ^ I ! / R R ;._ ~ ~ ! ! ! ! ! ! ! I .X=./._ e e E.` w w e e =.=..Xo.o.e w W.R.l.l.e #.#.#.:.#.#.#.B @X>./...M #.$.h.l.$.$.$.B N $.B N J J N J *.*.a n m m m b ..!...W._.n n n n m n B i.p.n } } } } } } A t.} } } } t.t.4.p.p.e.e.e.} t.t.} A r.'.y.r.r.r.y.6Xr.] r.] ] u.q.q.'.w.q.] 0.0.' 1.1.^.(.qX1.y s s s s p S S a d d w.a.hX* y y y & x.b.  L.c y y y y t R W E E E E P y y p 3 3 3 3 3 p + b.L.+ g u x #X=.@ N J J J.:.J @ =.#Xx u y ",
"< 1 Y < < < < < < < < 2 L R.1 K 1 1 1 1 < Y 1 1 1 1 1 1 ;.=.K I ! ^ I I I / I I ! ^ I ! / R R ;._ ~ ~ ! ! ! ! ! ! U ) .X( E./.` e ` E./ E.e e =.=..Xo.o.e e ) (.iX%.#.#.#.#.:.#.#.#.B *.`./.M B #.$.h.l.$.$.$.B N $.B N J J N J $..Xm m m m m b ..!..././. .n n n n n J <Xe.A } } } } } } A t.} } } } t.t.4.p.p.e.e.e.} t.t.} S a.].t.r.r.r.r.6XV.] r.] ] u.q.q.'.w.r.r.0.0.' 1.3.1.^._.).^.{ { { ] ] ....] { { ^.a.hX* y y y & x.b.  L.c y y y y t R W E E E E P y y p 3 3 3 3 3 p + b.L.+ g y y #X#X@ 0 J v GXgX; @ #X#Xy y y ",
"< < Y < < < < < < < < 2 P R.2 < < < < 1 < Y 1 1 1 1 < Y #X~ U I ! ^ U I I / I I ! ^ I I / R R ;._ ~ ~ ! ! ! ! ! ! U *.*.^ e ` R.W.e E.R./.w e ) =..Xo.o.e e #.R.~.%.#.#.#.#.:.#.#.#.#.#._...M B #.$.h.l.$.$.$.B N $.B N J J N $.J .X#.a m m m b ..!.m (.W...b m m m n y.<XS A A } } } } } A t.} } } } t.t.4.p.p.e.e.e.} t.t.} S ].u.y.r.r.r.r.V.6X] r.] ] u.q.q.'.w.r.r.] ' ' 1.1.1.s i.'.W.Q.).).).).).).).).)._.].hX* y y y & x.b.  K.c y y y y t R W E E E E P y y p 3 3 3 3 3 p + b.L.+ y y u <.#Xw @ x b m.jX@ w #X<.u y y ",
"Y T T Y T T T T T T T Y Q R.T T T T T T T T T T T T Y =.;.T / / / / / / / / / / / / / / ` / ` ;.=._ _ / / / / / / / .X=.) ) ) >.W.W.E./.W.=.=.=.>.@X>.>.>.>.>.M._.>.:.:.:.:.:.:.:.>.%.!._.*.J $.$.:.h.l.$.x.x.$.$.:.:.$.:.:.$.:. .*.h.}  . .J ..)...J _.~.!.J  . .} B a.p.} t.t.t.t.t.t.t.t.t.t.t.t.t.t.x.x.V.p.y.y.t.t.t.y.t.y.'.y.u.y.y.y.u.y.6Xr.u.r.r.u.u.u.].a.u.u.r.r.r.e.r.y.e.p.2XV S S A A S t.t.e.e.e.u.a.hX* y y y & x.b.  K.c y y y y t R W E E E E P y y p 3 3 3 3 3 p + b.L.+ y y y y #X-Xw @ % . & w -X#Xy y y y ",
"< 1 Y < < < < < < < K 2 E Y.2 < 1 1 1 1 < T 1 1 1 1 2 ;.=.K I I ! / I I I / I I ^ ^ I ! / R R ;._ _ ~ ! ! ! ! ! U =..X^ ( ( ( ( e E.(.E.E.) e =.=.@Xo.o.e ) ) uX~.W.%.#.#.#.:.#.#.#.#./.`.@Xv B #.$.h.l.$.$.$.B N $.B N J J M $.J B .Xm m m b !.(...v ).!.!.b m n n n <Xe.A } A A } } } } } t.} } } } t.t.4.p.p.e.e.e.} } t.S a.].e.y.r.r.r.y.r.6Xy.] ] ] u.q.q.'.w.r.r.] ' ' ' ' ' d 0.2Xa a a a a a A Z d ' ' w.a.hX* y y y & c.b.  K.c y y y y t R W E E E E P y y p 3 3 3 3 3 p + b.L.+ y y y y 0 #X=.u - y u =.#Xx y y y y ",
"< 1 Y < < < 2 , , , 2 > E Y.2 < < 1 1 1 < Y 1 < 1 1 1 #X^ U I I ! ^ I I I / I I ! ^ I I / R R ;._ ~ ~ ! ! ! ! ! U *.*.^ ( ( ( ( ( / (.W.W.( e ) =..Xo.o.o.Y.}.%X) (. .#.#.#.:.#.>.#.E./.%.#XB B #.$.h.l.$.$.$.N M $.B N J J  . .$.n .X%.a  .m !.(...b Q.!.!.b m m m e.<XZ } A A A A A } } A t.} } } } t.t.4.p.p.e.e.e.} } t.S ].a.e.y.r.r.r.y.] V.V.] ] ] r.q.q.'.w.r.r.] ' ' ' ' ' 0.d 2Xd a a a a a Z Z d ' ' w.a.hX* y y y & c.b.  K.c y y y y t R W E E E E P y y p 3 3 3 3 3 p + b.L.+ y y y y u x y y y y y y x u y y y y ",
"< 1 Y < < 2 P T.Y.Y.T.Y.R.Y.2 < < < 1 1 < Y 1 < 1 < _ ;.Y I I I ! ^ I I I / I I ! ^ I I / R R ;._ ~ ~ ! ! ! ! I ! .X) ( ( ( ( ( ( ( / ` /.` e ) o.<.W.o.o.R.}.h.w E./.#.#.#.>.#.E./.(. .$.@X<.M #.$.h.l.$.$.$.B  .$.B N J B W...$.n *.*.y W...!.(./ b !...)./. .n 0 p.p.Z } A A A A A A } A t.} } } } t.t.4.p.p.e.e.e.} } t.| '.r.r.y.r.r.r.y.r.y.6X] ] ] r.q.q.'.w.r.r.] ' ] ' ' ' 0.d 2X0.p a a a a Z Z d ' ' w.a.hX* y y y & c.b.  K.c y y y y t R W E E E E P y y p 3 3 3 3 3 p + b.L.+ y y y y y y y y y y y y y y y y y y ",
"< 1 Y < < , Y.U.P E E E P Y 1 < < < 1 1 < Y 1 < 1 < ;.=.T I I I ! ^ I I I / I I ! ^ I I / R R ;._ ~ ~ ! ! ! ! U =.*.~ ( ( ( ( ( ( ( ) ) W.W.e o.o.W./.=.o.R.}.@.#.%./.W.%.#.>.%.E.(.!.%.:.<.@XM #.$.h.l.$.$.%.!.W.%.B N J B R...B N B @X .Q.W.!.(. .m m  ./.(./ v m <Xy.A A A A A A A A } A t.} } } } t.t.4.p.p.e.e.e.} e.H u.'.| r.y.r.r.r.y.r.r.6Xy.] ] r.q.q.'.w.r.r.] ] ] ' ] ] 0.d <Xi.3 a a a a Z Z d ' ' w.a.hX* y y y & c.b.  K.c y y y y t R W E E E E P y y p 3 3 3 3 3 p + b.L.+ y y y y y y y y y y y y y y y y y y ",
"< 1 Y < K 2 Y.P , 2 2 2 2 Y K < < < 1 1 < Y 1 < < U #X! ! U I U ! ^ I I I / I I ! ^ I I / R R ;._ ~ ~ ! I ! ! U *.=.~ ( ( ( ( ( ( ( ) ) E./._ ) =.E.E.` o./._.E.#.#.#./.W.#.>.W.(.(.>.#.:.#.@X#.B #.h.l.%.:. .W./.%.N N J J /...B B M ,.W.^.).W./. .m m  .(.(...b e.<X} A A A A A A A A A A t.} } } } t.t.4.p.a.^.e.e.} e.H ].a.e.r.y.r.r.r.y.r.] V.V.[ ] r.q.q.'.w.r.] ] ] ] ] ] ] ' d i.<X3 a a a a Z Z d ' ' w.a.hX* y y y & c.b.  K.c y y y y t R W E E E E P y y p 3 3 3 3 3 p + b.J.+ y y y y y y y y y y y y y y y y y y ",
", , 5 , , > T.P 2 < < < < Y K < < < < 1 < Y 1 1 2 =.;.Y ^ U I U ! ^ I I I / I I ! ^ I I / R R ;._ ~ ~ ! I I I ~ .X( ( ( ( ( ( ( ( ( ) ( ` /.` /.E.E.` E._ }.h.R. .#.#.#.W././.(.E.E...%.>.B <.<.M $.h.l.%.../.W.W... .M J J (.~.%.N M ..W.!.!.(./ m m m  .(.(...0 s.i.} A A } A A A A A A A t.} } } } t.t.4.p.a.).e.e.} } t.'.r.r.r.y.r.r.r.y.r.r.V.6X[ ] r.q.q.'.w.r.] ] ] ] ] ] ] ' d i.<Xp a a a a Z Z d ' ' w.a.hX* y y y % c.b.  K.c y y y y t R W E E E E P y y p 3 3 3 3 3 p & x.fXX y y y y y y y y y y y y y y y y y y ",
"W W U.W W W /.K 2 < < < < Y K < < < < 1 < Y 1 1 < ;._ I ! U I U ! ^ I I I / I I ! ^ I I / R R ;._ ~ ~ ! I ! U =.*.! ( ( ( ( ( ( ( ( ) ) ( /.W./.W.`.=.W.W.iX%.E. .#.#.#.#. .W.` @...E.%.:.#.>.@XM $.h.l.%...(.W.W.)...M J  .(._.../ B .._.!./ (.m m m m m (.(.!.b <Xe.t.A A S } } A A A A A t.} A } } t.t.4.p.a.).e.e.} A u.'.e.r.r.y.r.r.r.y.r.r.r.6X] ] r.q.q.'.w.r.] ] ] ] ] ] ] ] d 0.2Xp a a a a Z Z d ' ' w.a.hX* y y y % c.b.  K.c y y y y t R W E E E E P y y p 3 3 3 3 3 3 y = jXA.y y y y y y y y y y y y y y y y y y ",
"W U.U.U.U.U.E < < < < < < Y K < < < < 1 < Y 1 < U ;.U ! ! U I U ! ^ I I I / I I ! ^ I I / R R ;._ ~ ~ ! I ! U .X=.~ ( ( ( ( ( ( ( ( ) ) e W./.E.(.<.=./.}.%X#.E...#.#.#.#.%.!...%. .W.%.....#.@X....h.l.%. .(.W...(...M B !.W._.~./.!.W._.!.m W. .m m m b Q.W.E.3.{.!...S A ] Q.| A } A A A t.} A S A t.t.4.p.a.).e.e.} S ].a.e.r.r.y.r.r.r.y.r.r.r.6Xy.] u.q.q.'.w.r.] ] ] ] ] ] ] ] ' 1.2Xd a a a a Z Z a ' ' w.a.hX* y y y % c.b.  5Xc y y y y t R W E E E E P y y p 3 3 3 3 3 3 y = x hXjXjXjXjXjXjXjXjXjXjXjXjXjXjXjXjXkXkX",
"o 2 5 , , , 2 < < < < < < Y K < < < < < < Y 1 2 =.;.1 ! ! U I U ! ^ I I I / I I ! ^ I I / R R -._ ~ ~ ! ! U ( .X( ( ( ( ( ( ( ( ( ( ) ) e ` ` e -..Xo./.}.h.#.E...#.#.#.#.#.~.) #. .W.%.W.E.M @X`.!.z.l.%...)... .(.!.k J ~. .W.(.(.W.(.(.W.b m m m m m m / ..W.Q.)./.~.C A ).(.^.S } A } A t.} } !.} t.t.4.p.a.(.e.e.} e.{.{ e.r.r.y.r.r.r.y.r.r.r.V.V.[ r.q.q.'.w.r.] ] ] ] ] ] ] ] ' d 2X1.p a a a Z Z a ' ' w.a.hX* y y y % c.N.  5Xc y y y y t R W E E E E P y y p 3 3 3 3 3 p y y y & c V V V V V v V V V V V V V V V G H ",
"2 K Y < < < < < < < < < < Y K < < < < < < Y 1 < ;._ U ! ! U I U ! ^ U I I / I I ! ^ I I / R R -._ ~ ~ ! ! U o.*.! ( ( ( ( ( ( ( ( ( ) ) ( _ E.o.o..Xo.(.I.%.%.E...#.#.#.#.#.W. .#.>.W.%.W.E.%.>._.!.h.l.%.....l / (.E...W.).M !.(.W.W.(.R.~.M m m m m m m b  ./.(.).(.Q.A | ).(.).S } } A A t.S | ).} 3.t.t.p.[.(.e.3.S y.{.~.e.r.r.y.r.r.r.y.r.r.r.y.6X] r.q.q.'.w.r.] ] ] ] ] ] ] ] ] d <Xq.p a a a Z Z a ' ' w.a.hX* y y y % c.A.  hXc y y y y t R W E E E E P y t Q T.T.T.T.T.Y.& x.HXHXHXHXJXHXJXHXHXJXJXHXHXJXHXHXHXJXjXkX",
", 1 Y < < < < < < < < < < Y K < < < < < < T < I #XU U ! ! U I U ! ^ U I I / I I ! ^ I I / R R -._ ~ ~ ! ! U *.=.~ ( ( ( ( ( ( ( ( ( ) ) ( ( E._ o.@Xo.(.,.%.%.E.E.%.#./.....W.%.#.#.W.#.).W.%. ._.E.z.l.@.!...D  .!./.(.(./.k ..(.!...W. .,.*.a n m m m m m  ./.(.).(.(.)...^.^.(.S S A | | t.....).] ..5.~.a._.(.Q.^...].[.Q.e.r.r.y.r.r.r.y.r.r.r.r.6Xr.r.q.q.'.w.r.] ] ] ] ] ] ] ] ] d <Xi.3 a a a Z Z a ' ' w.a.hX* y y y % c.A.  hXc y y y y t R W E E E E P y y 5 T T T T T T % c.LXPXKXPXLXLXLXKXKXLXLXLXKXLXPXPXLXIXy & ",
", 1 Y < < < < < < < < < < Y K < < < < < < T < =.-.K I ! ! U I U ! ^ U I I / I I ! ^ I I / R R -._ ~ ~ ! U ( .X~ ( ( ( ( ( ( ( ( ( ( ) ) ( ( ` E.o.@Xo.}.>.#.$.) W...W./.` ..E.%.#.#.W.>.).W.#.W.W.W.h.l...~...M M :.(.W.(.W.k  .W.!.M B M %..Xa m m m m m m m /.).Q._.(.(...^...).] ] C ^.Q.5.).^._..._.t.).).(.)._.).).'._.).e.r.r.y.r.r.r.y.r.r.r.r.V.V.] q.q.'.w.r.] ] ] ] ] ] ] ] ] d i.<X3 a a a Z Z a ' ' w.a.hX* y y y % c.A.  hXc y y y y t R W E E E W P y y p p p p p p p & c.PXPXkXGXbXJXJXbXxXHXvXAXGXvXIXKXPXHXb y ",
"< 1 Y < < < < < < < < < < Y K < 1 < < 1 < T 1 ;.~ U U ! ! U I I ! ^ U I I / I I ! ^ I ! / R R ;._ ~ ~ ~ U *.*.! ( ( ( ( ( ( ( ( ( ( ) ) ( ) ) E.=.*.%.uX#.#.>.%.E././.E.E...!.%.#.#.E././.E. .(.W.(.}.l.(.)...M B %.!.W.~.J N J J B N N B N .XB m m m m m m Z a.] ..).(.(.^.^.C ^.).(.] ).).t.(.~._.^.(.Q.(._.(.^.e._.(.'.(.).~.{ e.~.r.r.r.y.r.r.r.r.c.6Xr.q.q.'.w.r.] ] ] ] ] ] ] ] ] d i.<X3 a a a Z Z d ' ' w.a.hX* y y y % c.A.  hXc y y y y t R E E E E E L y y p 3 3 3 3 3 p % c.LXJXiXkXxXxXjXK.xXjXzXjXlXlXJXPXPXHXg y ",
"Y Y T Y Y Y Y Y Y Y Y Y Y T T Y Y Y Y Y Y T _ ;.T / ^ / / ^ / ^ / / ^ / / / / / / / / / ` / ` ;.=._ _ / / .X=.) ) ) ) ) ) ) ) ) ) ) =.) ) ) =.E.-.+.%X%X>.:.:.$.>.(.>.>.!.!...%.>.%.!.(.!.!...(.!.(.!.I.(._.:.$.J :. . .>.$.J :.:.$.$.$.$.J *.*.Z J J J } B p.<XG t.).!.Q.(.!.5.^.(.(.(._.~..._.).).~.(._.~.{.].r.t._.(.[.(._.(.~.^.(.u.y.y.u.y.y.y.u.y.6Xu.u.u.'.w.u.u.r.r.r.r.r.r.r.r.e.y.2XZ A A A } } | e.e.u.a.hX* y y y % c.A.  hXc y y y y y K L L L L L K y y 3 4 4 4 4 4 p % c.LXJXHXcXJXGXxXbXGXjXHXxXGXvXJXPXLXjX$ y ",
"< < Y < < < < < < < < < < Y 1 < < < < < < K -.-.K I U ! ! U I U ! ^ U I I / I I ! ^ U I / R R -._ ~ ~ I ) .X~ ( ( ( ( ( ( ( ( ( ( ( ) ) ( ) ) ` `.*.uX*.#.#.:.#.#./.) ) E.E...#.#.#.>.>.:.W.E.(.E.).(.(.(...%.N N J N M B B M J J N N N N N %..Xm m m m m 0 <Xy.Z | Q.t.C ^...C ^.(...^.| ^.~.Q.(.Q._.(._.!._.p.e.3.).(.(.).).(.Q.)._.^.e.r.y.r.r.r.y.] 6XV.] q.'.w.] ] ] ] ] ] ] ] ] ] d 1.2Xa p a p Z Z a d ' w.a.hX* y y y % c.A.  hXc y y y y y Y P L L L L K y t R U.W W W W Q % c.PXPXPXPXPXPXPXLXHXJXPXPXPXPXPXKXxXx - y ",
"< < Y < < < < < < < < < < Y 1 < < < < < < Y #X~ U I U ! ! U I U ! ^ U I I / I I ! ^ I I / R R -._ ~ ~ U *.*.~ ( ( ( ( ( ( ( ( ( ( ( ) ) ( ) ) ) E..XuX#.#.#.:.#.#.` >. .E.E.,.#.#.#.#.#.$./.(.(.E.W.(.!./.$.$.N N $.B N J B M J J N N N N B n .X#.m m m m Z <XA A A | t.A S A S ..~.C S C .._.^...] ^.Q.).!.{.p.e.3.Q.{.^.y.^.(.)._.).^.e.e.y.r.r.r.y.] V.C.] q.'.w.r.] ] ] ] ] ] ] ] ] 1.d 2X1.p a p Z Z a ' ' w.a.hX* y y y % c.A.  hXc y y y y y K L L L L L K y t R W W W W W Q + n.fXV 4.H H H H H 4.4.H H H H 4.D $ t t t ",
"< < Y < < < < < < < < < < Y 1 < < < < 1 < _ #XK I U U ! ! U I U ! ^ U I I / I I ! ^ U I / R R -._ ~ ~ ! .X) ( ( ( ( ( ( ( ( ( ( ( ( ) ) ( ) ) =.E.&Xl.#.#.#.:.#.#.#.#.) E.W.>.#.#.#.#.#.$.E.(./.E...`.M./.$.$.N N J N N J B M J J N N N N B n *.*.a m m 0 y.i.m A A A t.A A A A A A } | S ] (.] C A C t.t...{.p.e.A '.].e.y.^._._.(.Q.^.Q.^.y.r.r.r.y.e.{ ~.q.q.'.w.r.] ] ] ] ] ] ] ] ] 1.d <Xq.p a p Z Z a ' ' w.a.hX* y y y % c.A.  hXc y y y y y K P L L L L K y t R U.W W W W Q + b.H.X = & & & & & & & & & & & > < K K 1 1 ",
"< < Y < < < < < < < < < < Y 1 < < < < 1 2 ;.=.K I U U ! ! U I U ! ^ U I I / I I ! ^ U I / R R -._ ~ ! =..X~ ( ( ( ( ( ( ( ( ( ( ( ( ) ) ( ) ) =.` iX*.#.#.#.:.#.#.#.#.>./.W.:.#.#.#.#.#.:.#.>.W.E.%.@X@XQ.$.$.N N J N N J B M J J N N N N N N #..Xm m m 0 <Xe.Z A A A t.A A A A A A A A S ] (.] A } } 3.6...{.p.e.e.'.r.r.y.^.).).(.^.~.(.).y.r.e.r.y.e.^.|.y.q.'.w.] ] ] ] ] ] ] ] ] ] 1.a <Xi.3 a p Z Z a ' ' w.a.hX* y y y % c.A.  hXc y y y y y K P L L L L K y t R U.W W W W Q + b.L.+ g c c c c c x y y y y g K T.T.U.U.U.",
"< < Y < < < < < < < < < < Y 1 < < < < < < ;.! U U I U ! ! U I U ! ^ U I I / I I ! ^ U I / R R -._ _ U *.+.~ ( ( ( ( ( ( ( ( ( ( ( ( ) ) ( ) ) _ *.&X>.%.#.#.:.#.#.#.#.#.`  .$.#.#.#.#.#.:.#.%.!...%.M.&XE.$.$.N N J N N J B M J J N N N N N N n .X#.a m Z <XZ A A A A t.A A A A A A A A S ] _.| A A A t.5...{.p.} u.'.| r.y.^.Q.e.(.^.).).Q.u.r.r.e.y.e.^.|.C.{ '.w.] ] ] ] ] ] ] ] ] ] 0.d i.i.3 a p Z Z a ' ' w.a.hX* y y y % c.A.  hXc y y y y y K P L L L L K y t R U.W W W W Q + b.L.+ c N.x.b.x.F.c y y y y t K T.T.U.E E ",
"< < Y < < < < < < < < < < Y 1 < < < 1 < _ ;.K I U U U ! ! U I U ! ^ U I I / I I ! ^ U I / R R -._ ~ ~ .X) ( ( ( ( ( ( ( ( ( ( ( ( ( ) ) ( ) ) _ %X&X=.%.#.#.:.#.#.#.#.#.%.#.:.#.#.#.#.#.:.#.#.#.#.>.h.&X>.$.$.N N J N N J B M J J N N N N N N n *.*.a 0 i.i.m A A A A t.A A A A A A A A S | ).| A A A 3.5.} ].p.A ].].| r.y.^.Q.3._.u.r.r.Q._.).Q.u.u.3.^.|.}.^.].w.] ] ] ] ] ] ] ] ] ] ' d i.<X3 a p Z Z a ' ' w.a.hX* y y y % c.A.  hXc y y y y y K L L L L L K y t R W W W W W Q + b.L.@ v D.x.D.c v.= y y y y t L T.T.U.W E ",
"< < Y < < < < < < < < < < Y 1 < < < 1 2 -.-.K U U U U ! ! U I U I ^ U I I / I U ! ^ U I / R R -._ ! =.*.~ ( ( ( ( ( ( ( ( ( ( ( ( ( ) ) ( ( ) ) uX@X!.%.#.#.:.#.#.#.#.#.#.#.:.#.#.#.#.#.:.#.#.#.#.>.h.&X@XH $.N N J N N J B M J B N N N N N N N B .Xm m <Xe.Z A A A A t.Z A A A A A A A S | Q.} A A A 3.5.5.p.p.e.'.u.e.r.y.{ ^.e.Q.u.e.e.)._.(.)._.^.r.^.).}.^.'.^.q.] ] ] ] ] ] ] ] ] ' d q.<Xp a p Z d a d ' w.a.hX* y y y % c.D.  fXc y y y y y K L L L L L K y t R W W W W W Q + b.L.@ v x.V x.y c.y y y y y t L /./.T.T.T.",
"< < Y < < < < < < < < < < Y 1 1 < < < 1 #X/ U U U U U ! ! U I U I ^ I ! I / I U ! ^ U I / R R -._ ! *.o.~ ( ( ( ( ( ( ( ( ( ( ( ( ( ) ) ( ) _ m.%X<.`.>.#.#.:.#.#.#.#.#.#.#.:.#.#.#.#.#.:.#.#.#.#.>.h.%X#X$.$.N N J N N J B M J J N B N N N N N n .X%.' <XZ A A A A A t.} } A A A A A A A A | A A A A 3.5.5.p.p.u.'.e.r.r.r.r.r.r.r.y.r.e.)._._.).(._.).Q.).Q.).[.).q.] ] ] ] ] ] ] ] ] ' d 0.2Xa a p Z d a d d w.a.hX* y y y % v.D.  fXc y y y y y K P L L L L K y t R U.W W W W Q + b.L.+ y y y y y y y y y y y t L T.U.U.W W ",
"< < Y < < < < < < < < < < K T Y T Y 2 _ ;.T I U U U U ! ! U I U I / / ^ / / U U ! ^ U I / R R -._ _ .X( ( ) ) =.) ( ( ( ( ( ( ( ( ( ) ) ( ) _ %XM.@X,.,.%.#.:.#.#.#.#.#.#.#.$.#.#.#.#.#.:.:.:.#.#.>.h.l.@X*.G N N J N N J B M $.:.:.:.N N N N N n *.*.i.i.m A A A A A y.} t.t.Z A A A A A A t.A A A A 3.5.5.p.p.].].e.r.r.r.r.r.r.r.y.r.e.)._.).).(.).(.(.Q.).(.{.).{ ^.] ] ] ] ] ] ] ] ] d d 2Xd p p Z d a d d w.a.hX* y y y % v.D.  fXc y y y y y K P L L L L K y t R U.W W W W Q + b.L.+ y y y y y y y y y y y y - = = = = = ",
"< < Y < < < < < < < < < < Y / < Y Y 2 ;.=.T I U U U U ! ! U I U I / / I / / I U ! ^ I I / R R ;._ =.*.~ ( >.( ) ) ( ( ( ( ( ( ( ( ( ) ) ( ( =.uXM.@X,.`.#.#.:.#.#.#.#.#.#.#.:.#.#.#.#.#.:.#.:.#.#.>.h.l.*.@XG N N J N N J B M :.J :.:.N N N N N N B .X<Xe.Z A A A Z } t.Z t.} A A A A A A A t.A A A A 3.5.5.V.p.'.a.e.r.r.r.r.r.r.r.y.r.e.^.^.).^.Q.~.Q.u.Q.(.(.{.).Q.Q.' ] ] ] ] ] ] ] ] ' d <X1.p p Z d a d d w.a.hX* y y y % v.D.  gXc y y y y y K P L L L L K y t R U.W W W W Q + b.L.+ c x x x x x g g g x x x g c c c c c ",
"< < K < < < < < < < < < < K Y Y 1 1 1 ;.U ! U U U U U I ! U U U I ! ^ / / / U U ! ! U I / R R ;._ .X=.~ ( ) ) ) ) ( ( ( ( ( ( ( ( ( ) ) ( ~ m.%X=.@X>.`.>.#.:.#.#.#.#.#.#.#.#.#.#.#.#.#.:.#.:.#.#.#.h.l.%.#X$.N M J N M B B M B :.B $.N M N N N N 0 M.2Xa A A Z Z A Z t.} } A Z Z A Z Z Z Z t.A Z A A A 5.5.p.<X'.y.r.e.r.r.e.e.e.r.y.e.r.e.u.).e.r.u.r.y.).)._.(.).Q.Q.' ] [ ] ] ] ] ] ] ' a <Xq.3 a Z d a d d w.a.hX* y y y $ v.D.  gXc y y y y y K P L L L L K y t R U.W W W W Q + b.L.$ c c c c c c p 3 p x c c c c c c c c ",
"1 < T K Y 1 < K K < K Y < T Y K K 2 =.;.1 / ^ ! ! U I / ! U ^ I I / I ! I / ^ I ! / ! / / R / -.=..X=.( ( ) ) ( ( ) ) ( ( ) ) ) ( ( =.) ) _ %XM.>.@X>.,.,.%.:.#.#.#.$.#.#.:.:.#.#.#.#.#.:.:.#.#.$.>.h.%X$.@X<.v B :.N N :.J N :.$.B N B J B N J J B p.V.} } Z } } Z } t.} } A } } A } t.t.} t.} } A } t.5.4.V.qX].e.r.r.r.y.r.r.r.r.y.r.r.e.u.Q.e.y.y.r.e.~.Q._.(.).Q.).] ] r.] ] ] ] ] ] ' a <Xi.3 p Z d a d d w.a.hX* y y y $ v.D.  gXc y y y y y K L L L L L K y t R W W W W W Q + b.L.+ y y y y * - h 2.2.y * - y y y y y y ",
"}., nXNXMX}.2 NXnX, }.MX< }.NXNXNX2 ;.mX! ,.mXmXmX6 }.ZX/ ..MX,.U mX;XMX,./ MX}.6 nXmXMX!.R NX`.+.:X;X9 }.;XmX;X9 ;XmX~ I.mXmX;X9 }.mX) ,.CXiX>.;X&XVX,.`.BXP.B nXbXCXM.:.CX&Xw nXnXw ;XnXBX;Xw jXnX*.iXzXVX&Xx kXBXM D.JXx.m.bXnXCXJ n.JXn.$.vXbXCX2X&XJXC.Z DXjXp lXxXDXeXa vXxXa eXcXDXeXa xXvXa eXDXt.A.SXrXNXr.}.FXu.u.DXNXDXy.C.FXC.r.FXeX' nXnXDX}.r.NX|.(.{.|.|.}.[ NXFX}.[ ] ] ] ' d i.i.3 a Z Z a ' ' w.a.hX* y y y $ v.D.  gXc y y y y y K L L L L L K y t R W W W W W Q + b.L.+ y y y * 2.4XpXpXpXpXj.y - y y y y y ",
"}., NXMXZX}., MXNX, nXMX< }.NXMXNX2 :XZX! ,.MXMXmX6 }.ZX/ ..ZX}.U mXnXZX,./ ZX}.6 mXmXZX}.R mX-X+.;XmX9 ;XmXmX;X6 ;XmX9 }.mXmXmX9 }.ZX) ,.BXl.>.nX&XBXM.!.CXP.B BXBXCXM.:.CX;Xw BXnXw kXnXCXkXw VXVX*.iXBXBX:Xw jXGXM P.IXx.m.BXbXJXJ M.IXI.$.CXCXDX<X*.GXC.Z DXlXp xXzXJXeXa DXzXp jXDXJXjXp bXDXa eXJXt.D.SXrXDXr.}.FXu.u.FXDXFXy.C.IXC.r.FXeX' NXNXFX}.e.DXSX[.{.|.|.[.{ |.FX}.] r.r.r.r.e.i.<Xm A } } | e.e.u.a.hX* y y y $ v.S.  gXc y y y y y K P L L L L K y t R U.W W W W Q + b.L.+ y y * 2.pXpX3X2.j.3XpXuXy y y y y c ",
"}., NXMXZX}.2 MXNX, nXMX< }.NXNXNX=.:XMX! ,.MXmXmXU }.ZX/ ..ZX}.U mXnXZX,./ ZX}.6 mXmXMX}.R NX-X.X;XmX9 }.nXmX;X9 ;XmX~ }.mXmXnX9 }.CX) ,.UXM.>.;X&XBXM.` mX&XB bXBXCXM.:.CX;Xw bXnXw kXnXCXkXw nXVX*.iXBXBXVX+.jXCXM P.HXx.m.BXzXGXJ M.IXI.$.CXCXSXi.$.VXJ.Z DXjXp xXzXJXeXa DXzXa jXDXJXjXa zXDXa eXJXt.Z.NXrXDXr.}.FXu.u.DXDXFXy.C.IXC.y.FXeX' NXnXFX}.r.FXeX6X|.|.NX_.R.|.FX}.[ ] ] ] ' d q.<X3 p Z a a d d w.a.hX* y y y $ v.S.  gXc y y y y y K P L L L L K y t R U.W W W W Q + b.L.+ g - j uXpXj o : : o j.pXj.* y y - c ",
"}.o NXMXZX}., MXnXo }.MX, }.NXNXNX;.;XMXI ,.MXmXmX< }.ZX/ / ZX}.1 mXnXZX,.! ZX}.2 mXmXMX,.U NX:X+.;XmX9 }.nXmX;X6 ;XmX9 I.mXmXnX6 }.CX( ,.dXI.>.;X&XBX>.>.;XP.w bXBXCXM.#.CX&Xr bXnXr kXnXCXkXw nXVX*.iXbXBXVX<.jXCX0 S.IX:.x.BXzXGXB v.IXn.B CXcXrXt.c.VXA.a DXjX3 lXzXJXeXp DXzX3 kXDXJXgX3 zXDXp eXJXt.B.rXeXDX0.}.FXu.u.DXDXFXr.C.IXC.r.FXeXd NXNXFX}.0.DXeX6XNXNXFX|./.|.FX}.[ ] ] ] ' d 0.2Xp p Z d a d d w.a.hX* y y y $ v.S.  gXc y y y y y K P L L L L K y t R U.W W W W Q + b.L.+ g * j.pXl o F $.J 7 o 4XpXy y y - c ",
"nXT NXMXZX}./ MXNXT NXMX/ }.NXNXmX#X}.ZX..}.MXmXmX/ }.ZX,.,.ZX}...mXnXZX}.,.ZX}./ mXmXMX}...NX&X<.;XmX=.;XnXmXnX) ;XmX>.}.mXmXmX=.;XCX,.M.UX}.M.nX&XBXM.P.;XI.M.BXBXCXP.M.CX;X:.BXnX:.nXnXCXnX:.VXVXh.iXbXBXnX@XnXGX:.;XHXI.A.cXzXJXm.P.HXP.n.CXSXSXA.C.VXM.y.DXxXt.zXzXDXgXt.DXvXt.lXDXJXlXt.vXDXt.gXJXB.C.rXeXDXu.eXFXC.C.DXDXFXC.}.FX}.C.FXeXy.NXnXFXeXu.FXeX6XSXNXFX|.(.|.NX).^.^.' ] ' d 1.2Xa p Z d a d d w.a.hX* y y y $ v.S.  gXc y y y y y K P L L L L K y t R U.W W W W Q + b.L.+ g * 3XpX& 3 H J fXGX .d.uXz - y y y ",
"MXMXMXNXMXMXMXMXMXNXMXMXNXMXNXNXmX:XMXMXmXMXmXmXMXmXMXMXmXMXMXmXMXMX;XMXmXMXMXmXmXMXmXMXmXNXmX=X;XmXmXmXCX;XmXmXmXmXmXmXmXmXmXmXmXmXmXmXdXBXnXmXVX&XBXnXBXnX;XBXCXbXCXBXBXCXBXBXCXBXBXCXnXBXBXBXBXBXVXVXBXBXBX:XVXJXcXGXGXcXGXvXxXJXcXGXGXBXCXCXeXSXvXDXvXiXDXDXDXDXDXxXDXDXDXJXDXDXJXcXDXDXDXJXDXDXDXDXAXNXrXeXFXNXFXFXDXFXDXDXFXDXFXFXDXDXFXDXDXFXnXFXDXDXFXFXeXSXNXFXNX(.|.|.(.(.Q.' ] ' d d 2Xd p Z d a d d w.a.hX* y y y $ v.S.  gXc y y y y y K L L L L L K y t R W W W W W Q + b.L.+ g * 3XpX+ 0 J F J.J.; l 4Xl * y y y ",
"MXMXZXMXZXMXMXZXMXMXZXZXMXZXNXMX:XmXZXZXmXZXMXMXZXmXZXZXmXMXZXMXMXMXnXZXmXMXZXMXMXZXmXZXmXMX;X#XmXmXmXmXZXnXmXCXmXZXCXmXZXmXmXCXmXZXZXnXdXCXnXBXVX&XBXnXBXCX}.CXCXBXCXBXCXCXBXCXCXCXBXCXnXCXCXBXCXBXVXVXBXBXCXVX:XJXCXJXHXCXJXCXbXHXCXJXHXCXJXJXrXJXcXGXJXiXDXIXDXDXIXzXJXDXDXIXJXDXIXDXJXDXDXIXJXDXJXJXAXrXSXSXFXDXFXFXDXFXFXDXFXDXFXFXDXFXFXDXDXFXNXFXDXDXFXFXrXSXNXFXNX(.|.|.(.(.Q.' ] ' d a 2X1.3 Z d a d d w.a.hX* y y y $ v.S.  kXc y y y y y K L L L L L K y t R W W W W W Q + b.L.+ g * j.aXj o F J N 0   j.uXj - y y - ",
"..........................,...,.#X..,.,.,.,.,.,.,.,.,.,.,.,.,.,.,.,...,.,.,.,.,.,.,.,.,.,...@X#X,.,.,.,.,.,.,.,.,.,.,.,.,.,.,.,.,.,.,.&X&X,.M.I.M.@XM.M.I.M.`.I.M.M.M.M.M.M.M.M.M.M.M.M.M.M.M.M.M.M.&X&XM.M.M.M.#XP.m.n.I.b.n.M.v.I.v.b.I.n.M.C.2Xb.b.b.B.M.Z.C.B.B.C.B.B.B.B.C.B.n.C.B.C.B.C.C.C.B.C.B.C.qX6X<XC.C.C.C.C.C.C.C.C.C.C.C.C.C.C.C.C.C.C.C.C.C.C.C.qX5XC.].].(.)._.(.(.).' ] ' d a <Xq.3 Z a a d d w.a.hX* y y y $ v.S.  kXc y y y y y K P L L L L K y t R U.W W W W Q + b.L.+ g * 2.pX4X+ % 0 7 . z 4Xj.- y y y & ",
", 2 < , , , , , , , , , , < , =.=.< 6 1 1 I 1 1 1 1 < U U < < < 6 I 1 1 1 I 1 1 U U 1 U R ~ *.;.=.( ~ 9 9 9 9 9 9 9 9 9 9 9 9 9 9 9 ~ %X#.e #.=.>.@X#.#.#.e ,.` w w w w w B #.w w w w w #.w w o.o.#.h.l.#.%.#.M <.<.0 0 M M 0 N N 0 0 0 0 b r i.y.v S S m $.h.a a a a } a a a a a a a a a a } a a a d V ].a.p.s.0.0.0.' e.r.' ' ' | r.' ' ' r.' ' | r.' 0.r.q.e.'.V.V.[ { /.).(.(.(.).' ] ' d a <Xi.3 Z a a d d w.a.hX* y y y + v.S.  kXc y y y y y K P L L L L K y t R U.W W W W Q + b.L.+ y y * j.aX3Xo $ % t uX4Xj - y y y y ",
"< 1 Y Y T T 1 < < < < < < Y T ;.=.I U I U / I U I I U ! / ^ / ^ I ^ U I I / I I ! ^ I ! R <.<.-.>.=.>.>.) ( ( ( ( ( ( ( ( ( ( ( ( ~ :.uX>.>.>.>.>.@X>.>.>.>.>.!.:.:.:.#.#.#.:.#.#.#.#.#.:.:.:.:.:.:.h.%X$.$.$.#.#.#XN N J B N J $.:.J B N N J <XH J H H H A h.H Z A A t.t.t.} A A A A A A A t.t.t.} } 3.'.y.p.a.r.r.r.r.r.y.y.y.r.r.y.r.r.r.y.r.r.r.r.r.r.y.y.y.].C.6Xr.{ ).{ (.).(./.' ] ' d a i.i.3 d A } e.e.w.a.hX* y y y + n.S.  kXc y y y y y K P L L L L K y t R U.W W W W Q + b.L.+ y y y ; j.d.* y y - j.l * y y y y y ",
"< < K 1  .T 1 < < < < < < K ^ <. .^ U U U ^ I U U U U I /  . .^ I ! U U I ^ U U ! ! U I / .X_ ;.>.>.>.>.) ~ ( ( ( ( ( ( ( ( ( ( ( ~ l.h.>.:.m.>.>.@X>.>.>.>.>.,.m.:.:.:.B #.#.#.#.#.#.#.:.:.x.:.m.:.h.l.$.$.$.#.B @X#.b B B M B $.:.m.J N w y.<XN G J J J S h.h.d Z A } } c.t.Z A Z Z Z Z Z e.} c.v.S r.'.t.p.p.r.r.r.e.r.y.y.n.y.r.y.e.r.r.y.r.r.r.r.e.r.y.y.y.].a.6Xy.C.Q.] ).Q.).(.] ] ' d a i.<X3 Z d t.t.c.a.a.hX* y y y + n.S.  kXc y y y y y K L L L L L K y t R W W W W W Q + b.L.+ y y y y * - y y y y * - y y y y y y ",
"< < K ^ T ^ < < < < < < < 1 =.<. .! U U U ! I U U U U I ^  . .^ I ! U U I ^ U U ! ! U U =..X! ;.=.>.>.>.) ~ ( ( ( ( ( ( ( ( ( ( ( ~ %X:.:.>.>.>.>.@X>.>.>.>.>.,.,.$.:.#.B #.#.B #.#.#.#.$.:.:.:.:.:.h.l.%.$.$.#.B <.<.b B B M B J J :.J N w s.y.F G G G J S $.h.d Z Z t.t.t.t.Z Z Z Z Z Z Z } } t.t.F ].].t.p.p.r.r.r.e.r.r.y.c.r.r.r.e.r.e.r.r.e.r.r.e.r.y.r.y.].u.G.v.u.^.] { ] Q.).^.' ' d d q.<X3 a } t.e.t.u.a.hX- y y y + n.S.  jXc y y y y y K L L L L L K y t R W W W W W Q + b.L.+ y y y y y * * - - ; - y y y y y y y ",
"< < Y < < < < < < < < < < Y #X! U U U U U / I U U U U ! ^ U U U I / U U I / U U ! / I R @X<./ ;.=._ _ ( ( ( ( ( ( ( ( ( ( ( ( ( ~ :.iX) >.>.>.>.<.@X>.>.>.>.>.>.!.>.#.#.#.#.>.#.#.#.#.#.>.#.#.#.#.>.h.%X$.$.:.#.#.>.#XB J B M J J N N N N J <XJ H J H H H H A .X$.d A t.A A A A A A A A A A t.} A Z } 0Xy.t.2Xa.r.y.r.r.r.y.r.r.r.r.y.r.r.r.y.r.r.r.y.r.r.u.y.y.qXw.V.V.[ ] ] ] ' Q.).(.] ' d d 0.2X3 Z d a ' ' w.].hX& y y y + n.S.  kXc y y y y y K L L L L L K y t R W W W W W Q + b.L.+ y y y y * j.4XuXuX3Xl * y y y y y y ",
", , , , , , , , , , , , > 6 =., 6 6 6 6 6 6 6 6 6 6 6 6 6 6 6 6 6 6 6 6 6 6 6 6 6 6 6 6 o.r 9 e 9 9 9 9 9 9 9 9 9 9 9 9 9 9 9 q 6 g.g.q 0 0 w w e #.w w w w e 0 / ( 0 0 0 w w 0 0 0 0 0 M 0 w w w w M %.M M M w w M <.w x b 0 b b 0 x x 0 S 0.b b b b b v v b %.%.p p m p p p p a a a a a p m a a p d w.Z Z e.e.d d d d Z Z d d d d Z d d d Z Z d Z Z d Z A Z Z r.' 3.g.a a a a a [ Q Y.a a f p s i.p p p p p p d lXb.% y y y % c.hX- jXy y y y y y K P L L L L K y t R U.W W W W Q + b.L.+ y y y y 4XpXpX3XuXpXpXj.* y y y y y ",
"fXfXfXfXfXfXfXfXfXfXfXfXfXfXfXfXfXfXfXfXfXfXfXfXfXfXfXfXfXfXfXfXfXfXfXfXfXfXfXgXfXfXgXfXfXfXfXfXfXfXfXfXfXfXfXfXfXfXfXfXgXgXgXgXgXfXhXfXfXfXfXfXfXfXfXfXfXfXfXgXfXfXgXgXgXgXgXgXgXgXgXgXgXgXgXgXgXgXfXfXgXgXgXgXgXgXfXgXgXgXgXgXgXgXgXgXgXgXhXgXgXgXgXgXgXgXgXfXgXgXgXgXgXgXgXgXgXgXgXgXgXgXgXgXgXgXgXhXgXgXgXgXgXgXgXgXgXgXgXgXgXgXgXgXgXgXgXgXgXgXgXgXgXgXgXgXgXgXgXfXgXgXgXgXgXgXgXiXgXgXgXgXgXgXgXgXgXgXgXgXkXZ.% y y y y y y J.lXn.& y y y y y K P L L L L K y t R U.W W W W Q + b.L.+ y y * 3XaXj.. . . + yXpXl - y y y y ",
"x x x x x x x x x x x x x x x x x x x x x x x x x x x x x g x g x x g x g x g g x x x x x x x x x x x x x x x x x x x x x g g g g x x x x x x x x x x x x x x x x g g g g g g g g g g g g g g g g g g g g g g g g g g g g g y g g y y y y y y y y y y y y y y g g y y y y y y y y y y y y y y y y y y p y y y y y y x x x x x x x x x x x x x x x x x x x x x x x x x x x x x x x x x x x x x x x x x x x x x x y + y y y y y y & & y $ = = y y y y K P L L L L K y t R U.W W W W Q + b.L.+ g * 2.pXj.  7 N v } y 3X3X- y y y y ",
"& & & & & & & & & & & & & & & & & & = y y y y y y y y y y y y y y y y y y y y y = & & & & & & & & & & & & & & & & & & & y y y y y = = = = = = = & & & & & & & & y * * * * * * * * * * * * * * y y y y y y y y y y y y y y y y y y y y y y y y y y y y y y y y y y y y y y y y y y y y y y y y y y y y y y y y y y y & & & & & & & & & & & & & & & & & & & & & & & & & & & & & & & & & & & & & & & & & & & & & % & y y y y y - c x.x x H H G y y y y K L L L L L K y t R W W W W W Q + b.L.+ g * 3XpXt ; H J vXzXo j.uXj - y y y ",
"4.4.4.4.4.4.4.4.4.4.4.4.4.4.4.G 4.4.V = y y y y y y y y y y y y y y y y y y y = c 4.4.4.4.4.4.4.4.4.4.4.4.4.4.4.G H 4.4.y y y y y V F V F F F F F F F F G G G G y d.d.d.d.d.d.d.d.d.d.d.d.d.d.g y y y y y y y y y y y y y y y y y y y y y y y y y y y y y y y y y y y y y y y y y y y y y y y y y y y y y y x c - c m.v.v.v.v.v.v.v.v.v.v.v.v.n.n.n.n.n.n.n.n.n.n.n.n.b.b.b.b.b.b.b.b.b.b.b.b.b.N.N.N.N.A.A.A.A.b.c y y y y y G F.y c.N.N.v.- y y y K L L L L L K y t R W W W W W Q + b.L.+ g * 4XuX. x J H K.x.: z 4Xl * y y y ",
"PXPXPXPXPXPXPXPXPXPXPXPXPXPXKXbXLXLXKX4.& y y = y = - y y - y - y = y - & y & G HXLXKXPXPXPXPXPXLXLXLXLXPXPXKXLXcXHXLXLXjX& y y y hXzXzXzXbXbXvXvXvXcXcXGXcXGXgX# uXsXsXsXsXsXsXsXsXsXsXaXaXaXj y y y y y y y y y y y y y y y y y y y y y y y y y y y y y y y y y y y y y y y y y y y y y y y y y y y y y y g c = b jXzXzXzXzXzXbXbXbXvXvXvXvXvXvXvXcXcXcXcXGXGXGXGXGXGXGXGXGXGXGXGXGXGXGXGXGXJXJXJXJXJXJXJXJXHXvXc y y y = G F x.v.c.D.4.b.c y y y Y L L L L L K y t R W W W W W Q + b.L.+ g * 3XpXt ; J J N F o j.uXh - y y y ",
"KXGXLXPXPXPXPXPXKXPXPXPXKXPXIXvXHXc.PXL.+ g = 4.x.G n.x c.V y V - V y v 4.V + N.HXGXKXPXPXGXKXPXGXJXAXGXPXKXKXLXvXIXiXkXKXy y y y fXbXjXxXjXxXxXvXzXvXxXzXcXJXkX. uXsXsXsXsXsXdXsXsXsXsXaXsXaXj y y y y y y y y y y y y y y y y y y y y y y y y y y y y y y y y y y y y y y y y y y y y y y y y y y y y y y g c = b jXxXxXxXxXxXzXzXzXzXzXzXzXzXzXbXvXzXjXxXfXgXxXjXjXjXcXcXcXcXcXcXcXcXGXGXGXGXGXGXGXGXGXGXGXJXzXx y y y y = c x.F G 4.4.H y y y t K P P P P P K y t R U.U.U.U.U.W + b.L.+ g * d.pXd.  7 v N ; . 3X3Xy y y y y ",
"xXjXbXxXvXvXxXKXPXKXKXKXKXPXIXcXAXH.HXL.+ x & x.v.N.x & b.b.n.n.n.v.n.n.D.f.& N.lXkXcXzXbXlXcXKXkXlXzXvXLXKXKXLXcXJXkXjXJXg y y - fXxXS.K.L.L.jXzXL.hXfXgXhXJXgX. uXsXdXdXuXsXdXdXdXuXuXyXsXaXj y y y y y y y y y y y y y y y y y y y y y y y y y y y y y y y y y y y y y y y y y y y y y y y y y y y y y y g c = b jXzXxXxXxXzXzXzXzXzXzXzXzXbXbXbXvXzXgXbXhXJ.L.gXb.zXGXcXcXcXcXcXGXGXGXGXGXGXGXGXGXGXGXGXGXJXzXx y y y y y y & & & + & = y y y y 5 5 5 5 5 5 5 y t 5 R R R R R T + b.L.+ y y - 4XpXd.. + . % 3XuX2.* y y y y ",
"xXjXfXgXcXvXxXJXPXKXKXKXKXPXHXcXcXc.HXL.+ g y v Z.Z.x.y v.N.N.v.b.n.c.N.N.4.& N.xXHXlXlXvXL.lXPXkXlXvXGXPXKXKXPXcXJXJ.hXHXy y y y fXjXhXjXL.iXjXjXL.5XkXgXfXGXgX. uXsXdXdXuXdXsXdXdXuXdXyXaXaXj y y y y y y y y y y y y y y y y y y y y y y y y y y y y y y y y y y y y y y y y y y y y y y y y y y y y y y g c = b jXzXxXxXxXzXzXzXzXzXzXzXzXzXbXbXvXzXK.jXK.jXJ.hXhXkXxXjXbXcXcXcXcXGXGXGXGXGXGXGXGXGXGXGXGXJXzXx y y y y y y - x.x.c.V y y y y y t t t y t t t y y t t t t t t y + b.L.+ y y - j pX3X* y y y 3Xj.- y y y y y ",
"GXJXHXJXKXIXHXKXLXPXPXPXPXLXKXcXKX5XLXH.+ g y V V y G y c V y F y F c V b G % n.KXLXHXHXHXHXHXPXGXJXIXKXLXPXPXLXcXKXxXvXKXy y y y fXvXbXvXvXzXzXcXvXcXvXvXGXJXgX. uXsXsXsXsXsXsXsXsXsXsXsXsXaXj y y y y y y y y y y y y y y y y y y y y y y y y y y y y y y y y y y y y y y y y y y y y y y y y y y y y y y g c = b jXzXxXxXzXzXzXzXzXzXzXzXbXbXbXbXvXvXxXxXzXvXvXbXcXzXzXzXvXcXcXcXGXGXGXGXGXGXGXGXGXGXGXGXGXJXzXx y y y y y - x.D.Z.F.4.& y y y y t 4 5 T 3 T 4 t y y p T R 4 T p + n.L.+ x y y - j y y y y y g y y y y y y y ",
"HXHXHXHXHXHXHXHXHXHXHXHXHXHXGXlXHXKXcXF = y y - = y & y y = y = y = y = y = - b vXHXHXHXHXHXHXHXHXHXHXHXHXHXHXHXxXAXKXIXL.& y y y J.jXgXjXjXjXjXjXjXjXxXxXjXxXL.# uXsXsXsXsXsXsXsXaXaXaXaXaXyXj y y y y y y y y y y y y y y y y y y y y y y y y y y y y y y y y y y y y y y y y y y y y y y y y y y y y y y g c = b jXxXxXxXxXxXxXxXzXzXzXzXzXzXzXzXbXbXvXvXvXvXvXvXvXcXcXcXcXcXcXcXcXcXcXcXCXGXGXGXGXGXGXGXGXGXzXc y y y y y y v.b.N.S.x.& y y y y 3 4 5 T 4 R 5 t y p T Q Q 5 T T & G jX& + $ + $ + + + + + $ + + $ + + + + + ",
"x x x x c x x c c c c c c c c x c x y y g y y g g y g y g g y g y g y g g g g y - c x x x x x c x x c c c c c c x c x g = y y y g c x x x x x x c x x x x c c c p l l l l l l l z z z z z z z g y y y y y y y y y y y y y y y y y y y y y y y y y y y y y y y y y y y y y y y y y y y y y y y y y y y y y y c c y c H H H H H H H H H H 4.4.4.4.4.4.4.4.4.4.4.4.4.4.f.f.f.x.x.x.x.x.x.x.x.x.x.x.x.x.x.x.x.x.x.x.x.c y y y y g y V 4.V 4.c y y y y y y p p p p p p y y y p p p p p p g & D.lXb.n.n.n.n.n.n.n.n.n.n.n.n.n.n.n.n.n.",
"+ + + + + + + + + + + + + + + + + + + + + + + + + + + + + + + + + + + + + + + + + + + + + + + + + + + + + + + + + + + + + + + + + + + + + + + + + + + + + + + + + . . . . . . . . . . . . . . + + + + + + + + + + + + + + + + + + + + + + + + + + + + + + + + + + + + + + + + + + + + + + + + + + + + + + + + + + + X X X X X X X X X X X X X X X X X X X X X X X X X X X X X X X X X X X X X X X X X X X X X X X + + + + + + + @ X X X + + + + + + + + + + + + + + + + + + + + + + + +   F D.S.S.S.S.S.S.S.S.S.S.S.S.S.S.S.S.S.",
"H.H.H.H.H.H.H.H.H.H.H.H.H.H.H.H.H.H.H.H.H.H.H.H.H.H.H.H.H.H.H.H.H.H.H.H.H.H.H.H.H.H.H.H.H.H.H.H.H.H.H.H.H.H.H.H.H.H.H.H.H.H.H.H.H.H.H.H.H.H.H.H.H.H.H.H.H.H.H.H.H.H.H.H.H.H.H.H.H.H.H.H.H.H.H.H.H.H.H.H.H.H.H.H.H.H.H.H.H.H.H.H.H.H.H.H.H.H.H.H.H.H.H.H.H.H.H.H.H.H.H.H.H.H.H.H.H.H.H.H.H.H.H.H.H.H.H.H.H.H.F.F.H.H.J.J.J.J.J.J.J.J.J.J.J.J.J.J.J.J.J.J.J.J.J.J.J.J.J.J.J.J.J.J.J.J.J.J.J.J.J.J.J.J.J.J.J.J.J.J.J.H.H.H.H.H.H.H.H.J.H.J.H.H.H.H.H.H.H.H.H.H.H.J.H.H.H.H.H.H.J.H.J.H.H.H.J.D.Z.Z.Z.Z.Z.Z.Z.Z.Z.Z.Z.Z.Z.Z.Z.Z.Z.Z.",
"N.N.N.N.N.N.N.N.N.N.N.N.N.N.N.N.N.N.N.N.N.N.N.N.N.N.N.N.N.N.N.N.N.N.N.N.N.N.N.N.N.N.N.N.N.N.N.N.N.N.N.N.N.N.N.N.N.N.N.N.N.N.N.N.N.N.N.N.N.N.N.N.N.N.N.N.N.N.N.N.N.N.N.N.N.N.N.N.N.N.N.N.N.N.N.N.N.N.N.N.N.N.N.N.N.N.N.N.N.N.N.N.N.N.N.N.N.N.N.N.N.N.N.N.N.N.N.N.N.N.N.N.N.N.N.N.N.N.N.N.N.N.N.N.N.N.N.N.N.N.N.N.N.N.N.N.N.N.N.N.N.N.N.N.N.N.N.N.N.N.N.N.N.N.N.N.N.N.N.N.N.N.N.N.N.N.N.N.N.N.N.N.N.N.N.N.N.N.N.N.N.N.N.N.N.N.N.N.N.N.N.N.N.N.N.N.N.N.N.N.N.N.N.N.N.N.N.N.N.N.N.N.N.N.N.N.N.Z.A.A.A.A.A.A.A.A.A.A.A.A.A.A.A.A.A.A.",
"+ + + + + + + + + + + + + + + + + + + + + + + + + + + + + + + + + + + + + + + + + + + + + + + + + + + + + + + + + + + + + + + + + + + + + + + + + + + + + + + + + + + + + + + + + + + + + + + + + + + + + + + + + + + + + + + + + + + + + + + + + + + + + + + + + + + + + + + + + + + + + + + + + + + + + + + + + + + + + + + + + + + + + + + + + + + + + + + + + + + + + + + + + + + + + + + + + + + + + + + + + + + + + + + + + + + + + + + + + + + + + + + + + + + + + + + + + + + + + + + + + + + + + + + + + + + + + + + + ",
"y y y y y y y y y y y y y y y y y y y y y y y y y y y y y y y y y y y y y y y y y y y y y y y y y y y y y y y y y y y y y y y y y y y y y y y y y y y y y y y y y y y y y y y y y y y y y y y y y y y y y y y y y y y y y y y y y y y y y y y y y y y y y y y y y y y y y y y y y y y y y y y y y y y y y y y y y y y y y y y y y y y y y y y y y y y y y y y y y y y y y y y y y y y y y y y y y y y y y y y y y y y y y y y y y y y y y y y y y y y y y y y y y y y y y y y y y y y y y y y y y y y y y y y y y y y y y y y y ",
"y y y y y y y y y y y y y y y y y y y y y y y y y y y y y y y y y y y y y y y y y y y y y y y y y y y y y y y y y y y y y y y y y y y y y y y y y y y y y y y y y y y y y y y y y y y y y y y y y y y y y y y y y y y y y y y y y y y y y y y y y y y y y y y y y y y y y y y y y y y y y y y y y y y y y y y y y y y y y y y y y y y y y y y y y y y y y y y y y y y y y y y y y y y y y y y y y y y y y y y y y y y y y y y y y y y y y y y y y y y y y y y y y y y y y y y y y y y y y y y y y y y y y y y y y y y y y y y y ",
"y y y y y y y y y y y y y y y y y y y y y y y y y y y y y y y y y y y y y y y y y y y y y y y y y y y y y y y y y y y y y y y y y y y y y y y y y y y y y y y y y y y y y y y y y y y y y y y y y y y y y y y y y y y y y y y y y y y y y y y y y y y y y y y y y y y y y y y y y y y y y y y y y y y y y y y y y y y y y y y y y y y y y y y y y y y y y y y y y y y y y y y y y y y y y y y y y y y y y y y y y y y y y y y y y y y y y y y y y y y y y y y y y y y y y y y y y y y y y y y y y y y y y y y y y y y y y y y y ",
"y y y y y y y y y y y y y y y y y y y y y y y y y y y y y y y y y y y y y y y y y y y y y y y y y y y y y y y y y y y y y y y y y y y y y y y y y y y y y y y y y y y y y y y y y y y y y y y y y y y y y y y y y y y y y y y y y y y y y y y y y y y y y y y y y y y y y y y y y y y y y y y y y y y y y y y y y y y y y y y y y y y y y y y y y y y y y y y y y y y y y y y y y y y y y y y y y y y y y y y y y y y y y y y y y y y y y y y y y y y y y y y y y y y y y y y y y y y y y y y y y y y y y y y y y y y y y y y y ",
"y y y y c y y - - - - - - - - - - - - - - - - - - - - - - - - - - - - - y y y y y y - - - - - - - - - - - - - = - - - - - - - - - - - - - - y y y c y y - - - - - - - - - - - - - = - - - - - - - - - - - - - = - y y c y y - = = = = = = = = = = = = - - - = = = = = = = = = = = = - y y c y y t = - - - - - - - - - - - - - - - = = = = = = = = = - - y y y y y y - - - - - - - - - - - - - = - - - - - - - - - - - - - y y y c y y y - - - - - - - - - - - - = - = - - - - - - - - - - - = y y y c y y y - - - - - - - - - - ",
"y y y y c y t L U.U.U.U.U.U.U.U.W W W W W E E E E E E P P L L L L L L K * y y y y x x.x.x.x.x.c.m.v.v.v.v.n.n.b.b.b.b.N.A.A.A.D.D.S.S.S.S.J.G = g c y 7 OXOXOXOXOXOXOXOXOX+.+.+.+.+.+.+.+.+.+.+.+.+.o.o.o.o.o.o.8 y y c y y O. X X X X X X X XO.O.O.O.O.O.O.O.O.O.O.X.X.X.X.X.X.X.X.8 y y c y y k.tXtXtXtXtXtXtXtXk.k.k.k.k.k.k.k.k.k.j.j.d.d.d.d.d.d.d.t y y y y y x.x.x.x.c.c.m.v.v.v.v.n.n.b.b.b.b.A.A.A.A.D.D.S.S.S.J.b.y y c y - 1.,X,X,X,X,X,X,X,X8.8.8.8.8.8.8.8.8.8.8.8.8.1.1.1.1.1.1.i - y c y y w.'.'.'.'.'.'.'.'.s.w.",
"y y y y c y t P /././././.R.T.T.T.T.T.T.T.R.R.U.U.U.U.U.U.W W W E E E L * y y y y x b.A.A.D.D.S.S.S.J.J.J.L.L.S.S.L.hXhXhXfXgXgXgXkXjXjXjXjXH & g c y 7 +X=X+X+X+X+X+X+X+X+X+X+X+XOXOXOXOXOXOXOXOX+.+.+.+.+.+.+.r u y c y *  X$X$XXXXXXXXXXXXXXXXXXXXX X X X X X X X XO.O.O.O.O.O.O.8 u y c y * tXaXyXyXyXyXyXyXyXyXyXyXyXtXtXtXtXtXtXtXtXk.k.k.k.k.k.j.t y y y y g n.A.A.D.D.S.S.S.J.J.J.K.J.S.S.K.hXhXhXgXgXgXkXkXjXjXjXJ.- y c y = 8.7X7X7X7X7X1X1X1X1X1X1X1X,X,Xi.,X,X,X,X,X8.8.8.8.8.8.8.i - y c y - '.wXwXwXwX0X0X0X0X0X0X",
"y y y y c y t P /././.R.T.T.T.T.T.T.T.T.).).R.U.U.U.U.W W W W E E E E L * y y y y x n.b.b.A.A.A.D.D.S.S.S.J.N.x.A.S.K.K.K.hXhXhXhXfXgXgXgXkXH & g c y 7 +X=X+X+X+X+X+X+X+X+X+X+XOXo.+.+.OXOXOXOX+.+.+.+.+.+.+.+.r u y c y *  X$XXXXXXXXXXXXXXXXXXXXXXXX.&.O. X X X XO.O.O.O.O.O.O.O.8 u y c y - tXaXyXyXyXyXyXyXyXyXyXyXtXd.k.k.tXtXtXk.k.k.k.k.k.k.k.d.t y y y y y v.b.b.A.A.A.D.D.S.S.S.L.v.x.v.L.K.K.K.hXhXhXfXgXgXgXjXS.- y c y = 8.7X7X7X1X1X1X1X1X1X1X1X1X1.8.i.,X,X,X,X8.8.8.8.8.8.8.8.i - y c y u '.wXwX0X0X0X0X0X0X'.'.",
"y y y y c y t P /./././.R.T.T.T.T.T.T.T.R.T.T.U.U.U.U.U.W W W E E E E L * y y y y x n.b.b.A.A.A.D.S.S.S.S.J.S.D.N.J.K.K.K.hXhXhXhXfXgXgXgXgXH & g c y 7 +X=X+X+X+X+X+X+X+X+X+X+XOXOXOXOXOXOXOXOX+.+.+.+.+.+.+.+.r u y c y *  X$XXXXXXXXXXXXXXXXXXXXXXX X X&. X X X XO.O.O.O.O.O.O.O.8 u y c y - tXaXyXyXyXyXyXyXyXyXyXyXtXtXtXtXtXtXtXtXk.k.k.k.k.k.k.d.t y y y y y v.b.b.A.A.A.D.S.S.S.S.J.D.S.A.L.K.K.hXhXhXhXfXgXgXgXjXS.- y c y = 8.7X7X7X7X1X1X1X1X1X1X1X1X,X,X,X,X,X,X,X8.8.8.8.8.8.8.8.i - y c y - '.wXwXwX0X0X0X0X0X0X'.",
"y y y y c y t E /././././.R.T.T.T.T.T.T.T.T.U.U.U.U.U.U.W W W W E E E L * y y y y x n.b.N.A.A.D.D.S.S.S.J.J.L.K.K.K.K.K.hXhXhXhXfXgXgXgXgXkXH & g c y 7 +X=X=X=X+X+X+X+X+X+X+X+X+X+XOXOXOXOXOXOXOX+.+.+.+.+.+.+.r u y c y *  X$X$X$XXXXXXXXXXXXXXXXXXXXX X X X X X X XO.O.O.O.O.O.O.8 u y c y - tXaXaXaXyXyXyXyXyXyXyXyXyXyXtXtXtXtXtXtX%Xk.k.k.k.k.k.j.t y y y y g v.b.b.A.A.D.D.S.S.S.J.J.L.K.K.K.K.;XhXhXhXhXgXgXgXgXjXS.- y c y ; 8.7X7X7X7X7X1X1X1X1X1X1X1X1X,X,X,X,X,X,X,X8.8.8.8.8.8.8.i - y c y u '.wXwXwXwXwX0X0X0X0X'.",
"y y y y c y t 5 P L L L L L K K K K K K K K K 1 1 1 1 2 2 2 2 2 2 , , , * y y y y y v v v v V V V F F F F F F F F G G G G H H H H H H H H 4.b - y c y 7 o.o.o.o.o.o.o.o.o.o.o.o.o.o.o.w w w r r r r r r 8 8 8 8 7 y y c y y X.X.X.X.X.X.X.X.X.X.X.X.X.X.X.8 8 8 8 8 8 8 8 8 8 8 8 8 7 y y c y y d.d.d.d.d.d.d.d.d.d.d.d.d.d.d.2.2.l l l l z z z z z z z t y y y y y v v v v V V V F F F F F F F F G G G G H H H H H H H H G y y c y - 1.1.1.1.1.1.1.1.1.1.1.1.1.1.1.1.1.f f f f f f f f i i i u y y c y y ] q.q.q.q.] [ [ [ [ [ ",
"y y y y c y y t t t t t t t t t t t t t t t t t t t t t t t t t t t t t y y y y y y y - - - y - - = = = = = = = = = = = = = = = = = = = = & y y y c y y u u u u u u u u u u u u u u u u u u u u u y u y u u u u y y y c y y u u u u u u u u u u u u u u u u u u u y y y y y y y y y y y y c y y * * * * * * * * * * * * * * * * * * * - - - - y - - - - y y y y y y y - - y y y - = = = = = = = = = = = = = = = = = = = & = y y c y y - = = = - - - - - - - - - - - - - - - - - - y - y - - - y y y c y y = = = = = = = = = = = ",
"y y y y c y y y y y y y y y y y y y y y y & - y y y y y y y y y y y y y y y y y y y y y y y y y y y y y y y y y y y y y y y - y y = y y y y y y y c y y y y y y u u y y y y y y y y y y y y y = - & - & y y y y y y y c y y y y y y u u u y y y y y y y y y y y y & = = = & y y y y y y y c y y y y g y * * - y y y y y y y y y y y y = = = = = y y y y y y y y y y y y y y - y y y y y y y y y y y y y y y y y y = y y y y y y c y y y y y y = ; - y y y y y y y y y y y & - & u & y = y y y y y y c y y y y y y = = y y y y y ",
"y y y y c y y y y y y y y y y y y y y y = 4.F = y y y y y y y y y y y y y y y y y y y y y g b b y y y y y y y y y y y y y V F c y G y y y y y y y c y y y y u g o.o.w u y y y y y y y y y y y G c 4.V f.y y y y y y y c y y y y u y h @.h y u y y y y y y y y y y 4.F 4.V f.y y y y y y y c y y y y * j d.j.k * y y y y y y y y y y y G F H H G - y y y y y y y y y y y - c F V y - y y y y y y y y y b v F V V V H V y y y y y c y y y y - y 1.8.1.= - y y y y y y y y y 4.V 4.V 4.y G y y y y y y c y y y y = s q.q.a = y y y ",
"y y y y c y y y y y y y y y y y y y y - c b.v.y y y y y y y y y y y y y y y y y y y y y V H G G 4.V y y y y y y y y y = G n.x.H V x.G = y y y y y c y y y u o.OX+.+.OX+.y y y y y y y y y y & n.v.c.S.n.4.& y y y y y c y y y u h  X X&. X&.j u y y y y y y y y y H D.D.v v.G & y y y y y c y y y * j.yXyXtXtXj.y y y y y y y y y & x.D.F D.G b.y y y y y y y y y y y y 4.c.f.c.c.V y y y y y y y y = G x.x.4.n.4.H H & y y y y c y y y = 1.1X1X,X7X,Xs - y y y y y y y y x.F.b.S.H.x.F.y y y y y y c y y y = w.0X'.'.0Xw.= y y ",
"y y y y c y y y y y y y y y y y y y y - b n.v.y y y y y y y y y y y y y y y y y y y y V H & . . & f.v y y y y y y y y y c.N.x.f.H x.G = y y y y y c y y u w OX8 X + + +.+.u y y y y y y y y & 4.n.c.F.v.f.& y y y y y c y y y g XX&.* + @ X. Xy y y y y y y y y y n.G x.N.v.x y y y y y y c y y * d.yXj o 3 & tXj.* y y y y y y y & x.D.x.b.n.x.= y y y y y y y y y - x.x.+ .   x c.x y y y y y y y y c 4.c v.v.4.4.x y y y y y c y y - s 7X1.O O O ,X1X- y y y y y y y y x.N.b.H.D.F.L.b - y y y y c y y = w.0X* O O * 0Xw.= y ",
"y y y y c y y y y y y y y y y y y y y y = x.G = y y y y y y y y y y y y y y y y y y y 4.&   - b . = 4.y y y y y y y y y x V G F v H x y y y y y y c y y u +Xo.3.x.N - @ OXw u y y y y y y y - V v x.F x.x y y y y y y c y y *  X X  iXhX; @ &.@.u y y y y y y y c v.4.f.f.c.c y y y y y y c y y y yXl   x.cX3 + tXh - y y y y y y y c x.4.4.c.x.y y y y y y y y y - V c.. % x m.v g H y y y y y y y y x v F V G V V y y y y y y c y y ; ,X8.O b F ;   1X8.; y y y y y y g x.G H F x.c G x y y y y y c y y p 0Xp O n N : * 0Xp y ",
"y y y y c y y y y y y y y y y y y y y y y & = y y y y y y y y y y y y y y y y y y y b G % b.n.v x . H c y y y y y y y y y = = = = & y y y y y y y c y u x +X: N.GXx.J + +.o.u y y y y y y y y = y & = & y y y y y y y c y y u XXX.. A.gXJ * 8 &.u y y y y y y y y & & & & & y y y y y y y c y * l yX% - v.kXF . k.d.* y y y y y y y - & & = & = y y y y y y y y y = H H X x H gXv % H y y y y y y y y y y = - = & = y y y y y y c y y - 1Xf ; F n.vX$.8.,X; y y y y y y y & = = = & - = y y y y y y c y = ' '.. b J n.F O '.0.= ",
"y y y y c y y y y y y y y y y y y y y y y g y y y y y y y y y y y y y y y y y y y - v x.& A.v.b 0 . H c y y y y y y y y y g y y b c y y y y y y y c y y g +X7 % $.H N @ +.o.u y y y y y y y y c y x c c y y y y y y y c y y u XXX.# N N J # X.&.u y y y y y y y y y c c y c y y y y y y y c y * l yX+ 0 F N N . k.d.* y y y y y y y c y x y x y y y y y y y y y y = H H X x v v % & H y y y y y y y y y y x y x b c y y y y y y c y y - 1X1.: F c.K.0 1.8.= y y y y y y y y x y x y g y g y y y y y c y = ' 0X. x N zXjXX 0X0.= ",
"y y y y c y y y y y y y y y y y y y & x.c.c.n.N.4.= y y y y y y y y y y y y y y y y y c.y   % - X y H y y y y y y y y y c x.4.x.n.x.= y y y y y y c y y u OX+.@ - b % % OXw u y y y y y y y y x.N.D.V b.G = y y y y y c y y * &. X@ ; b ; @ &.@.u y y y y y y y y b.H n.x.n.F = y y y y y c y y - yXd.  x b . t tXj - y y y y y y b b.n.v.b.n.G n.& y y y y y y y y b c.% . - ; X v G y y y y y y y y - V x.H x.n.H = y y y y y c y y ; ,X,XO - x . O ,X1.= y y y y y & n.x.n.v.b.v.b.n.n.y y y y y c y y y 0Xd O 0 b F a 0Xp y ",
"y y y y c y y y y y y y y y y y y y = F N.4.F.v.c.= y y y y y y y y y y y y y y y y = F n.y + . - x.b y y y y y y y y & H F F v.x.H = y y y y y y c y y u w =Xo.@ + & OX+.u y y y y y y y y = G x.c.f.x.V = y y y y y c y y y y XX&.# + # &. Xu y y y y y y y = F F.x.v.x.x.V - y y y y y c y y * d.aXl . + & tXd.* y y y y y y y = n.A.Z.L.D.S.A.& y y y y y y y y = 4.c.% + + c x.g y y y y y y y y & x.c x.c.x.V = y y y y y c y y y y 7X8.O + : 8.i.- y y y y y y & 4.N.4.L.x.L.x.F.x.F = y y y c y y = q.wXp . . # '.0.= y ",
"y y y y c y y y y y y y y y y y y y = V f.c.n.N.4.= y y y y y y y y y y y y y y y y y y V x y y x c y y y y y y y y y y c x.4.G G V = y y y y y y c y y y u o.w u y y o.y y y y y y y y y y g F.f.x.N.D.c y y y y y y c y y y u h @.u y y @.g u y y y y y y y y c n.v.c.A.A.x y y y y y y c y y y * d.l - y g d.* y y y y y y y y V n.x.n.v.b.c.b.- y y y y y y y y y y V y y y c c y y y y y y y y y - V x.H F G c - y y y y y c y y y = s 1.- y y 1.y y y y y y y y & G 4.n.v.b.v.b.v.b.y y y y y c y y y = q.s y y p ' = y y ",
"y y y y c y y y y y y y y y y y y y y y y y y y y y y y y y y y y y y y y y y y y y y y - y y y y y y y y y y y y y y y y y y y y y y y y y y y y c y y y y u u y y y u y y y y y y y y y y y x c c y c g y y y y y y c y y y y u u y y y u y y y y y y y y y y y y y c y c y y y y y y y c y y y y * - y y y * y y y y y y y y y y c y y y y & = y y y y y y y y y y y = y y y y y y y y y y y y y y y y g y y y y y y y y y y c y y y y - = y y y - y y y y y y y y y y y y - y - y y y y y y y y c y y y y = t y y y = y y y ",
"y y y y c y y y y y y y y y y y y y y y y y y y y y y y y y y y y y y y y y y y y y y y y y y y y y y y y y y y y y y y y y y y y y y y y y y y y c y y y y g y y y y y y y y y y y y y y y y y y y y y y y y y y y y c y y y y y g y y y y y y y y y y y y y y y y y y y y y y y y y y y c y y y y g y y y y y y y y y y y y y y y y y y y y g y y y y y y y y y y y y y y y y y y y y y y y y y y y y y y y y y y y y y y y y c y y y y y y y y y y y y y y y y y y y y y y y y y y y y y y y y y c y y y y y y y y y y y y y ",
"y y y y c y y t t t t t t t t t t t t t t t t t t t t t t t t t t t t t y y y y y y t t t t t t t t t t t t t t t t t t t t t t y y y y y y y y y c y y & & & & & & & & & & & & & & & & & & & & & & & & & & & & = y y c y y u u u u u u u u u u u u u u u u u u u u u u u u u u u u y y y c y y = & & & & & & & & & & & & & & & & & & & & & & & & & & & y y y y y y - - - - - - - - - - - - - - - - - - - - - - - - - - - y y y c y y - = = = = = = = = = = = = = = - - - - - - - - - - - - - y y y c y y = = = = = = = = = = = ",
"y y y y c y t K E E E E E E P P P P P L L L L L L K K K K K < < < < 2 2 * y y y y 0 _ _ _ _ _ _ ( ( ~ ~ ~ 9 9 9 9 9 9 9 9 9 9 9 r r 6 6 6 : ; y y c y x v.b.b.b.b.N.N.A.A.A.A.A.D.S.D.D.D.D.D.D.S.S.S.S.S.S.S.J.m.= y c y y X.O.O.O.O.O.O.O.X.X.X.X.X.X.X.X.X.X.X.X.X.X.X.8 8 8 8 8 8 y y c y y c.b.b.b.b.b.N.A.A.A.A.A.D.S.D.D.D.D.D.D.S.S.S.S.S.S.S.S.F = g y - i 9.9.9.9.9.9.9.9.9.9.9.9.9.9.9.9.i i i i i i i i i i i i y y c y - 1.8.8.8.8.8.8.8.8.8.8.1.1.1.1.1.1.1.1.1.1.1.1.1.f f f f i y y c y y q.w.w.w.w.w.w.w.q.q.q.",
"y y y y c y t P /././././.R.T.T.T.T.T.T.U.U.U.U.U.U.U.U.U.W W W E E E L * y y y t q `.`.`.`.`.`.`.`.`.-.-.-.-.-.-.-.-.-.=.=._ _ _ _ ~ ~ 9 9 : y y c y x jXvXzXbXvXvXvXvXcXcXcXcXvXxXbXvXGXGXGXGXGXJXJXJXJXJXJXHXK.& y c y *  X$XXXXXXXXXXXXXXXXXXXXXXX X X X X X X X XO.O.O.O.O.O.O.8 u y c y = K.vXzXbXvXvXvXvXcXcXcXcXvXxXbXcXGXGXGXGXGXJXJXJXJXJXHXJXH & g y - i >X>X>X>X>X>X>X>X>X>X>X>X7.7.7.7.7.7.7.7.7.7.7.7.9.9.9.i - y c y = 8.7X7X7X7X7X1X1X1X1X1X1X1X,X,X,X,X,X,X,X,X8.8.8.8.8.8.8.i - y c y - '.wXwXwXwX0X0X0X0X0X0X",
"y y y y c y t P /././.R.T.T.T.T.T.T.T.T.W W R W U.U.U.W W W W E E E E L * y y y t q `.`.`.`.`.`.`.`.-.-.-.-.=.=.( _ -.=.=._ _ _ _ ~ ~ ~ 9 9 : y y c y g gXzXxXxXzXzXzXzXzXbXbXvXjXkXJ.F.cXcXcXcXcXGXGXGXGXGXGXJXJ.& y c y *  X$XXXXXXXXXXXXXXXXXXXXX X&.&.X. X X X XO.O.O.O.O.O.O.O.8 u y c y = L.zXxXxXzXzXzXzXzXbXbXvXjXkXF.L.cXcXcXcXcXGXGXGXGXGXGXcXG & g y - i >X>X>X>X>X>X>X>X>X>X>X>X7.7.9.7.7.7.7.7.7.7.7.9.9.9.9.i - y c y = 8.7X7X7X1X1X1X1X1X1X1X1X,Xi.8.1.,X,X,X,X8.8.8.8.8.8.8.8.i - y c y - '.wX0X0X0X0X0X0X0X'.'.",
"y y y y c y t P /././.R.T.T.T.T.T.T.T.T.W W W W U.U.U.W W W W E E E E L * y y y t q `.`.`.`.`.`.`.`.-.-.-.-.-.=.=._ -.=.=._ _ _ _ ~ ~ ~ 9 9 : y y c y g gXzXxXxXzXzXzXzXzXbXbXvXxXgXjX5XvXcXcXcXcXGXGXGXGXGXGXJXJ.& y c y *  X$XXXXXXXXXXXXXXXXXXXXX X&.&.&. X X X XO.O.O.O.O.O.O.O.8 u y c y = L.zXxXxXzXzXzXzXzXbXbXvXjXgXjXhXcXcXcXcXcXGXGXGXGXGXGXcXG & g y - i >X>X>X>X>X>X>X>X>X>X>X>X7.7.7.7.7.7.7.7.7.7.7.9.9.9.9.i - y c y = 8.7X7X7X1X1X1X1X1X1X1X1X,X8.,X8.,X,X,X,X8.8.8.8.8.8.8.8.i - y c y u '.wXwXwX0X0X0X0X0X'.'.",
"y y y y c y t E /./././././.R.T.T.T.T.T.T.T.T.T.U.U.U.U.U.W W W W E E P * y y y t q `.`.`.`.`.`.`.`.`.`.-.-.-.-.-.-.-.-.-.=._ _ _ _ ~ ~ ~ 9 : y y c y g jXvXzXbXvXvXvXvXcXcXcXcXCXcXGXGXGXGXGXGXGXGXJXJXJXJXJXHXL.& y c y *  X$X$X$X$XXXXXXXXXXXXXXXXXXXXX X X X X X X XO.O.O.O.O.O.8 u y c y = K.vXzXbXvXvXvXvXcXcXcXcXcXcXGXGXGXGXGXGXGXJXJXJXJXJXHXGXG & g y - i >X>X>X>X>X>X>X>X>X>X>X>X>X>X>X>X7.7.7.7.7.7.7.7.7.9.9.i - y c y ; 8.7X7X7X7X7X7X1X1X1X1X1X1X1X1X1X,X,X,X,X,X,X8.8.8.8.8.8.i - y c y - '.wXwXwXwXwXwX0X0X0X0X",
"- y y y c y t K U.U.W W W W W W E E E E E E P P P P L L L L L K K K K < * y y y t 0 -.-.-.=.=.=.=._ _ _ _ _ _ ~ ~ ~ ~ 9 9 9 9 9 9 9 9 r r 6 ; y y c y x A.S.S.S.S.S.F.J.J.J.J.J.J.J.J.L.L.L.K.K.K.K.K.K.K.K.K.hXn.= y c y y O. X X&.O.O.O.O.O.O.O.O.O.O.O.X.X.X.X.X.X.X.X.X.X.X.X.X.8 y y c y y n.S.S.S.S.S.F.J.J.J.J.J.J.J.J.L.L.L.K.K.K.K.K.K.K.K.K.K.F = g y - i 7.7.7.7.7.7.7.7.7.7.9.9.9.9.9.9.9.9.9.9.9.i i i i i i i y y c y - 1.,X,Xi.i.8.8.8.8.8.8.8.8.8.8.8.8.8.1.1.1.1.1.1.1.1.1.1.i y y c y y w.'.s.s.s.w.w.w.w.w.w.",
"= y y y c y y = $ $ $ $ $ $ $ $ $ $ $ $ & t & $ $ $ $ $ $ $ $ $ $ $ $ $ y y y y y y & & & & & & & & & & & & & t u & & & & & & & & & & & & & y y y c y y % + + + + + + + + + + + + & & + + + + + + + + @ + + + @ & y y c y y * # # # # # # # # # # # # u * # # # # # # # # # # # # # = y y c y y & + + + + + + + + + + + + & & + + + + + + + + @ + + + + y y y y y y ; ; ; % % % % % % % % % ; - - & & & & & & & % % & & % & y y c y y = $ % % $ $ + $ + + $ $ $ = - % % % % % $ % $ $ $ % % $ = y y c y y & $ $ $ $ $ $ $ + $ $ ",
"= y y y c y = H D.A.D.S.S.H.S.J.J.J.J.K.n.& x.D.A.D.S.S.S.S.J.J.J.J.J.J.V = g y y x H H x.x.x.x.x.c.v.v.v.n.c.y x H H 4.x.x.x.x.c.v.v.v.v.n.F = g c y x b.D.D.S.S.J.F.H.L.J.J.L.L.V c A.D.D.S.S.F.S.J.L.L.J.J.K.v.= y c y -  XoXoXoXoXoXoXoXoXoXoXoXoX8 V A.D.D.S.S.S.S.J.L.J.J.J.K.c.= y c y y v.D.D.S.S.J.J.F.L.J.J.L.J.c V D.D.D.S.S.F.F.J.L.J.J.L.L.F = g y y y H 4.4.x.x.x.x.c.v.v.v.n.x.= v H H x.x.x.x.c.m.v.v.v.n.x.y y c y = 4.D.A.D.S.F.J.F.J.J.J.J.L.H y b.D.D.S.S.S.S.J.J.J.J.J.K.x.& y c y y n.D.D.S.S.H.F.F.L.J.J.",
"y y y y c g & v.cXvXvXxXzXzXGXvXvXJXJXHXhX+ S.cXvXvXzXzXbXvXxXzXGXJXHXGXF = g y y x A.S.S.D.S.S.K.K.L.gXkXjXK.= v D.S.S.S.S.J.K.J.J.hXkXjXjXH & g c y x jXcXcXzXzXxXvXGXzXGXJXHXGXF b xXvXcXzXbXzXcXzXxXvXJXJXHXK.& y c y & $X*X*X*X*X*X*X*X*X*X*X$X$X8 S zXvXcXzXbXzXcXzXxXvXJXJXHXF.% y c y = K.cXvXbXzXxXbXGXzXGXJXHXcXx G zXvXvXzXzXbXcXxXzXGXJXHXGXH & g y y x b.S.S.S.S.S.K.K.L.gXkXjXA.% H S.S.S.S.S.L.L.F.L.gXkXjXJ.- y c y & n.cXvXvXzXzXzXGXvXvXJXJXHXx.= jXcXvXzXzXzXcXzXxXvXJXJXHXA.% g c y y gXcXvXzXzXxXvXGXzXGXJX",
"y y y y c g & m.zXzXzX5XgXhXjXjXkXcXGXJXK.+ A.bXzXzXL.F.gXjXkX5XzXGXGXvXV = g y y x b.D.S.n.v.b.b.S.A.K.gXgXJ.= v A.A.S.v.x.v.A.A.n.S.gXgXgXH & g c y g gXzXbXjXK.kXhXjXkXxXGXGXcXV c jXzXbXjXS.L.jXjXhXkXGXGXJXJ.& y c y & $X*X*X*X.X=X.X=X$X$X*X$X$X8 S lXzXvXkXS.K.jXjXhXjXGXGXJXD.& y c y = L.bXzXjXK.kXhXjXjXjXGXGXzXx F xXzXzXK.S.fXjXkXK.zXGXGXcXG & g y y g b.D.S.n.v.b.b.S.A.K.gXkXb.% H D.D.A.x.x.N.A.b.b.hXfXkXD.- y c y & v.bXzXzX5XgXhXjXjXjXcXGXGXx.= gXzXbXgXS.K.jXjXhXjXGXGXJXb.& g c y y hXbXbXjXK.kXhXjXkXxXGX",
"y y y y c y & m.zXzXzXgXfXkXkXjXjXGXcXJXK.+ A.bXzXzXgXfXkXjXzXkXzXGXGXvXV = g y y x b.A.S.b.n.b.N.A.A.K.hXgXS.= v A.A.S.b.v.N.N.J.A.S.hXhXgXG & g c y g gXzXzXjXhXkXkXjXkXzXGXGXvXV c jXzXzXxX5XjXgXzXjXjXGXcXJXJ.& y c y & $X*X*X*X&X=X=X=X=X$X*X$X$X8 S lXzXzXlX5XjXgXzXjXjXGXcXGXD.& y c y = L.bXzXxXhXgXkXjXkXxXGXGXzXx F xXzXzXgXhXjXjXzXkXzXGXGXcXG & g y y g n.D.S.b.v.b.N.A.A.K.hXgXn.& H A.A.D.v.b.b.S.S.A.5XhXgXD.- y c y & v.zXzXzXgXfXkXkXjXjXGXGXGXx.= gXzXzXjX5XjXgXzXjXjXGXcXGXb.& g c y y hXbXzXxXhXgXkXjXkXzXGX",
"y y y y c g & v.vXvXvXcXcXCXGXGXGXGXGXHXK.+ D.cXvXvXcXGXCXGXGXGXGXGXJXcXV = g y y x N.S.S.S.L.L.K.K.hXhXhXgXS.= v A.D.S.J.L.K.K.hXhXhXfXgXgXH & g c y g jXcXvXvXcXcXGXGXGXGXGXJXcXV b xXvXvXcXcXGXGXGXGXGXGXGXHXJ.& y c y & $XVX*X*X*X*X*X*X*X*X*X*X$X8 S zXvXvXcXcXGXGXGXGXGXGXGXHXS.& y c y = K.cXvXvXcXcXGXGXGXGXGXJXvXx G zXvXvXcXcXcXGXGXGXGXGXJXGXG & g y y x b.S.S.S.L.L.K.;XhXhXhXkXn.% H S.D.S.J.L.K.K.hXhXhXfXkXD.- y c y & n.cXvXvXcXcXGXGXGXGXGXGXJXx.= jXcXvXcXcXCXGXGXGXGXGXGXJXb.& g c y - fXcXvXvXcXcXGXGXGXGXGX",
"y y y y c y = H S.S.S.S.S.F.J.J.J.J.J.K.n.= c.S.D.S.S.S.F.J.J.J.J.J.L.J.v = g y y g H H x.x.x.x.x.x.c.c.m.v.x.y c H H x.x.x.x.x.x.c.c.m.m.v.v - g c y x b.S.S.S.S.S.F.J.J.J.J.L.J.V b D.S.S.S.S.S.J.J.J.J.J.J.K.m.= y c y = oX$XoXoXoXoXoXoXoXoXoXoXoX8 V D.S.S.S.S.S.J.J.J.J.J.J.K.c.= y c y y v.S.S.S.S.S.F.J.J.J.J.L.S.c V D.S.S.S.S.S.J.J.J.J.J.L.J.V = g y y y J H x.x.x.x.x.x.c.c.c.v.H y v H H x.x.x.x.x.x.c.c.m.v.x.y y c y = f.S.S.S.S.S.F.J.J.J.J.J.L.H y b.S.S.S.S.S.J.J.J.J.J.J.K.x.& y c y y n.S.S.S.S.S.F.J.J.J.J.",
"y y y y c y y y + X X X X X X X X X X X + % + X X X X X X X X @ @ X X $ y y y y y y & + + + + + + + + + + + + & & + + + + + + + + + $ + + % y y y c y y & X X X X X X X X X X X X + + X X X X X X X X X + X X X - y y c y y * @ @ @ @ @ @ @ @ @ @ @ @ + + X X X X X X X X X + X X @ - y y c y y & X X X X X X X X X X X X + + X X X X X X X X . @ X X + y y y y y y & + + + + + + + + + + + $ & % + + + + + + + + $ + + + = y y c y y y + X X X X X X X X X X X + $ @ X X X X X X X X + X X + y y y c y y & X X X X X X X X X X ",
"y y y y c y y y x.N.N.N.N.N.N.N.N.N.N.N.b.b.b.N.N.N.N.N.N.N.N.v.v.N.N.F = y y y y y V x.x.x.x.x.x.x.x.x.x.x.x.x.x.x.x.x.x.x.x.x.x.x.4.x.x.G - y y c y - V b.N.N.N.N.N.N.N.N.N.N.N.b.b.N.N.N.N.N.N.N.N.N.x.N.N.c.y y y c y y g v.N.N.b.N.N.N.b.b.b.b.b.b.b.N.N.N.N.N.N.N.N.b.c.N.N.c.y y y c y y c v.N.N.N.N.N.N.N.N.N.N.N.b.b.N.N.N.N.N.N.N.N.v.c.N.N.G = y y y y y V x.x.x.x.x.x.x.x.x.x.x.x.x.x.x.x.x.x.x.x.x.x.H x.x.x.g y y c y y y x.N.N.N.N.N.N.N.N.N.N.N.b.b.N.N.N.N.N.N.N.N.b.c.N.N.x.= y y c y y c n.N.N.b.N.N.N.N.N.N.",
"y y y y c g % v.LXLXLXLXLXLXLXLXLXLXLXLXLXLXLXLXLXLXLXLXLXLXLXJXHXLXLXJXy y g y - c xXcXvXvXvXvXvXvXvXvXvXvXvXvXvXvXvXvXvXvXvXvXvXxXgXcXvXzXF = g c y & vXLXLXLXLXLXLXLXLXLXLXLXLXLXLXLXLXLXLXLXLXLXLXLXvXLXLXLXD.+ y c y + fXLXLXLXLXLXLXLXLXLXLXLXLXLXLXLXLXLXLXLXLXLXLXPXvXLXLXLXN.% g c y + kXLXLXLXLXLXLXLXLXLXLXLXLXLXLXLXLXLXLXLXLXLXLXHXJXLXLXHXc - g g y g jXcXvXvXvXvXvXvXvXvXvXvXvXvXvXvXvXvXvXvXvXvXcXfXzXvXcXF.& y c g % b.LXLXLXLXLXLXLXLXLXLXLXLXLXLXLXLXLXLXLXLXLXLXPXcXLXLXLXc.& g c y % xXLXLXLXLXLXLXLXLXLXLX",
"y y y y c x + K.JXHXKXHXHXKXKXKXKXKXKXKXcXKXKXKXKXKXKXKXKXKXPXAXHXgXb.PXG & g g & 4.jXkXzXxXjXzXzXxXxXxXxXzXgXxXzXzXzXzXzXzXzXzXzXjXgXfXV zXc.% x c = c GXAXKXKXHXKXKXKXKXKXKXKXGXJXPXKXKXKXKXKXKXKXKXKXbXHXG JXlX@ g c y & xXcXHXPXJXKXKXKXKXKXKXKXHXAXPXKXKXKXKXKXKXKXKXKXvXHXG HXkX@ x c y & vXGXKXKXHXKXKXKXKXKXKXKXHXGXPXKXKXKXKXKXKXKXPXGXJXjXc.LXf.& g g & F jXkXzXxXjXzXzXzXxXxXxXzXgXlXzXzXzXzXzXzXzXzXbXiXxX4.J.jX& y c x + hXJXHXKXHXHXKXKXKXKXKXKXKXcXPXKXKXKXKXKXKXKXPXHXvXGXG KX5X+ x c y y vXvXIXPXJXKXKXKXKXKXKX",
"V = y y c x + K.GXxXxXlXxXlXjXbXxXxXJXjXxXPXKXKXKXKXKXKXKXKXLXGXGXzXjXHXG & g g & 4.jXK.L.L.J.L.F.K.hXF.jXK.H.xXzXzXzXzXzXzXzXzXbXjXfXgXA.lXc.% x c - c GXbXxXxXjXzXjXlXcXjXGXvXjXJXPXKXKXKXKXKXKXKXPXKXvXJXfXGXjX+ g c y & gXxXGXxXjXxXjXjXvXjXvXGXjXcXLXKXKXKXKXKXKXKXPXKXvXGXfXJXgX+ x c y & bXvXxXxXjXzXjXjXcXjXcXAXkXAXLXKXKXKXKXKXKXKXLXGXGXbXkXHXx.& g g & F jXK.L.L.H.K.F.L.hXF.jXK.F.xXbXzXzXzXzXzXzXzXbXhXjXS.hXgX& y c x + iXGXxXxXlXxXlXjXbXxXxXJXjXzXPXKXKXKXKXKXKXKXPXIXvXGXfXHXK.+ x c y x jXzXAXxXjXzXjXlXcXjXAX",
"F = y y c x + K.AXjXcXjXxXgXjXGXvXbXkX5XlXPXKXKXKXKXKXKXKXKXPXAXJX5Xb.KXG & g g & 4.kXF.fXL.K.D.S.hXgXhXF.Z.D.xXzXzXzXzXzXzXzXzXzXjXgXK.V xXc.% x c = c GXjXvXzXxXjXjXxXGXvXlXgX5XJXPXKXKXKXKXKXKXKXKXKXvXGXH AXjX+ g c y & kXxXcXhXvXjXkXjXGXvXxXkXK.cXPXKXKXKXKXKXKXKXKXKXvXGXG GXkX@ x c y & bXxXzXvXlXjXkXlXGXbXxXkXK.AXPXKXKXKXKXKXKXKXPXGXGXgXc.KXx.& g g & G kXF.fXL.K.D.S.hXgXhXF.A.A.xXzXzXzXzXzXzXzXzXbXhXjXH S.kX& y c x + hXcXlXcXjXxXkXjXGXvXbXkXK.xXPXKXKXKXKXKXKXKXPXHXvXcXG HX5X+ x c y x jXzXbXgXvXjXkXlXGXvXxX",
"y y y y c x + F.KXHXPXKXIXIXKXPXKXKXHXHXKXLXLXLXLXLXLXLXLXLXLXJXHXHXAXLXV = g g & G xXlXzXzXxXxXxXzXzXzXxXjXxXbXvXvXvXvXvXvXvXvXvXxXkXbXK.cXx.& x c y y GXIXKXKXIXKXHXKXPXKXKXHXIXPXLXLXLXLXLXLXLXLXLXLXvXLXxXLXkX+ g c y + lXIXHXKXHXKXIXKXPXKXKXHXHXKXLXLXLXLXLXLXLXLXLXPXvXLXxXLXhX+ x c y % zXKXKXPXIXIXIXKXPXKXKXHXIXPXLXLXLXLXLXLXLXLXLXHXJXIXvXLXG & g g = V lXlXzXzXxXxXxXzXzXzXxXjXxXbXvXvXvXvXvXvXvXbXcXhXbXhXxXkX& y c x + L.KXIXPXKXIXIXKXPXKXKXHXHXKXLXLXLXLXLXLXLXLXLXKXcXLXxXLXF.+ x c y = vXHXHXKXHXKXHXKXPXKXKX",
"y y y y c y - v xXAXcXcXAXAXAXcXcXcXAXAXcXcXcXcXcXcXcXcXcXvXAXjXjXGXGXJ.& y y y y - D.kXfXfXgXgXgXfXfXfXgXgXgXfXfXfXfXfXfXfXfXfXgXK.S.gXkXS.y y y c y & D.GXcXcXAXAXAXcXcXcXcXAXAXcXcXcXcXcXcXcXcXcXcXvXgXcXGXzXG = y c y & x.AXAXcXAXAXAXcXcXcXcXAXAXcXcXcXcXcXcXcXcXcXcXvXgXcXGXxXV = y c y & c.AXcXcXAXAXAXcXcXcXcXAXAXcXcXcXcXcXcXcXcXcXAXlXjXGXGX5X- y y y y = N.kXfXfXgXgXgXfXfXfXgXgXgXfXfXfXfXfXfXfXfXhXgXD.5XkXfX4.= y c y = V zXAXcXAXAXAXAXcXcXcXAXAXcXcXcXcXcXcXcXcXcXcXbXgXAXGXlXb - y c y & b.GXcXcXAXAXAXcXcXcXcX",
"y y y y c y y - + & & % $ $ $ & & & % % & & & & & & & & & $ $ & & % $ & y y y y y y & & & & & & & & & & & & & & & & & & & & & & & & = & & & y y y c y y & $ & & + + % & & & & % % & & & & & & & & + & & & & % + = y y c y y & + & & # # # & & & & % % & & & & & & & & # & & & & % + = y y c y y & + & & # # % & & & & % % & & & & & & & # # & & & % % % y y y y y y & & & & & & & & & & & & & & & & & & & & & & & = & & & = y y c y y - + & & $ $ $ & & & & % % & & & & & & & % % % & & & % $ - y y c y y & + & & $ $ % & & & & ",
"y y y y c y y y y y y t p 4 p t y y y y y y y y y y y t y a p y t y y y y y y y y y y y y y c c y y y y y y y y y y y y y y c c y y y y y y y y y c y y y g u u M w g u y y y y y y y y y y y u x w x u y y y y y y y c y y y g y u j k j u y y y y y y y y y y y u j k g u y y y y y y y c y y y g * - l 2.y * y y y y y y y y y g - * l l y * y y y y y y y y y y y y y y b c y y y y y y y y y y y y y y c x y y y y y y y y c y y y y y - s 1.p - y y y y y y y y y y y - s s p - y y y y y y y c y y y y = y d d y = y y y ",
"c y y y c y y y y y y Q R.Y.R.Y.p t y y y y y y y y t T T.T.U.U.5 t y y y y y y y y y - V c.x.c.c.v y y y y y y y y y y x x.m.H 4.V y y y y y y y c y y y u w OX+X+X+X+.u y y y y y y y y y y +.+XOXOX+.g y y y y y y c y y y y g  XXXXXXX&.y y y y y y y y y y y &.XX X X&.g y y y y y y c y y y * 2.yXyXyXyXd.* y y y y y y y y * l yXyXtXtXd.* y y y y y y y y y y y F c.x.v.x.c y y y y y y y y y y F c.x.H H x y y y y y y c y y y - s ,X7X1X7Xi.y y y y y y y y y - y ,X7X,X,X8.y y y y y y y c y y y = 0.0X0X0X0X0.= y y ",
"N.c - y c y y y y t Y.Y.* + . E R.y y y y y y y y t T /.5 % % 5 Y.T t y y y y y y y - V v.x + . g v.b y y y y y y y y y c.G % % & H G y y y y y y c y y u 0 +Xo.% . 7 +X+.u y y y y y y y u OXOX; & ; +.OXy y y y y y c y y y u XX X$ . 7 &. Xu y y y y y y y u XX X= & $ &. Xy y y y y y c y y * 2.yXd.% + z yXj.* y y y y y y * l yXd.& & j tXj.* y y y y y y y y = H c.- + + V m.y y y y y y y y = G c.- % % c x.x y y y y y c y y y y 1Xi.& + # 1X,X; y y y y y y y - 1X,X& & & 8.,X- y y y y y c y y = 0.wX' % + f wX0.= y ",
"N.G y y c y y y t T T.$ ; b x.k E Q t y y y y y y y R.5   J.L.X 5 U.y y y y y y y y y c.y X - v v y H y y y y y y y = 4.H   v J.% + H c y y y y y c y y u OX+.@ 0 F x.- OXw u y y y y y u o.+X@ * lXF X +.+.u y y y y c y y * &. X@ % P.D.  &.@.u y y y y y u &. X@ p xXv X &.@.u y y y y c y y * yXd.o x J  .j tXj y y y y y y * uXj.  n.gXX t tXh - y y y y y y y b c.% . - F x b G - y y y y y y c c.&   D.x.  v H y y y y y c y y ; ,X,XO - v x.7 ,X1.= y y y y y ; i.,X  v xX0 O i.1.= y y y y c y y y 0Xd O x J $.f '.y y ",
"G f.x y c y y y t Y.Q $ n b.JXG , U.t y y y y y t T T.+ ; hXhXx + W 5 t y y y y y - v x.. - v gXv.X H c y y y y y y y c.y . $.L.v . V F - y y y y c y y g +X7 - N xXxX@ +.o.u y y y y y i OX+.@ J xXv.% w +.u y y y y c y y u XXX.# M xXJ.. X.&.u y y y y y *  X@.. $.xXm.# 8 &.u y y y y c y * l yX$ x F bXkX  k.d.* y y y y - h yX= % S.jXM o k.d.* y y y y y y = H 4.X 0 H jXF % 4.y y y y y y = G x.X - S.v.% % H y y y y y c y y - 1X1.: v hXcX: 1.8.; y y y y y = 1X1.O x.xXx.: 1.8.= y y y y c y = ' 0X. x J cX}.  s.d = ",
"= y y y c y y y t Y.Q + N :.x.; 3 W y y y y y y t T Y.+ b F J N + W 5 t y y y y y - V x.. - v J - . H c y y y y y y y x.- % b b v . b F - y y y y c y u 0 +X: - J x.J @ +.o.u y y y y y u OXo.@ F N H - 8 +.u y y y y c y y u  XX.# J J J # 8 &.u y y y y y u  XX.# F N H * 8 &.u y y y y c y * l yX+ x J x.N . k.d.* y y y y * k yX$ 0 J J J o k.d.* y y y y y y = H H X x v J % % H y y y y y y = G H X x b v - % H g y y y y c y y - 1Xf : F x.} O 1.8.= y y y y y = 1X1.: J F H : 1.i.= y y y y c y = ' '.. b J c.v . w.' = ",
"y y y y c y y y t Q Y.+ - v 0 O R Q t y y y y y t p R.* + v v $ * U.p y y y y y y y x c.& . 0 - . = 4.y y y y y y y = x.F   - x % X H v y y y y y c y y u +Xo.@ b v ; @ OXw u y y y y y i +.OX@ - v x @ o.+.u y y y y c y y *  X&.X 7 v 0 @ &.@.u y y y y y * &. XX 7 v x @ &.&.u y y y y c y y y yXz o b b % % tXk - y y y y y - yX2.o b v ; . tXl * y y y y y y - V x.. % 0 - X c H y y y y y y - v c.. . x 7 X x H y y y y y c y y ; ,X8.O x v - O i.1.= y y y y y ; ,Xi.O x N 0 O 8.8.= y y y y c y y p 0Xp O b b : * '.p y ",
"y y y y c y y y y t T.U.+ . + 5 Y.3 t y y y y y y t Q R.; . . % U.R t y y y y y y y = G m.& . . & 4.V y y y y y y y y c v.b . . . F H y y y y y y c y y u o.=Xw @ % + +.+.u y y y y y y y y +X+.@ : @ o.OX0 y y y y y c y y y g XX&.@ + . @. Xy y y y y y y y y XX&.@ + . X. Xg y y y y y c y y * d.aXj . + % 3Xk.* y y y y y y * d.aXz . + + k.k.* y y y y y y y y - x.x.+ . . y x.c y y y y y y y = x.x.+ . . - x.c y y y y y c y y - s 7X1.O + O 8.,Xy y y y y y y - y 7X8.O + O 1.,Xy y y y y y c y y = w.wX* . . % '.q.= y ",
"y y y y c y y y y t 4 Q t y t T T t y y y y y y y y y Q p t y p R t y y y y y y y y y y H c y y c V y y y y y y y y y = F F y y y V g y y y y y y c y y y u +.o.u y y +.g y y y y y y y y u w +.u y u o.w u y y y y y c y y y u @.&.u y u @.h u y y y y y y y u @.&.u y u @.h u y y y y y c y y y * k.2.* y j j.y y y y y y y y y * k.d.* y g j.y y y y y y y y y y y x H y y y b v y y y y y y y y y g H y y y c v y y y y y y c y y y ; 1.8.= y - 1.s - y y y y y y y = 1.8.= y - 1.s - y y y y y c y y y = s.d = y s q.= y y ",
"y y y y c y y y y y t $ y = - = t y y y y y y y y y y $ t y = t = y y y y y y y y y y y & y y - y = y y y y y y y y y y = = y - y & y y y y y y y c y y y y & u y = y & y y y y y y y y y y u & y = - & u y y y y y y c y y y y * * = y y * u = y y y y y y y y * # y = y * u y y y y y y c y y y y # * y = - # y y y y y y y y y y # * y = y # y y y y y y y y y y y y & y y y = = y y y y y y y y y y & y y y - = y y y y y y c y y y y ; ; y = y ; - y y y y y y y y y = ; y = y ; - y y y y y y c y y y y $ = y = = $ y y y ",
"y y y y c y y y y y c F = V b V c y y y y y y y y y y G y y F c F - y y y y y y y y y y V y y v x v y y y y y y y y y y b c - V g V y y y y y y y c y y y - F b - F x F y y y y y y y y y y c F & V c V c y y y y y y c y y y y v g V y x F c V - y y y y y y y c F & V c F c y y y y y y c y y y y G c y F c F y y y y y y y y y - F c y F x G y y y y y y y y y y y y V y c c c c y y y y y y y y y y V y c b c c y y y y y y c y y y - V V & F c F y y y y y y y y y - v V & F c F g y y y y y y c y y y y G g y F c F - y y ",
"y y y y c y y y y = x.N.V v.Z.Z.c.- y y y y y y y = F A.4.4.N.A.b.c - y y y y y y y - V c.F G c.c.x.c y y y y y y y y y x.f.b x.c.x.F = y y y y y c y y y c N.x.F N.A.N.G = y y y y y y y = c.N.V v.Z.N.x.= y y y y y c y y y & N.G A.g f.N.A.n.c y y y y y y - c.b.V n.Z.N.x.= y y y y y c y y = v A.x.G N.A.b.V = y y y y y y - c N.x.G N.A.N.F = y y y y y y y y = G c.b 4.c.c.f.y y y y y y y y = F c.v H c.c.x.y y y y y y c y y y y n.v.V b.A.N.4.& y y y y y y y y v.n.V n.Z.N.x.& y y y y y c y y = V A.4.4.N.A.b.b - y ",
"y y y y c y y y y - c.v.x.x.D.b.c.y y y y y y y y & H v.c.x.v.F.c.F = y y y y y y y = F f.4.H x.v.4.v - y y y y y y y c f.4.H H n.4.H = y y y y y c y y = V v.c.x.c.J.c.f.& y y y y y y y y c.v.x.x.D.n.c.y y y y y y c y - V F x.F x.V x.v.S.c.F = y y y y y y c.c.x.x.S.n.c.= y y y y y c y y & G v.c.x.c.F.c.H & y y y y y y = V v.c.x.c.J.c.4.& y y y y y y y y = H f.H H c.c.4.g y y y y y y y = G f.H H x.c.4.c y y y y y c y y y c c.c.x.x.F.c.x.& y y y y y y y g c.c.x.x.F.v.c.& y y y y y c y y & H v.c.x.v.F.c.G & y ",
"y y y y c y y y y = G v.G x.x.c.4.= y y y y y y y y x v.f.4.c.4.c.y y y y y y y y y y g x.G F 4.G 4.y y y y y y y y y - H 4.V 4.G x.c y y y y y y c y y y y c.x.G v.4.v.c y y y y y y y y = G v.G c.x.c.H = y y y y y c y y y = G b F G 4.c.f.c.y y y y y y y = 4.v.G c.x.c.G = y y y y y c y y y y v.x.H v.4.v.y y y y y y y y y y c.x.G v.4.v.x y y y y y y y y y y b x.V G H H G - y y y y y y y y c x.F G 4.H H - y y y y y c y y y = x.c.G c.4.v.V - y y y y y y y = 4.c.G c.4.v.F = y y y y y c y y y g v.x.4.c.4.v.y y y ",
"y y y y c y y y y y - & = = = & = y y y y y y y y y y & = = & = & y y y y y y y y y y y = - - = - = y y y y y y y y y y - = y = - = y y y y y y y c y y y y = = - & = & y y y y y y y y y y - & - = = & = y y y y y y c y y y y - y - - = = = = y y y y y y y y = & - = = & - y y y y y y c y y y y & = = & = & y y y y y y y y y y = = = & = & y y y y y y y y y y y y = y - = = - y y y y y y y y y y = - - = = - y y y y y y c y y y y = & - = = & y y y y y y y y y y = & - = = & - y y y y y y c y y y y & = = & = & y y y ",
"y y y y c y y y y y y y y y y y y y y y y y y y y y y y y y y y y y y y y y y y y y y y y y y y y y y y y y y y y y y y y y y y y y y y y y y y y c y y y y y y y y y y y y y y y y y y y y y y y y y y y y y y y y y c y y y y y y y y y y y y y y y y y y y y y y y y y y y y y y y y y c y y y y y y y y y y y y y y y y y y y y y y y y y y y y y y y y y y y y y y y y y y y y y y y y y y y y y y y y y y y y y y y y y y c y y y y y y y y y y y y y y y y y y y y y y y y y y y y y y y y y c y y y y y y y y y y y y y ",
"y y y y c y y y y y y y t = t y y y y y y y y y y y y y y * * y y y y y y y y y y y y y y y y y y y y y y y y y y y y y y y y y y y y y y y y y y c y y y y y y t = y y y y y y y y y y y y y y y * u y y y y y y y y c y y y y y y t = t y y y y y y y y y y y y y u * u y y y y y y y y c y y y y y y t = y y y y y y y y y y y y y y * * y y y y y y y y y y y y y y y y y y y y y y y y y y y y y y y y y y y y y y y y y y c y y y y y y t = t y y y y y y y y y y y y y u * u y y y y y y y y c y y y y y y t = y y y y y ",
"y y y y c y y y y y y = p [ a t t y y y y y y y y y y * y l l y * y y y y y y y y y y y y y x x y y y y y y y y y y y y y y g x y y y y y y y y y c y y y y t t a [ p = y y y y y y y y y y y * j @.h * u y y y y y y c y y y y t = a [ p = y y y y y y y y y y y * h @.h * y y y y y y y c y y y y = y a [ p = y y y y y y y y y y * y k @.g * y y y y y y y y y y y y y y x p y y y y y y y y y y y y y y g g y y y y y y y y c y y y y t = a [ p = y y y y y y y y y y y * h @.h * y y y y y y y c y y y y = y a d y = y y y ",
"y y y y c y y y y y y w.[.[.[.[.p t y y y y y y y y * @.%X%X%X%X@.* y y y y y y y y y y c A S A A c y y y y y y y y y y g D D D D v y y y y y y y c y y y = a [.[.[.[.{ t y y y y y y y y y y z.%X%X%X%Xj u y y y y y c y y y t p ^.[.[.[.^.p t y y y y y y y y g z.%X%X%X%Xj u y y y y y c y y y = [ [.[.[.[.] t y y y y y y y y * l %X%X%X%Xz.* y y y y y y y y y y y v } S } S p y y y y y y y y y y b D D D D g y y y y y y c y y y t p [.[.[.[.w.y y y y y y y y y u j %X%X%X%Xz.g y y y y y y c y y y = [ [.[.[.[.] = y y ",
"y y y y c y y y y = [.[.% + % { {.p y y y y y y y * @.%Xz . + z %X@.* y y y y y y y y b } - + + - } b y y y y y y y y y D c + . & D D y y y y y y c y y t a {.[ + + * [.^.= y y y y y y y * %X%X% . % z.%Xy y y y y y c y y y y [.{ % + % ^.[.t y y y y y y y u %Xz.% . + z.%Xy y y y y y c y y = [ {.a + + 3 [.{ = y y y y y y * k %X@.+ + j %Xz.* y y y y y y y y y n S & . + p } p y y y y y y y y v D & . % g $.g y y y y y c y y y p [.{ + + % [.[.t y y y y y y y y %Xz.% . & %X%X* y y y y y c y y = [ {.a + + 3 {.{ = y ",
"y y y y c y y y = ] [.O ; v x $ { { = y y y y y y g %Xz o v x   j %Xg y y y y y y y y A - . 7 - % y S y y y y y y y y V b X ; 0 X . D c y y y y y c y y = [.] O x b 7 - [.a t y y y y y * d.%Xo ; v %   z.z.* y y y y c y y = { ^.O - v ; O [.{ = y y y y y * z.%Xo - v v 3 z.@.* y y y y c y y t [.[ O b b 7 p [.p t y y y y y * %X@.o b b   $ %Xk * y y y y y y y x A + . 0 - % b n y y y y y y y g D % . x ;   g D y y y y y c y y = ^.w.O 0 v 7 $ [.[ = y y y y y * z.%Xo - v .   %Xz.* y y y y c y y y [.a O b b 7 a [.p y ",
"y y y y c y y y = ^.{ O N x.GXD.> ^.y y y y y y * @.%X. b J &XkX* %X@.* y y y y y y c S . - b L.L.% v p y y y y y y y D = % b x.K.v g v y y y y y c y y p [.* 7 N K.GXj { ] = y y y y y * %Xz.o F x.xXn.z %X* y y y y c y y = [.[ $ F n.AXm.[ { = y y y y y * %X@.o N b.JXx.z z.* y y y y c y t a [.% x F gXvX= { [ t y y y y u j %X$ 0 F S.lXp z.d.* y y y y y y t v n . x N gXb.% n y y y y y y y b V . x v S.n.& D y y y y y c y y t [.a $ F A.JX$.[ { = y y y y y * %X@.# F m.xXt.@.%X* y y y y c y t [ [.. b F jXzX$ { a t ",
"y y y y c y y y = ^.{ O N $.A.7 3 ^.y y y y y y * @.%X. b F J.J.% z.l * y y y y y y c S . - b x.v . v p y y y y y y y D & % b $.D.y g b y y y y y c y t p [.# - F v.v.O { ] = y y y y y * %X@.o N :.kXx.j z.y y y y y c y y = [.[ $ F x.J.7 5 { t y y y y y * %X@.o F x.n.% z z.* y y y y c y t a [.+ x F n.x.X { [ = y y y y u h %X$ 0 N A.hX* @.@.* y y y y y y t v v X x v x.- % n y y y y y y y b v . x b A.x.% b y y y y y c y y t [.4 % F x.b.O [ { = y y y y y * %X@.# F c.kXF z z.* y y y y c y = [ [.. b J b.x.X { [ t ",
"y y y y c y y y = ] [.O ; v - O ] { = y y y y y y j %Xj . b 0   = %Xg y y y y y y y y A & . - ; X & n y y y y y y y y M b X ; - X X b g y y y y y c y y = [.[ O x b : $ ^.a t y y y y y * z.%Xo - v %   @.z.* y y y y c y y = ^.^.O 3 b % O { ] = y y y y y * z.%Xo - b - o z.z.* y y y y c y y y [.a O b x . % ^.p t y y y y y * %X@.X b x X + %Xh u y y y y y y y c A + . 0 ; X p v y y y y y y y g D + . 0 %   - b y y y y y c y y = [.{ O 0 b % O { [ = y y y y y * z.z.X 7 b :   z.@.* y y y y c y y p [.3 O b x O * ^.p y ",
"y y y y c y y y y t [.^.O + + a [.p t y y y y y y * z.%X= . + = %X@.* y y y y y y y y v } & . . & n x y y y y y y y y g G g . . % c b y y y y y y c y y t d {.a O + $ { { t y y y y y y y u %Xz.. + + @.%Xg y y y y y c y y y p {.{ O # + ] ^.y y y y y y y y y %Xz.. + . @.%Xg y y y y y c y y = ] {.p . + % ^.] t y y y y y y * @.%Xz . + % z.z.* y y y y y y y y y S S + . . - n y y y y y y y y y V D % . + - M g y y y y y c y y t p {.] O # + { { y y y y y y y y g %Xz.. + # @.%Xy y y y y y c y y = ] {.* . + & ^.] t y ",
"y y y y c y y y y t a { t y t [ a t y y y y y y y y u z.h y y h @.u y y y y y y y y y y v x y y p x y y y y y y y y y y c c y y y x y y y y y y y c y y y = ] [ t y y ] y y y y y y y y y * k z.u g u @.z * y y y y y c y y y = [ ] t y t [ a t y y y y y y y * l z.u g u @.h * y y y y y c y y y = { d t y p ] y y y y y y y y y * z.@.u y g @.y y y y y y y y y y y y v y y y x x y y y y y y y y y y b y y y g g y y y y y y c y y y = [ ] t y t ] p t y y y y y y y * @.d.u g y @.h u y y y y y c y y y t { a t y p ] t y y ",
"y y y y c y y y y y t $ y & y = & y y y y y y y y y y * * - = & * y y y y y y y y y y y & y = y y = y y y y y y y y y y y - y - - - y y y y y y y c y y y y $ = = y y $ y y y y y y y y y y u # y = y & y y y y y y y c y y y y & $ - - y $ t y y y y y y y y y * # y & y * * y y y y y y c y y y y $ = = - y $ y y y y y y y y y y * * y = - * y y y y y y y y y y y y & y = y y = y y y y y y y y y y = y - y = y y y y y y y c y y y y = $ - = y $ = y y y y y y y y y * # y & y # y y y y y y y c y y y y $ = = y y $ y y y ",
"y y y y c y y y y y x H c G - V F = y y y y y y y y y c v V V V V - y y y y y y y y y y F x V y c V y y y y y y y y y y x c c b b c y y y y y y y c y y y y H c G x y H y y y y y y y y y y y V c G c G - y y y y y y c y y y - F V V v y G c y y y y y y y y y c G c G = V V - y y y y y c y y y - G V F v - H g y y y y y y y y y g V c F v F = y y y y y y y y y y y F x V y c V y y y y y y y y y y c x v c V x y y y y y y c y y y y v G b G & G v - y y y y y y y y y V x G c G y y y y y y y c y y y y G v F c y H y y y ",
"= y y y c y y y y y y c.D.b.F c.N.c y y y y y y y y & H N.c.A.Z.c.y y y y y y y y y y y 4.v.x.V 4.x.c y y y y y y y y = V c.4.c.c.f.y y y y y y y c y y y y H S.N.4.H A.G = y y y y y y y y c A.x.N.A.n.b - y y y y y c y y y y V D.A.v.c L.f.& y y y y y y y y c N.A.b.V n.N.g y y y y y c y y y y V D.N.x.F A.f.& y y y y y y y - V A.x.N.A.n.x y y y y y y y y y y y G v.x.V G c.c y y y y y y y y = H x.4.c.x.H - y y y y y c y y y y c b.A.n.V b.v.y y y y y y y y y y N.c.n.D.b.F = y y y y y c y y y y F D.N.x.G A.4.& y ",
"& y y y c y y y y y y c.v.c.x.x.n.V = y y y y y y y y x n.x.A.N.c.y y y y y y y y y y y 4.x.4.H H x.b - y y y y y y y y y x.H c.c.4.y y y y y y y c y y y - x.n.c.c.x.n.4.& y y y y y y y y = c.c.v.S.c.V = y y y y y c y y y = H c.c.D.G F.x.& y y y y y y y y y b.S.c.4.x.F.y y y y y y c y y y = H b.c.c.x.v.x.& y y y y y y y y y v.c.b.D.c.b - y y y y y y y y y y 4.x.4.4.H x.V = y y y y y y y - b x.G v.x.4.- y y y y y c y y y - V n.c.v.x.c.v.y y y y y y y y y & x.n.c.F.c.4.& y y y y y c y y y = 4.b.c.c.x.v.x.& y ",
"& y y y c y y y y = F N.H c.G f.x.y y y y y y y y y y x G 4.x.x.4.= y y y y y y y y y b x.F 4.V G 4.y y y y y y y y y y y V F H G G - y y y y y y c y y y y N.4.c.4.G v.c y y y y y y y y y y G F c.4.c.y y y y y y y c y y y = v.x.4.4.H c.G = y y y y y y y - V x.4.c.G 4.H = y y y y y c y y y - n.x.x.x.G v.V - y y y y y y y y y G G c.4.x.= y y y y y y y y y y c x.F 4.F F 4.y y y y y y y y y y c v H G 4.V - y y y y y c y y y & x.v.4.c.F c.4.= y y y y y y y y - G V c.H c.y y y y y y y c y y y y b.x.x.x.G v.b y y ",
"y y y y c y y y y y - & - & = = & y y y y y y y y y y y - = & & = y y y y y y y y y y y = y = - - = y y y y y y y y y y y y - = = - y y y y y y y c y y y y & - & = = & y y y y y y y y y y y - - & = & y y y y y y y c y y y y & = y = = = = y y y y y y y y y y = & & = y = y y y y y y c y y y y & = & & = & y y y y y y y y y y y = = & = & y y y y y y y y y y y y = y = - - = y y y y y y y y y y y y = - = y y y y y y y c y y y y = & = & = & = y y y y y y y y y y - - & = & y y y y y y y c y y y y & - & = = & y y y ",
"y y y y c y y y y y y y y y y y y y y y y y y y y y y y y y y y y y y y y y y y y y y y y y y y y y y y y y y y y y y y y y y y y y y y y y y y y c y y y y y y y y y y y y y y y y y y y y y y y y y y y y y y y y y c y y y y y y y y y y y y y y y y y y y y y y y y y y y y y y y y y c y y y y y y y y y y y y y y y y y y y y y y y y y y y y y y y y y y y y y y y y y y y y y y y y y y y y y y y y y y y y y y y y y y c y y y y y y y y y y y y y y y y y y y y y y y y y y y y y y y y y c y y y y y y y y y y y y y ",
"y y y y c y y y y y y y = = = y y y y y y y y y y y y y y t t y y y y y y y y y y y y y y y y y y y y y y y y y y y y y y y y - y y y y y y y y y c y y y y y y = = = y y y y y y y y y y y y y u u u y y y y y y y y c y y y y y y = = = y y y y y y y y y y y y y u u u y y y y y y y y c y y y y y y = = - y y y y y y y y y y y y y * * - y y y y y y y y y y y y y y y y y y y y y y y y y y y y y y y - - y y y y y y y y c y y y y y y = = = y y y y y y y y y y y y y - ; - y y y y y y y y c y y y y y y = = y y y y y ",
"y y y y c y y y y y y = s q.1.= = y y y y y y y y y y t p T T p t y y y y y y y y y y y y y c c y y y y y y y y y y y y y y c V c - y y y y y y y c y y y y = y 1.0.s = y y y y y y y y y y y u w o.w u u y y y y y y c y y y y = = d q.d = - y y y y y y y y y y u h @.h u u y y y y y y c y y y y = y 1.0.s = y y y y y y y y y y * y d.d.h * y y y y y y y y y y y y y y c c y y y y y y y y y y y y - g V b y - y y y y y y c y y y y = = 1.q.s = - y y y y y y y y y - - s 1.s = - y y y y y y c y y y y = p 0.0.p = y y y ",
"y y y y c y y y y y y <XqXqXqXqXd = y y y y y y y y t R R.T.T.R.R t y y y y y y y y y y b 5.G G 5.c y y y y y y y y y y c x.c.x.v.H y y y y y y y c y y y = 1.qXqXqXqXs.y y y y y y y y y u g OX+XOX+XOXw u y y y y y c y y y = s qXqXqXqX<Xs = y y y y y y y u j  XXX XXX Xj u y y y y y c y y y = q.qXqXqXqXi.= y y y y y y y y * d.yXyXuXyXk.- y y y y y y y y y y y V 5.G 5.G c y y y y y y y y y y G c.x.c.x.v y y y y y y c y y y = s qXqXqXqX<Xp - y y y y y y y - s ,X1X,X7X,Xs - y y y y y c y y y = q.qXqXqXqXi.= y y ",
"y y y y c y y y y = qXqX% O O i.wXs - y y y y y y t R R.3 + + 3 /.Q t y y y y y y y y b 5.- . . - t.b y y y y y y y y g m.V . . % x.x.- y y y y y c y y = d qX0.O O & qX<X= y y y y y y y u +XOX+ @ + +.=Xg y y y y y c y y y y qXs.O O + <XqX- y y y y y y y y XX&.# + + &.XXy y y y y y c y y = 0.qXd O O u qXs.= y y y y y y * 2.yX2.. . = yXtX* y y y y y y y y y F G % . + p t.x y y y y y y y = H x.& . . c n.b y y y y y c y y - p qXi.O O % <XqX= y y y y y y y y 1X8.O O % ,X1X- y y y y y c y y = q.qXf O O f qXi.= y ",
"y y y y c y y y = i.qXO ; N 0 O s.<X$ y y y y y y p R.3 O v v $ 3 R.p y y y y y y y y 5.= . 0 - . y H y y y y y y y = x.G   - x % . x.V = y y y y c y y = qXq.O b v : $ qX1.= y y y y y u +.OX@ - N x @ <.OXi y y y y c y y $ s.<XO 0 N - O qXs.$ y y y y y * &. X@ - N x o  X&.* y y y y c y y y qX1.O v v : u qXs = y y y y y * yXd.o b N : % yXl * y y y y y y y c H + : x ; . c G y y y y y y y c c.% . x - X v x.- y y y y c y y $ <Xs.O x n ; O qXi.$ y y y y y ; ,X,XO 0 N 0 O ,X8.; y y y y c y y p qXf O v N O f qXp y ",
"y y y y c y y y $ <Xs.O F x.cXP.f <X- y y y y y t T T.+ b H v.n . T.T t y y y y y y c G . - b J.L.& V x y y y y y y y c.y % v J F X G 4.= y y y y c y - s qXu 7 F L.AXM i.q.= y y y y y i OX+.@ B x.m.# w +Xu y y y y c y y = qX0.O J x.N.O q.qX; y y y y y u  XX.# J x.x.# X. Xu y y y y c y = d qX+ x F hXvX7 s.0.= y y y y * k yX$ 0 J m.H   tXk.# y y y y y y - V V . x v hXb.& V y y y y y y = G 4.X x N H ; % c.g y y y y c y y = qXd : F N.GX$.q.s.= y y y y y = 1X1.: J x.x.O 1.,X; y y y y c y = 1.qX. b H :.v O qX0.= ",
"y y y y c y y y $ <Xs.O F :.S.b f <Xy y y y y y t T T.+ b N zXjX. T.T t y y y y y y c G . - b c.F . V p y y y y y y y c.y % x n.kX; F 4.= y y y y c y - s qXu - F n.b.O i.q.= y y y y y i OX+.@ M m.JXt.r +Xu y y y y c y y = qX0.O N v.GXx.q.qX= y y y y y u  XX.# v b.GXm X.XXu y y y y c y = d qX+ x F N.v.O s.0.= y y y y - k yX$ 0 v kXbXo tXk.# y y y y y y - V V X x v v.x % V y y y y y y = G 4.X 0 v gXv.+ c.x y y y y c y y = qXd : F m.D.: q.s.= y y y y y = 1X1.: v A.JXM 1.,X; y y y y c y = 1.qX. x J vXA.  qXq.= ",
"y y y y c y y y = i.qXO ; b ;   i.s.= y y y y y y p R.3 O x n G 3 T.p y y y y y y y y 5.= . - ; X - V y y y y y y y = x.G   ; - v - x.V = y y y y c y y = qXq.O x x . + <Xd = y y y y y u +.OX@ ; b J s +.OXi y y y y c y y $ s.<XO - b x : s.i.= y y y y y * &. X@ - b x.a  X&.* y y y y c y y y qX1.O x x O & <Xs - y y y y y * yXd.  x v J - yX2.* y y y y y y y c H + . - % X p V y y y y y y y b c.+ . - x x b x.y y y y y c y y $ <Xs.O 3 b : O s.0.= y y y y y ; ,X,XO - b H 7 ,X8.; y y y y c y y p qXf O 3 b.m.f qXp - ",
"y y y y c y y y y = qXqXO + O 1.qXp - y y y y y y t R /.3 + . # U.T t y y y y y y y y V t.& . . & S c y y y y y y y y g v.V . . X F G y y y y y y c y y = 1.rX1.O + $ s.s.= y y y y y y y u +XOX@ : X o.OXg y y y y y c y y y y qXs.O # O i.<X- y y y y y y y y XX&.@ + X X. Xg y y y y y c y y = 0.rXf . + & <Xi.= y y y y y y * d.aXl . + . tXj.* y y y y y y y y y F G + . + y S y y y y y y y y = 4.c.% . X - x.c y y y y y c y y - p wXi.O # O i.s.= y y y y y y y y 7X8.O + X 8.,Xy y y y y y c y y = i.wXp . X # qXi.= y ",
"y y y y c y y y y = s i.- y = 1.d = y y y y y y y y t Q p y y p T t y y y y y y y y y y V x y y x c y y y y y y y y y - v V y y y V y y y y y y y c y y y = q.1.= y y q.y y y y y y y y y u w +.u y y o.w u y y y y y c y y y = 1.i.7 y g 0.s - y y y y y y y u h @.u y p @.h u y y y y y c y y y = i.d - y p q.- y y y y y y y y * j.2.* y g d.y y y y y y y y y y y y V y y y x x y y y y y y y y y y G g y y c b y y y y y y c y y y = 0.q.= y y q.p y y y y y y y y = 1.1.7 y g 1.s - y y y y y c y y y = i.s - y s 0.= y y ",
"y y y y c y y y y y = $ y = y % = & y y y y y y y y y t = y y & t = y y y y y y y y y y & y - y = - = y y y y y y y y y y & y y = = = y y y y y y c y y y y $ = - y = $ = = y y y y y y y y y & - y & u & y y y y y y c y y y y & $ & y y $ - = y y y y y y y y u # = y & * & y y y y y y c y y y y $ = y y - $ u = y y y y y y y y * & y y & * & y y y y y y y y y y y & y - y = - - y y y y y y y y y = = y - = = y y y y y y c y y y y $ $ y = y $ = & y y y y y y y y - ; = y & ; & y y y y y y c y y y y = = y y & = u y y ",
"y y y y c y y y y = V 4.y F - H V H c y y y y y y y y y G x c G V G = y y y y y y y y c F y V y V c V x y y y y y y y y y V g x V c V y y y y y y c y y y x 4.y V y V F F V = y y y y y y y - V V y 4.b 4.y y y y y y c y y y y F b 4.g b H c F y y y y y y y y = G F = H v G x y y y y y c y y y y 4.c v c c H V G = y y y y y y y t F c y 4.V H y y y y y y y y y y c F y V y V b V c y y y y y y y y y V y v V V b y y y y y c y y y = G V g V y 4.c 4.y y y y y y y y u b F = H b 4.g y y y y y c y y y y u V c v G V V - y ",
"y y y y c y y y y y c n.x.A.x n.D.N.x.& y y y y y y - G F.g x.N.D.n.c y y y y y y y y g x.H c.g x.c.x.H = y y y y y y y V n.g G x.c.x.c y y y y y c y y y y c.x.D.c c.A.A.v.y y y y y y y y c F.G G b.D.b.G & y y y y c y y y - N.G x.4.x.N.n.n.- y y y y y y y = A.x.c n.D.A.x.& y y y y c y y y y x.c.A.G f.N.D.n.c y y y y y y y V H.V 4.N.D.n.V = y y y y y y y y y x.H c.g x.c.x.4.- y y y y y y - H c.y 4.c.c.4.y y y y y c y y y y F n.v.c.V N.D.b.G & y y y y y y y D.x.b b.D.b.4.& y y y y c y y y y - D.F x.b.x.v.& y ",
"y y y y c y y y y 4.H v.A.L.4.c.S.n.c.& y y y y y y F v.A.c.x.b.D.c.V - y y y y y y F V f.c.b.F 4.v.x.4.- y y y y y y v x.c.4.H x.v.4.b - y y y y c y - G G c.n.5Xx.x.A.N.c.g y y y y y y b c.A.v.x.c.F.c.4.& y y y y c y - V F 4.4.c.G c n.L.b.V = y y y y y x 4.V N.x.c.n.D.c.& y y y y c y - V G x.v.K.c.x.b.D.c.V = y y y y - V c.A.c.x.v.F.c.G & y y y y y y y F V f.x.b.F 4.v.x.4.y y y y y y y V x.c.H H c.c.4.y y y y y c y y c 4.4.v.F.A.4.c.F.c.4.& y y y y y c x.Z.b.x.c.F.v.x.& y y y y c y y - F c.K.v.y n.x.x.& y ",
"y y y y c y y y y & x.v.c f.G x.H c.V - y y y y y y - g x.H H x.4.x.- y y y y y y y = G x.c G V H F 4.b y y y y y y y y y H F V H F H y y y y y y c y y & V b.V H 4.4.x.f.4.= y y y y y y y = x.x.G c.G c.g y y y y y c y y y = V H n.4.4.x.G x.y y y y y y y y = 4.x.F x.G f.c y y y y y c y y - c b.G F f.G x.H x.- y y y y y y y y x.4.G x.G c.y y y y y y y y y = F x.c G V G F H V - y y y y y y - c 4.V G G G F - y y y y c y y y = v.x.v x.G c.G c.g y y y y y y y & H x.F x.G c.c y y y y y c y y y y y G f.H x.c F - y ",
"y y y y c y y y y y = & y & = & = & y y y y y y y y y y & = = & = & y y y y g y y y y - = y = y = - = y y y y y y y y y y = - y = - = y y y y y y c y y y y & y = = = = = = y y y y y y y y y = = - & = & y y y y y y c y y y y y = & = = = = & y y y y y y y y y - = - & - = y y y y y y c y y y y & y = & = & = & y y y y y y y y y & = = & = & y y y y y y g y y y - = y = - = - = y y y y y y y y y y = y - - = - y y y y y c y y y y & = - & - & = & y y y y y y y y y = & - & = & y y y y y y c y y y y y = & - = y - y y ",
"= - - = x y = - - = y y - y - y y y - = - - - - - - = - y y y y y y - - - = y y = - = - y - - - y - y - = - - - - - - - - y - - y - y - - - - = y g = - = - y - y y y y y y = - - - - - - - - y y - y y y - = - - = - c = - - = - y y y y y y y - - - - - - - - = y y - y y y - = - - = y c = - = - y - - y y y y y - - - - - - - - - y y y y y y - - - - = y y = - = - y - - - - - y - = - - - - - - = - y - - - - - = - - - = c y = - = y y - y - y y y - = - - - - - - = y y - y y y - = - - = y x = - - - - - y y y - - = - ",
"V V V V V V V V V V V V V V V V V V V V V V V V V V V V V V V V V V V V V V V V V V V V V V V V V V V V V V V V V V V V V V V V V V V V V V V V V V V V V V V V V V V V V V V V V V V V V V V V V V V V V V V V V V V V V V V V V V V V V V V V V V V V V V V V V V V V V V V V V V V V V V V V V V V V V V V V V V V V V V V V V V V V V V V V V V V V V V V V V V V V V V V V V V V V V V V V V V V V V V V V V V V V V V V V V V V V V V V V V V V V V V V V V V V V V V V V V V V V V V V V V V V V V V V V V V V V V V V V ",
"gXgXgXgXgXgXgXgXgXgXgXgXgXgXgXgXgXgXgXgXgXgXgXgXgXgXgXgXgXgXgXgXgXgXgXgXgXgXgXgXgXgXgXgXgXgXgXgXgXgXgXgXgXgXgXgXgXgXgXgXgXgXgXgXgXgXgXgXgXgXgXgXgXgXgXgXgXgXgXgXgXgXgXgXgXgXgXgXgXgXgXgXgXgXgXgXgXgXgXgXgXgXgXgXgXgXgXgXgXgXgXgXgXgXgXgXgXgXgXgXgXgXgXgXgXgXgXgXgXgXgXgXgXgXgXgXgXgXgXgXgXgXgXgXgXgXgXgXgXgXgXgXgXgXgXgXgXgXgXgXgXgXgXgXgXgXgXgXgXgXgXgXgXgXgXgXgXgXgXgXgXgXgXgXgXgXgXgXgXgXgXgXgXgXgXgXgXgXgXgXgXgXgXgXgXgXgXgXgXgXgXgXgXgXgXgXgXgXgXgXgXgXgXgXgXgXgXgXgXgXgXgXgXgXgXgXgXgXgXgXgXgXgXgXgXgXgXgXgXgXgXgXgXgXgXgX",
"4.4.4.4.4.4.4.4.4.4.4.4.4.4.4.4.4.4.4.4.4.4.4.4.4.4.4.4.4.4.4.4.4.4.4.4.4.4.4.4.4.4.4.4.4.4.4.4.4.4.4.4.4.4.4.4.4.4.4.4.4.4.4.4.4.4.4.4.4.4.4.4.4.4.4.4.4.4.4.4.4.4.4.4.4.4.4.4.4.4.4.4.4.4.4.4.4.4.4.4.4.4.4.4.4.4.4.4.4.4.4.4.4.4.4.4.4.4.4.4.4.4.4.4.4.4.4.4.4.4.4.4.4.4.4.4.4.4.4.4.4.4.4.4.4.4.4.4.4.4.4.4.4.4.4.4.4.4.4.4.4.4.4.4.4.4.4.4.4.4.4.4.4.4.4.4.4.4.4.4.4.4.4.4.4.4.4.4.4.4.4.4.4.4.4.4.4.4.4.4.4.4.4.4.4.4.4.4.4.4.4.4.4.4.4.4.4.4.4.4.4.4.4.4.4.4.4.4.4.4.4.4.4.4.4.4.4.4.4.4.4.4.4.4.4.4.4.4.4.4.4.4.4.4.4.4.",
"fXfXfXfXfXfXfXfXfXfXfXfXfXfXfXfXfXfXfXfXfXfXfXfXfXfXfXfXfXfXfXfXfXfXfXfXfXfXfXfXfXfXfXfXfXfXfXfXfXfXfXfXfXfXfXfXfXfXfXfXfXfXfXfXfXfXfXfXfXfXfXfXfXfXfXfXfXfXfXfXfXfXfXfXfXfXfXfXfXfXfXfXfXfXfXfXfXfXfXfXfXfXfXfXfXfXfXfXfXfXfXfXfXfXfXfXfXfXfXfXfXfXfXfXfXfXfXfXfXfXfXfXfXfXfXfXfXfXfXfXfXfXfXfXfXfXfXfXfXfXfXfXfXfXfXfXfXfXfXfXfXfXfXfXfXfXfXfXfXfXfXfXfXfXfXfXfXfXfXfXfXfXfXfXfXfXfXfXfXfXfXfXfXfXfXfXfXfXfXfXfXfXfXfXfXfXfXfXfXfXfXfXfXfXfXfXfXfXfXfXfXfXfXfXfXfXfXfXfXfXfXfXfXfXfXfXfXfXfXfXfXfXfXfXfXfXfXfXfXfXfXfXfXfXfXfX",
"+ + X X X + + + + + + + + + + + + + + + + + + + + + + + + + + + + + + + + + + + + + + + + + + + + + + + + + + + + + + + + + + + + + + + + + + + + + + + + + + + + + + + + + + + + + + + + + + + + + + + + + + + + + + + + + + + + + + + + + + + + + + + + + + + + + + + + + + + + + + + + + + + + + + + + + + + + + + + + + + + + + + + + + + + + + + + + + + + + + + + + + + + + + + + + + + + + + + + + + + + + + + + + + + + + + + + + + + + + + + + + + + + + + + + + + + + + + + + + + + + + + + + + + + + + + + + + + + + ",
"y c x.4.f.V y y g y y y y g g y y y y c V V V c y y g y g y y g g y y y y y y y y y y y y y y y y y y y y y y y y y y y y y y y y y y y y y y y y y y y y y y y y y y y y y y y y y y y y y y y y y y y y y y y y y y y y y y y y y y y y y y y y y y y y y y y y y y y y y y y y y y y y y y y y y y y y y y y y y y y y y y y y y y y y y y y y y y y y y y y y y y y y y y y y y y y y y y y y y y y y y y y y y y y y y y y y y y y y y y y y y y y y y y y y y y y y y y y y y y y y y y y y y y y y y y y y y x y y y y y ",
"& H F.v.S.x.& y * z y y y * * y y y - V N.D.F.4.& y - z - y - * * y y y y y y y y y y y y y y y y y y y y y y y y y y y y y y y y y y y y y y y y y y y y y y y y y y y y y y y y y y y y y y y y y y y y y y y y y y y y y y y y y y y y y y y y y y y y y y y y y y y y y y y y y y y y y y y y y y y y y y y y y y y y y y y y y y y y y y y y y y y y y y y y y y y y y y y y y y y y y y y y y y y y y y y y y y y y y y y y y y y y y y y y y y y y y y y y y y y y y y y y y y y y y y y y y y y y c F H v H 4.H H v y y ",
"& H n.N.b.f.= y z 3Xd.- j d.d.j y y - V F N.N.V y - 2.3X2.* z d.d.y y y y y y y y y y y y y y y y y y y y y y y y y y y y y y y y y y y y y y y y y y y y y y y y y y y y y y y y y y y y y y y y y y y y y y y y y y y y y y y y y y y y y y y y y y y y y y y y y y y y y y y y y y y y y y y y y y y y y y y y y y y y y y y y y y y y y y y y y y y y y y y y y y y y y y y y y y y y y y y y y y y y y y y y y y y y y y y y y y y y y y y y y y y y y y y y y y y y y y y y y y y y y y y y y y y y c x.v.c.4.% A.4.c u 8 ",
"& H S.b.y G - y y j.l - g z z y y y = G y n.b.b y y j j.z - g z h y y y y y y y y y y y y y y y y y y y y y y y y y y y y y y y y y y y y y y y y y y y y y y y y y y y y y y y y y y y y y y y y y y y y y y y y y y y y y y y y y y y y y y y y y y y y y y y y y y y y y y y y y y y y y y y y y y y y y y y y y y y y y y y y y y y y y y y y y y y y y y y y y y y y y y y y y y y y y y y y y y y y y y y y y y y y y y y y y y y y y y y y y y y y y y y y y y y y y y y y y y y y y y y y y y y y x v.G x.x.G f.f.F y g ",
"y c x.4.G V y y - y - y y - - y y y y b G 4.f.c y y - y - y y - - y y y y y y y y y y y y y y y y y y y y y y y y y y y y y y y y y y y y y y y y y y y y y y y y y y y y y y y y y y y y y y y y y y y y y y y y y y y y y y y y y y y y y y y y y y y y y y y y y y y y y y y y y y y y y y y y y y y y y y y y y y y y y y y y y y y y y y y y y y y y y y y y y y y y y y y y y y y y y y y y y y y y y y y y y y y y y y y y y y y y y y y y y y y y y y y y y y y y y y y y y y y y y y y y y y y = F H & y x c y y c y u ",
"y y = = y y y y y y y y y y y y y y y y y = = y y y y y y y y y y y y y y y y y y y y y y y y y y y y y y y y y y y y y y y y y y y y y y y y y y y y y y y y y y y y y y y y y y y y y y y y y y y y y y y y y y y y y y y y y y y y y y y y y y y y y y y y y y y y y y y y y y y y y y y y y y y y y y y y y y y y y y y y y y y y y y y y y y y y y y y y y y y y y y y y y y y y y y y y y y y y y y y y y y y y y y y y y y y y y y y y y y y y y y y y y y y y y y y y y y y y y y y y y y y y y y y y y y y y y y y y y ",
"y y y y y y y y y y y y y y y y y y y y y y y y y y y y y y y y y y y y y y y y y y y y y y y y y y y y y y y y y y y y y y y y y y y y y y y y y y y y y y y y y y y y y y y y y y y y y y y y y y y y y y y y y y y y y y y y y y y y y y y y y y y y y y y y y y y y y y y y y y y y y y y y y y y y y y y y y y y y y y y y y y y y y y y y y y y y y y y y y y y y y y y y y y y y y y y y y y y y y y y y y y y y y y y y y y y y y y y y y y y y y y y y y y y y y y y y y y y y y y y y y y y y y y y y y y y y y y y y "
};
