/* XPM */
static char *sc_mb_gate_ms[] = {
/* columns rows colors chars-per-pixel */
"256 256 256 2 ",
"   c #0B0B0C",
".  c #060509",
"X  c #160909",
"o  c #0D0D14",
"O  c #090514",
"+  c #160D16",
"@  c #0F1016",
"#  c #0B1719",
"$  c #121215",
"%  c #13141B",
"&  c #1C151C",
"*  c #16191E",
"=  c #1A1A1D",
"-  c #1A1815",
";  c #0D140B",
":  c #360707",
">  c #2B1A1D",
",  c #35181C",
"<  c #2B0E0E",
"1  c #1A2715",
"2  c #142F10",
"3  c #242A1B",
"4  c #22321E",
"5  c #283519",
"6  c #313414",
"7  c #151C22",
"8  c #1B1C22",
"9  c #181524",
"0  c #121228",
"q  c #271C26",
"w  c #2F1531",
"e  c #1E2026",
"r  c #19262A",
"t  c #172B35",
"y  c #193536",
"u  c #0F3030",
"i  c #222225",
"p  c #22232A",
"a  c #2D232B",
"s  c #2A2A2D",
"d  c #272928",
"f  c #243521",
"g  c #293A26",
"h  c #2B3A28",
"j  c #343629",
"k  c #2C2D32",
"l  c #2B2632",
"z  c #372B34",
"x  c #2C3335",
"c  c #323235",
"v  c #34353A",
"b  c #3A3A3D",
"n  c #38373A",
"m  c #33262B",
"M  c #4E0C0E",
"N  c #670809",
"B  c #750506",
"V  c #740E11",
"C  c #4A350E",
"Z  c #4E0E32",
"A  c #4C322C",
"S  c #6E1138",
"D  c #0E4D0D",
"F  c #2C4D15",
"G  c #107010",
"H  c #366D0D",
"J  c #1E5829",
"K  c #185035",
"L  c #2A4725",
"P  c #255728",
"I  c #335525",
"U  c #355728",
"Y  c #365929",
"T  c #3A5B2C",
"R  c #365926",
"E  c #304E31",
"W  c #1B6A35",
"Q  c #396526",
"!  c #266538",
"~  c #306E31",
"^  c #4E4D15",
"/  c #497512",
"(  c #465628",
")  c #474B35",
"_  c #45702C",
"`  c #6C5F15",
"'  c #341E49",
"]  c #341A47",
"[  c #331452",
"{  c #173945",
"}  c #113B4E",
"|  c #36214B",
" . c #39234C",
".. c #352646",
"X. c #3C3D42",
"o. c #393744",
"O. c #3C2753",
"+. c #2C3754",
"@. c #39096B",
"#. c #333767",
"$. c #031560",
"%. c #412B56",
"&. c #453255",
"*. c #48166C",
"=. c #462567",
"-. c #5F0A55",
";. c #184747",
":. c #185849",
">. c #154756",
",. c #0D5153",
"<. c #27444C",
"1. c #3F4045",
"2. c #2A4A54",
"3. c #27555C",
"4. c #2F534F",
"5. c #1B6A47",
"6. c #1E7248",
"7. c #186B52",
"8. c #276B45",
"9. c #22744B",
"0. c #26784A",
"q. c #28685B",
"w. c #267952",
"e. c #35734B",
"r. c #10546D",
"t. c #265962",
"y. c #2A5C65",
"u. c #285966",
"i. c #305272",
"p. c #077677",
"a. c #0F6A6A",
"s. c #2C6565",
"d. c #2D6E70",
"f. c #414246",
"g. c #44454A",
"h. c #494A4E",
"j. c #47484B",
"k. c #4C4D52",
"l. c #4A4C59",
"z. c #515256",
"x. c #54555A",
"c. c #5A5B5D",
"v. c #57585B",
"b. c #4E5151",
"n. c #556A52",
"m. c #5C5D61",
"M. c #4E486C",
"N. c #56676A",
"B. c #626364",
"V. c #6A6A6D",
"C. c #65686A",
"Z. c #6C6D71",
"A. c #6F7074",
"S. c #717276",
"D. c #77787C",
"F. c #7B7B7C",
"G. c #757579",
"H. c #6C7469",
"J. c #61685C",
"K. c #860506",
"L. c #95090B",
"P. c #AF0506",
"I. c #94232D",
"U. c #C90303",
"Y. c #C82B2B",
"T. c #8D6500",
"R. c #97075B",
"E. c #817E7F",
"W. c #0C8A0C",
"Q. c #13AC13",
"!. c #1B9330",
"~. c #298E2F",
"^. c #1AAF2A",
"/. c #24AE2F",
"(. c #2A981A",
"). c #4C8D0A",
"_. c #58AF04",
"`. c #4B8C27",
"'. c #659F19",
"]. c #17CF17",
"[. c #1BCA2B",
"{. c #63C700",
"}. c #168C55",
"|. c #2A8C52",
" X c #199271",
".X c #2B8F6B",
"XX c #18A86F",
"oX c #24AC55",
"OX c #668956",
"+X c #4A936C",
"@X c #649B67",
"#X c #18CB5A",
"$X c #6FC857",
"%X c #A09C0A",
"&X c #88A877",
"*X c #86CE69",
"=X c #041E9C",
"-X c #4D0D8C",
";X c #5803AF",
":X c #612F93",
">X c #355786",
",X c #0F6D8D",
"<X c #2E6F90",
"1X c #1E72A6",
"2X c #7B7C80",
"3X c #657D87",
"4X c #575095",
"5X c #6605C9",
"6X c #1875D1",
"7X c #8F0CA3",
"8X c #825EA6",
"9X c #058687",
"0X c #128D8E",
"qX c #288A91",
"wX c #1AAB8B",
"eX c #1292B1",
"rX c #278DB2",
"tX c #0AADAF",
"yX c #29AE90",
"uX c #548A8F",
"iX c #75878C",
"pX c #6EB48E",
"aX c #78B0B1",
"sX c #619EA5",
"dX c #20C89E",
"fX c #6BC99F",
"gX c #0999CA",
"hX c #13AAD2",
"jX c #10B6ED",
"kX c #21A1D7",
"lX c #05C8CA",
"zX c #14C7FB",
"xX c #19E0D7",
"cX c #6BB2C8",
"vX c #868788",
"bX c #97989A",
"nX c #8D8F91",
"mX c #93B689",
"MX c #9D9DA1",
"NX c #8FAEB2",
"BX c #A8A8AA",
"VX c #B6B7B8",
"CX c #ADB2AF",
"ZX c #A1B099",
"AX c #92C9A3",
"SX c #87BBC5",
"DX c #BCBEC1",
"FX c #A3C2CA",
"GX c #C6C6C8",
"HX c #D5D6D8",
"JX c #CECFD1",
"KX c #E8E9EB",
"LX c #F8F9FA",
"PX c #EEEFF1",
"IX c #DEDFE1",
"UX c #C0BFBF",
/* pixels */
"8 8 8 8 8 8 8 8 8 8 8 8 8 8 8 8 8 8 8 8 8 8 8 8 8 8 8 8 8 8 8 8 8 8 8 8 8 8 8 8 8 8 8 8 8 8 8 8 8 8 8 8 8 8 8 8 8 8 8 8 8 8 8 8 8 8 8 8 8 8 8 8 8 8 8 8 8 8 8 8 8 8 8 8 8 8 8 8 8 8 8 8 8 8 8 8 8 8 8 8 8 8 8 8 8 8 8 8 8 8 8 8 8 8 8 8 8 8 8 8 8 8 8 8 8 8 8 8 8 8 8 8 8 8 8 8 8 8 8 8 8 8 8 8 8 8 8 8 8 8 8 8 8 8 8 8 8 8 8 8 8 8 8 8 8 8 8 8 8 8 8 8 8 8 8 8 8 8 8 8 8 8 8 8 8 8 8 8 8 8 8 8 8 8 8 8 8 8 8 8 8 8 8 8 8 8 8 8 8 8 8 8 8 8 8 8 8 8 8 8 8 8 8 8 8 8 8 8 8 8 8 8 8 8 8 8 8 8 8 8 8 8 8 8 8 8 8 8 8 8 8 8 8 8 8 8 ",
"8 8 8 8 8 8 8 8 8 8 8 8 8 8 8 8 8 8 8 8 8 8 = & & = 8 8 8 8 8 8 8 8 8 8 8 8 8 8 8 8 8 8 8 8 8 8 8 8 8 8 8 8 8 8 8 8 8 8 8 8 8 8 8 8 8 8 8 8 8 8 8 8 8 8 8 8 8 8 8 8 8 8 8 8 8 8 8 8 8 8 8 8 8 8 8 8 8 8 8 8 8 8 8 8 8 8 8 8 8 8 8 8 8 8 8 8 8 8 8 8 8 8 8 8 8 8 8 8 8 8 8 8 8 8 8 8 8 8 8 8 8 % % % * @ % * % 8 % % * 8 * * * * % % * * 8 % 8 % % * * * 8 * @ % % * $ * * * * * * % @ * 8 8 $ * 8 % * @ % % * 8 % 8 % % % % @ 8 % % % * $ % 8 % * 8 % * % % 8 8 8 8 8 & & = & & & 8 & & & 8 & & 8 & = & 8 & & & = 8 8 8 8 8 8 8 ",
"& 8 8 8 8 = & & & & & 8 = & & & & & = 8 8 8 t r.r.} 8 = 8 8 8 8 8 8 8 8 8 8 8 8 8 8 8 8 8 8 8 8 8 8 8 8 8 8 8 8 8 8 8 8 8 8 8 8 8 8 8 8 8 8 8 8 8 8 8 8 8 8 8 8 8 8 8 8 8 8 8 8 8 8 8 8 8 8 8 8 8 8 8 8 8 8 8 8 8 8 8 8 8 8 8 8 8 8 8 8 8 8 8 8 8 8 8 8 8 8 8 8 8 8 8 8 8 8 8 8 8 8 8 8 8 8 i m.g.c.X.S.X.c V.k v.v.X.p n c X.j.h.k.k X.* v.i k.g.c X.f.l X.G.m.z.f.C.s v X.X.X.v h.S.c % p C.X.8 k.v G.z.B.g.% v.i k.z.h.k.Z.p k.k.v.X.C.x.p V.X.s g.X.g.m.p 8 n 8 = >.} t r.} { t >.>.r.8 >.>.r r.t >.r >.{ r.t = 8 8 1 G W.G ",
"gX} & 8 = t 1XgXgXgXeX- r.gXgXgXgX1Xr = 8 r.hXtXtXhXeXt = 8 8 8 8 8 8 8 8 8 8 8 8 8 8 8 8 8 8 8 8 8 8 8 8 8 8 8 8 8 8 8 8 8 8 8 8 8 8 8 8 8 8 8 8 8 8 8 8 8 8 8 8 8 8 8 8 8 8 8 8 8 8 8 8 8 8 8 8 8 8 8 8 8 8 8 8 8 8 8 8 8 8 8 8 8 8 8 8 8 8 8 8 8 8 8 8 8 8 8 8 8 8 8 8 8 8 8 8 8 8 8 8 * k nXX.S.m.B.V.S.vXm.Z.p vXvXm.S.bXx.v.nX2XB.o BXc.bXF.f.B.G.X.8 vXk.V.C.CXk.G.nXB.bXC.D.z.2X$ Z.Z.z.f.DXs vXk.bXj.$ BXc.MXV.m.Z.c.Z.vXk.V.c.V.B.V.bXX.o nXS.c.VXv % X.8 8 ,X} r.t >.,Xr.,X,X,Xr.r.>.} eX>.,Xr.,Xr.,Xr 8 8 9 4 W.G W.",
"zX>.- e - ,XzXgXgXgXeX+ ,XzXgXgXgXzX,XX r.hX,X8 & { eX,Xt = 8 8 8 8 8 8 8 8 8 8 8 8 8 8 8 8 8 8 8 8 8 8 8 8 8 8 8 8 8 8 8 8 8 8 8 8 8 8 8 8 8 8 8 8 8 8 8 8 8 8 8 8 8 8 8 8 8 8 8 8 8 8 8 8 8 8 8 8 8 8 8 8 8 8 8 8 8 8 8 8 8 8 8 8 8 8 8 8 8 8 8 8 8 8 8 8 8 8 8 8 8 8 8 8 8 8 8 8 8 8 8 8 8 V.vXS.m.S.Z.Z.D.z.D.k 2XB.G.vXnXvXm.B.nXF.$ vXbXiXV.A.Z.V.Z.8 S.1.S.C.bXA.nXnX2XZ.bXS.C.D.o V.Z.vXF.MXc.C.X.bXX.8 2XbXvXZ.B.A.V.C.j.nXD.c.G.V.C.nXv 8 vXG.C.BXf.% 1.8 = >.,X,X{ } ,X,Xr.,X,Xr.r.,Xr.,Xr.r.,X,X{ ,X>.& 8 9 4 W.G W.",
"zX>.& e - eXjXr - - - - ,XjXr X 8 jX1X8 eX,XX 8 r } r eX>.= 8 8 8 8 8 8 8 8 8 8 8 8 8 8 8 8 8 8 8 8 8 8 8 8 8 8 8 8 8 8 8 8 8 8 8 8 8 8 8 8 8 8 8 8 8 8 8 8 8 8 8 8 8 8 8 8 8 8 8 8 8 8 8 8 8 8 8 8 8 8 8 8 8 8 8 8 8 8 8 8 8 8 8 8 8 8 8 8 8 8 8 8 8 8 8 8 8 8 8 8 8 8 8 8 8 8 8 8 8 8 8 8 p x.b k.v B.v s m.s k.k.v e g.k p m.X.c k X.* b X.b p v.v k C.k v v k.b v.b k p k.p 1.X.B.k % p c.g.b 8 X.n p x.X.8 b X.v j.1.g.m.e k.X.k.v v.j.8 m.v s v v 1.k.p 8 c 8 8 >.{ r >.y y { t } >.8 { >.r >.t t { t { >.r 8 8 8 e D G D ",
"zX>.& e - ,XzXhXgXgXr.X ,XjX} r { jXeX& r.gX>.& t y - ,X,X8 8 8 8 8 8 8 8 8 8 8 8 8 8 8 8 8 8 8 8 8 8 8 8 8 8 8 8 8 8 8 8 8 8 8 8 8 8 8 8 8 8 8 8 8 8 8 8 8 8 8 8 8 8 8 8 8 8 8 8 8 8 8 8 8 8 8 8 8 8 8 8 8 8 8 8 8 8 8 8 8 8 8 8 8 8 8 8 8 8 8 8 8 8 8 8 8 8 8 8 8 8 8 8 8 8 8 8 8 8 8 8 8 8 $ % % * o * 8 @ 8 % % * 8 % * 8 @ % * * % 8 * % * 8 @ * * o * * * % * $ % * 8 % 8 % % o * 8 8 @ % * 8 % * 8 $ % 8 * % * % % % @ 8 % % % * @ % 8 @ * 8 * * % $ 8 8 8 8 8 & = 8 & = = & = & & 8 & & = & = = & = & & 8 8 8 8 8 9 9 8 ",
"zX>.- 8 8 8 ,XeXeXhXjXe ,XjXjXjXjXzXr.8 eXzX,XX & 8 & ,Xr.8 8 8 8 8 8 8 8 8 8 8 8 8 8 8 8 8 8 8 8 8 8 8 8 8 8 8 8 8 8 8 8 8 8 8 8 8 8 8 8 8 8 8 8 8 8 8 8 8 8 8 8 8 8 8 8 8 8 8 8 8 8 8 8 8 8 8 8 8 8 8 8 8 8 8 8 8 8 8 8 8 8 8 8 8 8 8 8 8 8 8 8 8 8 8 8 8 8 = 8 8 8 8 8 8 8 8 8 8 8 8 8 8 8 8 8 8 8 8 8 * 8 8 8 8 8 8 * 8 8 8 8 8 8 8 8 8 8 8 8 8 8 8 8 8 8 8 8 8 8 8 8 8 8 8 8 8 8 8 8 8 8 8 8 8 8 8 8 8 8 8 8 8 8 8 8 8 e 8 8 8 8 8 e e = 8 8 8 8 8 8 8 8 8 & & 8 7 7 8 * * 7 * 8 7 8 * 8 8 8 8 = 8 8 * 8 * * * % * 8 8 * % ",
"zX>.& 8 8 8 & & X r.jXt r.jX,X,X,Xr.& t ,XeXjXr.{ - { eX} = 8 8 8 8 8 8 8 8 8 8 8 8 8 8 8 8 8 8 8 8 8 8 8 8 8 8 8 8 8 8 8 8 8 8 8 8 8 8 8 8 8 8 8 8 8 8 8 8 8 8 8 8 8 8 8 8 8 8 8 8 8 8 8 8 8 8 8 8 8 8 8 8 8 8 8 8 8 8 8 8 8 8 8 8 8 8 8 8 8 8 8 8 8 8 8 8 8 r 8 8 8 8 8 8 8 8 8 8 8 8 8 8 8 8 8 8 8 * k X.8 8 b 8 8 8 c s 8 p 8 e 8 8 e 8 8 k s 8 8 8 8 8 8 8 8 8 8 8 8 8 8 8 8 8 8 8 r 8 = 8 8 8 8 8 8 8 8 8 r W.8 8 8 = + & & 8 8 = 9X0Xt & 8 8 8 8 8 8 8 r { { r k c s X.X.b v s v p k 8 8 r { y r * v p g.c s j.k k s b k.",
"zXjXhXjXr.t jXjXhXjXjX8 ,XzXr X - - 8 & 8 gXgXjXgX} 1Xr.r = 8 8 8 8 8 8 8 8 8 8 8 8 8 8 8 8 8 8 8 8 8 8 8 8 8 8 8 8 8 8 8 8 8 8 8 8 8 8 8 8 8 8 8 8 8 8 8 8 8 8 8 8 8 8 8 8 8 8 8 8 8 8 8 8 8 8 8 8 8 8 8 8 8 8 8 8 8 8 8 8 8 8 8 8 8 8 8 8 8 8 8 8 8 8 8 = { { = 8 8 8 8 8 8 8 8 8 8 8 8 8 8 8 8 8 8 % f.g.g.m.x.c.v.f.v.v c z.k.k.x.c.b.f.m.C.v * 8 8 8 8 8 8 8 8 8 8 8 8 8 8 8 8 8 8 r >.8 8 8 8 8 8 8 8 8 9 G ].D 9 = { p.0X0X& 8 8 0XtX;.& 8 8 8 8 8 8 = t r.r.t A m.k.m.z.1.C.j.z.k h.* 8 r } { r 8 V.g.m.z.k.s m.X.b X.k.",
"eXeXeXeX>.t eXeXeXeX>.+ r.eXt 8 8 8 8 8 t >.>.gX,X1X,Xt = 8 8 8 8 8 8 8 8 8 8 8 8 8 8 8 8 8 8 8 8 8 8 8 8 8 8 8 8 8 8 8 8 8 8 8 8 8 8 8 8 8 8 8 8 8 8 8 8 8 8 8 8 8 8 8 8 8 8 8 8 8 8 8 8 8 8 8 8 8 8 8 8 8 8 8 8 8 8 8 8 8 8 8 8 8 8 8 8 8 8 8 8 8 8 8 8 = t { = 8 8 8 8 8 8 8 8 8 8 8 8 8 8 8 8 8 8 8 p x.C.h.x.B.b.g.f.k n z.c.X.c.g.h.B.z.k.c * 8 8 8 8 8 8 8 8 8 8 8 8 8 8 8 8 8 = r { 8 8 8 8 8 8 8 8 8 8 G G G 9 8 r { ;.>.= 8 8 9X0X{ & 8 8 8 8 8 8 = t r.r.t c m.v.h.b.X.f.B.j.j.f.* 8 t } { 7 b c.m.v.k.k.X.b.j.k.k j.",
"& & & - = 8 - & & - & 8 = & 8 8 8 8 8 8 8 - y >.r >.8 8 8 8 8 8 8 8 8 8 8 8 8 8 8 8 8 8 8 8 8 8 8 8 8 8 8 8 8 8 8 8 8 8 8 8 8 8 8 8 8 8 8 8 8 8 8 8 8 8 8 8 8 8 8 8 8 8 8 8 8 8 8 8 8 8 8 8 8 8 8 8 8 8 8 8 8 8 8 8 8 8 8 8 8 8 8 8 8 8 8 8 8 8 8 8 8 8 8 8 8 e 8 8 8 8 8 8 8 8 8 8 8 8 8 8 8 8 8 8 8 8 k c p c p k s c c p X.k.p p s k c s k k k 8 8 8 8 8 8 8 8 8 8 8 8 8 8 8 8 8 8 8 e 8 8 8 8 8 8 8 8 8 8 8 e 9 e 8 8 8 & & & 8 8 8 r t = 8 8 8 8 8 8 8 8 r t t r i s s d v k e k p b i 8 8 r t t e s 8 s b s i X.8 k c 8 s ",
"% % % % $ $ % % % % % $ % % $ $ $ $ $ $ $ % @ o $ X $ $ $ $ $ $ $ $ $ $ $ $ $ $ $ $ $ $ $ $ $ $ $ $ $ $ $ $ $ $ $ $ $ $ $ $ $ $ $ $ $ $ $ $ $ $ $ $ $ $ $ $ $ $ $ $ $ $ $ $ $ $ $ $ $ $ $ $ $ $ $ $ $ $ $ $ $ $ $ $ $ $ $ $ $ $ $ $ $ $ $ $ $ $ $ $ $ $ $ $ $ $ $ $ $ $ $ $ $ $ $ $ $ $ $ $ $ $ $ $ $ $ o o @ o @ o o o o o 8 % o $ o o o o o o o $ $ $ $ $ $ $ $ $ $ $ $ $ $ $ $ $ $ $ $ $ $ $ $ $ $ $ $ $ $ $ $ $ $ $ $ $ % % % $ $ $ @ @ $ $ $ $ $ $ $ $ $ $ @ @ $ @ o o @ o o $ o @ o $ $ $ $ @ @ $ o $ o o o $ o $ o o $ o ",
"h.h.h.h.h.h.h.h.h.h.h.h.h.h.h.h.h.h.h.h.h.h.k.k.h.k.h.h.h.h.h.h.h.h.h.h.h.h.h.h.h.h.h.h.h.h.h.h.h.h.h.h.h.h.h.h.h.h.h.h.h.h.h.h.h.h.h.h.h.h.h.h.h.h.h.h.h.h.h.h.h.h.h.h.h.h.h.h.h.h.h.h.h.h.h.h.h.h.h.h.h.h.h.h.h.h.h.h.h.h.h.h.h.h.h.h.h.h.h.h.h.h.h.h.h.h.h.h.h.h.h.h.h.h.h.h.h.h.h.h.h.h.h.h.h.h.h.h.h.k.h.k.h.k.h.h.h.k.j.h.k.h.h.k.k.h.k.h.h.h.h.h.h.h.h.h.h.h.h.h.h.h.h.h.h.h.h.h.h.h.h.h.h.h.h.h.h.h.h.h.h.h.h.h.h.h.h.h.h.h.h.h.h.h.h.h.h.h.h.h.h.h.k.k.k.k.k.k.k.k.k.k.k.k.k.k.k.k.k.k.k.k.k.k.k.k.k.k.k.k.k.k.k.k.k.k.",
"S.S.S.S.S.S.S.S.S.S.S.S.S.S.S.S.S.S.S.S.S.S.S.S.S.S.S.S.S.S.S.S.S.S.S.S.S.S.S.S.S.S.S.S.S.S.S.S.S.S.S.S.S.S.S.S.S.S.S.S.S.S.S.S.S.S.S.S.S.S.S.S.S.S.S.S.S.S.S.S.S.S.S.S.S.S.S.S.S.S.S.S.S.S.S.S.S.S.S.S.S.S.S.S.S.S.S.S.S.S.S.S.S.S.S.S.S.S.S.S.S.S.S.S.S.S.S.S.S.S.S.S.S.S.S.S.S.S.S.S.S.S.S.S.S.S.S.S.S.S.S.S.S.S.S.S.S.S.S.S.S.S.S.S.S.S.S.S.S.S.S.S.S.S.S.S.S.S.S.S.S.S.S.S.S.S.S.S.S.S.S.S.S.S.S.S.S.S.S.S.S.S.S.S.S.S.S.S.S.S.S.S.S.S.S.S.S.S.S.S.S.S.Z.B.B.B.B.B.B.B.B.B.B.B.B.B.C.C.C.C.C.C.C.C.C.C.C.C.C.C.C.C.C.C.C.B.",
"o o o o o o o o o o o o o o o o o o o o o o o o o o o o o o o o o o o o o o o o o o o o o o o o o o o o o o o o o o o o o o o o o o o o o o o o o o o o o o o o o o o o o o o o o o o o o o o o o o o o o o o o o o o o o o o o o o o o o o o o o o o o o o o o o o o o o o o o o o o o o o o o o o o o o o o o o o o o o o o o o o o o o o o o o o o o o o o o o o o o o o o o o o o o o o o o o o o o o o o . . O o o o o o o o o o o o o o o o o o o @ . v iXD.2XD.D.D.D.D.D.2XD.D.D.Z.Z.Z.Z.Z.Z.Z.Z.Z.Z.Z.Z.Z.Z.Z.Z.Z.Z.Z.Z.",
"p i p p p k s s p 8 e i 8 i 8 p p p e 8 e p 8 8 8 8 8 8 8 8 8 8 8 8 8 8 8 8 8 8 8 8 8 8 8 8 8 8 8 8 8 8 8 8 8 8 8 8 8 8 8 8 8 8 8 8 8 8 8 8 8 8 8 8 8 8 8 8 8 8 8 8 8 8 8 8 8 8 8 8 8 8 8 8 8 8 8 8 8 8 8 8 8 8 8 8 8 8 8 8 8 8 8 8 8 8 8 8 8 8 8 8 8 8 8 8 8 8 8 8 8 8 8 8 8 8 8 8 8 8 8 8 8 8 8 8 8 8 8 8 8 8 8 8 8 8 8 8 8 8 8 8 8 8 8 8 8 8 8 8 8 8 8 8 8 8 8 8 8 8 8 8 8 8 8 8 8 8 8 8 8 8 8 8 8 8 e 8 k b.z.X.e 8 8 8 8 8 p e * 8 8 8 8 8 s 8 8 8 8 @ A.LXLXPXLXLXLXLXLXLXPXLXLXPXk.X.X.X.X.X.X.X.X.X.X.X.X.X.X.X.X.X.X.f.",
"k.B.c.g.k.f.m.c.m.f.v V.X.c.p z.b C.X.z.f.C.z.X.X.* 8 8 8 8 8 8 8 8 8 8 8 8 8 8 8 8 8 8 8 8 8 8 8 8 8 8 8 8 8 8 8 8 8 8 8 8 8 8 8 8 8 8 8 8 8 8 8 8 8 8 8 8 8 8 8 8 8 8 8 8 8 8 8 8 8 8 8 8 8 8 8 8 8 8 8 8 8 8 8 8 8 8 8 8 8 8 8 8 8 8 8 8 8 8 8 8 8 8 8 8 8 8 8 8 8 8 8 8 8 8 8 8 8 8 8 8 8 8 8 8 8 8 8 8 8 8 8 8 8 8 8 8 8 8 8 8 8 8 8 8 8 8 8 8 8 8 8 8 8 8 8 8 8 8 8 8 8 8 8 8 8 8 8 8 8 8 8 8 8 8 8 % k.F.V.m.8 8 8 8 8 % X.h.1.p 8 8 * n z.j.p X.k.O C.LXBXVXJXDXGXVXHXUXCXPXKXHXp @ % % % % % % % % % % % % % % % % % $ ",
"V.X.m.x.g.8 j.c.V.k.j.V.Z.v.b k.v.S.v.Z.V.k.k.C.h.% 8 8 8 8 8 8 8 8 8 8 8 8 8 8 8 8 8 8 8 8 8 8 8 8 8 8 8 8 8 8 8 8 8 8 8 8 8 8 8 8 8 8 8 8 8 8 8 8 8 8 8 8 8 8 8 8 8 8 8 8 8 8 8 8 8 8 8 8 8 8 8 8 8 8 8 8 8 8 8 8 8 8 8 8 8 8 8 8 8 8 8 8 8 8 8 8 8 8 8 8 8 8 8 8 8 8 8 8 8 8 8 8 8 8 8 8 8 8 8 8 8 8 8 8 8 8 8 8 8 8 8 8 8 8 8 8 8 8 8 8 8 8 8 8 8 8 8 8 8 8 8 8 8 8 8 8 8 8 8 8 8 8 8 8 8 8 8 8 8 8 8 $ v.B.m.vX% 8 8 8 8 * n m.m.b % 8 % k.n m.z.C.k.. C.LXGXbXbXBXnXBXBX2XBXPXPXHXp 8 8 8 8 8 8 8 8 8 8 8 8 8 8 8 8 8 8 e ",
"n $ X.c f.k k k k X.X.k X.k 8 f.g.k f.p X.8 p p s % * * * * * * * * * * * * * * * * * * * * * * * * * * * * * * * * * * * * * * * * * * * * * * * * * * * * * * * * * * * * * * * * * * * * * * * * * * * * * * * * * * * * * * * * * * * * * * * * * * * * * * * * * * * * * * * * * * * * * * * * * * * * * * * * * * * * * * * * * * * * * * * * * * * * * * * * * * * * * * * * * * * * * 8 8 8 8 8 8 * X.C.nXMX% 8 8 8 8 * c f.k s * 8 8 p k.k g.1.b o C.LXHXGXHXBXVXKXGXDXHXLXLXbX$ 8 8 8 8 8 8 8 8 8 8 8 8 8 8 8 8 8 8 8 ",
"i k p s p s d s d p p d p d s p p d p s p s s s s s s s s s s s s s s s s s s s s s s s s s s s s s s s s s s s s s s s s s s s s s s s s s s s s s s s s s s s s s s s s s s s s s s s s s s s s s s s s s k s s s s s s s s s s s s s s s s s s s s s s s s s s s s s s s s s s s s s s s s s s s s s s s s s s s s s s s s s s s s s s s s s s s s s s s s s s s s s s s s s s s s s s s s i $ 8 8 8 8 8 8 8 % 8 8 8 8 8 8 8 * * * 8 8 8 8 8 % * % % 8 o C.HXGXJXGXBXUXGXJXJXGXUXvX8 8 8 8 8 8 8 8 8 8 8 8 8 8 8 8 8 8 8 8 8 ",
"2XG.D.G.D.G.G.D.D.D.D.D.D.D.D.F.D.D.F.D.F.D.D.D.F.D.D.D.D.D.D.D.D.D.D.F.F.D.D.D.F.F.F.2XiXF.F.D.F.F.F.F.F.D.D.D.G.D.D.F.F.F.F.F.F.F.F.F.F.F.F.F.F.F.F.F.F.F.F.F.F.F.F.F.F.F.F.F.F.F.F.F.F.F.F.F.F.F.F.F.F.F.F.F.F.F.F.F.F.2XF.F.2XF.2X2X2X2X2X2X2XiXiXiXiXiXiXiXiXiX2XiXvXvXvXvXvXvXvXvXiXvXvXvXvXE.E.F.@X@XvXvXvXvXvXvXvXvXvXvXvXvXvXvXvXvXvXvXvXvXvXvXvXvXvXvXvXvXvXvXvXvXvXvXvXvXvXvXvXvXvXvXB.% 8 8 8 8 p m.nXV.% 8 8 8 8 8 8 8 8 8 8 8 8 8 8 8 8 8 i o Z.k.O * * 8 * % % % * % o 8 8 8 8 8 8 8 8 8 8 8 8 8 8 8 8 8 8 8 8 8 ",
": X . . . . . . . . . . . . . . . . . . . . . . . . . . . . . . .   . . . ,.} # # # # u ,.r..   . .   . . X X X F 2 ; ;   . . . . . . . . .     . $                   $             $           $   ; - 1 L ,.7 r %   - $   - $ $ = $ $ $ $ $ $ $ $ $ $ $ $ $ $ $ $ = $ $ $ $ $ $ $ - - = - - - e r u +.] q 8 = = = - = - = = - - i = = i = - i = = i = = = = = = = = = = = = = = = = d q q l ' bXb.$ 8 8 = l VXPXA.$ 8 8 8 8 > , > > , > 8 8 > , > > , > o V.z.$ 8 8 8 8 8 8 8 8 8 e 8 8 8 8 8 8 8 8 8 8 8 8 8 8 8 8 8 8 8 8 8 ",
"M < < X . . . . . . . . .     . -                   - $           = $   . r.>.t u u u t t ,Xo = $   = -   , , M ).H 5 1 - $ $ $ $ $ $ $ $ $ $ $ $ i $ $ $ $ $ $ $ $ $ i = $ $ - - $ i = $ - - = i $ 1 5 F |.0X;.<.r - i = - d = = s - = = = = = = = = = = = = = = = s = = = = = = = = i s = = e x <.:.4X*...l p i s = i i s d i i c i i s d i c d i c i i i i i i i i d d d d i d d d c l ..O.*.4XH.o 8 8 = l VXHXx.% 8 8 8 8 > , > > , > 8 8 > , > > , > o V.z.@ 8 8 8 8 8 - = e 8 - = 8 8 8 8 8 8 8 8 8 8 8 8 8 8 8 8 8 8 8 8 ",
"A A z X . . . . . . . . . . . . $   . . . . . .   . $   .       . -     . r.>.r u u r t u ,X@ - $   - $   > , M / F 5 1 $       $ $ $ $ $ $ $ $ $ = $ $ $ $ $ $ $ $ $ = - $ $ $ $ $ i - $ $ $ - i $ 1 5 F e.0Xy <.r $ i = $ i = - d - - = = = = = = = = = = = = = = d = = = = = = = = = s = = e y { :.4X*.] l q i s = i = s i = i s i = s i = s i i c i i i i i i i i i i i i i i i i c a ....*.4XH.o 8 8 = l bXVXl.% 8 8 8 8 > , > > , > 8 8 > , > > , > o V.z.@ 8 8 8 = r ,XgXgXgX,Xr & 8 8 8 8 8 8 * 8 8 8 8 8 8 8 8 8 8 8 8 ",
"A m m X . . . . . . . . . . . . $   . . . . . .   . $   .       . -     . r.>.t u u r t u ,X@ - $   - $   > , M / F 5 1 $       $ $ $ $ $ $ $ $ $ = $ $ $ $ $ $ $ $ $ = - $ $ $ $ $ i - $ $ $ - i $ 1 5 F e.0Xy <.r $ i = $ i = - d - - = = = = = = = = = = = = = = d = = = = = = = = = s = = e y { :.4X*.] l q i s = i = s i = i s i = s i = s i i c i i i i i i i i i i i i i i i i c a ....*.4XH.o 8 8 * k c 8 1.* 8 8 8 8 > , > > , > 8 8 > , > > , > o V.z.@ 8 8 = y gXgX,X>.,XgXhX} & 8 8 8 8 p s % * * * * 8 8 8 8 8 8 8 ",
"M : X . . . . . . . . . . . . . $   . . . . . .   . $   .       . -     . p.} t u u r t r ,X# - $   - $   > , M / F 5 1 $       $ $ $ $ $ $ $ $ $ = $ $ $ $ $ $ $ $ $ = - $ $ $ $ $ i - $ $ $ - i $ 1 5 F e.0Xy <.r $ i = $ i = - d - - = = = = = = = = = = = = = = d = = = = = = = = = s = = e y { :.4X*.] l q i s = i = s i = i s i = s i = s i i c i i i i i i i i i i i i i i i i c a ....*.4XH.o 8 8 % v c   h.* 8 8 8 8 > , > > , > 8 8 > , > > , > o V.z.@ 8 8 e gXgX% X - X $ eXgXr = 8 8 * k z.k.1.h.X.k m.v * 8 8 8 8 ",
"M : X . . . . . . . . . . . . . $   . . . . . .   . $   .       . - o   . ,X} t u u r t r ,X# - $   - $   > , M / F 5 1 $       $ $ $ $ $ $ $ $ $ = $ $ $ $ $ $ $ $ $ = - $ $ $ $ $ i - $ $ $ - i $ 1 5 F e.0Xy <.r $ i = $ i = - d - - = = = = = = = = = = = = = = d = = = = = = = = = s = = e y { :.4X*.] l q i s = i = s i = i s i = s i = s i i c i i i i i i i i i i i i i i i i c a ....*.4XH.o 8 8 * v c   h.* 8 8 8 8 > , > > , > 8 8 > , > > , > o V.z.@ e - r.hX% - n E b -   gX,X- 8 8 * k m.k.B.m.B.v.C.k * 8 8 8 8 ",
"M < X   . . . . . . . . . . . . $   . . . . . .   . $   .       . -   . . ,X} t u u r t r ,X# - $   - $   > , M / F 5 1 $       $ $ $ $ $ $ $ $ $ = $ $ $ $ $ $ $ $ $ = - $ $ $ $ $ i - $ $ $ - i $ 1 5 F e.0Xy <.r $ i = $ i = - d - - = = = = = = = = = = = = = = d = = = = = = = = = s = = e y { :.4X*.] l q i s = i = s i = i s i = s i = s i i c i i i i i i i i i i i i i i i i c a ....*.4XH.o 8 8 * v c   h.* 8 8 8 8 > , > > , > 8 8 > , > > , > o V.z.@ 8 & eXeXX c n b x.c.- 1XgX& 8 8 8 p b e f.z.p X.k s * 8 8 8 8 ",
"A , X   . . . . . . . . . . . . -   .             . - ;           - u ,.>.eXu t u u u y r ,X>.r $   - $   > , M / F 5 1 $   o   $ $ $ $ $ $ $ $ $ = $ $ $ $ $ $ $ $ $ i - $ $ $ $ $ i - $ - $ - i $ 1 5 F e.0Xy <.r % i = $ i = - d - - = = = = = = = = = = = = = = d = = = = = = = = = s = = e y { :.4X*.] l q i s = i 8 s d e i k i 1 s d 1 s i i c i i i i i i i i i i i i i i i i c s ....*.4XH.o 8 8 % v c   h.* 8 8 8 8 > , > > , > 8 8 > , > > , > o V.z.@ 8 & eXr.X c n n BXVXA >.1X8 8 8 8 8 % 8 8 8 * $ 8 8 8 8 8 8 8 ",
"N : X . . . . . . . . . . . . . + . . . . . . . . . + O . . . . . X 1Xr.r.} 0 t 0 0 0 t 0 } ,XeXu . - $   > , M / F 2 1 ;                         = $   $ $ $ $ $ $   = $ $ $ $ $ $ = $ $ $ $ $ i $ - 3 F e.0Xy <.r $ i = $ i = - d $ - - - - - - - - - - - - - = - d = - = = = = = = = d = = = r { :.4X*.l w q i s = 1 1 d > & & a q & a q & a q q m q q q q q q q q q q q q q q q q m w ] ] *.4XH.o 8 8 % v c   h.% 8 8 8 8 > , > > , > 8 8 > , > > , > o V.z.@ e - 1XgXX s n n n c X ,X,X& 8 * k m.s k.z.v.s c m.m.h.* 8 8 8 ",
"W.G W.W.W.W.W.W.W.W.W.W.W.W.W.W.W.W.W.W.W.W.W.W.W.W.W.W.W.W.W.W.W.W.^.W.W.W.W.!.W.W.G G J D 1 i.2.< r 7 - , M M / R 5 5 1 = = = = = = = = = = = = d = = = = = = = = = d i = = = i = s i = i i i s = d g I e.0X;.<.x i s d i s d i s i i i i i i i i i i i i i i d d c d d d d d d d d d c d d d x <.3.4X*. ...s 3 j k ' [ =.X.E ! ~ ~.~.~.~.(.~.(.(.~.(.(.(.(.(.~.~.~.~.~.~.~.~.~.~.~.~.~.~.~.|.4XH.o 8 8 % n c   h.% 8 8 8 8 > , > > , > 8 8 > , > > , > o V.z.@ e - >.hXt X d k s X r 1X>.& 8 % b x.j.j.Z.x.X.x.B.V.c.8 8 8 8 ",
"C C 6 6 6 6 6 6 6 6 6 6 6 F F 6 F F F F F F F F F F F F F F F F F F  XP P P P ~ W W W !.oXoX#X#X`.T.L.V < > , M / F 5 3 - - - - - - - - - - - = - d = = = = = = = = = d 1 = = = = = d 1 = = = = d = 3 5 F e.0X;.<.y = d i = d i = s = = i i i i i i i i i i i i i i s i i i i i i i i i c i i d x <.:.4X*...l l =.:X;X4X+XoX|.~.~ ~ ! ! e.4.E 4.4.4.4.4.4.4.4.4.4.4.4.4.4.4.4.4.4.4.4.4.4.4.4.M.4XH.o 8 8 % n c   k.% 8 8 8 8 > , > > , > 8 8 > , > > , > o V.z.@ 8 8 & eXjXt   $   r eX,X= 8 8 8 p k.n g.f.k.p 1.j.k.f.8 8 8 8 ",
"B N M : : : : : : : : : : : : : M : : : : : : : : : M : : : : : : M <Xw w w w z w w w z z l +.qXlX#X(.` L.K.< : / F 2 1 ;   ;       O O . . O O . % O O O O O O O O O % O O O O O O 8 o O o $ - i $ - 3 F e.0Xy <.r $ i = $ i = - d - - - - - - - - - - - - - - = = d = = = = = = = = = d = = = t { :.4X*.l *.:X-X&.~.(.P X.' [ [ O.[ [ O.[ [ %.[ [ %.[ [ [ [ [ [ ] ] ] ] ] ] ] ] ' ' %.[ *.*.-X:XH.o 8 8 % n c   k.% 8 8 8 8 > , > > , > 8 8 > , > > , > o V.z.@ 8 8 8 e eX{ & = = t ,Xe 8 8 8 8 8 * * * * * 8 * * * * 8 8 8 8 ",
"B M M : : : : : : : : : : : : : M : : : : : : : : : M : : : : : : M <Xs a a m z a a a z z a , o.1XkXlX^.W.I.P.A _ P L 1 $ O O o - 3 5 F F F H H H / H H H H H H H H H / / H H H H H Q F 5 5 - $ 9 o 1 5 F e.0Xy <.r % i = $ i = - d - - - = = = = = = = = = = = = = d = = = = = = = = = s = = e t { :.4X*.:X:X[ E ^.! [ [ %. .| | %.| | %. .| %. . .%.|  . . . . . . . . . . . . . . .&.O.=.=.-X4XH.o 8 8 % n c o k.% 8 8 8 8 > , > > , > 8 8 > , > > , > o V.z.@ 8 8 8 8 - + 8 r 8 + & 8 8 8 8 8 8 8 8 8 8 8 8 8 8 8 8 8 8 8 8 ",
"B M M : : : : : : : : : : : : : M : : : : : : : : : M : : : : : : M <Xa a a m z a a a z z a a z , u.gXjXXXQ.) I._ W L - ; F ~ `.`.).)./ / H H H H / H H H H H H H H H / / H H H / / `./ ).).).)./ 5 $ 1 F e.0Xy <.r % i = $ i = - d - - - = = = = = = = = = = = = = d = = = = = = = = = s = = e t { :.4X5X:X[ ! /.X.[ | | O. .' | %.| ' %. .' %. . .%.|  . . . . . . . . . . . . . . .%.O.=.=.-X4XH.o 8 8 % n v o k.% 8 8 8 8 q > q q > q 8 8 > , > > , a o V.z.@ 8 8 8 = t ,XgXgXhX,Xt & 8 8 8 8 8 * 8 8 8 8 8 8 8 8 8 8 8 8 8 ",
"B M M : : : : : : : : : : : : : M : : : : : : : : : M : : : : : : M <Xa a a m z a a a z z a a z m k u.rXkX.XQ.) I.T y H '.`.~ J y - - r - - - - - 3 - - - - - - - - - 3 1 - - - - 1 4 1 - 1 3 F / ).'.F 6 e.0Xy <.r % i = $ i = - d - - - = = = = = = = = = = = = = d = = = = = = = = = s = = e t y :.5X:X*.4.^...O...| ' O. .' | %.| ' O. .' %. . .%.|  . . . . . . . . . . . . . . .%.O.=.=.-X4XH.o 8 8 % b v o k.% 8 8 8 8 ^ ^ ^ ^ ^ ^ 8 8 3 j 5 5 j j o V.z.@ 8 8 & { hXgX,X} ,XeXjX>.& 8 8 8 * v s % 8 8 * * * 8 8 8 8 8 8 ",
"B M M : : : : : : : : : : : : : M : : : : : : : : : M : : : : : : A <Xq a a m z a w w z z a a z m a m <X2.kXq.Q.`.I.~.`.L u u K K 1 4 y 1 1 1 1 1 5 1 1 1 1 1 1 1 1 1 5 3 1 3 3 3 5 L 5 3 3 3 3 d - F '.).8.0Xy <.r % i = $ i = - d - - - - = = = = = = = = = = = = d = = = = = = = = = d = = 1 t K :X5X*.#./.o.] O.' | ' O. .' | %.| ' O. .' %. . .%.| |  . . . . . . . . . . . . . .%.O.=.=.-X4XH.o 8 8 % b n $ b.% 8 8 8 9 %X%X%X%X%X%Xi 8 3 j 5 5 j j o V.z.@ 8 8 r gXeX$ X - X X eXgXt = 8 * v k.z.b 1.m.h.h.c k.z.% 8 8 8 ",
"B A M M : : : : : : : : : : : : M : : : : : : : : : M : : : : : : m <Xq a a m z s P P G (.J w z m a m i.1XrXkX) Q.'.` K y y K J K 4 y y 1 1 1 1 1 5 1 1 1 1 1 1 4 1 1 5 3 1 1 1 3 4 P 5 3 3 3 3 g 3 3 5 '.$X,Xy <.r % i = $ i = - d - = = = = = = = = = = = = = = = d = = = = = = = = = d = = 8 4 #.:X:X-X/.4.[ | O.' | ' O. .' | %.| ' %. .' %. . .%.| | |  . . . . . . . . . . . . .%.O.=.=.-X4XH.o 8 8 % b n $ z.% 8 8 8 8 d 5 5 3 5 5 8 8 3 j 5 3 6 j o V.z.@ e - r.hX$ - b E b -   gX,X- 8 % b j.z.m.B.v.m.B.m.C.j.* 8 8 8 ",
"B M A : : : : : : : : : : : : : M : : : : : : : : : M : : : : : : m <Xq a a a z J W.J P L W.P E m a z m k 1XrXrX'.].` A K y K K K y y y 4 1 1 1 1 5 1 1 1 1 1 1 y 1 1 5 3 1 1 1 1 4 P 5 1 1 1 3 g 1 5 F F '.oX} <.r $ i = $ i - - i $ + X X + X X X X X + X X X X + > - - - - - - - = = s = = = k 5Xi.:X|.~ *.| | O.] ' ] O. .' ' %.| ' O. .' %. .| %.' | | | | | | | | | | | |  . . .%.O.=.=.-X4XH.o 8 8 % b n $ z.% 8 8 8 8 3 j 5 5 j 5 8 8 3 j 5 5 j j o V.z.@ 8 & eXeXX c n b c.B.< ,XgX& 8 8 8 b s k c c m.s v k k 8 8 8 8 ",
"B M M : : : : : : : : : : : : : M : : : : : : : : : M : : : z <X<X1X<Xa m m m z J P a j j P G (.L m z z m 4.<XzXyX/ ].` c K K K K K y y y 3 3 3 3 g 3 3 3 3 3 4 K K 4 5 5 3 3 3 3 f P 5 3 3 3 5 h 3 5 F ^ e.$X`.{ y = > < X i e r <.y y ;.;.;.;.;.;.;.;.;.;.;.;.;.;.3.;.;.;.;.y y r e = a - > 1 :X:X#..X~.*.%. . .%.|  .| %.O.|  .%. .| %.O.| %.O. .&. . . . . . . . . . . . . . . . .&.O.=.=.-X4XH.o 8 8 % b n $ z.% 8 8 8 8 3 j 5 f j f 8 8 3 j 5 %X%X%X$ V.z.@ 8 & eXr.X c n n bXVXA >.1X8 8 8 8 8 * 8 * 8 8 % 8 8 8 8 8 8 8 ",
"B N M M : : : : : M M M M M M M M M M M M M M M M M M M M M i.d.z X.z z z z z A ~ P h E E h z ~ Y z n n z Z _ +XjXN.( Q.~ y K J J K K K K g f 5 5 j f 5 5 g 5 L J K h j g 5 g g 5 L ! L 5 5 5 g L 5 L I ( |.qX'.e.8 > <.d.qXqX0X0XqX0X0X0X0X0X0X0X0X0X0X0X0X0X0X0X0XqX0X0X0X0X0X0X0XqXqXqXd.4.O.:X#.s./.=.=.=.%.%.&.O.O.O.&.%.O.O.&.%.O.&.%.O.&.%.%.&.%.%.%.%.%.%.%.%.%.%.%.%.%.%.%.%.&.%.=.=.:X4XH.o 8 8 % b n $ z.% 8 8 8 8 3 j 5 3 6 6 8 8 i 3 d j ^ ^ o V.z.@ e - 1XgXX d n n n s X ,X,X& 8 * k m.k k.v.c.s v m.m.k.* 8 8 8 ",
"B M M : : : : : : : : : : : : : M : : : : : : : : : M : : : u.2., z m a a a a z G P f h h g d ~ P w z z q ) '.C rXzXj.I Q.Q.J y K u u u y y y 4 u E y 1 1 y 4 J J K f 5 5 1 f 1 1 4 K 2 - - - 1 g 1 5 F F |. X! '.r.0X0Xa.;.<.y r x r r r e y r e e e e e e e e e e k e e e r r r r y y 3.a.0X8X4X+.^.4X-X=.O.' ' O.] ' ] O.| ] ' O.' ' O. .] O.| | %.' | | | | ' | | | | | | | | | | %. .=.=.-X:XH.o 8 8 % b n $ z.% 8 8 8 8 q q > a.p.a.e 9 %X%X%Xh t t o V.z.@ e - >.hX{ X d s s X t 1X>.& 8 % b x.j.j.V.v.X.x.B.V.c.8 8 8 8 ",
"B M M : : : : : : : : : : : : : M : : : : : : : : : M : : : u.2.> z m a a a m z G L f h h g d ~ P w z z a `.( A _ rXhX) A ` Q.W.W ~.`.`.`.`.`.`.`.`.`.'.`.`.`.~.`.~.`.'.'.'.`.'.'.`.`.).).)./ F L r 3 F F |..X:.dXdX} s r r x y t x t y y t ;.y y y y y y y y y y y x y y y y y y y y y x 1 O.:X1XoX~.:X-X=.O.' | O.' ' ' O. .' ' %.| ' %. .' %. .| %.| | | | | | | |  . . . . . . . .%.O.=.=.-X:XH.o 8 8 % b n $ z.% 8 8 8 8 M V N p.0Xp.e 8 C ^ ^ y y y o V.z.@ 8 8 & eXjX{   $   r eX,X= 8 8 8 p k.v f.X.j.p X.g.j.X.8 8 8 8 ",
"B M M : : : : : : : : : : : : : M : : : : : : : : : z o.x k 1X+.q z m a a a s z G L f h h g d ~ P w c w ( `.A A ` e.jXrX( OX`.(.Q.].^.(.~.~ W W W ~ ! P P ! W W W W J R F F P P F P ~ Q H / / ).'.`.F 5 F ~.wXtX X'.L y y u x y t x t y y y ;.y y y t y t t y t y t x y y y y y y y y y { y :X@.~ oXrX4X-X=.O.' | O.] ' ' O. .' ' %.| ' %. .' %. .| %.' | | | | | | | | | |  . . . . .%.O.=.=.-X:XH.o 8 8 % X.n $ z.% 8 8 8 7 V L.K.a.9Xp.e 8 q > > t y y o V.z.@ 8 8 8 8 1X{ & 7 8 t r.8 8 8 8 8 8 % * * * % 8 * * * * 8 8 8 8 ",
"B M M : : : : : : : : : : : : : M : : : u.1X,X,X,X,X1Xd.d.,Xu.a a z m a w P W.~.W.g f h h g d P (.h z z `.) A A ` _ qXzXdX/ ` K J J G !.!.Q.Q.Q.Q.Q.Q.Q.Q.Q.Q.Q.Q.Q.Q.Q.Q.Q.Q.Q.Q.Q.^.Q.Q.W.G P Q Q '.'.^ |.xXd.4.e.`.y y r x y t x y y y y ;.y y ;.y t t y t t y t x y y y y y y y y y L #.;X! /.i.<XkX-X*.O.' | O.] ' ] O. .' ' %.| ' O. .' %. .| %.' | | | | | | | | | | | |  . . .%.O.=.=.-X:XH.o 8 8 % X.b $ x.% 8 8 8 7 V K.B a.9Xp.e 8 > , , e r r o V.z.@ 8 8 8 8 + 0 8 3 i 0 & 8 8 8 8 8 8 8 8 8 8 8 8 8 8 8 8 8 8 8 8 ",
"B M M : : : : : : : : : : +.,X,X<X,X,X,X,Xa a a a a m , > , > a a z m a w J P j f g g h h g g L G (.z _ _ A A ) _ / @Xd.rXeX` ( J P P P L P P P J ! P P E P P P P P P ! E L P P P J ~ W G ~.!.(.Q.Q.W._.{.dXqX3.q.:.|.~ y r x y y <.y ;.y y :.y y ;.y t y y y y y t x y y y y y y y y y x ;Xe.^.2.i.i.1XrX*.O.' | O.] ' ] O. .' ' %.| ' O. .' %. .| %.' | | | | | | | | | | | | | |  .%.O.=.=.-X:XH.o 8 8 % X.b $ x.% 8 8 8 7 V K.B a.9Xp.e 8 q q > a.0Xp.@ V.z.@ 8 8 8 9 d ` %X%X%X` d 9 8 8 8 8 8 8 8 * * 8 8 8 8 8 8 8 8 8 8 ",
"B M A M : : : : : : : : : d.<.a v l l l q q a a a q z m a a a a a z m a w J P j g g f h h g g L s G Y `.j A A A `.'.e.<X^ eXhXn.F J J J J J J J J ! P P E P P P P P P ! E E P E E P ! P P E h 6 U W (.(.[.#XoXw.q.:.:.`.;.y <.y { 2.{ ;.K { :.K ;.:.y y y y y y y y x y y y y y y y t r &.+X^.+.#.i.i.:XrX<X[ | | O.] ' ] O. .' ' %.| ' O. .' %. .| %.' | | | | | | | | | | | | | | | %.O.=.=.-X:XH.o 8 8 % X.b $ x.% 8 8 8 7 V K.B a.9Xp.e 7 N V V tXlXhX# V.z.@ 8 8 9 6 %X%X` 6 ^ %X%X^ 9 8 8 8 8 8 8 v c % 8 * 8 8 8 8 8 8 8 ",
"V A A A a l a a a a l l a 1Xl q m a q q a a a a a a z m a a a a a z m a w G P j g g g h h g g L h G `.( j ) A ( '._ e.qXF I qXkX0XW F F J J J J J ! P P K J P P P P P ! P P P E E P ! ! P P E F Y P 6 .XyX~.[.^.^.^.W ~.0.t { { { 2.{ ;.y { ;.;.;.:.{ y { { y t y t x y y t t t t t K G /.~.O.O.#.i.i.4X:XrX#.] | O.] ' ] O. .' ' %.| ' O. .' %. .| %.' | | | | | | | | | | | | | | | %.O.=.=.-X:XH.o 8 8 % X.b $ x.% 8 8 8 7 V K.B a.9Xp.e 7 L.U.U.eXlXtX# V.z.@ 8 8 i %X%Xo O = @ O ` %X3 9 8 8 8 8 8 z.k.c.g.f.p 8 8 8 8 8 8 ",
"B M M 3.1Xr.,X,X,X,X,X,X,Xr.q q z a q a a a a a a q z m a a a a a z m a w G P j g g f h h g g L s G /.j j ) ( `.`._ ~ eX.XI I ~ rXhXeX0X7.5.J J J P P P P L F P P P P P P P P L L P (.P P P L 6 I P ! yX_ |.yX|.w.!.^.^.[.!.!.W W 8.K K K :.W :.K W :.K ;.;.K K K K E K K J J W !.!.Q.|.4X| +.+.#.i.i.4X:X>XrX] | O.] ' ] O.| ] ' O.' ] O. .] O.| | %.' | ' ' ' ' ' | | | | | | | | | %. .=.=.-X:XH.o 8 8 % X.b $ v.% 8 8 8 7 V L.B a.9Xp.e 7 L.U.P.eXlXtX# V.z.@ e 0 ` %Xo = b ) ) i O %X` 0 8 8 8 8 8 z.z.m.v V.8 8 8 8 8 8 8 ",
"V M M <Xo., m m m m m m m m z z n z z z z z z z z z n z z z z z z n z z z ~ P E L L L E E L L E c ~.(.(.A ) `._ `._ _ Q rXrXXXQ.` )  XeXtXhXhXhXtXtXeXeXeXeXeXeXeXeXeXeXeXeXeXeXeXeXdXtXeXeXeXeXeXeXhXhXtXhXhXhXhXhXhXhXhXdXdXXX#X#X/.^.^.^.^.^.^.^.^.^.^.^.^.^.^.^.^.^.^.!.!.~.~.! K ;X4X#.#.#.i.i.>X4X:X=.1X>X%.&.O.%.O.&.%.O.%.&.%.%.&.%.O.&.%.%.&.%.%.%.%.%.%.%.%.%.%.%.%.%.%.%.%.&.%.=.=.:X:XH.o 8 8 % X.b $ v.% 8 8 8 7 V L.B a.9Xp.e 7 L.U.P.eXlXtX# V.z.@ 8 9 %X` O j n c ) ) o ` %X9 8 8 8 8 * v c * b g.% 8 8 8 8 8 8 ",
"<X<X<X,Xa a a a a a a a a a a a z a a a a a a a a a z m a a a a a z m a w G L j g g g h h g g h I `.j (.P (.(.(.(._ Q R ! d.!.wX/.` F F P J ! 5.5.w.7.7.7.w.a.a.a.a.a.d.d.a.d.d.d.}.oX Xd.q.s.s.q. XwXw.|..XwXw.oX|.7.q.q.+Xt.>.>.3.>.;.;.;.:.;.:.K ;.;.;.;.y y ;.;.2.{ { { t { { u #.:X2.+.+.+.#.i.i.4X:X=.#.rX .O.' | ' O. .| w >X>Xw O. .' %. .| %.| | | | | | | | | | | | |  . . .%.O.=.=.-X:XH.o 8 8 % X.b $ v.% 8 8 8 7 V L.B a.9Xp.e 7 L.U.P.eXlXtX# V.z.@ 8 9 %X` o s j.v.c ) @ ^ %X8 8 8 8 8 8 o % k e 8 p p 8 8 8 8 8 ",
"Z A m q q q q q q q q q q q q q z a q a a a a a a q z m a a a a a z m h s W.L h g g f h h g g h `.Q L P (./.( ( (._ Q Q I H (.4.XX`.( J P J J P J P P P P P P P P P P P P P P P L W.(.W.L P L L I  X0.~ Q .XXX9.|.`.K ! K |.|.{ ;.2.{ K ;.;.K ;.;.K ;.;.;.;.{ { ;.;.:.;.;.;.y { ;.y :X#.i.+.+.+.#.i.i.4X:X=.O.<X>X] ' ' ' O.| ' w <XrXw O. .] O.| | %.' | | | | | | | | | | | | | | | %.O.=.=.-X:XH.o 8 8 % X.b $ v.% 8 8 8 7 V L.B a.9Xp.e 7 L.U.P.eXlXtX# V.z.@ e 0 ` %XO 3 VXF.k j O %X%X0 8 8 8 8 b f.h.v.8 x.m.B.s * 8 8 8 ",
"Z Z , q q q q q q q q q q q q q z a a a a a a a a a z m a a a a a z G G G G g h g g g h h g f U `.L U h `._ ( ( (.~ Q Q U ~.~ I ~ (.n.hX! J J J J ! P P P P P P P P P ! P P P P P !.~ !.P P P P .X X! ~ ~ .X Xw.w.|.~.:.:.:.+X;.;.2.;.;.;.;.K ;.;.K ;.;.;.;.;.{ ;.;.:.;.;.;.;.;.;.#.:X+.i.#.#.+.#.i.i.4X:X=.#.#.rXO.w #.<X]  .| w <XkXw O. .' O.| | %.' ' | | | | | | | | | | | | | | %. .=.=.-X:XH.o 8 8 % X.b $ v.% 8 8 8 7 V L.B a.9Xp.e 7 L.U.P.eXlXtX# V.z.@ e 0 ^ %X6 8 vXd d o 6 %X^ 0 8 8 e X.B.v.C.b X.B.B.V.c * 8 8 8 ",
"Z Z m q q q q q q q q q q q q q z a a a a a a a a a z m a a a a a c G a a a g h g g g h h g d `.Q L E Q `.T ( ( (.Q.Q Q U (.~ U ~ Q.d.hX5.P J J J ! P P P P P P P P P ! P P P P P !.~ !.P P P P wX8.! ~ e..X Xw.w.9./.8.! K |.e.{ :.;.;.;.;.K :.;.:.;.;.;.;.;.;.;.;.:.;.;.;.;.;.;.4X>X#.i.#.#.#.i.i.i.4X4X#.#.O.<X<Xw #.rX#. .' w <XzXi.'  .' O.| | %.' ' ' ' | | | | | | | | | | | | %. .=.=.-X:XH.o 8 8 % X.b $ c.% 8 8 8 7 V L.B a.0Xp.e 7 L.U.P.eXlXtX# V.z.@ 8 8 9 ` %X6 O $ o 3 %X` 9 8 8 8 8 8 b k n s p j.X.j.p 8 8 8 8 ",
"Z Z , q q q q q q q q q q q q q z a a a a a a a a a z w w w w w w z W.f g g g h g g g h h f L `.L L E `.Q T ( ( _ (.~.T Q Q.Q I 4.XXXXuX7.P J J J ! P P P P P P P P P ! P P P P P !.0.(.P P P .X X! ! ~ e.|. Xw.w.8.~.|.:.K q.+XK ;.{ K K K K K K K K K K K { { { y :.K K { { y +.:X2.i.i.#.#.#.i.i.i.4X4X#.#.#.i.rX] >XzXkXw i.i.>XzX1X]  .] O.| | %.' ' ' ' ' ' | | | | | | | | | | %. .=.=.-X:XH.o 8 8 % X.b $ c.% 8 8 8 7 V L.B a.0Xp.e 7 L.U.P.eXlXtX# V.z.@ 8 8 8 8 ` 6 & - & 3 ` 8 8 8 8 8 8 8 * * * 8 8 % * % 8 8 8 8 8 ",
"Z A A m q q q q q q q q q q q q z a q a q w w w w w h L L L P G J G W.f g f g h g g g h h d ~ _ L L Q `.L ( ( ( _ (.~.( (.~ U R U ~.H N.0XP J J J ! P P P P P J ! P P ! P P P P P /.eX(.W P P wX9.! ! ~ e.|. Xw.w.9.! `.! K :.|.0.t.7.7.7.7.7.7.a.a.a.a.a.a.a.a.a.a.d.a.a.a.a.7.4X>Xi.i.i.+.+.i.i.i.i.4X4X#.i.i.#.rX>XrXkXzX<X>XjX1XzXkXi.' #.%.' ] %.] | ' ' ' ' ' ' | | | | | | | | %. .=.=.-X:XH.o 8 8 % X.f.$ c.% 8 8 8 7 V L.B a.9Xp.e 7 L.U.P.eXlXtX# V.z.@ 8 8 8 8 + 7 } r.} 7 + 8 8 8 8 8 8 8 8 8 8 8 8 8 8 8 8 8 8 8 8 ",
"A A j.z q q q q q q q q q a a a z a a q g G J J J G (.G G G G P P P L f g g g h g g g h h L `.E L L `.Q I ( ( ( _ (.(.(.(.U U U U Q Q.Q rXW P J J ! P J P P P Q.#X^.P ! P P P P P oXkXW.W L }. X! ! ! ~ e.|. Xw.w.! ! |.XX XwXwXyX0X0X X X X X X X X X X X X0X0X0X X0X0X0X0X0XrX4XrXrXrXrX<X>Xi.#.i.>X4X4X>Xi.#.i.jXzXzXrXzXjXrXzXrXkXjX<X>XjXi.#.<Xi.#.] | | ' ' | ' ' ' | | | | | | %.O.=.=.-X:XH.o 8 8 % X.f.$ c.% 8 8 8 7 V L.B a.9Xp.e 7 L.U.P.eXlXtX# V.z.@ 8 8 8 & r.6XgX6XgX6Xr.= 8 8 8 8 8 8 8 * * * 8 * 8 8 8 8 8 8 8 ",
"A A A m q q q q q q q q a q w w m w w w G G J J J J L d d d d d d h g f f f f h f g f h d Q Q E L Q `.I I ( ( ( `._ ~ Q R U U U U U ~ (.qX5.J J J ! J J J P W.oX X#XW P P J P P J XXeX~.G J wX8.8.! ! ! ~ |. X9.w. XwXwXXX|.9.5.|.w.;.:.:.:.,X:.:.:.:.:.:.:.:.;.;.:.:.:.:.:.;.4X4Xu.i.i.>X<XrXrX<Xi.>X>X4Xi.#.>XkXjXzXjX1XkXi.kXjXjXrXkX<X1XjXrXkXzXzX<Xw | '  .| ] ' ' ' ' ' ' ' ' ' O. .=.=.-X:XH.o 8 8 % X.f.$ c.% 8 8 8 7 V L.B a.9Xp.e 7 L.U.P.eXlXtX# V.z.@ 8 8 & r.jXr.r $ r r.jX,X- 8 8 8 8 * s X.X.x 8 v d 8 8 8 8 8 8 ",
"S A A m w w w w w w w m w L G G G G G G W.h h h h h h L g h h h h L h h h h h E h h h L E `.E U E `.Q T Y ( ( ( `._ _ Q T T T T T T T (.XXN.P P P P P P P ! (.0Xs.!.XX! ! P !.! ~ oXrX|.G .X X! 0.8.8.0.~ |..X|.wXwXw.9.|.|.q.9.w.oX:.7.7.7.tXa.7.7.7.7.7.7.7.7.q.7.q.7.7.7.3.4Xi.i.i.i.i.i.i.>XrXrX<X4X4X<X1XrXrXrXkXkX#.>XO.i.<XrXrX<X1XrXrXjXkX<XzXrX' O.w <Xi.'  .O.O.O.O.O.O.O.O.&.%.=.=.-X:XH.o 8 8 % X.f.$ c.% 8 8 8 7 V L.B a.9Xp.e 7 L.U.P.eXlXtX# V.z.@ 8 & { 6Xr.X > s d X >.6X} & 8 8 8 * k Z.Z.x.C.S.k * 8 8 8 8 8 ",
"A A Z g G G G G G G G G G W.J J P J J J L g g g g g L h g h h h g h h h h h h L h h h h _ Q L E Q `.U T U ( ( ( `._ Q Q T T T T T T T Q ^.XXoX^.qXd.eX6.8.wXoXeXP P ^.! ! P ^.0.~ oXqX}.Q.wX8.! 8.! ! ~ ~ |.XXwX X0.9.w.w.oX|.9.7.oX8.0X0X:.#Xa.:.5.7.7.7.7.7.7.7.7.q.7.7.5.>X>Xu.i.i.i.>Xi.i.i.i.1XkX4X<XkXzX1X#.i.rXkXi.#.#.#.+.#.i.i.zX1X>XzX<Xi.zXrXO.O.>XrXi.] #. . . . . . . . .%.O.=.=.-X:XH.o 8 8 % X.f.$ m.% 8 8 8 7 V L.B a.9Xp.e 7 L.U.P.eXlXtX# V.z.@ 8 - ,X6XX d E E n i . 6X1X- 8 8 8 8 8 x.z.g.x.k.k 8 8 8 8 8 8 ",
"Z A , G G L F F F F F F F 4 d f h d d d f f f f f f h g f f f f f h g f f f g h f g f h `.L L E `.R U U I ( ( ( `._ Q Q R U U U U U U U I (.(.^. Xw. XQ.0X}.wX5.J P !.! P J [.w.W XXd..X].}.! ! w.eX! ! ~ |.dX X|.0. X.X8.|.oX5.5.|.~.eX0X:.#Xa.a.,X:.:.:.:.:.:.:.:.q.:.:.:.4Xu.u.i.i.i.i.i.i.i.>X>X<XkXkXzXkX1X2.i.rX1X<X#.#.+.#.q.4.#.zX<X>XkX#.#.i.1XO.| jXzX#.w rX .] ' ' ' ' ' ' O. .O.=.-X:XH.o 8 8 % 1.f.$ m.% 8 8 8 7 V K.B a.9Xp.e 7 L.U.P.eXlXtX# V.z.@ 8 & 1X,XX c n n vXMXj r.6X= 8 8 8 % 8 % * % 8 8 8 % * 8 8 8 8 ",
"Z Z , G L i f f f f f f f f f 4 h f f f f f f f f f h g f f f f f h g f g g g h f g d Q ~ g L Q `.L T Y I ( ( ( `._ Q Q Y U U U U U U R U (.(.G Q.Q.G [.eXW. XJ P P !.~ P !./.}.G }.d.0X^.!.! ! |.tX8.~ |.dXwXhX|.! eXqX! 9.oX9.5.q.yXyX0Xp.#X}.0XwX:.:.:.:.:.:.:.:.q.:.5.i.>X3.u.u.u.i.i.i.i.i.i.>Xd.tXzXjX<Xi.3.i.rX>X1Xi.+.+.#.0.0.#.zX<X#.>X+.#.O.1XrX<XjXkX1X| kXO.] | ' ' ' ' ' %. .=.=.-X:XH.o 8 8 % 1.f.$ m.% 8 8 8 7 V L.B p.0Xp.e 7 L.U.P.tXlXtX# V.z.@ 8 & 1X,XX c c n G.vXm >.,X= 8 8 8 X.8 v k b 8 * v b k 8 8 8 8 ",
"H G G W.4 4 4 4 4 4 4 4 f f f 4 h f f f f f f f f f h g f f f f f h g f g f g h f g f `.I L L `.Q I T Y I ( ( ( `._ Q Q Y U U U U U U U U P _ ( !.(.(.!.}.W.P P P P W ^.^.XX}.wXXXG 8.tX X!.! 8.^.#X0.~ wXXXyXjX X XoXXXw.9.|.oX7.9.jXdXXXjX[. X0X#X0X:.7.a.:.:.:.:.q.:.:.>Xi.t.y.y.y.u.i.i.u.i.i.d.1X#XlXjXi.3.|.2.rXi.>X<XO.+.#.|.~.#.kX#.+.#.#.#.#.i.1XjXrX>XzX#.kXO.] ' ' ' ' ' ' %. .=.=.-X:XH.o 8 8 % 1.f.$ m.% 8 8 8 8 N K.B a.9Xa.8 7 L.P.P.0XtXtX# V.z.@ e - ,X6XX = n n k - . ,Xr.- 8 * v c.n h.C.c.v g.C.C.v.* 8 8 8 ",
"^ 6 L 4 4 4 4 4 4 4 4 4 f f f 4 h f f f f f f f f f h g f f f f f h g f g f g h g d Q `.L L Q `.I I Y Y I ( ( ( `._ Q Q Y U U U U U U U U U U ` P ! P J Q.Q.P P P P P 0XtXgX}.wXdXG P tX}.XXhXP oX[.Q. XXX|.tXhXyXzX[.wXeX! ! yXeXqXzXdXXXjX^.wXXX[.0X:.7.hX7.:.:.:.q.a.u.>X3.u.y.y.y.u.s.i.u.i.i.s.kX#XqXkXy.3.].|.|.!.3.rX#.+.#.|.].3.1X+.+.#.#.#.#.+. .1X#.i.zXi.jX>Xw | ' ' ' ' ' O. .=.=.-X:XH.o 8 8 % f.f.$ m.% 8 8 8 8 M B N ,.p.a.8 7 V P.L.0XtX0X# V.z.@ 8 = t 6X,X  - 3 = $ >.,Xt = 8 * v m.j.k.B.c.n z.m.C.v.8 8 8 8 ",
"C j j f 4 4 4 4 4 4 4 4 4 f f 4 h f f f f f f f f f h g f f f f f h g f g f g h g f `.Y L L `.Q I I Y Y I ( ( ( `._ Q Q Y U U U U U U U U U I ( ( J P P G Q.P P P P J ! 8.hX}.XXoXF w.tXtXXXhXW oXXX^.wX|.|.tXwXwX[.[.#XzXqXqXeXzXzXzX#X#XzXQ.dX#X^.tX,XeXhXeX:.:.:.q.hXrX>X3.s.rXt.y.y.y.i.u.u.d.d.kX#X XqX|.q.[.!.^.].~ <X<X+.4.~.].8.#.#.+.#.#.+.#.+.#.+.+.i.kX>XrX1Xw | ' ' ' ' ' O. .=.=.-X:XH.o 8 8 % f.f.$ B.% 8 8 8 8 M B N ,.p.a.8 7 V P.L.0XtX0X# V.z.@ 8 8 - r.jX} X % $ t 6X} = 8 8 8 8 c p k p k 8 s k k s 8 8 8 8 ",
"A ) j.j 4 f 4 4 4 4 4 4 4 f f 4 h f f f f f f f f f h g f f f f f h g f f f g L f I `.L L Q `.U R I Y Y I ( ( ( `._ Q Q Y U U U U U U U U U U T ` ! P J J J J P P P J ! F eX}.^.!.L  Xw.jX(.0X6.oXeX#X|.0.|.dX].#X].^.].#XhXjXjXjXeXjX#XXXxXW.dXXXW dXeXzXjXhX7.p.7.q.jXjXhX2.rXjX3.y.d.rX3.<X3.rXjXjX#X/./.#X.X~./.~.].~.|.yX~.~.~.]./.#.4.8.#.#.+.#.+.+.#.#.+.>XrX<XrXi.] | ' ' ' ' O. .=.=.-X:XH.o 8 8 % f.f.$ B.% 8 8 8 8 M B N ,.p.a.8 7 V P.L.0XtX0X# V.z.@ 8 8 8 & } 0 9 9 9 0 { = 8 8 8 8 8 * 8 * 8 * 8 * * * * 8 8 8 8 ",
"A ) ) h 4 4 4 4 4 4 4 4 4 4 f 4 h f 4 f f f f f f f h g f f f f f h g f f f g L d `.R L L `.Q U I I Y U I ( ( ( `._ Q Q R U U U U U U U U U U I ` ( J P J J J J P P J ! P 5.W Q.G 5.XX! 0X(.0X}.oXeXlXQ.|.yXdX^.[.!.0.^.^.tXzXjXyX|.eXoXoXdXG #X}.W dXhXjXhXhX0XzXa.q.zXzXjX3.rXkX2.rXrXkX<XkXd.qXkXzX#X]././.[.8.^.8.3./.].XX[.!.~.].^.4.].!.#.+.+.#.+.+.+.+.+.+.kX>XrX1Xw | ' ' ' ' O.| O.=.-X:XH.o 8 8 % f.f.$ B.% 8 8 8 8 M B N ,.p.a.8 7 V P.L.0XtX0X# V.z.@ 8 8 8 8 & F / )./ F & 8 8 8 8 8 8 8 8 8 8 8 8 8 8 8 8 8 8 8 8 ",
"C 6 j f f f f f f f f f f f f f h f f f f f f f f f h g f g g g g h h g g g h h I `.L E Q `.I T U I T Y U ( ( ( `._ Q Q Y Y Y Y Y Y Y Y Y Y Y Y ( ` J P P P P P P P P ! P P P ].G  X|.! ! !.}.wX}.eXwX[.oXhX#X}.].|.0.^.!.wXzXeX0.oXeXoX^./.W ^.!.5.oXjXeXeXjXeXzXhXkXjXjXjXrXrXrX<XrXhXkXkXjXjXrXrXhX/.]./.^.[.d.^.q.2.^./.|.[.^.~.[./.8.[.].e.#.#.2.#.#.#.#.#. .rX<Xi.1X]  .| | | | %.O.=.=.-X:XH.o 8 8 % f.g.$ B.% 8 8 8 8 M B N ,.p.a.8 7 V P.L.0XtX0X# V.z.@ 8 8 8 e ).'.'./ '.'.).i 8 8 8 8 p * % * * 8 8 8 8 * % 8 8 8 8 ",
"A j j h g g g g h h h h g h h h L h h h h h h h h h E L h h h h h E h h h h L c `.Q L E `.Q U T T T T T T ( ( ( `._ _ Q T T T T T T T T T T T T T ` ( ! ! ! ! ! ! ! ! ! ! ! ! ~ 0.wX! 8.8.!.~.XXXX X8.wXXXyX/..X[.|.w.^.!.}.eX.X9.|.dXoX!./.|.^.!.7.^./.q.7.eXeXhXhXXXhXkXjXjXrXrXjXkXzXrXzXzXjXrXrXhX/.[./.w./.qX/.q.u.0.q./.[.]././.~.0./.].|.#.2.~.#.#.#.#.3.2.i.i.i.1X .O.O.O.O.O.&.%.=.=.-X:XH.o 8 8 % f.g.$ B.% 8 8 8 8 M B N ,.p.a.8 7 V P.L.0XtX0X# V.z.@ 8 8 9 ).{.5 O o O 3 {.'.8 8 * v m.1.X.k s x.z.z.X.v b.k * 8 8 ",
"C 6 5 4 4 4 4 4 4 4 4 4 4 4 4 4 g f 4 4 f f f f f 4 h g f f f f f h g f f f f E `.L L R `.I I Y I I Y U I ( ( ( `._ Q Q R I U U U U U U U U U U I ( ` J J J J J J J J ! P J J L  Xw.! W ! !.!.}.wX6.9.XXwXXX/..X^.0.9.!.!.!.8.9.9.w.oX!.!.^.|.^.!.:.^.^.:.!.eXeX7.a.(.wX#XyXzXrXrXjXjXkX<XjXzXkXhX<XqX/./.|.i.~.<X X2.3.2.u.~.~.].^.~./././.! /.8.0.^.+.+.+.#.~.4.O.+.#.1X] ' ] ] ] ] O.' O.=.-X:XH.o 8 8 % f.g.$ B.% 8 8 8 8 M B N ,.p.a.8 7 V P.L.0XtX0X# V.z.@ e 9 F '.3 o j b n $ 1 '.^ 9 % X.f.V.k.x.m.h.V.Z.c.S.Z.s 8 8 8 ",
"A 6 5 4 4 4 4 4 4 4 4 4 4 4 f f h f f f f f f f f f h g f f f f f h g f f g d `.Q L g `.Q I I T I I T Y I ( ( ( `._ Q Q R U U U U U U U U U U U U T ` U J P J J J P J ! P P P W wX! 8.! ! W !./. X8.9. XdXoXoX.X/.w.9.w.!.^.w.9.|.w.|.!.!.!.|./.!.:.^.^.7.Q.tXeXK i.|.#X#X XjXqX<XrXkXkXy.rXjXd.hXd././.|.s.y.u.y.qX3.3.3.3.3.3.oX!.~ /.[.!.8.~./.!.^.!.0.#.#.!.8.#.+.#.1X] ' ' ' ' ' O.| O.=.-X:XH.o 8 8 % f.g.- B.% 8 8 8 8 M B N ,.p.a.8 7 V P.L.0XtX0X# V.z.@ 8 9 ).'.O j b b f.b O ).'.9 * k z.X.p z.g.p X.X.v f.X.k * 8 8 ",
"A 6 5 4 4 4 4 4 4 4 4 4 4 4 f 4 h f f f f f f f f f h g f f f f f h g f f f g `.L L I `.U I I T I I Y Y I ( ( ( `._ Q Q R U U U U U U U U U U U U T ( ( J P J J J P J ! P J P  X}.J 8.! ! W ^.^.w.6.9.|.wXoXoX.X|.w.9.w.0.^.0.9.^.^.0./.^.^.q.[.!.:.^.^.5.Q. X0X:.>X!.oX^.9.u.s.y.y.qXrX3.qXkX3.rXd.^.oX|.i.y.y.3.qX<X2.3.y.3.2.d.d.+.!.].~.8.0.].].^.^.!.#.+.^.8.#.+.#.1X' ' ' ' ' ' O.| O.=.-X:XH.o 8 8 % f.j.- B.% 8 8 8 8 M B N ,.p.a.8 7 V P.L.0XtX0X# V.z.@ 8 9 './ o c n b n E @ F '.8 8 8 * % * c % % % % % * * 8 8 8 8 ",
"A 6 5 4 4 4 4 4 4 4 4 4 4 4 f 4 h f f f f f f f f f h g f f f f f h g f g d Q _ g g ~._ I I I T I I Y Y I ( ( ( `._ Q Q R U U U U U U U U U U U U T U ` P J J J J J J ! P P ! wXW W 8.! W ! Q.^.9.6.9.~.oXoXXX}.|.w.9.0.9.!.|.9.^.!.!././.^.:./.!.,.^.!.^.].6.:.u.oX!./.^.9.3.3.t.t.3.s.3.qXeX3.d.|.oX<Xd.i.i.y.y.s.qX3.3.y.3.2.s.qX+.8.!.4.<.4.^.~.~.].!.[ 8.!.~ +.~.#.1X| ] ' ' ' ' O.| O.=.-X:XH.o 8 8 % f.j.- B.% 8 8 8 8 M B N ,.p.a.8 7 V P.L.0XtX0X# V.z.@ 8 9 ).).O j s S.bXd o ).'.9 8 8 8 i g.v j.k.x n f.p 8 8 8 8 8 ",
"C j j f 4 4 4 4 4 4 4 4 4 4 4 4 h f f f f f f f f f h g f f f f f h g f f f `.U L L `.Y U I I T I I Y Y I ( ( ( `._ Q Q R U U U U U U U U U U U U T I ( ( J P J J J J ! P P }. XJ W 8.! W 5.[.!.w.6.9.|.^.oX X}.|.w.9.0.9.!.^.!.!.!.].~./.!.:.0.|.,.^.W ].].6.:.d.].|././.!.t.t.t.t.t.t.3.<XrX3.|.].d.<X>Xi.i.y.y.y.<Xd.2.y.3.3.2.qX3.+.2.2.<.+.!.8.|.[.~.+.~.2.^.~ ^.8.1X .] ' ' ' ' O.| O.=.-X:XH.o 8 8 % g.j.- C.% 8 8 8 8 M B N ,.p.a.8 7 V P.L.0XtX0X# V.z.@ e 0 ^ '.$ $ j b VXc o './ 0 8 8 8 8 x.k.B.B.1.j.vXk.* 8 8 8 8 ",
"A ) ) h 4 4 4 4 4 4 4 4 4 4 4 4 h f f f f f f f f f h g f f f f f h g f d Q ~ L g Q ~ I R I I T I I Y U I ( ( ( `._ Q Q R U U U U U U U U U U U U T U U ` P J J J J J ! P J wXW W W 8.! J  XXXW w.6.9.0.Q.oX X}.|.w.9.0.9.9.^.].0./.].6.oX0.5.5.oX5.!.5.!.^.W i.d.^.|./.|.].w.u.t.t.t.y.y.<XXXt.|.].d.<X>Xi.i.y.y.y.s.qX2.y.3.3.2.<Xd.+.2.2.<.2.~ 8.2.8.!.4.~.+.8.~.[.].yX[ ] ' ' ' ' O.| O.=.-X:XH.o 8 8 % g.j.- C.% 8 8 8 8 M B N ,.p.a.8 7 V P.L.0XtX0X# V.z.@ 8 8 8 '.'.- o $ q i '.'.e 8 8 8 8 * b g.z.x.n p z.k.8 8 8 8 8 ",
"A ) ) j 4 f 4 4 4 4 4 4 4 4 4 4 h f f f f f f f f f h g f f f f f h g f f `.I E L `.R U U I I T I I Y U I ( ( ( `._ Q Q R U U U U U U U U U U U U T Y I ( ( J P J J J ! P }. XJ W W 8.! W wX6.9.0.6.9.0.^.oX X}.|.w.9.0.9.9.|.^.0.|.|.9.|.|.5.5.|.|.,.:.:.6.].d.|.!.|.!.|.|.!.w.u.t.t.u.u.<X[.3.|.[.d.<X>Xi.i.y.y.s.3.qXd.3.3.3.3.y.qX<.2.2.<.2.2.2.2.+.^.!.! +.4.^.[.].wX[ ] ' ] ] ] O.' O.=.-X:XH.o 8 8 % g.j.- C.% 8 8 8 8 M B N ,.p.a.8 7 V P.L.0XtX0X# V.z.@ 8 8 9 5 '.L 9 = % 5 '.5 9 8 8 8 8 8 8 8 8 8 8 8 * 8 8 8 8 8 8 ",
"C j j f 4 4 4 4 4 4 4 4 4 4 4 4 h f 4 4 4 f f f f 4 g f f f f f f h g d R ~.g L Q `.L Y U I I Y I I Y U I ( ( ( `._ Q Q R I I I U U U U U U U U U T U U U ` J J J J J ! P  X5.W W W 8.!  X XW 6.9.6.9.0.|..XXX}.|.w.9.0.9.6.w.9.9.w.9.9.6.oX9.5.5.oX5.:.:.5.|.oX^.q.y.!.0.u.^.[.!.3.q.w.q.s.[.w./.^.d.<X>Xi.i.u.y.s.3.d.qX2.3.3.3.2.<Xs.<.2.<.2.<.<.2.<.8.^.4.<.<.!.[.^.wXO.] ] ] ] ] O.' O.=.-X:XH.o 8 8 % g.j.- C.% 8 8 8 8 M B N ,.p.a.8 7 V P.L.0XtX0X# V.z.@ 8 8 8 9 e 8 8 8 8 8 e 9 8 8 8 8 8 8 8 8 8 8 8 8 8 8 8 8 8 8 8 ",
"A j j g g g g g g g g g g g g g L h h h h h h h h h L h h h h h h E L h `.T E E `.Q U T T Y Y T T Y T T T ( ( ( `._ _ Q T T T T T T T T T T T T T ( T T T ` ( ! ! ! ! P w. X! 8.8.! 8.8.wXw.9.w.w.9.w.|.|..XXX|..Xw.w.w.w.0.w.w.w.w.w.w.9.|.|.q.q.|.|.:.7.5.>Xi.^.s.i.q.s.y.^.].].w.^.^.|.y.^.^.[.|.d.<X>Xi.i.s.s.s.s.y.qXd.3.y.y.y.d.qX2.2.2.4.2.2.4.2.2.4.2.4.2.8./.~ wX#. .O.O.O.O.&.%.=.=.-X:XH.o 8 8 % g.j.- C.% 8 8 8 8 M B N ,.p.a.8 7 V P.L.0XtX0X# V.z.@ 8 8 8 8 8 8 8 8 8 8 8 8 8 8 8 8 8 8 8 8 8 8 8 8 8 8 8 8 8 8 8 ",
"A j 5 4 4 f f f f f f f f f f 4 h f f f f f f f f f h g f f f f f h f I `.g L Q `.L I Y U I I T U I Y Y I ( ( ( `._ Q Q Y U U U U U U U U U U Y U T Y U U T ` J P P J P XX6.! W W W ! }. X8.6.9.0.6.9.0.|..XXX}.|.w.9.0.9.9.w.9.9.w.9.9.9.9.oX9.5.5.oX:.:.:.4Xt.q.t.s.u.t.u.!.!.^.^.].]./.t.^.^.^.d.d.<X>Xi.i.y.y.s.y.t.d.qX2.3.3.y.2.qX3.<.<.2.2.2.2.<.<.<.<.<.2.<.4.! XX#.] ' ' ' ' O.| O.=.-X:XH.o 8 8 % g.h.- C.% 8 8 8 8 M B N ,.p.a.8 7 V P.L.0XtX0X# V.z.% 8 8 8 8 8 8 8 8 8 8 8 8 8 8 8 8 8 8 8 8 8 8 8 8 8 8 8 8 8 8 e ",
"A 6 5 4 4 4 4 4 4 4 4 4 4 4 4 4 g f 4 f f f f f f f h f f f f f f h d ~.Q L L `.Q I I Y U I I Y I I Y U I ( ( ( `._ Q Q R I U U U U U U U U U U U T U U U I ` T J P J 9. XJ W W W W ! wX9.6.6.9.9.6.9.0.|..XXX}.|.w.9.0.9.9.0.9.9.w.9.9.9.5.|.|.5.5.|.|.:.i.i.3.u.t.y.t.t.t.t.t.w.^.^.^.!.0.^.w.w.d.d.<X>Xi.u.u.y.s.t.y.t.qXt.2.3.y.2.d.d.+.<.2.<.<.2.<.<.<.<.<.<.<.+.<.XX#.w ' ] ] ] O.' O.=.-X:XH.o 8 8 % g.h.- V.% 8 8 8 8 M B N ,.p.a.8 7 V P.L.0XtX0X# c.Z.. % % % % % % % % % % % % % % % % % % % % % % % % % % % % % % o ",
"A 6 5 4 4 4 4 4 4 4 4 4 4 4 4 4 g f f f f f f f f f h g f f f f f h L `.L L R `.L I I Y U I I Y I I Y U I T ( ( `._ Q Q R U U U U U U U U U U U U T U U U U ( ` J P P  X9.W W W W J }. XW 6.6.9.9.6.9.0.|..XXX}.|.w.9.0.9.9.0.9.9.w.9.9.9.9.9.oX5.5.9.oX:.4Xt.t.t.t.y.t.t.t.t.t.t.q.q.^.w./.|.u.y.d.d.<X>Xi.i.u.y.y.t.y.3.<Xd.2.3.y.2.t.qX<.<.2.2.<.2.<.<.<.<.<.<.<.<.<.XX#.w ' ] ] ] O.' O.=.-X:XH.o 8 8 % g.h.- V.% 8 8 8 8 M B N ,.p.a.8 7 V P.L.0XtX0Xe 8 nXC.1.g.f.f.f.f.f.f.f.f.f.f.f.f.f.f.f.f.f.f.f.f.f.f.f.f.f.f.f.f.g.",
"A 6 5 4 4 4 4 4 4 4 4 4 4 4 4 4 g f f f f f f f f f h g f f f f f d ~ Q L g `.Q L I I Y U I I Y I I Y U I T ( ( `._ Q Q R U U U U U U U U U U U U T U U U U I ` Y J W wX! W W W W ! wXw.5.6.6.9.9.6.9.0.|..XXX}.|.w.6.0.9.9.0.9.9.w.9.9.9.9.5.|.|.5.5.|.d.>X3.t.t.t.y.t.t.t.t.t.t.u.3.0.q.].!.u.s.d.d.<X>Xi.i.u.y.y.t.y.t.s.qX2.3.y.3.2.qXy.+.2.<.<.2.<.<.<.<.<.<.<.<.+.oX+.] ] ] ] ] O.' O.=.-X:XH.o 8 8 % g.h.- V.% 8 8 8 8 M B N ,.p.a.8 7 V P.L.0XtX0Xr $ @ x.V.V.V.V.V.V.V.V.V.V.V.V.V.V.Z.Z.Z.Z.Z.Z.Z.Z.Z.Z.Z.Z.Z.Z.V.V.V.",
"A 6 5 4 4 4 4 4 4 4 4 4 4 4 4 4 g f f f f f f f f f h g f f f f f L `.L L I `.U I I I Y U I I Y I I Y U I T ( ( `._ Q Q R U U U U U U U U U U U U T U U U U U ( ( J  X}.! W W W ! w.wX8.6.6.6.9.9.6.9.0.|..XXX}.|.w.6.0.9.9.0.9.9.w.9.9.9.9.9.0.oX5.5.9.4Xu.t.t.t.t.y.t.t.t.t.t.t.t.t.u.y.^.|.u.s.d.d.<X>Xi.i.u.y.y.t.t.t.y.qXd.2.y.3.2.d.<X{ 2.<.<.2.<.<.<.<.<.<.<.<.+.|.2.] ] ] ] ] O.' O.=.-X:XH.o 8 8 % g.h.- V.% 8 8 8 8 M B N ,.p.a.8 7 V P.L.0XtX0X7 X.2XV.V.V.V.V.Z.Z.V.V.Z.V.V.Z.Z.V.C.C.C.C.C.C.C.C.C.C.C.C.C.C.C.C.C.",
"A A n h 4 4 4 4 4 4 4 4 4 4 4 4 g f 4 f f f f f f f h g f f f f d Q Q g g ~.Q U I I I Y U I I Y I I Y U I T ( ( `._ Q Q R I U U U U U U U U U U U T U U U U U U ` !  X! W W W W !  X}.8.6.6.6.9.9.6.9.0.|..XXX}.|.w.6.9.9.9.0.9.9.w.9.9.9.9.9.5.|.|.5.u.3Xq.t.t.t.t.y.t.t.t.t.t.t.t.t.t.i.9.|.u.s.d.d.<X>Xi.i.u.y.y.t.t.t.y.d.qX2.y.3.2.3.qX2.2.<.<.2.<.<.<.<.<.<.<.<.+.|.2.w ' ] ] ] O.' O.=.-X:XH.o 8 8 % g.h.- V.% 8 8 8 8 M B N ,.p.a.8 7 V P.L.0XtX0X# V.LXLXLXLXLXLXLXLXLXLXLXLXLXLXLXGXX.k.j.j.j.j.j.j.j.j.j.j.j.j.j.j.k.",
"A A n h 4 4 4 4 4 4 4 4 4 4 4 4 g f 4 f f f f f f f h g f f f f f `.L L I `.I Y I I I Y U I I Y I I Y U I ( ( ( `._ Q Q R I U U U U U U U U U U U T U U U U U Y ^ +X}.! W W W W 6.wX8.6.6.6.6.9.0.6.9.0.|..XXX}.|.w.6.9.9.9.0.9.9.w.9.9.9.9.9.9.0.oX5.>Xd.|.t.t.t.t.y.t.t.t.t.t.t.t.t.t.y.q.q.u.s.d.d.<X>Xi.i.u.y.y.t.t.t.s.t.qXy.3.3.3.2.<Xs.<.2.<.2.<.<.<.<.<.<.<.<.+.|.u.' ] ] ] ] O.' O.=.-X:XH.o 8 8 % j.h.- V.% 8 8 8 8 M B N ,.p.a.8 7 V P.L.0XtX0X# B.LXJXCXJXJXHXVXVXHXGXJXGXHXKXLXBX. % % % % % % % % % % % % % $ % o ",
"A j j f 1 4 4 4 4 4 4 4 4 4 4 4 g 4 4 4 4 4 4 4 4 4 g f 4 f f i Q `.g g Q Q L Y I I I U I I I Y I I Y U I T ( ( `._ Q Q I I I I I I I I I U U U I T U U U U U I Y yX! ! W W W J  X}.9.6.6.6.6.6.9.6.6.0.|..XXX}.|.9.6.9.9.6.0.9.9.w.9.9.9.9.9.9.5.oXw.>X3.+Xs.t.t.t.y.t.t.t.t.t.t.t.t.t.y.t.t.t.s.d.d.<X>Xi.u.u.t.y.t.t.t.y.3.d.<X2.3.2.3.s.<X<.<.<.2.<.<.<.<.<.<.<.<.+.~.hX#.w ] ] ]  .] [ O.-X:XH.o 8 8 % j.h.- V.% 8 8 8 8 M B N ,.p.a.8 7 V P.L.0XtX0X# B.LXBXvXMXBXbXiXBXMXBXbXbXGXPXLXBX@ e 8 8 8 8 8 8 8 8 8 8 8 8 8 8 e ",
"A j j g f f f g g g g g g g g g h g g g g g g g g g L h g g g g `.Y L L `.R U T U U U T T U Y T Y U T T Y ( ( ( `._ Q Q T Y Y T T T T T T T T T T T T T T T T R |.+X( 6.! ! ! 6.wX9.w.9.9.9.9.9.w.9.0.|.|..XXX|.|.w.9.w.0.9.w.w.0.w.9.0.0.0.0.w.9.|.3Xi.s.d..Xu.y.y.s.y.y.y.y.y.y.y.y.y.s.y.y.y.s.d.d.<X>Xi.i.y.y.s.y.y.y.s.y.s.qXy.3.3.y.3.qXy.2.2.4.2.2.2.2.2.2.2.2.<.|.zXi.]  . . .%.O.=.=.-X:XH.o 8 8 % j.h.- Z.$ 8 8 8 8 M B N ,.p.a.8 7 V P.L.0XtX0X# C.LXJXHXGXHXVXGXDXVXJXDXGXJXLXLXm.$ 8 8 8 8 8 8 8 8 8 8 8 8 8 8 8 8 ",
"A j j g f f f f f f f f f g g f h g f g g g g g g g h h g g f Q ~.L L Q `.I R T U U I T Y U U T Y U T T U ( ( ( `._ Q Q T Y Y Y Y Y Y Y Y Y T T T T T T T T T T wXe.n.8.! ! !  X X8.w.9.9.9.9.9.w.9.0.|.|..XXX|.|.w.9.w.0.9.w.0.9.w.9.9.9.9.9.0.0.q.4Xq.s.s.+Xs.u.y.s.y.y.y.y.y.y.y.y.y.s.y.y.y.s.d.d.<X>Xi.i.y.y.s.y.y.y.s.s.t.qXd.2.3.y.2.d.d.<.2.4.2.2.2.2.2.2.2.2.2.~ rX>X]  .| | %.O.=.=.-X:XH.o 8 8 % j.h.- Z.$ 8 8 8 8 M B N ,.p.a.8 7 V P.L.0XtX0X# C.KXJXHXHXHXHXHXVXGXHXHXJXHXGXA.% 8 8 8 8 8 8 8 8 8 8 8 8 8 8 8 8 8 ",
"C 6 5 4 4 4 4 4 4 4 4 4 4 4 4 4 g 4 4 4 4 4 4 4 4 4 g f 4 f f (.I L L `.R I I Y I I I U I I I Y I I U U I T ( ( `._ Q Q I I I I I I I I I I I U I T U U U U I w..XY _ _ W W 5.wX6.6.9.6.6.6.6.6.9.6.9.0.|..XXX}.|.9.6.9.9.6.9.9.9.w.9.9.9.9.9.9.6.>XN.|.t.3.w.w.t.t.y.t.t.t.t.t.t.t.t.t.y.t.t.t.y.d.d.<X>Xi.u.u.t.y.t.t.t.y.y.3.d.qX2.2.3.2.3.qX+.<.2.<.<.<.<.<.<.<.<.+.~ d.>Xw ] ] ]  .] [ O.-X:XH.o 8 8 % j.h.- Z.$ 8 8 8 8 M B N r.p.a.8 7 V P.L.0XtX0X# V.z.@ 8 8 8 8 8 i e 8 8 8 8 * $ 8 8 8 8 8 * & * * 8 8 * * * * 8 8 8 ",
"C 6 5 4 4 4 4 4 4 4 4 4 4 4 4 4 g f 4 4 f f f f f 4 g g f f I ~.g L Q `.L I I Y I I I U U I I Y I I Y U I ( ( ( `._ Q Q R I I I I U U U U U U U U T U U U Y I  X8.! ~ n.W J  X XW 6.9.6.6.6.6.6.9.6.9.0.|..XXX}.|.w.6.9.9.6.0.9.9.w.9.9.9.9.9.9.q.4Xq.+Xs.y.s.+Xt.t.y.t.t.t.t.t.t.t.t.t.y.t.t.t.s.d.d.<X>Xi.u.u.t.y.t.t.t.y.y.t.3.qXy.2.3.3.2.qXt.<.2.<.<.<.<.<.<.<.<.+.~ d.>Xw ' ] ] O.' [ =.-X:XH.o 8 8 % j.z.- Z.$ 8 8 8 8 M N M ,.a.,.8 7 N K.B a.9Xp.@ V.z.@ 8 * * * % * % 8 8 8 8 8 8 8 8 8 = ,.p.a.a.,.9 2 G G D D 1 8 8 ",
"C 6 5 4 4 4 4 4 4 4 4 4 4 4 4 4 g f 4 4 4 f f f f 4 g f f d ~.R g L `.Q I I I Y I I I U I I I Y I I Y U I T ( ( `._ Q Q R I I I I U U U U U U U U T U U Y I e. XY ~ ! _ T W wX6.6.6.9.6.6.6.6.6.9.6.6.0.|..XXX}.|.9.6.9.9.6.0.9.9.w.9.9.9.9.9.6.i.i.q..X.Xt.t..Xq.t.y.t.t.t.t.t.t.t.t.t.y.t.t.t.s.d.d.<X>Xi.u.u.t.y.t.t.t.y.y.t.3.<X<X<.3.3.2.d.d.+.2.<.<.<.<.<.<.<.<.+.W |.<X#.w ] ] O.' [ =.-X:XH.o 8 8 % j.z.- A.$ 8 8 8 8 M M M ;.,.,.8 7 N B B a.p.a.@ V.z.o n X.1.1.k.s X.p 8 8 8 8 8 8 8 8 & a.tXp.9Xp.9 D Q.W.W.G 1 8 8 ",
"C 6 5 4 4 4 4 4 4 4 4 4 4 4 4 4 g f 4 4 4 f f f f 4 g g f L `.g g Q `.L I I I Y I I I U I I I Y I I Y U I T ( ( `._ Q Q R I I I I I U U U U U U U T U U Y I  X0.T ~ ! _ (  X XW 6.6.9.6.6.6.6.6.9.6.6.0.|..XXX}.|.9.6.9.9.6.0.9.9.0.9.9.9.9.9.9.4Xs.s.s.+Xs.t.s.+Xt.y.t.t.t.t.t.t.t.t.t.y.t.t.t.s.d.d.<X>Xi.u.u.t.y.t.t.t.y.y.t.t.s.qX3.3.3.2.y.qX<.2.<.<.<.<.<.<.<.<.+.! !.tX1X' ' ] O.' [ =.-X:XH.o 8 8 % h.z.- A.$ 8 8 8 8 M M M ;.,.,.8 7 N K.B a.9Xp.@ V.x.. x.z.B.b x.8 z.m.k.* 8 8 8 8 8 8 & a.tXr.p.p.9 D Q.G W.W.1 8 8 ",
"A j j f 4 4 4 4 4 4 4 4 4 4 4 4 g f 4 4 4 4 f f f 4 g g i ~.Q g g `.Q I I I I Y I I I U I I I Y I I Y U I T ( ( `._ Q Q R I I I I I U U U U U U U T U U I !  XT ~ ~ ~ ~ _ wX6.6.6.6.9.6.6.6.6.6.9.6.6.0.|..XXX}.|.9.6.9.9.6.0.9.9.0.9.9.9.9.6.d.>Xq.s.s..Xw.t.t..Xs.u.t.t.t.t.t.t.t.t.t.y.t.t.t.s.d.d.<X>Xi.u.u.t.y.t.t.t.y.y.t.t.y.qXd.2.3.3.2.qXy.2.<.<.<.<.<.<.<.<.+.! !.xX1X1X| ]  .] [ O.-X:XH.o 8 8 $ h.z.- S.$ 8 8 8 8 M M M ;.,.,.8 7 N K.B a.9Xp.@ V.z.O g.v j.p g.8 c.j.g.8 8 8 8 8 8 8 & p.lXtXtX9X9 D ].Q.Q.W.1 8 8 ",
"A ) ) j 1 4 4 4 4 4 4 4 4 4 4 4 g f 4 4 4 4 f f f 4 g f L `.L L I `.L I I I I Y I I I U I I I Y I I Y U I T ( ( `._ Q R R I I I I I I U U U U U I T U Y I  Xw.T ! ~ ! T |..XW 6.6.6.9.6.6.6.6.6.9.6.6.0.|..XXX}.|.9.6.9.9.6.0.9.9.0.9.9.9.9.9.4Xs.q.s.s.q.+Xs.t.s..Xu.t.t.t.t.t.t.t.t.t.y.t.t.t.s.d.d.<X>Xi.u.u.t.y.t.t.t.y.y.t.t.y.d.qX2.3.2.2.d.<X<.<.<.<.<.<.<.<.<.+.8.(.lXrXrX>Xw O.] [ O.-X:XH.o 8 8 $ h.z.- S.$ 8 8 8 8 M M M ;.,.,.8 7 N K.B a.9Xp.@ V.z.@ 8 8 8 8 8 8 p 8 8 8 8 8 8 8 8 8 & a.0X9Xp.a.9 D W.W.G G 1 8 8 ",
"A ) ) h 1 4 4 4 4 4 4 4 4 4 4 4 g f 4 4 4 4 4 f f 4 g d Q Q g g (.Q L I I I I Y I I I U I I I Y I I Y I I T ( ( `._ Q R I I I I I I I I U I I U I T U I ! wXT ! ! ~ ! ~ wXn.8.6.6.6.9.6.6.6.6.6.9.6.6.0.|..XXX}.|.6.6.9.9.6.9.9.9.0.6.9.9.6.s.>Xq.s.s.s.s..Xw.t.t..Xd.t.t.t.t.t.t.t.t.t.y.t.t.t.y.d.d.<X>Xi.u.u.t.y.t.t.t.y.y.t.t.y.3.qXy.2.2.3.3.qX2.<.<.<.<.<.<.<.<.+.8.^.tXrXjX1Xw O.] [ O.-X:XH.o 8 8 $ h.z.= S.$ 8 8 8 8 M M M ;.,.,.8 7 N K.B a.9Xp.@ V.z.o 8 8 8 8 8 8 * 8 8 8 8 8 8 8 8 8 8 8 & & & * 8 = * * * * 8 8 8 ",
"C j 5 4 4 f f f f f f f f f f f h f f f f f f f f f h g `.L L I `.U I I I I I Y I I I Y U I I Y I I Y U I T ( ( `._ Q Q R U U U U U U U U U U U U T Y I .X|.T ! ! ~ T |.wX_ n.6.9.6.9.6.6.6.6.6.0.6.9.0.|..XXX}.|.w.6.0.9.6.0.9.9.w.9.9.9.6.>Xs.q.s.s.s.s.d.+Xy.y.s..Xt.t.t.t.t.t.t.t.t.y.t.t.t.s.d.d.<X>Xi.u.u.y.y.t.t.t.y.y.t.t.s.3.<X<X2.3.t.2.<Xd.+.<.<.<.<.<.<.<.+.8.^.s.1XjX1Xw O.' O.=.-X:XH.o 8 8 $ h.z.= S.$ 8 8 8 8 M M M ;.,.,.8 7 N K.B a.9Xp.@ V.z.* p p p p p p p p p p p p p p p p p p p p p p p p p p p p p p p ",
"A j j g g g g g g g g g g g g g h h g g g g g g h g h Q Q L L `.Q U Y U R R Y T R Y U T T Y Y T Y Y T T Y ( ( ( `._ Q Q T T T T T T T T T T T T T T T T wX~ ~ ~ ~ ~ T XX|.e.n.0.9.9.w.9.9.9.9.9.w.9.0.|.|..XXX|.|.w.9.w.w.9.w.w.0.w.9.0.0.s.4Xq.s.s.s.s.s.s.+Xd.s.s.+Xs.u.y.y.y.y.y.y.y.s.y.y.y.s.d.d.<X>Xi.i.y.y.s.y.y.y.s.s.y.y.s.y.s.qX3.3.y.3.d.<X<.2.2.2.2.2.2.2.2.8.[.4.1XkX1X' %.O.=.=.-X:XH.o 8 8 $ h.z.= S.$ 8 8 8 8 M M M ;.,.,.8 7 N K.B a.9Xp.@ V.z.$ e 8 8 8 8 8 8 8 8 8 8 8 8 8 8 8 8 8 8 8 8 8 8 8 8 8 8 8 8 8 e ",
"C 6 5 4 4 4 4 4 4 4 4 4 4 4 4 4 g 4 4 4 4 4 4 4 4 4 g `.L L L `.I I I I I I I R I I I U I I I Y I I Y I I T ( ( `._ Q R I I I I I I I I I I I I I T I |..XY ! ! ! T 0.wX8.8.n.n.5.5.9.6.6.6.6.6.9.6.6.0.|.|.XX}.|.6.6.9.9.6.9.9.6.0.6.9.6.>Xs.q.q.q.q.q.q.q.w..X3.3.d..X3.3.3.3.3.3.t.t.y.t.t.t.y.d.d.<X>Xi.u.t.t.y.t.t.t.y.t.t.t.y.t.3.qXs.<.3.2.2.qX<.<.<.<.<.<.<.<.+.8.].K 1XkX<X]  .] [ [ -X:XH.o 8 8 $ h.z.= S.$ 8 8 8 8 M M M ;.,.,.8 7 N K.B a.9Xp.@ V.z.@ 8 * 8 * * 8 8 8 8 8 8 8 8 8 8 8 8 u u u u u 7 1 2 2 2 2 * 8 8 ",
"C 6 5 4 4 4 4 4 4 4 4 4 4 4 4 4 g f 4 4 4 4 4 4 f i Q ~ 5 5 Q Q L R I I I I I Y I I I U I I I Y I I Y U I T ( ( `._ Q R R I I I I I I I I I U U U T U  X! ! ! ! ! Y  X.X8.e.e.n.9.5.9.6.6.6.6.6.9.5.6.0.|..XXX}.|.6.6.9.9.6.9.9.6.0.6.6.q.4Xq.s.q.q.s.s.s.s.s.+Xs.t.s.+X3.t.t.t.t.t.t.t.y.t.t.t.y.d.d.<X>Xi.u.u.t.y.t.t.t.y.y.t.t.y.t.3.d.qX<.3.3.<.qXy.+.<.<.<.<.<.<.+.:.].E 1XkX1X]  .] [ @.-X:XH.o 8 8 $ k.z.= G.$ 8 8 8 8 M M M ;.,.,.8 7 N K.B a.9Xp.@ V.z.o e p i p p 8 8 p * 8 % 8 8 8 8 8 & ,.0X9X9Xa.9 D W.W.W.G 1 8 8 ",
"C 6 5 4 4 4 4 4 4 4 f g g 4 4 4 g f 4 4 4 4 4 4 4 f (.I L L `.I I R I I I I I Y I I I I Y Y Y T I I Y U I T ( ( `._ Q R I U T T U I I I I I I U U R w..XY ! ! ~ ~ e.wXe.e.e.8.n.e.5.9.6.6.6.6.6.w.9.9.0.|..XXX}.|.6.6.9.9.6.9.9.6.w.9.0.>Xi.q.s.q.q.q.s.s.s.s.w..X3.s..Xd.t.3.t.t.t.t.t.y.t.t.t.y.d.d.<X>Xi.u.t.t.y.t.t.t.y.y.t.t.y.t.t.s.qXt.3.3.2.d.<X{ <.<.<.<.<.<.+.:.].E 1XtX.X[  .] [ @.-X:XH.o 8 8 $ k.z.= G.$ 8 8 8 8 M M M ;.,.,.8 7 N K.B a.9Xp.@ V.x.  k.k.v.g.m.p k.b.v p z.s * 8 8 8 & a.tXa.p.p.9 D Q.G W.W.1 8 8 ",
"C 6 5 4 4 4 4 4 4 4 h g E f 4 4 g f 4 4 4 4 4 4 3 I `.E L _ ~.L I U I I I I I Y I I I I T I T T I I U U I T ( ( `.Q Q Q I T Y T T I I I I I I U U T  X8.T ! ~ ~ ~ .X.Xe.e.8.8.e.n.6.9.6.6.6.6.0.w.w.w.0.|..XXX}.|.6.6.9.9.6.9.9.9.w.0.w.4Xq.s.q.q.q.q.q.s.s.s.s.+Xs.d.s.+Xt.t.t.t.t.t.t.y.t.t.t.y.d.d.<X>Xd.i.t.t.y.t.t.t.y.y.t.t.y.t.t.y.qX<Xy.3.3.3.qX2.<.<.<.<.<.<.+.:.].! 1XtX}.[  .] [ @.-X:XH.o 8 8 $ k.x.= G.$ 8 8 8 8 M M M ;.,.,.8 7 N K.B a.9Xp.@ V.x.. x.h.m.k j.p k.X.C.z.V.p 8 8 8 8 & a.tXp.9Xp.9 D Q.W.W.W.1 8 8 ",
"C j 5 4 4 4 4 4 4 4 h h h f 4 4 g f 4 4 4 4 4 4 1 `.R E L `.R L I U I I I I I Y I I I I T Y T T I I U I I T ( ( `.Q Q R I Y T T T I I I I I I U I e. XY ! ! ~ ~ e.wX8.e.e.8.e.8.n.e.6.6.6.6.6.9.w.9.w.0.|..XXX}.|.6.6.9.9.6.9.9.6.w.0.>Xi.q.s.q.q.q.q.q.q.s.s.s..X.Xs.s..Xq.3.t.t.t.t.t.y.3.t.t.y.d.d.<X>Xd.i.t.t.y.t.t.t.y.y.t.t.y.t.t.y.d.qX3.3.3.2.<Xy.{ <.<.<.<.<.+.4.].! #..XoX[  .] [ @.-X:XH.o 8 8 $ k.x.= G.$ 8 8 8 8 M M M ;.,.,.8 7 N K.B a.9Xp.@ V.z.o c p k 8 v * X.g.c k.X.s * 8 8 8 & p.lXtXtX X9 G ].Q.Q.W.2 8 8 ",
"A ) ) f 4 4 4 4 4 4 4 f 4 4 f 4 g f f 4 4 f 4 4 I `.L L Q `.L I I U I I I I I Y I I I R I I I Y I I U U I T ( ( `.Q Q Q R I I I I I I I I I I I I  X0.T ! ! ! T .X.X! e.e.8.e.8.e.n.9.6.6.6.6.6.9.6.6.0.|.|.XX}.|.6.6.9.9.6.0.9.6.0.9.4Xq.q.q.q.q.s.q.q.s.q.s.s.s.+Xs.y.s.+Xt.t.t.t.t.t.y.t.t.t.y.d.d.<X>Xi.u.u.t.y.t.t.t.y.y.t.t.y.t.t.y.t.qXy.2.3.2.d.<X{ <.<.<.<.<.+.<.].8.[ ! oX[  .] [ @.-X:XH.o 8 8 $ k.x.= G.$ 8 8 8 8 M M M ;.,.,.8 7 N K.B a.9Xp.@ V.z.@ 8 8 * 8 * 8 * * * % * 8 8 8 8 8 = { ,.;.{ u 7 2 D D 2 2 1 8 8 ",
"A ) ) h 4 4 4 4 4 1 h ZXj.E ZXL b.nXbXn.g ZX) E *XI n.&X$X`.I mX_ _ &X&XOXF &XOXI mX_ _ @X&XOXI &XOXY &X&X@XI OXOXQ @XOXT @X&X@XF @X@XI @X&X&XI +XyXY @X@X! @X@XdX8.@XpX8.@XpXpXe.n.pX6.+XpX5.pXpXfXw.+XpX|.yXfXfX|..XfX9.+XfX6.+XpXsXi..XaXs.+XaXaX+Xd.aXd.d.aXd.+XpXaX<X|.aXd.d.aXaXuXt.aX3Xy.aX<X<XsXsXuXu.aX3Xs.aXaXsX3.aXuX3.aX3Xs.sXsXaXd.sXuX2.aXcXaX{ iXNXN.{ <.<.^.].4.:.oX[  .] [ @.-X:XH.o 8 8 $ k.x.= G.$ 8 8 8 8 M M M ;.,.,.8 7 N K.B a.9Xp.@ V.z.$ e 8 8 8 e 8 8 8 e e 8 8 8 8 8 8 8 & & & & = 8 8 9 9 9 8 8 8 e ",
"C j j f 4 4 4 4 4 1 L CXb.E VXE n.ZXCXJ.h VXb.I *XT n.&X$XOXI AXn._ mXmX@XF mXOXI ZXn._ mXmX@XF mXOXY mXmX&XI &XOXQ &XOXQ mXmX&XF &X@XI mXmXmXI yXpXY pX@X! &XpXfX! @XpX! pXpXAXe.+X&X6.pXfXW pXfXAXw.+XfX|.fXfXfX.X.XAX0.+XAX6.pXfX3Xd.N.SXd.uXaXSX+Xd.SXd.N.SXd.+XpXNXuXq.fXd.d.SXSXuX3.SXuXy.SX<XqXsXcXuXu.SXuXs.SXSXsX3.NXsX3.SXuXs.aXNXaXqXNXsX2.NXcXaX{ iXFXN.{ <.+.:.].8.! oX[ | ] [ [ -X:XH.o 8 8 $ k.v.= D.$ 8 8 8 8 M M M ;.,.,.8 7 N K.B a.9Xp.@ V.z.* p p p i > p l i > p p p p p p p p p p p p p p p p p p p p p p ",
"A j j g g g g g g f E CXb.E CXE n.ZXCXJ.h CXb.H mXT n.*X*XOXI mXn._ mXmX@XF mXOXR mXn._ &XmX@XF mXOXY mXmX&XI &XOXQ &XOXQ &X&X&XF &X@XI &XmX&X! dX@XP pX@X! @XdXpX8.@XpX8.pXpXpXe.+X&X! pXfX5.pXfXAXw.+XfX|.dXfXfX.X.XAXw.+XAX6.pXsXsX+Xd.NXd.uXaXaX+Xd.NXd.N.NXd.uXpXaXuXd.pXs.d.NXSXuXt.SXuXs.SX<XqXsXsXuXu.SXuXs.NXSXsX3.aXsXt.SXuXs.aXaXsX<XSXiX3.NXcXsX+.iXFXN.<.2.2.8.].0.^.#XO.%.O.=.=.-X:XH.o 8 8 $ k.v.= D.$ 8 8 8 8 M M M ;.,.,.8 7 N K.B a.9Xp.@ V.z.o 8 8 & r ,XgXgXgX,X8 & 8 8 8 8 * * * * * * % * 8 * 8 % * * 8 8 ",
"C 6 5 4 4 4 4 4 4 1 E CXj.L CXh b.ZXCXn.f CXn.`.ZXE _ $XmXOXF mX_ T mXmX@XF mXOXI mX_ T &XmX@XF mXOXI mXmX&XF &XOXQ &XOXR &XmX&XF &X@XF &XmX&X XpX&XP pX@XP pXfXmX! @XpX! @XpXpX8.+XmX_ pXfXW pXfXAX0.+XfX|.dXfXfX|..XAX6.+XAX5.@XsXaXd.d.SXs.+XaXaX+Xs.NXd.d.SXs.uXpXpXuXs.AXw.d.NXSXuX>.SX3Xt.SX<X<XsXsXuXt.SX3Xy.NXSXsX>.aXuX>.SXuXy.aXaXsXr.cXiX>.NXSXsX{ iXFXN.{ <.+.8.].W ^.[.[  .' [ @.-X:XH.o 8 8 $ k.v.= D.$ 8 8 8 8 M M M ;.,.,.8 7 N K.B a.9Xp.@ V.z.@ 8 = t gXgX,X} ,XgXgXr = 8 8 * f.x.s s s p X.1.k e v g.p p 8 8 ",
"C 6 5 4 4 4 4 4 4 1 L ZX@X@XZXOXvXZXZXvXOXCX@X$XZX@XOX@XmX@XOXmX@X@XmXmX&XOXmX@X@XmX@X@X&X&X&XOXmX&X@XmXmX&XOX&XOXOX&X@X@X&X&XmXOXmX&XOXmXmXmXyXmXmX@XmXpX@XdXpXmX@XpXpX@XpXpXpX@XpXfXOXpXfX+XfXpXAXpXpXfX+XfXfXfXpXpXAXpXpXAX@XsX3XaXsXsXaXuXsXaXaXsXsXaXsXsXaXuXsXaXpXsXsXNX@XsXaXSXaXuXSXsXsXSXsXsXsXsXsXuXSXsXsXaXNXaXuXSXaXuXSXsXsXaXaXaXuXcXaXuXNXNXcXuXNXFXN.{ <.+.:.^.W Q.[.[ | ] [ [ -X:XH.o 8 8 $ k.v.= D.@ 8 8 8 8 M M M ;.,.,.8 7 N K.B a.9Xp.@ V.z.@ 8 = 1XgX7 X - X t gX,X& 8 8 % x.Z.C.B.B.Z.k.m.m.m.m.B.c.j.* 8 ",
"C 6 5 4 4 4 4 4 4 1 E CXCXCXCXZXVXZXCXCXCXCX$XZXCXmX*X&XmXmXmXAXmXAXmXmXmXmXAXmXmXZXmXAXmXmXZXmXAXmXZXmXmXmX&X&XOX*XmXmXZXmXmXZXmXAXmXZXZXmXfXfXAXAXAXAXmXfXfXpXAXAXAXAXAXAXpXAXAXAXAXmXmXAXAXAXfXAXfXAXfXfXfXfXfXfXAXAXAXAXAXAXsXsXSXaXSXNXaXSXaXNXaXSXSXaXSXSXaXSXaXaXpXSXSXaXfXSXSXSXSXSXSXSXSXcXcXsXsXSXSXSXSXSXSXSXSXSXSXSXSXSXSXSXNXaXSXSXcXSXFXSXSXSXSXFXFXN.{ <.<.<.<.!.!.oX| ' ] [ [ -X:XH.o 8 8 $ k.v.= F.@ 8 8 8 8 M M M ;.,.,.8 7 N K.B a.9Xp.@ V.z.@ = y jX} X b E x . >.jXt = 8 * b g.z.k.m.x.f.k.1.k.X.1.m.v % 8 ",
"C 6 5 4 4 4 4 4 4 1 g H.J.J.H.J.H.J.H.J.B.OX`.J.H.OXOXn.OXOXOXOXOXOXOXOXOXOXOXOXOXOXOXOXOXOXOXOXOXOXOXOXOXOXn.J.`.OXOXOXOXOXOXOXOXOXOXOXOXOXyX+X@X@XOX@XOXyX+X+X+X+X+X@X+X@X+X@X+X+X@X+XOX+X+X+X+X+X+X+X@X+XyX+XyX+X+X+X+X+X+XuX4X+XuXuXuXuXuXuXuXuXuXuXuXuXuXuXuXuXuXuX+XuXuXuX+XuXuXuXuXuXuXuXuXuXuX<X3X3X3XuXuXuXuXuXuXuXuXuXuXuXuXuXuXuXuXuXuXsXuXuXuXuXsX3XiXy.{ <.<.+.<.!.W }.+.' ] [ [ -X:XH.o 8 8 $ k.v.= F.@ 8 8 8 8 M M M ;.,.,.8 7 N K.B a.9Xp.@ V.z.@ & >.gX7 i n f.BXc.r gX} & 8 8 8 % % * % $ * % * * * 8 X.8 8 8 ",
"C 6 5 4 4 4 4 4 4 4 4 1 1 1 1 1 1 1 1 1 1 (.F 4 5 (.I F F F F F F F F F F F F I F F F F F F F I F F I F F I I ^ / Q R I F F F F F F F L F 6..XI P ! P P ! wX! 8.! ! ! 8.! ! ! ! ! ! 8.8.n.~ W 5.6.W W W W |. X9.w.6.W 5.5.W W i.i.q.q.q.q.q.q.q.q.q.q.q.q.q.q.q.q.q.q.3.w.|.3.3.w.q.>.3.3.>.>.>.t.u.a.<Xi.u.u.>.3.3.>.>.>.3.3.>.3.3.3.>.t.3.>.t.3.qX3.;.;.;.<X;.y { <.<.<.<.<.!.W }.+.' ] [ [ -X:XH.o 8 8 $ k.c.= F.@ 8 8 8 8 M M M ;.,.,.8 7 N K.B a.9Xp.@ V.z.@ & >.jXu - n E vXc.u eX{ & 8 8 * X.v p f.X.n f.p 8 p 8 8 8 8 8 ",
"A j j 4 4 4 4 4 4 4 4 4 f f f f g h E c R ~.f g Q ~.L T T T I I I R I I I I I T T T U R U I I Y I I Y U I T ( ( `._ _ _ ( I I I I U U U I  X! ! ! ~ ~ ) .X.X8.8.8.8.8.e.e.e.e.e.e.8.e.e.e.n.6.6.w.e.e.e.|.oXXX}.|.9.6.9.9.6.w.4Xq.s.s.s.s.q.q.q.q.q.q.q.q.q.q.q.s.s.s.s.s.+Xs.t.s.+Xt.t.y.y.y.t.y.d.d.<X>Xi.u.u.t.s.s.y.t.y.y.t.t.y.t.t.y.t.t.s.3.qXd.4.y.4.<Xd.+.<.<.<.<.<.+.!.W }.+.] O.=.=.-X:XH.o 8 8 $ k.c.= F.@ 8 8 8 8 M M M ;.,.,.8 7 N K.B a.9Xp.@ V.z.@ 8 r hXr.X i s - . r.,X8 8 8 8 e z.k.* x.v.C.m.b k.C.k.v.c * 8 ",
") ) ) f 1 4 4 4 4 4 4 4 4 4 4 4 g g E n `.F 5 L `.I I U b.T I F I I I I I I I Y ) ) T I I I I Y I I R I I T ( ( `._ _ n.) I I I I I I F 0. XY ! ! ~ T n.qXn.e.8.8.8.8.e.e.n.n.n.e.8.e.e.8.n.e.5.9.e.e.n.e.|.XX}.|.6.6.9.9.W i.i.q.s.s.N.s.q.q.q.q.q.q.q.q.q.q.q.q.q.s.s.N.+Xw.3.3.|.q.3.y.y.N.s.t.s.d.<X>Xi.u.t.t.y.s.N.t.y.t.3.t.y.t.3.y.t.3.y.3.d.qX4.y.x.d.<X{ <.<.<.<.<.+.^.W }.+.] &.&.M.:X:XH.o 8 8 $ k.c.= F.@ 8 8 8 8 M M M ;.,.,.8 7 N K.B a.9Xp.@ V.z.@ e & r.jXr.X # $ r.eX} & 8 8 8 8 k.z.g.c.k.m.c.v g.j.g.x.X.% 8 ",
"A j ) f 4 4 f f f f f f f f f f h E c T `.g g Q `.L R T T T I I I Y I I I I I T T ( U Y Y I I T R I T Y I ( ( ( `._ _ _ ( U U U U U Y I  Xe.T ! ! ~ _ .X.Xe.e.8.e.e.e.e.e.e.e.e.e.e.e.e.e.e.n.6.w.e.e.e.|.oXXX}.|.w.6.w.9.9.4Xs.s.d.s.s.s.s.s.s.s.s.s.s.s.s.s.s.s.s.d.N.s.d.+Xs.y.s.+Xt.s.y.s.y.s.d.d.<X>Xi.u.u.u.y.y.s.y.y.y.t.t.s.t.t.y.y.t.s.y.t.qX3.3.y.3.qX<.<.<.<.<.<.+.^.~ }.2. .&.=.=.:X:XH.o 8 8 $ k.c.= F.@ 8 8 8 8 M M M ;.,.,.8 7 N K.B a.9Xp.@ V.z.@ 8 8 & ,X>.X & - >.r.& 8 8 8 8 8 p p d s p e p 8 8 8 8 p 8 8 8 ",
"< 1 - ; ; ; ; ; ; ; ; ; ; ; 1 ; 1 1 ; H F 2 2 H F 2 F F 2 D D D 2 F F F F F F F F F F F F F F F F F F F F F F F H F F F F F F F F F 5 W  XF J J J P J  XW J J J J W W ! ! W W W W ! ! ! ! W ( ! W W W W W }.}.5.5.W W W W 3.i.:.:.:.:.:.:.:.:.:.:.:.:.:.:.:.:.:.:.:.3.:.:.:.w.9.>.>.w.:.>.>.>.>.>.,.r.i.i.>.>.>.>.>.>.>.>.>.>.>.>.>.>.>.>.>.>.>.>.;.p.r.{ { y a.>.t y y y y t Q.G }.} w w [ [ @.8Xc.o 8 8 @ z.c.$ vXo 8 8 8 8 M M M ;.,.,.8 7 N K.B a.9Xp.@ V.z.@ 8 8 8 X 8 >.r.} 8 - 8 8 8 8 8 8 8 8 8 * % 8 8 * * 8 8 8 8 8 8 ",
"B.c.c.c.c.c.c.c.c.c.c.c.c.c.c.c.c.c.c.J.m.m.J.J.J.J.J.J.J.J.J.J.J.J.J.J.J.J.J.J.J.J.J.J.J.J.J.J.J.J.J.J.J.J.B.B.B.B.B.B.B.B.B.B.B.B.J.C.C.B.B.B.B.B.C.C.C.C.C.C.C.C.C.C.C.C.C.C.C.C.C.C.C.C.C.V.C.C.C.C.C.C.C.C.C.C.C.C.C.Z.C.C.C.C.C.C.C.C.C.C.C.C.C.C.C.V.V.V.V.V.V.V.V.V.V.H.C.C.H.H.C.C.C.C.C.C.C.V.V.V.V.V.V.V.V.V.V.V.V.V.V.V.V.V.V.V.V.V.V.V.Z.A.C.V.C.Z.Z.C.C.C.C.C.C.H.H.H.V.C.C.C.B.G.vX8 8 8 8 * k vXvXv.% 8 8 8 8 M M M ;.,.,.8 7 N K.B a.9Xp.@ V.z.@ 8 8 & >.gXjXgXjXgX>.& 8 8 8 8 8 8 8 8 p c i * k k * 8 8 8 8 8 ",
"j.k.k.k.k.k.k.k.k.k.k.k.k.k.k.k.k.k.k.k.k.k.k.k.k.k.k.k.k.k.k.k.k.k.k.k.k.k.k.k.k.k.k.k.k.k.k.k.k.k.k.k.k.k.k.k.k.k.k.k.k.k.k.k.k.k.k.k.h.k.k.k.k.k.k.h.k.k.k.k.k.k.k.k.k.k.k.k.k.k.k.k.k.k.k.k.k.h.h.k.k.k.k.k.k.h.h.h.h.h.h.h.h.h.h.h.h.h.h.h.h.h.h.h.h.h.h.h.h.h.h.h.h.k.h.h.h.k.k.k.k.k.k.k.k.k.h.h.h.h.h.k.k.k.k.k.k.k.k.k.k.k.k.k.k.k.k.k.k.k.h.h.k.k.k.h.k.k.k.k.k.k.k.k.k.k.k.b.k.k.b.g.* * 8 8 8 8 $ k 1.% * 8 8 8 8 M M M ;.,.,.8 7 N K.B a.9Xp.@ V.z.@ e & >.jX,Xr % 7 ,XjXy & 8 8 8 8 8 8 8 v.k.m.v m.Z.c * 8 8 8 8 ",
"$ @ @ @ @ $ @ @ @ $ o                                 O o .   @ $ @ @ @ @ @ @ $ $ @ @ @ @ @ @ @ @ $ o                           o O . o $ @ @ @ o o o o o o o o o o o o o @ $ @ $ $ $ @ @ @ $ $ @ @ $ @ @ @ @ @ $ $ @ @ @ @ @ $ @ @ @ @ @ @ @ @ @ @ @ @ @ @ @ @ @ @ @ @ o o o o o o o o o o o o o o @ % % @ o O O O O O O O O O O O O O O O O O O O O O . . . O . . . . . . . . . . . . . . . O 8 8 8 8 * s c * k k k * 8 8 8 M M M ;.,.,.8 7 N K.B a.9Xp.@ V.z.@ 8 8 gX,XX > d j a r.,X8 8 8 8 8 8 8 8 1.C.k.B.x.v.c * 8 8 8 8 ",
"8 8 8 8 8 8 8 8 8 8 c f.X.1.1.X.1.1.1.X.1.1.1.1.1.1.f.X.b f.X.8 8 8 8 8 8 8 8 8 8 8 8 8 8 8 8 8 8 8 k f.1.X.1.1.1.X.X.X.1.1.1.f.b X.g.v * 8 8 e c c c c c v v v v v n n b i 8 8 8 8 8 8 8 8 8 8 8 8 8 u u r r r r 8 2 2 1 1 1 1 8 8 8 8 8 8 8 8 8 8 8 8 8 8 8 8 8 8 8 8 k c c c v v v v v v n n n n e p p 8 b z.k.z.z.z.z.z.z.z.z.z.z.x.x.x.x.x.x.x.v.v.v.v.v.v.c.c.c.c.c.c.c.c.c.c.c.m.m.m.B.v.i 8 8 8 8 k.k.v m.B.z.i 8 8 8 8 9 8 7 7 7 8 8 q q 9 7 r r o V.z.@ & } jXu - n c.JXA u eXt = 8 8 8 8 8 8 v v s c k k k * 8 8 8 8 ",
"8 8 * * * e * 8 $ z.PXPXPXPXPXPXPXPXPXPXPXPXPXPXPXPXPXHXGXPXLXnX@ 8 8 8 8 8 e 8 8 * * * * * % * % f.KXLXPXPXPXPXPXPXPXLXPXPXPXLXVXIXPXKXg.% 8 8 vXCXCXCXCXVXVXVXVXGXGXGXCXp 8 8 e i e % * * * * 8 8 7 p.9X9Xp.p.u - G W.W.G G 2 9 8 8 8 8 8 8 8 8 8 8 8 8 8 8 8 8 8 8 * G.CXBXCXCXVXVXVXVXGXUXGXGXBXi e p % B.VXBXCXCXCXCXCXCXVXVXVXVXVXVXVXVXVXVXGXGXGXGXGXGXGXGXGXGXGXGXGXGXJXJXJXJXJXJXJXHXCXe 8 8 8 8 h.x.j.v.B.z.i 8 8 8 9 ^ d ^ 5 j 9 8 9 j ^ 6 6 j O Z.z.@ & >.gX# i c h.c.> 7 ,X{ & 8 8 8 8 8 8 % * * * % * 8 8 8 8 8 8 ",
"1.z.b k v z.k v $ A.HXJXGXKXPXVXHXKXKXIXKXPXKXPXPXKXPXHXJXnXvXGX$ 8 * k.1.k.c X.h.p v s v k g.f.$ B.GXVXKXKXJXHXKXVXDXBXHXPXKXPXDXHXx.JXD.o 8 8 nXBXnXbXbXbXVXBXBXbXBXGXCXp % c v.v x.g.k c v v 8 8 7 9X0X9Xp.9X} - W.W.G W.W.2 9 8 8 8 8 8 8 8 8 8 8 8 8 8 8 8 8 8 8 % F.BXbXbXBXnXCXCXBXbXCXBXGXCX8 e p % c.BXBXBXBXBXBXBXBXBXCXCXCXCXCXVXbXBXvX2XbXnXnXVXVXVXVXVXVXVXUXGXGXGXGXGXGXGXGXGXJXBX8 8 8 8 * s v p k s k * 8 8 8 3 ` ^ ^ ` ` 0 8 d ^ ` ` ^ ` O V.z.@ & { jX{ X v c c X { eXt = 8 8 8 * h.g.k v.z.h.8 k.v.m.k * 8 8 ",
"Z.Z.m.m.m.B.G.z.$ V.bXbXnXCXBXbXbXnXBXBXMXKXPXKXKXKXPXHXGXMXMXVX% 8 * b C.b.o f.B.B.v.B.v.c.V.j.% m.bXBXBXBXbXbXKXnXBXCXKXPXKXPXUXGXvXGXS.o 8 8 nXnXD.S.S.vXBXA.D.nXD.CXCXp % b c.k.B.m.Z.S.g.m.k = 7 9X0Xr.a.9X;.- W.Q.G W.W.2 9 8 8 8 8 8 8 8 8 8 8 8 8 8 8 8 8 8 8 % F.bXB.G.nXvXbXbXbXS.S.C.VXBX8 e p % m.CXBXBXBXBXBXBXBXCXCXCXCXCXCXVXvXBXvXD.S.G.G.VXVXVXVXVXVXGXGXGXGXGXGXGXGXGXGXGXJXBX8 8 8 8 8 8 % 8 i 8 * 8 8 8 8 8 d 5 3 3 d 8 8 8 8 d 5 i j o V.z.@ 8 8 eXeX# $ 3 - # ,Xr.= 8 8 8 8 8 z.k.g.v.V.g.f.B.B.Z.n % 8 8 ",
"h.X.g.X.g.j.g.X.% S.VXMXCXBXCXBXBXBXGXGXVXKXPXKXKXKXPXJXJXvXvXGX$ 8 * v g.j.v k b.X.g.X.g.X.k.f.* m.JXKXBXGXBXBXKXbXVXUXKXPXKXPXDXJXz.JXD.o 8 8 nXBXBXbXbXbXCXbXMXbXbXVXCXp * k k v 1.1.j.f.p j.k = 7 0XtX9X9X0X;.- Q.Q.W.W.W.D 9 8 8 8 8 8 8 8 8 8 8 8 8 8 8 8 8 8 8 % D.BXvXnXBXbXBXbXbXBXbXbXVXBX8 e p % c.BXBXBXBXBXBXBXBXBXCXCXCXCXCXVXnXvXnXBXnXbXbXbXbXBXVXVXVXVXVXGXGXGXGXGXGXGXGXGXJXBX8 8 8 8 8 8 k m.m.m.i 8 8 8 8 9 j i j 5 d 9 8 9 j i i j j o Z.b.$ e & { jX,XX % + r.eXt = 8 8 8 8 * X.h.b k.j.1.d b.g.z.k 8 8 e ",
"% * * * * * * 8 $ x.PXLXPXPXLXPXLXPXPXPXPXPXPXPXPXPXLXHXGXPXLXbX@ 8 8 8 * * 8 8 * * * * * 8 % 8 % f.KXPXPXPXLXLXPXPXPXPXPXPXPXLXDXKXPXPXk.% 8 8 vXCXBXCXVXVXVXVXVXVXVXGXBXp 8 8 8 * * * * * 8 * 8 8 7 tXlXtXtX0X,.- Q.].Q.W.W.D 9 8 8 8 8 8 8 8 8 8 8 8 8 8 8 8 8 8 8 * G.CXCXCXCXCXVXVXVXVXGXUXGXBXe e p % B.VXBXCXCXCXCXCXVXVXVXVXVXVXVXVXVXVXGXGXGXGXGXGXGXGXGXGXGXGXGXGXGXJXJXJXJXJXJXJXHXCX8 8 8 8 8 * k.m.B.C.p * 8 8 8 d ` ^ ^ ^ ^ 9 8 d ` ^ ` %X` O m.V.. * % + t r % * % r t + % % % % % % $ @ $ @ @ $ % @ $ $ % % % $ ",
"i e e e e i e e e 8 X.k.h.k.k.k.k.k.k.k.k.k.k.k.k.k.k.g.f.k.h.i 8 8 8 8 e e 8 e e e e e e e e e e 8 X.k.h.k.h.h.k.k.k.h.k.k.h.k.f.g.z.X.8 e 8 i v b b b b b b b b X.X.X.X.p 8 e 8 e e e e e 8 e e 8 e { { y y y r e D 2 2 2 2 1 8 8 8 8 8 8 8 8 8 8 8 8 8 8 8 8 8 8 8 8 c b n b b b b b b b b X.X.X.i p p 8 X.c.v.v.v.v.c.c.c.c.c.c.c.c.c.c.c.m.m.m.m.m.B.B.B.B.B.B.B.B.B.B.B.B.C.C.C.C.C.C.V.m.p 8 8 8 e 8 v j.f.j.i 8 8 8 8 i j j L j d 8 e i j j L ^ j 8 p nXB.b X.X.n b X.X.X.b b X.X.X.X.X.X.X.X.X.X.X.X.X.X.X.X.X.X.X.X.X.",
"o o o o o o o o o o . . . . . . . . . . . . . . . . . . . . . o o o o o o o o o o o o o o o o o o o . . . . . . . . . . . . . . . . . . o o o o O O O O . . . . . . . . . o o o o o o o o o o o o o o         o o o O O o o o o o o o o o o o o o o o o o o o o o o o o O O O O O . . . . . . . . O o @ o o O . . . . . . . . . . . . . . . . . . . . . . . . . . . . . . . . . . . . . . . . . o o o o o o O .   . o o o o o o O O O O o o o o O O O O O o   % m.A.A.A.A.A.A.A.A.A.A.A.A.A.A.A.A.A.A.A.A.A.A.A.A.A.A.A.A.A.A.Z.",
"S.A.A.A.A.Z.Z.S.Z.Z.S.S.S.A.S.A.S.S.S.S.S.S.S.S.S.S.S.S.S.S.S.S.A.A.A.A.A.A.A.A.A.A.A.A.A.A.A.A.A.A.S.S.S.S.S.S.S.S.S.S.S.S.S.S.S.S.S.S.A.A.A.A.S.S.S.S.S.S.S.S.S.S.S.S.S.A.A.A.A.A.A.A.A.A.A.A.A.A.A.A.A.A.A.A.A.A.A.A.A.A.A.A.A.A.A.A.A.A.A.A.A.A.A.A.A.A.A.A.A.A.A.A.S.S.S.S.S.S.S.S.S.S.S.S.S.S.A.A.A.A.S.S.S.S.S.S.S.S.S.S.S.S.S.S.S.S.S.S.S.S.S.S.S.S.S.S.S.S.S.S.S.S.S.S.S.S.S.S.S.S.S.S.A.A.A.A.A.A.S.S.S.S.A.A.A.A.A.A.S.S.S.S.S.A.A.A.S.S.S.S.S.A.S.Z.B.C.B.B.B.B.B.B.B.B.B.B.B.B.B.B.B.B.B.B.B.B.B.B.B.B.B.B.B.B.C.m.",
"KXLXLXLXLXLXLXPXLXLXLXLXLXLXLXLXLXLXLXbXX.k.k.k.k.k.k.k.k.k.k.k.k.k.k.k.k.k.k.k.k.k.k.k.k.k.k.k.k.k.k.k.k.k.k.k.k.k.k.k.k.k.k.k.k.k.k.k.k.k.k.k.k.k.k.k.k.k.k.k.k.k.k.k.k.k.k.k.k.k.k.k.k.k.k.k.k.k.k.k.k.k.k.k.k.k.k.k.k.k.k.k.k.k.k.k.k.k.k.k.k.k.k.k.k.k.k.k.k.k.k.k.k.k.k.k.k.k.k.k.k.k.k.k.k.k.k.k.k.k.k.k.k.k.k.k.k.k.k.k.k.k.k.k.k.k.k.k.k.k.k.k.k.k.k.k.k.k.k.k.k.k.k.k.k.k.k.k.k.k.k.k.k.k.k.k.k.k.k.k.k.k.k.k.k.k.k.k.k.k.k.k.k.k.k.k.k.k.k.k.k.k.k.k.k.k.k.k.k.k.k.k.k.k.k.k.k.k.k.k.k.k.k.k.k.k.k.k.k.k.k.k.k.k.k.z.",
"m.JXLXVXVXJXGXVXVXJXDXCXHXVXCXHXKXKXLXG.. % $ $ $ $ $ $ $ $ $ $ $ $ $ $ $ $ $ $ $ $ $ $ $ $ $ $ $ $ $ $ $ $ $ $ $ $ $ $ $ $ $ $ $ $ $ $ $ $ $ $ $ $ $ $ $ $ $ $ $ $ $ $ $ $ $ $ $ $ $ $ $ $ $ $ $ $ $ $ $ $ $ $ $ $ $ $ $ $ $ $ $ $ $ $ $ $ $ $ $ $ $ $ $ $ $ $ $ $ $ $ $ $ $ $ $ $ $ $ $ $ $ $ $ $ $ $ $ $ $ $ $ $ $ $ $ $ $ $ $ $ $ $ $ $ $ $ $ $ $ $ $ $ $ $ $ $ $ $ $ $ $ $ $ $ $ $ $ $ $ $ $ $ $ $ $ $ $ $ $ $ $ $ $ $ $ $ $ $ $ $ $ $ $ $ $ $ $ $ $ $ $ $ $ $ $ $ $ $ $ $ $ $ $ $ $ $ $ $ $ $ $ $ $ $ $ $ $ $ $ $ $ $ $ o ",
"S.JXLXJXMXMXbXMXnXJXHXMXbXBXnXiXJXKXLXG.o i 8 8 8 8 8 8 8 8 8 8 8 8 8 8 8 8 8 8 8 8 8 8 8 8 8 8 8 8 8 8 8 8 8 8 8 8 8 8 8 8 8 8 8 8 8 8 8 8 8 8 8 8 8 8 8 8 8 8 8 8 8 8 8 8 8 8 8 8 8 8 8 8 8 8 8 8 8 8 8 8 8 8 8 8 8 8 8 8 8 8 8 8 8 8 8 8 8 8 8 8 8 8 8 8 8 8 8 8 8 8 8 8 8 8 8 8 8 8 8 8 8 8 8 8 8 8 8 8 8 8 8 8 8 8 8 8 8 8 8 8 8 8 8 8 8 8 8 8 8 8 8 8 8 8 8 8 8 8 8 8 8 8 8 8 8 8 8 8 8 8 8 8 8 8 8 8 8 8 8 8 8 8 8 8 8 8 8 8 8 8 8 8 8 8 8 8 8 8 8 8 8 8 8 8 8 8 8 8 8 8 8 8 8 8 8 8 8 8 8 8 8 8 8 8 8 8 8 8 8 8 8 8 8 i ",
"nXKXLXIXVXbXGXGXGXHXKXVXGXVXGXDXKXLXKXX.% 8 8 8 8 8 8 8 8 8 8 8 8 8 8 8 8 8 8 8 8 8 8 8 8 8 8 8 8 8 8 8 8 8 8 8 8 8 8 8 8 8 8 8 8 8 8 8 8 8 8 8 8 8 8 8 8 8 8 8 8 8 8 8 8 8 8 8 8 8 8 8 8 8 8 8 8 8 8 8 8 8 8 8 8 8 8 8 8 8 8 8 8 8 8 8 8 8 8 8 8 8 8 8 8 8 8 8 8 8 8 8 8 8 8 8 8 8 8 8 8 8 8 8 8 8 8 8 8 8 8 8 8 8 8 8 8 8 8 8 8 8 8 8 8 8 8 8 8 8 8 8 8 8 8 8 8 8 8 8 8 8 8 8 8 8 8 8 8 8 8 8 8 8 8 8 8 8 8 8 8 8 8 8 8 8 8 8 8 8 8 8 8 8 8 8 8 8 8 8 8 8 8 8 8 8 8 8 8 8 8 8 8 8 8 8 8 8 8 8 8 8 8 8 8 8 8 8 8 8 8 8 8 8 8 8 ",
"KXHXHXHXHXGXHXHXHXHXHXHXHXHXHXHXHXGXc.% 8 8 8 8 8 8 8 8 8 8 8 8 8 8 8 8 8 8 8 8 8 8 8 8 8 8 8 8 8 8 8 8 8 8 8 8 8 8 8 8 8 8 8 8 8 8 8 8 8 8 8 8 8 8 8 8 8 8 8 8 8 8 8 8 8 8 8 8 8 8 8 8 8 8 8 8 8 8 8 8 8 8 8 8 8 8 8 8 8 8 8 8 8 8 8 8 8 8 8 8 8 8 8 8 8 8 8 8 8 8 8 8 8 8 8 8 8 8 8 8 8 8 8 8 8 8 8 8 8 8 8 8 8 8 8 8 8 8 8 8 8 8 8 8 8 8 8 8 8 8 8 8 8 8 8 8 8 8 8 8 8 8 8 8 8 8 8 8 8 8 8 8 8 8 8 8 8 8 8 8 8 8 8 8 8 8 8 8 8 8 8 8 8 8 8 8 8 8 8 8 8 8 8 8 8 8 8 8 8 8 8 8 8 8 8 8 8 8 8 8 8 8 8 8 8 8 8 8 8 8 8 8 8 8 8 8 ",
"i i p p p d i i i i p i i i i i p * 7 e 8 7 7 7 7 7 7 7 7 7 7 7 7 7 7 7 7 7 7 7 7 8 8 8 8 8 8 8 e e 8 8 8 8 8 8 8 8 8 8 8 8 8 * * * * * * * * * * * * * * 8 8 p 8 8 9 9 9 9 9 9 9 9 9 9 9 9 9 9 9 9 9 8 8 8 8 8 8 8 8 8 8 p 8 8 8 8 8 8 8 8 8 8 8 8 8 * * * * * * * * * * * * * * 8 8 p 8 8 & & & & & & & & & & & & & & = = = = 8 8 8 8 8 8 8 8 e i 8 8 8 8 8 8 8 8 8 8 8 8 * * * * * * * * * * * * * * 8 8 p 8 8 = = = = = = = = = = = = = = = = = = = 8 8 8 8 8 8 8 8 p 8 8 8 8 8 8 8 8 8 8 8 8 8 * * * * * * * * * * * * * 8 ",
"8 8 8 8 * % 8 8 8 8 8 * 8 8 8 8 8 8 p 8 8 < , , , , < < < < < < < < < < < < < < < < < < < < & 8 i i 8 e p p p p d d d d s s s s s k s s k k k k k k c c k 8 8 p 8 1 5 5 5 5 5 5 5 5 5 5 5 5 5 1 1 1 1 1 1 1 1 1 1 1 1 = 8 p 8 8 i p p p d d d d s s s s s s s s k k k k k k c c k 8 8 p 8 r y y y y y y y u u u u u u u u u u u u u u r r r r 8 e p 8 8 p p p p d d d d s s s s s k s k k k k k k c c c i 8 p 8 8 w w w w w w w w w w w w w w 0 9 9 9 9 9 9 9 9 9 9 8 8 p 8 8 i p p p d d d d s s s s s k s s k k k k k k c c s ",
"8 8 8 8 p c 8 * * * 8 k 8 8 8 8 8 8 p 8 7 K.U.P.P.P.P.P.P.P.P.L.L.L.L.L.K.K.B B B B N N N N : 7 i p * c c.c.c.B.B.B.C.V.V.V.S.V.S.S.F.F.F.vXvXvXvXvXnXbXB.% e p 9 F _._._._._._._._._._.).).).).).).H H H H H H H H F * 8 p 8 8 z.c.c.m.B.B.C.V.V.V.S.S.S.S.G.F.F.vXvXvXvXvXnXbXS.= 8 p & u tXtXtXtXtXtXtXtXtXtX0X9X9X9X9X9Xp.p.p.p.a.a.a.a.u & e p * k c.c.c.B.B.B.C.V.V.Z.S.S.S.S.F.F.&XvXvXvXvXnXnXnXc * p 8 * -X5X;X;X;X;X;X;X;X;X-X-X-X-X-X-X-X@.@.@.@.@.@.@.[ * 8 p 8 8 z.c.c.m.B.B.C.V.V.V.S.V.S.S.F.F.F.vXvXvXvXvXnXbXx.",
"8 8 8 % X.Z.X.g.b.X.k.z.% 8 8 8 8 8 p 8 7 K.U.U.U.P.P.P.P.P.P.P.Y.P.P.P.K.K.K.B B B B N N N : 7 i p * c c.c.B.B.B.C.V.V.Z.S.k.m.C.B.F.vXvXvXvXvXnXnXnXbXB.% e p 9 F {.{.{._._._._._._._.H H / H ).).)./ H H H H H H F * 8 p 8 8 z.B.B.B.B.C.V.V.V.G.c.k.m.B.S.vXvXvXvXvXvXnXnXbXS.= 8 p & u tXlXlXtXtXtXtXtXtXtXa.a.9Xp.9X9X9Xp.p.p.p.a.a.a.u & e p * k c.c.B.B.C.C.V.V.S.V.j.v.V.B.vXvXvXvXvXvXnXnXnXnXk * p 8 * -X5X5X5X;X;X;X;X;X;X-X@.-X*.*.-X-X-X@.@.@.@.@.@.[ * 8 p 8 8 z.B.B.B.B.C.V.V.V.S.z.k.B.B.D.vXvXvXvXvXnXnXnXbXz.",
"8 8 8 % 1.Z.B.F.v.m.B.k.% 8 8 8 8 8 p 8 7 K.U.U.U.P.P.P.P.P.P.P.P.L.L.P.K.K.K.B B B B N N N : 7 i p * c c.c.B.B.B.C.V.V.V.V.v.c.V.B.D.F.vXvXvXvXvXvXvXbXB.% e p 9 F {.{.{._._._._._._._./ ).)./ ).).).H H H H H H H F * 8 p 8 8 z.c.c.B.B.C.C.V.V.S.B.c.B.V.V.vXF.vXvXvXvXvXvXnXV.= 8 p & u tXlXlXtXtXtXtXtXtXtXp.9X9Xp.9X9X9Xp.p.p.p.a.a.a.u & e p * k c.c.B.B.B.C.V.V.S.V.v.c.V.C.F.F.vXvXvXvXvXvXnXvXk * p 8 * -X5X5X5X;X;X;X;X;X;X-X*.-X-X*.-X-X*.@.@.@.@.@.@.[ * 8 p 8 8 z.c.c.B.B.C.C.V.V.S.c.c.C.C.G.F.vXvXvXvXvXvXvXbXz.",
"8 8 8 8 s X.v n s p b k * 8 8 8 8 8 p 8 7 K.U.U.U.U.U.P.P.P.P.P.P.L.L.L.K.K.K.K.B B B B N N : 7 i p * c m.c.B.B.C.V.V.V.S.S.G.G.D.F.F.vXvXvXvXvXnXnXnXbXB.% e p 9 F {.{.{.{.{._._._._._._._.).).).).).).H H H H H H F * 8 p 8 8 z.B.B.B.B.C.V.V.Z.S.G.F.F.F.F.vXvXvXvXvXvXnXnXbXS.= 8 p & y lXlXlXlXlXtXtXtXtXtXtXtX0X0X9X9X9X9Xp.p.p.p.a.a.u & e p * k m.c.B.B.C.V.V.V.S.S.D.F.F.F.F.vXvXvXvXvXnXnXnXnXk * p 8 * -X5X5X5X5X;X;X;X;X;X;X;X-X-X-X-X-X-X@.@.@.@.@.@.[ * 8 p 8 8 z.B.B.B.B.C.V.V.Z.S.G.D.F.F.F.vXvXvXvXvXnXnXnXbXz.",
"8 8 8 8 8 % * * * 8 % * 8 8 8 8 8 8 p 8 8 M M M M M M M M M M M M M : : : : : : : : < < < < < 8 i i 8 i s s s k k k c c c c c c v v n n n n b b b b b X.c 8 8 p 9 4 F F F F F F F F F F F F F 5 5 5 5 5 2 2 2 2 2 2 1 = 8 p 8 8 s s s k k k c c c c c c v v v n n n b b b b b b n 8 8 p = r ,.,.,.,.,.,.,.,.,.;.;.;.;.{ y y u u u u u u u u 7 8 e p 8 i s s s k k k c c c c c c v v n n n b b b b b b b p 8 p 8 8 [ [ [ [ [ [ [ [ [ [ [ [ [ ] ] w w w w w w 0 0 0 0 8 8 p 8 8 s s s k k k c c c c c c v v v n n n b b b b b X.c ",
"8 8 8 8 8 8 8 8 8 8 8 8 8 8 8 8 8 8 p 8 8 7 7 7 7 7 7 7 7 7 7 7 7 7 7 7 7 7 7 7 7 7 7 7 7 7 8 8 i i 8 8 * * * * * * * * * * * * * * * * * * * * * * * % * 8 8 p 8 8 9 9 9 9 9 9 9 9 9 9 9 9 9 9 9 9 9 9 9 9 9 9 9 9 8 8 8 p 8 8 8 * * * * * * * * * * * * * * * * * * * * * * % * 8 8 p 8 8 & & & & & & & & & & & & & & & & & & & & = = = = 8 8 e i 8 8 * * * * * * * * * * * * * * * * * * * * * * * * 8 8 p 8 8 = = = = = = = = = = = = = = = = = = = = = = = = 8 8 8 p 8 8 8 * * * * * * * * * * * * * * * * * * * * * * % 8 ",
"8 8 8 8 8 8 8 8 8 8 8 8 8 8 8 8 8 8 p 8 8 8 8 8 8 8 8 8 8 8 8 8 8 8 8 8 8 8 8 8 8 8 8 8 8 8 8 8 i i 8 8 8 8 8 8 8 8 8 8 8 8 8 8 8 8 8 8 8 8 8 8 8 8 8 8 8 8 8 p 8 8 8 8 e 8 8 8 8 8 8 8 8 8 8 8 8 8 8 8 8 8 8 8 8 8 8 8 8 p 8 8 8 8 8 8 8 8 8 8 8 8 8 8 8 8 8 8 8 8 8 8 8 8 8 8 8 8 8 p 8 8 8 8 e 8 8 8 8 8 8 8 8 8 8 8 8 8 8 8 8 8 8 8 8 8 8 8 e p 8 8 8 8 8 8 8 8 8 8 8 8 8 8 8 8 8 8 8 8 8 8 8 8 8 8 8 8 p 8 8 8 8 8 8 8 8 8 8 8 8 8 8 8 8 8 8 8 8 8 8 8 8 8 8 8 8 8 p 8 8 8 8 8 8 8 8 8 8 8 8 8 8 8 8 8 8 8 8 8 8 8 8 8 8 8 ",
"8 8 8 8 * * 8 * * * * 8 8 8 8 8 8 8 p 8 8 8 8 8 8 8 8 8 8 8 8 8 8 e 8 8 8 8 8 8 8 8 8 8 8 8 8 8 i i 8 8 8 8 * 8 8 8 8 8 8 8 8 8 8 8 8 8 8 8 8 8 e 8 8 8 8 8 8 p 8 8 8 8 9 8 e 9 9 8 8 8 8 8 8 8 8 8 8 8 i 8 i 8 8 8 8 8 8 p 8 8 8 8 * 8 8 8 8 8 8 8 8 8 8 8 8 8 i 8 8 i e 8 8 8 8 8 8 p 8 8 8 8 + 8 r & = 8 8 8 8 8 8 8 8 8 8 p i p 8 8 8 8 8 8 e p 8 8 8 8 * 8 8 * 8 8 8 8 8 8 8 8 8 8 8 e 8 e p 8 8 8 8 8 p 8 8 8 8 = = 8 = = 8 8 8 8 8 8 8 8 e i 8 8 8 8 8 8 8 8 8 8 p 8 8 8 8 * 8 8 * 8 8 8 8 8 8 8 8 8 8 8 8 8 8 8 8 8 8 8 ",
"8 8 * d v.v p k s s s p p 8 8 8 8 8 p 8 8 8 8 8 8 8 8 8 8 8 8 8 8 z.h.* 8 8 8 8 8 8 8 8 8 8 8 8 i i 8 8 8 8 c b b v 8 8 8 8 8 8 8 8 8 8 f.g.b s j.p 8 8 8 8 8 p 8 8 8 8 F / / / 4 9 8 8 8 8 8 8 8 * n z.k.v.v.s * 8 8 8 8 p 8 8 8 8 k b n b d 8 8 8 8 8 8 8 8 8 s g.k.k f.p 8 8 8 8 8 p 8 8 8 8 p.tX0Xp.t & 8 8 8 8 8 8 8 8 v.X.x.f.k.* 8 8 8 8 e p 8 8 8 i f.g.h.b 8 8 8 8 8 8 8 8 8 X.X.X.g.X.f.k * 8 8 8 p 8 8 8 = [ ;X-X;X[ = 8 8 8 8 8 8 8 s m.v.x.B.b x.8 8 8 8 8 p 8 8 8 8 n j.j.g.p 8 8 8 8 8 8 * k f.X.g.f.g.f.j.k * 8 ",
"8 8 * k F.j.C.V.m.c.m.S.j.% 8 8 8 8 p 8 8 8 8 8 8 8 8 8 8 8 8 8 i z.z.8 8 8 8 8 8 8 8 8 8 8 8 8 i i 8 8 8 n k % $ d X.8 8 8 8 8 8 8 * k m.h.X.b g.k * 8 8 8 8 p 8 8 9 H H ; - 5 ).5 9 8 8 8 8 8 8 * p v.h.Z.x.v * 8 8 8 8 p 8 8 * c j.8 @ = b k 8 8 8 8 8 8 8 * k X.v 1.X.8 8 8 8 8 8 p 8 8 & 0X,X7 r ;.0Xt = 8 8 8 8 8 * p V.h.x.k.f.* 8 8 8 8 e p 8 8 i h.s $ o v f.* 8 8 8 8 8 8 * b k f.v.X.b e 8 8 8 8 p 8 8 - [ ;Xw % w ;X@.- 8 8 8 8 8 8 8 m.m.A.V.Z.Z.8 8 8 8 8 p 8 8 * f.b % $ s k.p 8 8 8 8 8 8 i g.X.z.g.k.k.j.v * 8 ",
"8 8 * s g.k.B.j.X.v.B.x.c * 8 8 8 8 p 8 8 8 8 8 8 8 8 8 8 8 8 8 * X.b * 8 8 8 8 8 8 8 8 8 8 8 8 i i 8 8 k c . $ i   d c * 8 8 8 8 8 8 8 c v v k b 8 8 8 8 8 8 p 8 9 F ).q f.s + 1 / 9 8 8 8 8 8 8 8 p c 1.X.j.8 8 8 8 8 8 p 8 8 e h.  1.c.  $ b 8 8 8 8 8 8 8 * n b c X.X.8 8 8 8 8 8 p 8 + r.0X. j BXX ;.p.& 8 8 8 8 8 8 8 X.f.X.z.X.* 8 8 8 8 e p 8 * f.s . = f.i k s 8 8 8 8 8 8 8 s k v v v k 8 8 8 8 8 p 8 = q ;X9 ; k ; @ ;Xp = 8 8 8 8 * k f.b X.g.v X.8 8 8 8 8 p 8 * k f.. - 1 . d f.* 8 8 8 8 8 8 s v v v v v n p 8 8 ",
"8 8 8 8 * 8 % * % X.b % 8 8 8 8 8 8 p 8 8 8 8 8 8 8 8 8 8 8 8 8 8 % % * 8 8 8 8 8 8 8 8 8 8 8 8 i i 8 8 v = f.B.k 3 % n 8 8 8 8 8 8 8 8 * % * % % 8 8 8 8 8 8 p 8 0 / H l VXb.j $ / 3 8 8 8 8 8 8 8 8 % % % $ 8 8 8 8 8 8 p 8 * k X.. b B.d   c d 8 8 8 8 8 8 8 * % * % % 8 8 8 8 8 8 p 8 + 9X,.X j.vXs # p.e 8 8 8 8 8 8 * % % % $ * 8 8 8 8 8 e p 8 8 g.% - n vXi 8 v * 8 8 8 8 8 8 8 * % * % * 8 8 8 8 8 p 8 * [ -X; k z.CXj @.[ = 8 8 8 8 8 % * * % % % % * 8 8 8 8 p 8 * X.s   d g.s o g.8 8 8 8 8 8 8 8 * % * % % * 8 8 8 ",
"8 8 8 8 8 8 n p k i k 8 8 8 8 8 8 8 p 8 8 8 8 8 8 8 8 8 8 8 8 e p s s k 8 8 8 8 8 8 8 8 8 8 8 8 i i 8 * 1.d c b.d - * n 8 8 8 8 8 8 8 8 i k e c k 8 8 8 8 8 8 p 8 0 H / . j b d $ / e 8 8 8 8 8 8 8 8 s k k k 8 8 8 8 8 8 p 8 * s f.. = i i   v p 8 8 8 8 8 8 8 8 k e k c e 8 8 8 8 8 p 8 + ,Xa.X c c 3 * ,X8 8 8 8 8 8 8 k s k p s 8 p 8 8 8 8 e p 8 8 j.% $ d d   p c * 8 8 8 8 8 8 8 p s p v s 8 8 8 8 8 p 8 = ] ;X; d f.c.- @.] = 8 8 8 8 8 c 8 p k p k s d 8 8 8 8 p 8 * b c   3 B.B.$ j.8 8 8 8 8 8 8 8 8 k 8 c k 8 8 8 8 ",
"8 8 8 8 * s m.m.v.x.v.p 8 8 8 8 8 8 p 8 8 8 8 8 8 8 8 8 8 8 * k c.h.B.m.v * 8 8 8 8 8 8 8 8 8 8 i i 8 * k j.  . $   c k 8 8 8 8 8 8 8 8 X.b j.x.1.* 8 8 8 8 8 p 8 9 4 _.5 o - O F H 9 8 8 8 8 8 8 % k.b.h.h.k.k * 8 8 8 8 p 8 8 8 g.s   -   i n 8 8 8 8 8 8 8 * c X.1.z.z.i 8 8 8 8 8 p 8 & { tX7 $ =   a.r.& 8 8 8 8 8 * b C.v.C.m.k.h.% 8 8 8 e p 8 * n X.  $ $ $ b p 8 8 8 8 8 8 8 p X.b k.v.c * 8 8 8 8 p 8 8 = -X[ ; = . w -X8 8 8 8 8 8 8 k.j.C.z.B.v.B.h.8 8 8 8 p 8 8 p j.%   ; $ c n * 8 8 8 8 8 8 * b b g.x.g.* 8 8 8 ",
"8 8 8 8 * k c.f.v.x.k.s * 8 8 8 8 8 p 8 8 8 8 8 8 8 8 8 8 8 8 8 b.h.C.c.b % 8 8 8 8 8 8 8 8 8 8 i i 8 8 * X.v % % p v 8 8 8 8 8 8 8 8 8 X.v j.X.c * 8 8 8 8 8 p 8 8 0 H ).+ % 1 / e 8 8 8 8 8 8 8 * z.m.k.c.z.e 8 8 8 8 8 p 8 8 * s g.* % * v p 8 8 8 8 8 8 8 * v n f.1.X.8 8 8 8 8 8 p 8 8 + p.p.X $ y p.8 8 8 8 8 8 8 * v B.m.Z.C.S.z.% 8 8 8 e p 8 8 8 g.s % % k k 8 8 8 8 8 8 8 8 p X.b g.X.s * 8 8 8 8 p 8 8 = ] ;X* % * *.w = 8 8 8 8 8 p x.v.F.z.C.v.C.k.8 8 8 8 p 8 8 * n b % % 8 v 8 8 8 8 8 8 8 8 * X.v g.X.v * 8 8 8 ",
"8 8 8 8 8 8 n * p k b 8 8 8 8 8 8 8 p 8 8 8 8 8 8 8 8 8 8 8 8 8 d c c b i 8 8 8 8 8 8 8 8 8 8 8 i i 8 8 8 8 8 8 8 8 8 8 8 8 8 8 8 8 8 8 p v i d i 8 8 8 8 8 8 p 8 8 8 9 8 8 8 8 9 8 8 8 8 8 8 8 8 8 d n v b f.8 8 8 8 8 8 p 8 8 8 8 8 8 8 8 8 8 8 8 8 8 8 8 8 8 8 v p p p 8 8 8 8 8 8 p 8 8 8 & 8 8 8 8 = 8 8 8 8 8 8 8 8 v c c k v p s 8 8 8 8 e p 8 8 8 8 8 8 8 8 8 8 8 8 8 8 8 8 8 8 k k i s 8 8 8 8 8 8 p 8 8 8 = = 8 8 8 8 = 8 8 8 8 8 8 p g.p l n k v c c * 8 8 8 p 8 8 8 8 8 8 8 8 8 8 8 8 8 8 8 8 8 8 p v i p p 8 8 8 8 ",
"8 8 8 8 8 8 * 8 8 * * 8 8 8 8 8 8 8 p 8 8 8 8 8 8 8 8 8 8 8 8 8 8 * * * 8 8 8 8 8 8 8 8 8 8 8 8 i i 8 8 8 8 8 8 8 8 8 8 8 8 8 8 8 8 8 8 8 * 8 8 8 8 8 8 8 8 8 p 8 8 8 8 8 8 8 8 8 8 8 8 8 8 8 8 8 8 8 * * * % 8 8 8 8 8 8 p 8 8 8 8 8 8 8 8 8 8 8 8 8 8 8 8 8 8 8 * 8 8 8 8 8 8 8 8 8 p 8 8 8 8 8 8 8 8 8 8 8 8 8 8 8 8 8 * * 7 7 * 8 7 8 8 8 8 e p 8 8 8 8 8 8 8 8 8 8 8 8 8 8 8 8 8 8 7 * 8 8 8 8 8 8 8 8 p 8 8 8 8 8 8 8 8 8 8 8 8 8 8 8 8 8 % 8 8 * * * * * 8 8 8 8 p 8 8 8 8 8 8 8 8 8 8 8 8 8 8 8 8 8 8 8 * 8 8 8 8 8 8 8 ",
"8 8 8 8 8 8 8 8 8 8 8 8 8 8 8 8 8 8 p 8 8 7 7 7 7 7 7 7 7 7 7 7 7 7 7 7 7 7 7 7 7 7 7 7 7 7 8 8 i e 8 8 9 9 9 9 9 9 7 7 7 7 7 7 7 7 7 7 7 8 7 8 8 8 8 8 8 8 8 p 8 8 9 9 9 9 9 9 9 9 9 9 9 9 9 9 9 9 9 9 9 9 9 9 9 9 8 8 8 p 8 8 9 9 9 9 9 9 9 9 9 9 9 9 9 9 8 8 8 8 8 8 8 8 8 8 8 8 8 p 8 8 & & & & & & & & & & & & & & & & & & & & & & & & 8 8 e i 8 = = = = = = = = = = = = = = = = = = = = = = = = = 8 8 p 8 8 = = = = = = = = = = = = = = = = = = = = = = = = = 8 8 p 8 8 * * * * * * * * * * * * * * * * 7 7 7 7 7 7 7 7 8 ",
"8 8 8 8 8 8 8 8 8 8 8 8 8 8 8 8 8 8 p 8 8 M N N N N N N N N M M M M M M M M M M M M : : : : < 8 i i 7 6 C C C C C C C C C C 6 6 6 6 6 6 6 6 6 < < < < < - 8 8 p 9 5 H H H H H H H H F F F F F F F F F F F F 5 5 2 2 2 = 8 p 8 1 D D D D D D D D D D 2 2 2 2 2 2 2 2 2 2 2 2 2 ; ; * 8 p = r a.a.a.a.a.a.a.,.,.,.,.,.,.,.,.,.,.;.;.;.u u u u u = e p = 0 $.$.$.$.$.$.$.$.$.$.$.$.$.$.0 0 0 0 0 0 0 0 0 0 9 8 p 8 8 [ @.@.@.@.@.@.@.[ [ [ [ [ [ [ [ [ [ [ [ [ w w w 0 8 8 p 8 q Z Z Z Z Z Z Z Z Z Z Z Z Z Z w w w w w w w w > > & ",
"8 8 8 8 8 8 8 8 8 8 8 8 8 8 8 8 8 8 p 8 7 K.U.U.U.U.P.P.P.P.P.P.L.K.K.K.K.K.K.K.B B B B N N : 7 i i 9 C T.T.T.T.T.T.T.T.` ` ` ^ ^ ^ ^ ^ ^ C C C C C C 6 < 7 8 p 9 F {.{.{.{.{._._._._._._.).).).).).).).H H H H H H F * 8 p 8 1 W.W.W.W.W.W.W.W.G G G G D G G D D D D D D D D 2 2 * 8 p & u lXlXlXlXlXtXtXtXtXtXtX9X9X9X9X9X9X9Xp.p.p.p.a.a.u & e p = $.=X=X=X=X=X=X=X=X=X=X=X$.$.$.$.$.$.$.$.$.$.$.$.$.0 8 p 8 * -X5X5X5X5X;X;X;X;X;X;X-X-X-X-X-X-X-X@.@.@.@.@.@.[ * 8 p 7 q R.R.R.R.R.R.R.R.R.R.-.-.-.-.-.-.-.-.-.-.Z Z Z Z > ",
"8 8 8 8 8 8 8 8 8 8 8 8 8 8 8 8 8 8 p 8 7 K.U.P.P.P.P.P.P.P.P.P.B B M B K.K.B B B B B N N N : 7 i i 9 C T.T.T.T.T.T.` ` ` ` ^ C C C ^ ^ C C C C C C 6 6 < 7 8 p 9 F {.{._._._._._._._._.).H H H ).).).H H H H H H H F * 8 p 8 1 W.W.W.W.W.W.W.G G G G D D D G D D D D D D D 2 2 2 * 8 p & u tXlXtXtXtXtXtXtXtXtX9Xp.,.a.9X9X9Xp.p.p.p.a.a.a.u & e p = $.=X=X=X=X=X=X=X=X=X=X$.$.$.$.$.$.$.$.$.$.$.$.$.$.0 8 p 8 * -X5X;X;X;X;X;X;X;X;X-X*.@.[ -X-X-X@.@.@.@.@.@.@.[ * 8 p 7 q R.R.R.R.R.R.R.R.R.R.-.-.Z Z -.-.-.-.-.Z Z Z Z Z > ",
"8 8 8 * 8 8 8 8 * 8 8 8 8 8 8 8 8 8 p 8 7 K.U.U.U.U.P.P.P.P.P.P.L.K.K.K.K.K.K.K.B B B B N N : 7 i i 9 C T.T.T.T.T.T.T.T.` ` ` ^ ^ ^ ^ ^ ^ C C C C C C C < 7 8 p 9 F {.{.{.{.{._._._._._._.).).).).).).).H H H H H H F * 8 p 8 1 W.W.W.W.W.W.W.W.G G G G G D G D D D D D D D D 2 2 * 8 p & u lXlXlXlXlXtXtXtXtXtXtX9X9X9X9X9X9X9Xp.p.p.p.a.a.u & e p - $.=X=X=X=X=X=X=X=X=X=X=X$.$.$.$.$.$.$.$.$.$.$.$.$.0 8 p 8 * -X5X5X5X5X;X;X;X;X;X;X-X-X-X-X-X-X-X@.@.@.@.@.@.[ * 8 p 7 q R.R.R.R.R.R.R.R.R.R.-.-.-.-.-.-.-.-.-.-.Z Z Z Z > ",
"8 * s h.p i i p c p p i X.s 8 8 8 8 p 8 7 K.U.P.P.P.P.P.P.L.L.L.L.K.K.K.K.B B B B N N N N N : 7 i i 9 C T.T.T.T.T.` ` ` ` ` ` ` ^ ^ C C C C C C C 6 6 6 < 7 8 p 9 F {._._._._._._._.).).).).).).).H H H H H H H H H F = 8 p 8 1 W.W.W.W.W.G G G G G G G G D D D D D D D D 2 2 2 2 * 8 p & y tXtXtXtXtXtXtXtXtX0X0X9X9X9X9Xp.p.p.p.a.a.a.,.,.u & e p = $.=X=X=X=X=X=X=X=X=X=X=X$.$.$.$.$.$.$.$.$.$.$.$.$.0 8 p 8 * -X5X;X;X;X;X;X;X;X-X-X-X-X-X-X*.@.@.@.@.@.@.@.@.[ * 8 p 7 w R.R.R.R.R.R.R.R.-.-.-.-.-.-.-.-.-.Z Z Z Z Z Z Z > ",
"e % z.k j.x.m.m.B.x.k.x.c.m.c * 8 8 p 8 8 < < < < X X X X X X X + > + + + X X X X X X X X X + 8 e i 8 > > > - - - - - - - - - - - - - - - - - $ $ $ $ $ $ 8 8 p 8 1 1 1 1 1 - - - - - - ; 1 1 - - - ; ; ; ; ; ; ; ; $ 8 8 p 8 = 1 # # # # # # # # # # * * # # # # # # # @ @ @ @ @ 8 8 p 8 e u 7 7 7 7 7 7 # 7 # # r r # # # # # # # # # # # % 8 e p 8 0 0 0 0 0 0 0 0 0 0 0 0 0 0 0 0 0 % % @ @ @ @ @ @ 9 8 p 8 8 0 0 0 0 0 0 0 0 0 0 + 9 9 0 0 + + + + @ @ @ @ o @ 8 8 p 8 8 q q & & & & & & & & & 9 9 & & & & + + + + + + + & ",
"8 * X.j.h.x.g.g.x.f.X.v.h.z.X.% 8 8 p 8 8 X.k.k.b.z.z.z.x.x.x.v.b.8 b k.h.b.z.z.z.v.v.x.x.c.X.* p i 8 p k x v v b b X.X.X.1.1.e e c c c v n b X.X.X.X.f.n 8 8 p * l k.k.k.z.z.z.z.x.z.x.v.k p h.k.k.z.z.z.x.v.x.x.v.z.8 8 p 8 8 k c c n n b b &.X.&.f.p 8 c c c n n b X.&.&.X.f.b 8 8 p 8 p j.h.h.b.z.z.z.v.z.z.v.d s h.h.k.b.z.z.x.v.x.z.c.X.* i p 8 i c c c n b b b ) b f.b 8 d c c v n n b X.f.X.f.f.d * p 8 8 E h.h.z.z.z.z.v.x.z.c.b 8 g.h.h.z.z.z.x.v.x.z.v.b.8 8 p 8 8 k x c v n b b 1.X.1.f.p e x c c v n b b 1.X.1.f.v ",
"8 8 8 p 8 e 8 8 e 8 8 i 8 p 8 8 8 8 p e % G.VXVXBXBXBXVXCXVXJXHXBX$ C.VXVXCXCXCXVXBXCXGXJXHXV.@ p p * v V.V.V.V.V.F.F.F.nXbXvXi s C.V.V.V.V.G.S.S.vXnXbXB.% e p % X.CXVXCXBXBXVXVXCXJXJXJXf.s BXVXVXCXCXVXCXBXVXJXHXCX8 8 p 8 8 c.V.V.V.V.S.F.G.vXnXnXk i B.V.V.V.V.G.S.S.vXnXbXG.= 8 p * k BXVXCXBXBXVXVXCXGXJXGXc b CXVXCXCXCXVXBXCXGXJXHXA.@ p p * c C.V.V.V.V.F.F.F.nXbXG.% b V.V.V.V.S.G.S.F.nXnXnXc * p 8 * vXVXVXBXBXCXUXCXGXJXHXV.% bXVXCXCXBXVXCXBXVXJXHXBX8 8 p 8 e c.V.V.V.V.G.F.D.nXnXnXk i B.V.V.V.V.G.S.G.vXnXbXx.",
"8 8 8 8 8 8 8 8 8 8 8 8 8 8 8 8 8 8 p e % S.CXCXnXvXvXnXnXbXGXJXbX$ B.CXCXbXV.2XbXnX2XVXGXJXB.$ p p * c B.C.c.z.v.m.B.C.vXnXvXe s B.C.B.j.k.B.B.v.G.vXnXc.% e p % b BXCXBXF.vXvXbXnXVXGXGXX.s BXCXCXG.S.nXbXvXbXGXGXBX8 8 p 8 8 v.C.C.z.v.v.C.B.F.nXvXk i c.C.C.h.h.m.B.v.Z.vXnXV.= 8 p * k bXCXBXF.vXvXbXnXVXGXVXk n BXCXbXV.F.bXnX2XVXGXJXV.$ p p * c B.V.m.z.c.m.C.C.vXnXV.% b C.V.z.g.v.B.c.m.vXvXvXk * p 8 * F.CXCXvXvXvXbXnXBXGXJXC.% nXCXBXG.S.nXbXvXbXGXGXbX8 8 p 8 8 v.C.C.z.v.v.C.B.F.nXvXs i B.C.m.g.z.B.B.v.F.vXnXz.",
"8 8 8 8 8 8 8 8 8 8 8 8 8 8 8 8 8 8 p e % S.VXCXMXnXbXbXbXCXGXJXbX$ B.VXCXBXnXbXbXCXbXVXGXJXB.$ p p * c C.C.B.c.B.C.V.S.vXvXF.e s B.C.V.c.B.B.G.V.D.vXnXc.% e p % b BXCXBXnXbXbXbXBXGXGXGXX.s BXCXCXbXbXbXCXBXBXGXGXBX8 8 p 8 8 v.C.V.c.B.C.V.V.vXvXvXs i m.C.V.c.B.B.S.V.G.vXnXV.* 8 p * k BXCXCXbXbXbXbXMXVXGXVXk n CXCXBXnXbXbXCXbXVXGXJXC.$ p p * c B.C.C.c.B.C.V.S.vXnXV.% b C.C.B.c.B.V.S.V.vXvXvXk * p 8 % F.VXCXbXnXbXbXbXCXGXJXB.% nXCXCXbXbXbXCXBXBXGXJXbX8 8 p 8 8 v.C.V.c.B.C.V.V.vXvXvXs i B.C.C.c.B.C.G.V.F.vXnXk.",
"8 8 8 8 8 8 8 8 8 8 8 8 8 8 8 8 8 8 p e % S.CXBXCXVXVXVXVXVXVXGXbX% B.CXBXCXVXVXVXVXVXVXVXGXB.$ p p * c B.B.C.V.S.S.G.F.F.vXG.e s c.B.B.V.Z.S.G.F.F.F.vXv.% e p % b BXBXBXCXVXVXVXVXVXVXVXX.s BXBXBXCXVXVXVXVXVXVXGXbX8 8 p 8 8 z.B.B.V.Z.S.G.F.F.F.F.s i c.B.B.V.V.S.G.F.F.F.vXB.= 8 p * k bXBXBXCXVXVXVXVXVXVXVXk n BXBXBXCXVXVXVXVXVXVXGXC.$ p p * c m.B.C.V.S.S.D.F.F.vXB.% b B.B.C.V.S.S.G.F.F.F.F.s * p 8 * F.CXBXCXVXVXVXVXVXVXGXB.% nXBXBXCXVXVXVXVXVXVXGXbX8 8 p 8 8 z.B.B.V.Z.S.G.F.F.F.F.s i c.B.B.V.V.S.G.F.F.F.vXh.",
"8 8 8 8 8 8 8 8 8 8 8 8 8 8 8 8 8 8 p 8 8 k n n n n n b b b b b b e k n n n n n b b b b b X.k * i i 8 e d d d s s s s s s k k i i d d d d s s s s s k k d 8 8 p * p n n n n n b b b b b X.s p n n n n n n b b b b b n 8 8 p 8 8 p d d d s s s s s k k i 8 d d d d s s s s s k k s 8 8 p 8 i v n n n n n b b b b X.p d n n n n n b b b b b X.k * i p 8 8 d d d s s s s s s k s 8 i d d d s s s s s s k k i 8 p 8 8 c n n n n n b b b b X.c e v n n n n n b b b b b n 8 8 p 8 8 p d d d s s s s s k k i 8 d d d d s s s s s k k d ",
"8 8 8 8 8 8 8 8 8 8 8 8 8 8 8 8 8 8 p 8 8 % O O O . . . . . . . . o O . O O . . . . o O . O * 8 e e 8 8 $ o @ o o o o o o o o $ $ @ @ o o o o o @ $ o o * 8 8 p 8 8 o . O . . . . . . . . o o O O O O . . . O o . . $ 8 8 p 8 8 % o @ o o o o o o o o @ $ @ @ @ o o o o @ $ o o % 8 8 p 8 8 o . O . . . . . . . . o o O O O . . . . o O . . * 8 e i 8 8 $ o @ o o o o o o o o $ $ @ @ o o o o o $ o o % 8 8 p 8 8 % . O O . . . . . . . O o O O O O . . .   o . . $ 8 8 p 8 8 % o @ o o o o o o o o $ $ @ @ @ o o o o $ @ o o 8 ",
"8 8 * 8 8 * 8 8 8 8 8 8 8 8 8 8 8 8 p 8 * k S.G.G.G.G.G.G.G.G.G.D.G.G.G.G.G.G.G.G.D.B.V.vXV.e 8 i i 8 e k.v.v.v.v.v.v.v.v.v.v.v.v.v.v.v.v.v.v.c.k.k.m.v.p * 8 p 8 8 c.D.S.G.G.G.G.G.G.G.G.G.G.G.G.G.G.G.G.D.A.m.2X2XX.* 8 p 8 * b c.x.v.v.v.v.v.v.v.v.v.v.v.v.v.v.v.v.c.z.h.m.m.k * 8 p 8 * k.F.G.G.G.G.G.G.G.G.G.G.G.G.G.G.G.G.G.D.C.V.vXZ.i = i p 8 8 k.c.x.v.v.v.v.v.v.v.v.v.v.v.v.v.v.v.v.v.j.v.B.f.* 8 p 8 * v G.G.G.G.G.G.G.G.G.G.G.G.G.G.G.G.G.G.D.A.B.2X2Xb * 8 p 8 * X.c.x.v.v.v.v.v.v.v.v.v.v.v.v.v.v.v.v.c.k.k.B.z.i ",
"8 8 k p * k % % i p * * 8 * * 8 8 8 p p o bXLXLXLXLXLXLXLXLXLXLXLXLXLXLXLXLXLXLXLXLXJXKXHXLXZ.o p p $ z.VXVXVXVXVXVXVXVXVXVXVXVXVXVXVXVXVXVXVXVXMXbXBXCXS.$ i p % g.PXLXLXLXLXLXLXLXLXLXLXLXLXLXLXLXLXLXLXLXPXGXPXKXGX% 8 p 8 i MXVXVXVXVXVXVXVXVXVXVXCXVXVXVXVXVXVXVXVXBXbXBXBXvX% 8 p * k KXLXLXLXLXLXLXLXLXLXLXLXLXLXLXLXLXLXLXLXJXKXHXLXG.o p p $ k.VXVXVXVXVXVXVXVXVXVXVXCXVXVXVXVXVXVXVXVXnXCXbXCXk * p e @ BXLXLXLXLXLXLXLXLXLXLXLXLXLXLXLXLXLXLXLXKXJXPXKXUX% 8 p * p BXVXVXVXVXVXVXVXVXVXVXCXVXVXVXVXVXVXVXVXbXBXMXCXm.",
"* X.x.v h.m.g.f.k.C.k f.f.k.1.* 8 8 p i $ MXVXGXGXVXJXJXJXGXHXHXCXIXKXKXKXKXKXKXKXPXDXJXv.VXvX  p p @ m.nXnXnXvXbXbXbXnXbXMXvXbXCXBXBXBXBXBXBXCXbXbXx.C.vX$ e p o c.GXVXJXVXGXJXJXGXJXIXVXGXPXKXKXKXKXKXKXKXHXGXbXC.HX8 8 p * k nXvXbXvXnXbXbXbXnXBXnXvXCXBXBXBXBXBXBXBXbXnXC.x.bX* 8 p % X.CXVXHXVXGXJXJXJXGXIXGXVXPXKXKXKXKXKXKXPXUXJXm.CXnX  p p @ c.nXnXnXvXbXbXbXnXbXMXvXbXCXBXBXBXBXBXBXBXvXnXb MXX.% p 8 % BXVXGXGXVXJXJXJXGXHXJXCXKXKXKXKXKXKXKXPXHXGXnXZ.JX8 8 p * c nXvXbXvXnXbXbXbXnXBXnXvXCXBXBXBXBXBXBXCXnXbXj.F.S.",
"8 p c.V.c.B.A.V.h.z.c.S.S.v.z.8 8 8 p i $ MXCXMXbXbXvXvXVXMXBXnXvXKXPXKXKXKXKXKXKXPXGXGX2XDXvXO p p @ m.vXS.S.A.V.m.2XD.D.A.m.bXCXBXBXBXBXBXBXCXbXnXV.D.F.$ e p o v.GXbXMXbXbXvXBXCXMXBXD.GXPXKXKXKXKXKXKXPXHXDXBXnXGX8 8 p * k nXS.G.Z.A.m.A.vXS.F.m.2XCXBXBXBXBXBXBXCXbXnXG.V.nX* 8 p % X.bXDXvXBXbXvXMXVXbXBXF.VXPXKXKXKXKXKXKXPXGXGXiXVXvXO p p @ v.nXS.S.A.V.m.2XD.G.S.c.bXCXBXBXBXBXBXBXBXvXvXv.bXb % p 8 % BXCXMXbXbXvXnXVXbXBXvXnXKXKXKXKXKXKXKXPXHXDXBXnXGX8 8 p * k nXS.G.Z.A.m.S.vXS.F.c.vXCXBXBXBXBXBXBXCXnXnXm.vXV.",
"8 d X.k v v c k X.s c X.c s s 8 8 8 p i o BXGXHXJXGXGXGXKXHXGXCXGXPXPXPXPXPXPXPXPXLXGXIXF.HXvX  p p @ m.bXbXbXnXnXnXBXMXbXvXvXBXCXCXCXCXCXCXCXVXbXbXZ.vXvX@ i p o v.HXGXHXGXGXGXHXHXHXVXVXIXLXPXPXPXPXPXPXLXKXGXVXnXIX8 8 p * k bXnXMXnXnXnXbXBXbXvXvXbXCXCXCXCXCXCXCXVXBXbX2XZ.bX% 8 p % X.GXGXGXJXGXGXHXIXHXVXVXHXLXPXPXPXPXPXPXLXGXIX2XJXnX  p p @ c.bXnXbXnXnXnXBXMXbXvXvXBXCXCXCXCXCXCXCXCXnXbXz.CXb % p e % CXGXHXJXGXGXJXKXHXGXCXGXPXPXPXPXPXPXPXLXIXJXCXnXHX* 8 p * k bXnXMXnXnXnXbXBXbXvXvXbXCXCXCXCXCXCXCXVXnXMXm.bXS.",
"8 8 * * * * * * % 8 * % * * * 8 8 8 p i $ B.HXHXHXHXHXHXHXHXHXHXHXHXJXHXHXHXHXHXJXHXBXDXKXJXX.% p p % v bXbXbXbXbXbXbXbXbXMXMXbXbXbXbXbXbXbXbXbXvXvXBXMXj.% e p * s VXHXHXHXHXHXHXHXHXHXHXHXJXHXHXHXHXHXJXHXGXBXIXKXiX% 8 p 8 * G.BXbXbXbXbXbXbXbXMXMXbXbXbXbXbXbXbXbXbXnXF.BXBXv.% 8 p 8 8 BXHXHXHXHXHXHXHXHXHXHXHXJXHXHXHXHXHXJXHXCXVXKXJXg.% p p * c bXbXbXbXbXbXbXbXbXMXMXbXbXbXbXbXbXbXbXbXG.bXBX2X8 8 p e $ Z.IXHXHXHXHXHXHXHXHXHXHXJXJXHXHXHXHXJXHXGXBXIXKXF.% 8 p 8 8 D.BXbXbXbXbXbXbXbXMXMXbXbXbXbXbXbXbXbXMXiXvXBXbXX.",
"8 8 8 8 8 8 8 8 8 8 8 8 8 8 8 8 8 8 p 8 8 % 8 8 8 8 8 8 8 8 8 8 8 8 8 8 8 8 8 8 8 8 8 8 8 * * 8 e e 8 * * 8 8 8 8 8 8 8 8 8 8 8 8 8 8 8 8 8 8 8 8 8 8 8 * 8 8 p 8 * * 8 8 8 8 8 8 8 8 8 8 8 8 8 8 8 8 8 8 8 8 8 8 8 % 8 8 p 8 8 * 8 8 8 8 8 8 8 8 8 8 8 8 8 8 8 8 8 8 8 8 8 8 8 * 8 8 p 8 8 % 8 8 8 8 8 8 8 8 8 8 8 8 8 8 8 8 8 8 8 8 8 8 * % 8 e i 8 * * 8 8 8 8 8 8 8 8 8 8 8 8 8 8 8 8 8 8 8 8 8 8 * 8 8 p 8 8 % 8 8 8 8 8 8 8 8 8 8 8 8 8 8 8 8 8 8 8 8 8 8 8 % 8 8 p 8 8 * 8 8 8 8 8 8 8 8 8 8 8 8 8 8 8 8 8 8 8 8 8 8 * 8 ",
"8 8 8 8 8 8 8 8 8 8 8 8 8 8 8 8 8 8 p 8 8 8 8 8 8 8 8 8 8 8 8 8 8 8 8 8 8 8 8 8 8 8 8 8 8 8 8 8 i i 8 8 8 8 8 8 8 8 8 8 8 8 8 8 8 8 8 8 8 8 8 8 8 8 8 8 8 8 8 p 8 8 8 8 8 8 8 8 8 8 8 8 8 8 8 8 8 8 8 8 8 8 8 8 8 8 8 8 8 p 8 8 8 8 8 8 8 8 8 8 8 8 8 8 8 8 8 8 8 8 8 8 8 8 8 8 8 8 8 p 8 8 8 8 8 8 8 8 8 8 8 8 8 8 8 8 8 8 8 8 8 8 8 8 8 8 8 8 e p 8 8 8 8 8 8 8 8 8 8 8 8 8 8 8 8 8 8 8 8 8 8 8 8 8 8 8 8 p 8 8 8 8 8 8 8 8 8 8 8 8 8 8 8 8 8 8 8 8 8 8 8 8 8 8 8 8 8 p 8 8 8 8 8 8 8 8 8 8 8 8 8 8 8 8 8 8 8 8 8 8 8 8 8 8 8 ",
"8 8 8 8 8 8 8 8 8 8 8 8 8 8 8 8 8 8 p 8 8 8 8 8 8 7 7 7 8 8 8 8 8 8 8 8 8 8 8 8 7 7 7 8 8 8 8 8 i i 8 8 8 8 8 * * 8 8 8 8 8 8 8 8 8 8 8 8 * * 8 8 8 8 8 8 8 8 p 8 8 8 8 8 9 0 9 8 8 8 8 8 8 8 8 8 8 8 9 9 9 8 8 8 8 8 8 8 p 8 8 8 8 8 * * * 8 8 8 8 8 8 8 8 8 8 8 8 * 8 8 8 8 8 8 8 8 p 8 8 8 8 8 & & & 8 8 8 8 8 8 8 8 8 8 8 & & & 8 8 8 8 8 8 e p 8 8 8 8 8 * * 8 8 8 8 8 8 8 8 8 8 8 8 * 8 8 8 8 8 8 8 8 p 8 8 8 8 8 = - = 8 8 8 8 8 8 8 8 8 8 8 = - = 8 8 8 8 8 8 8 p 8 8 8 8 8 * * 8 8 8 8 8 8 8 8 8 8 8 8 * * 8 8 8 8 8 8 ",
"8 * * * 8 % 8 8 8 8 8 8 8 8 8 8 8 8 p 8 8 8 8 8 7 M V M 8 7 8 8 8 8 8 8 8 8 7 q M M > 7 8 8 8 8 i i 8 8 8 * e c c p * 8 8 8 8 8 8 8 8 8 8 k c p 8 8 8 8 8 8 8 p 8 8 8 9 8 I Q 5 9 8 8 8 8 8 8 8 8 8 9 L R F 8 9 8 8 8 8 8 p 8 8 8 8 8 k c k 8 8 8 8 8 8 8 8 8 8 * s c s 8 8 8 8 8 8 8 p 8 8 8 & e ;.,.y & 8 8 8 8 8 8 8 8 & 8 ,.,.y & 8 8 8 8 8 e p 8 8 8 * p c c 8 * 8 8 8 8 8 8 8 8 * i c k e 8 8 8 8 8 8 p 8 8 8 = = [ @.[ = = 8 8 8 8 8 8 8 8 = ] @.] 8 = 8 8 8 8 8 p 8 8 8 * 8 k c p * 8 8 8 8 8 8 8 8 8 8 k c p 8 8 8 8 8 ",
"c k v c p X.8 8 * 8 * 8 8 * 8 8 8 8 p 8 8 8 8 8 K.L.V L.L., 7 8 8 8 8 8 8 7 M L.K.N K.M 7 8 8 8 i i 8 8 * k j.b b j.v 8 8 8 8 8 8 8 8 8 f.g.s v n 8 8 8 8 8 8 p 8 8 9 5 '.).H ).H 8 8 8 8 8 8 8 8 8 / _.H H / 5 9 8 8 8 8 p 8 8 8 8 f.f.v g.f.i 8 8 8 8 8 8 8 8 X.j.k c b p 8 8 8 8 8 p 8 8 & >.0Xa.a.9Xr.= 8 8 8 8 8 8 & y eX0Xr.p.a.8 8 8 8 8 e p 8 8 8 n j.n X.j.k * 8 8 8 8 8 8 * c j.n s b s 8 8 8 8 8 p 8 8 = 8 -X-X*.-X-Xp = 8 8 8 8 8 8 8 -X;X@.@.*.w = 8 8 8 8 p 8 8 * s j.X.n j.b 8 8 8 8 8 8 8 8 p g.f.s n v 8 8 8 8 ",
"z.z.k.8 f.A.x.g.c.f.z.v.m.g.x.X.% 8 p 8 8 8 7 V K.# # # M K.8 8 8 8 8 8 7 , P.< t b   K.M 7 8 8 i i 8 8 p j.=   . * f.d 8 8 8 8 8 8 * 1.c   c o s n 8 8 8 8 8 p 8 8 e _.F O o.% H R 9 8 8 8 8 8 9 H ).O o.9 5 ).e 8 8 8 8 p 8 8 * f.c .     v n 8 8 8 8 8 8 * n X.. c $ i b 8 8 8 8 8 p 8 = t tX{ > X o p.,.& 8 8 8 8 8 8 eX,.X A X a.a.& 8 8 8 e p 8 * k g.o   . i f.8 8 8 8 8 8 8 d h.$ i d o b p 8 8 8 8 p 8 8 = -X@.; ; ; @.*.= 8 8 8 8 8 - *.-X  E 1 w -X8 8 8 8 8 p 8 8 e j.i . . $ X.s 8 8 8 8 8 8 8 g.s o c   c c 8 8 8 ",
"v C.x.8 f.X.X.g.V.m.D.x.h.x.B.z.i 8 p 8 8 8 q P.$ = b.BXt N M 7 8 8 8 8 7 K.N . G.MX# < V 7 8 8 i i 8 * X.k   i S.j.% b 8 8 8 8 8 8 p j.. i vXs   n p 8 8 8 8 p 8 0 Q ).O E VXs $ ).8 8 8 8 8 8 e _.- $ CXJ.. H F 9 8 8 8 p 8 8 d j.  - h.G.$ v p 8 8 8 8 8 8 h.$ $ vXE . c s 8 8 8 8 p 8 + p.p.X CXB.- r ,X= 8 8 8 8 + ,.0X. h.VXi $ 9Xr 8 8 8 e p 8 8 j.8   k F.s i c * 8 8 8 8 * f.s . B.V.. i v * 8 8 8 p 8 = w ;X; 3 B.BX- @.w = 8 8 8 8 8 ;X% - CXc.. @.[ = 8 8 8 p 8 * n n . 3 C.v.@ b 8 8 8 8 8 * k f.. c vX= o b 8 8 8 ",
"k p k k 8 8 i 8 s k k p i k k.k c * p 8 8 7 , L.@ d h.V.# M M 7 8 8 8 8 7 L.M * ) j.s + V 8 8 8 i i 8 * f.i $ s z.d $ n 8 8 8 8 8 * k X.  d n k   k s 8 8 8 8 p 8 0 / H o b h.c $ / 3 9 8 8 8 9 4 ).$ s j.f.% F R 9 8 8 8 p 8 * k X.  i f.j.  c s 8 8 8 8 8 p f.  i n c $ s k * 8 8 8 p 8 + 9X,.X b.h.s # p.e 8 8 8 8 + a.a.X b j.n $ p.y & 8 8 e p 8 8 g.$ = c z.- 8 v * 8 8 8 8 * f.8 $ c n = % n 8 8 8 8 p 8 - [ -X; s v.B.; @.] = 8 8 8 = w -Xo s j.f.- [ [ = 8 8 8 p 8 * X.s ; d b.c o n 8 8 8 8 8 * v v   s n d   v p 8 8 ",
"8 * 8 8 8 8 * p % % % * % * 8 * 8 8 p 8 8 8 8 P.- % s = # V M 7 8 8 8 8 7 V V o d s # , V 7 8 8 i i 8 * b c . 3 =   i v * 8 8 8 8 8 p j.o $ i - o b i 8 8 8 8 p 8 9 I ).O i s & 1 ).8 8 8 8 8 8 8 _.1 + s d O H F 9 8 8 8 p 8 8 p j.  - 3 $ o b i 8 8 8 8 8 8 h.%   i =   v d 8 8 8 8 p 8 + a.9XX i s X u p.& 8 8 8 8 & >.0XX i s - * 9X8 8 8 8 e p 8 * g.i   3 - . k k * 8 8 8 8 * X.k . = 3   p v * 8 8 8 p 8 = w ;X; = s - ; -Xw = 8 8 8 8 8 ;X9 ; s d ; @.] = 8 8 8 p 8 * v b . = =   = b 8 8 8 8 8 * s g.. - i $ $ b 8 8 8 ",
"e % X.x.x.f.f.x.v h.v k j.v * 8 8 8 p 8 8 8 7 N P.$ $ @ M V 7 8 8 8 8 8 8 q P.M o @ < K., 7 8 8 i i 8 8 8 k.d     = b i 8 8 8 8 8 8 * b f.o   o c c 8 8 8 8 8 p 8 8 9 '.H O $ $ ).F 9 8 8 8 8 8 9 I _.$ $ O F / 9 8 8 8 8 p 8 8 * b f.  o o c c 8 8 8 8 8 8 * c h.$     s n 8 8 8 8 8 p 8 8 8 tX,.X @ * 9X{ & 8 8 8 8 8 & 0Xp.X $ $ p.,.& 8 8 8 e p 8 8 s k.=     i b 8 8 8 8 8 8 8 e k.i     = b i 8 8 8 8 p 8 8 - *.-X; $ ; @.@.= 8 8 8 8 8 - [ ;X$ $ ; [ *.= 8 8 8 8 p 8 8 8 h.k   o % b p 8 8 8 8 8 8 * f.b     o n k 8 8 8 ",
"8 * c A.C.m.G.D.B.S.m.m.C.x.8 8 8 8 p 8 8 8 8 7 M q 8 7 M q 7 8 8 8 8 8 8 7 M M 7 7 > , 7 8 8 8 i i 8 8 * s k 8 8 p d 8 8 8 8 8 8 8 8 8 c 8 8 8 s 8 8 8 8 8 8 p 8 8 9 4 I 9 8 i F 9 8 8 8 8 8 8 8 9 R d 8 9 F 3 9 8 8 8 8 p 8 8 8 8 c 8 8 8 s 8 8 8 8 8 8 8 8 8 c i 8 8 s 8 8 8 8 8 8 p 8 8 & { ,.& 8 t ;.& 8 8 8 8 8 8 & t r.& 8 r ;.= 8 8 8 8 e p 8 8 8 k p 8 8 s i 8 8 8 8 8 8 8 * s s 8 8 p p 8 8 8 8 8 p 8 8 8 8 @.8 8 8 [ 8 8 8 8 8 8 8 8 = @.p 8 = [ q = 8 8 8 8 p 8 8 8 p k 8 8 i s 8 8 8 8 8 8 8 8 i c 8 8 8 s 8 8 8 8 ",
"8 8 p n v X.X.v v v v f.m.c 8 8 8 8 p 8 8 8 8 8 7 8 8 8 7 8 8 8 8 8 8 8 8 8 7 7 8 8 7 7 8 8 8 8 i i 8 8 8 8 8 8 8 8 8 8 8 8 8 8 8 8 8 8 * 8 8 8 8 8 8 8 8 8 8 p 8 8 8 9 9 8 8 8 9 8 8 8 8 8 8 8 8 8 9 8 8 8 9 8 8 8 8 8 8 p 8 8 8 8 * 8 8 8 8 8 8 8 8 8 8 8 8 8 * 8 8 8 8 8 8 8 8 8 8 p 8 8 8 & & 8 8 = & 8 8 8 8 8 8 8 8 = & 8 8 8 & 8 8 8 8 8 e p 8 8 8 * 8 8 8 8 8 8 8 8 8 8 8 8 8 8 8 8 8 8 8 8 8 8 8 8 p 8 8 8 8 - 8 8 8 = 8 8 8 8 8 8 8 8 8 - 8 8 8 = 8 8 8 8 8 8 p 8 8 8 8 * 8 8 8 8 8 8 8 8 8 8 8 8 8 * 8 8 8 8 8 8 8 8 ",
"8 8 8 % % * % % * % * * e % 8 8 8 8 p 8 8 8 8 8 8 8 8 8 8 8 8 8 8 8 8 8 8 8 8 8 8 8 8 8 8 8 8 8 i i 8 8 8 8 8 8 8 8 8 8 8 8 8 8 8 8 8 8 8 8 8 8 8 8 8 8 8 8 8 p 8 8 8 8 8 8 8 8 8 8 8 8 8 8 8 8 8 8 8 8 8 8 8 8 8 8 8 8 8 p 8 8 8 8 8 8 8 8 8 8 8 8 8 8 8 8 8 8 8 8 8 8 8 8 8 8 8 8 8 p 8 8 8 8 8 8 8 8 8 8 8 8 8 8 8 8 8 8 8 8 8 8 8 8 8 8 8 8 e p 8 8 8 8 8 8 8 8 8 8 8 8 8 8 8 8 8 8 8 8 8 8 8 8 8 8 8 8 p 8 8 8 8 8 8 8 8 8 8 8 8 8 8 8 8 8 8 8 8 8 8 8 8 8 8 8 8 8 p 8 8 8 8 8 8 8 8 8 8 8 8 8 8 8 8 8 8 8 8 8 8 8 8 8 8 8 ",
"8 8 i X.1.v.m.c * c v.x.z.v * 8 8 8 p 8 8 8 8 8 p 8 e 8 p 8 8 8 8 8 8 8 8 8 e e 8 p 8 i 8 8 8 8 i i 8 8 8 8 8 8 e 8 8 8 8 8 8 8 8 8 8 8 i 8 e 8 e 8 8 8 8 8 8 p 8 8 8 8 8 p 8 e 8 p 8 8 8 8 8 8 8 8 p 8 e 8 i 8 8 8 8 8 8 p 8 8 8 8 i 8 e 8 e 8 8 8 8 8 8 8 8 8 i 8 8 8 e 8 8 8 8 8 8 p 8 8 8 p i p 8 p e p 8 8 8 8 8 8 8 8 p * p 8 p 8 8 8 8 8 e p 8 8 8 e 8 8 8 8 8 8 8 8 8 8 8 8 8 8 8 8 e 8 8 8 8 8 8 8 p 8 8 8 8 p * p 8 p 8 8 8 8 8 8 8 8 8 p 8 e 8 i 8 8 8 8 8 8 p 8 8 8 8 e 8 i 8 e 8 8 8 8 8 8 8 8 8 i 8 i 8 e 8 8 8 8 ",
"8 * k m.c.B.Z.X.* c.B.C.m.k.8 8 8 8 p 8 8 8 * s m.k g.c.c.v * 8 8 8 8 8 8 * k.h.k c.c.k.8 8 8 8 i i 8 8 8 X.b s j.g.X.8 8 8 8 8 8 8 * k j.p X.g.g.d 8 8 8 8 8 p 8 8 % g.k.m.8 k.c.c.c * 8 8 8 8 * p m.c f.c.c.n * 8 8 8 8 p 8 8 * k j.p X.g.g.p 8 8 8 8 8 8 8 p j.s b g.g.k * 8 8 8 8 p 8 8 * h.h.k.k c.j.v.k * 8 8 8 8 * X.x.s x.v.x.p 8 8 8 8 e p 8 8 8 g.c c j.j.v * 8 8 8 8 8 8 8 f.n k j.g.b 8 8 8 8 8 p 8 8 * c m.k k.c.v.k * 8 8 8 8 8 * s m.c g.c.c.v * 8 8 8 8 p 8 8 * b X.s g.g.X.8 8 8 8 8 8 8 * c g.p f.g.f.i 8 8 8 ",
"8 8 p z.k.h.z.k.i g.k.k.z.g.* 8 8 8 p 8 8 8 * c v.h.j.V.m.X.% 8 8 8 8 8 8 8 k.z.g.v.C.k.i 8 8 8 i i 8 8 8 1.X.b g.k.X.8 8 8 8 8 8 8 * c g.b X.z.g.k * 8 8 8 8 p 8 8 c X.1.j.h.j.V.c.X.% 8 8 8 8 * k v.h.g.C.m.f.* 8 8 8 8 p 8 8 * c g.b X.z.g.k * 8 8 8 8 8 * k g.X.b z.j.v * 8 8 8 8 p 8 p v 1.c.k.k b Z.x.n % 8 8 8 8 * g.x.j.k.V.z.k * 8 8 8 e p 8 8 p g.X.b k.h.b 8 8 8 8 8 8 8 8 f.X.b j.k.X.8 8 8 8 8 p 8 8 % X.v.j.h.V.v.n % 8 8 8 8 8 * c v.h.g.C.m.1.% 8 8 8 8 p 8 8 8 X.f.b f.z.X.p 8 8 8 8 8 8 * v f.b X.z.f.s * 8 8 ",
"8 8 8 p * * * p 8 * * * 8 p 8 8 8 8 p 8 8 8 8 8 g.v X.X.g.s 8 8 8 8 8 8 8 * n f.c f.X.X.* 8 8 8 i i 8 8 * k v k v c c * 8 8 8 8 8 8 8 i b k v c n 8 8 8 8 8 8 p 8 8 8 s c X.v X.X.g.p 8 8 8 8 8 8 8 g.v X.X.g.s * 8 8 8 8 p 8 8 8 p b k v c n 8 8 8 8 8 8 8 8 8 b k c c n p 8 8 8 8 8 p 8 8 8 X.j.k.v X.b g.i 8 8 8 8 8 * k j.c f.b f.8 8 8 8 8 e p 8 8 8 v c k v v s 8 8 8 8 8 8 8 8 c v k v v k * 8 8 8 8 p 8 8 8 p j.c 1.b g.i 8 8 8 8 8 8 8 8 g.v X.X.g.s 8 8 8 8 8 p 8 8 * k n k v c v 8 8 8 8 8 8 8 8 p b l v c n 8 8 8 8 ",
"8 8 8 8 8 8 8 8 8 8 8 8 8 8 8 8 8 8 p 8 8 8 8 8 % * * * % 8 8 8 8 8 8 8 8 8 * % * % * * 8 8 8 8 i i 8 8 8 * * 8 * * * 8 8 8 8 8 8 8 8 8 * 8 * * * 8 8 8 8 8 8 p 8 8 8 8 * * * * * % 8 8 8 8 8 8 8 8 % * * * % 8 8 8 8 8 8 p 8 8 8 8 * 8 * * * 8 8 8 8 8 8 8 8 8 * * * * * 8 8 8 8 8 8 p 8 8 8 * % % * * * % 8 8 8 8 8 8 8 * % * % * % 8 8 8 8 8 e p 8 8 8 * * * * * 8 8 8 8 8 8 8 8 8 * * * * * * 8 8 8 8 8 p 8 8 8 8 % * * * % 8 8 8 8 8 8 8 8 8 % * * * % 8 8 8 8 8 8 p 8 8 8 8 * 8 * * * 8 8 8 8 8 8 8 8 8 * 8 * * * 8 8 8 8 ",
"8 8 8 8 8 8 8 8 8 8 8 8 8 8 8 8 8 8 p 8 8 8 8 8 8 8 8 8 8 8 8 8 8 8 8 8 8 8 8 8 8 8 8 8 8 8 8 8 i i 8 8 8 8 8 8 8 8 8 8 8 8 8 8 8 8 8 8 8 8 8 8 8 8 8 8 8 8 8 p 8 8 8 8 8 8 8 8 8 8 8 8 8 8 8 8 8 8 8 8 8 8 8 8 8 8 8 8 8 p 8 8 8 8 8 8 8 8 8 8 8 8 8 8 8 8 8 8 8 8 8 8 8 8 8 8 8 8 8 p 8 8 8 8 8 8 8 8 8 8 8 8 8 8 8 8 8 8 8 8 8 8 8 8 8 8 8 8 e p 8 8 8 8 8 8 8 8 8 8 8 8 8 8 8 8 8 8 8 8 8 8 8 8 8 8 8 8 p 8 8 8 8 8 8 8 8 8 8 8 8 8 8 8 8 8 8 8 8 8 8 8 8 8 8 8 8 8 p 8 8 8 8 8 8 8 8 8 8 8 8 8 8 8 8 8 8 8 8 8 8 8 8 8 8 8 ",
"8 8 8 8 8 8 8 8 8 8 8 8 8 8 8 8 8 8 p 8 8 8 8 8 8 8 8 8 8 8 8 8 8 8 8 8 8 8 8 8 8 8 8 8 8 8 8 8 i i 8 8 8 8 8 8 8 8 8 8 8 8 8 8 8 8 8 8 8 8 8 8 8 8 8 8 8 8 8 p 8 8 8 8 8 8 8 8 8 8 8 8 8 8 8 8 8 8 8 8 8 8 8 8 8 8 8 8 8 p 8 8 8 8 8 8 8 8 8 8 8 8 8 8 8 8 8 8 8 8 8 8 8 8 8 8 8 8 8 p 8 8 8 8 8 8 8 8 8 8 8 8 8 8 8 8 8 8 8 8 8 8 8 8 8 8 8 8 e p 8 8 8 8 8 8 8 8 8 8 8 8 8 8 8 8 8 8 8 8 8 8 8 8 8 8 8 8 p 8 8 8 8 8 8 8 8 8 8 8 8 8 8 8 8 8 8 8 8 8 8 8 8 8 8 8 8 8 p 8 8 8 8 8 8 8 8 8 8 8 8 8 8 8 8 8 8 8 8 8 8 8 8 8 8 8 ",
"8 8 8 8 8 8 8 8 8 8 8 8 8 8 8 8 8 8 p 8 8 8 8 8 8 7 * 7 8 8 8 8 8 8 8 8 8 8 8 8 & & 8 8 8 8 8 8 i i 8 8 8 8 8 8 8 8 8 8 8 8 8 8 8 8 8 8 8 8 8 8 8 8 8 8 8 8 8 p 8 8 8 8 8 7 * 7 8 8 8 8 8 8 8 8 8 8 8 8 & & 8 8 8 8 8 8 8 p 8 8 8 8 8 8 8 8 8 8 8 8 8 8 8 8 8 8 8 8 8 8 8 8 8 8 8 8 8 p 8 8 8 8 8 * * 8 8 8 8 8 8 8 8 8 8 8 8 & & 8 8 8 8 8 8 8 e p 8 8 8 8 8 8 8 8 8 8 8 8 8 8 8 8 8 8 8 8 8 8 8 8 8 8 8 8 p 8 8 8 8 8 7 * 7 8 8 8 8 8 8 8 8 8 8 8 8 & & 8 8 8 8 8 8 8 p 8 8 8 8 8 8 8 8 8 8 8 8 8 8 8 8 8 8 8 8 8 8 8 8 8 8 8 ",
"8 8 8 8 8 8 8 8 8 8 * 8 8 8 8 8 8 8 p 8 8 8 8 8 * q Z w * 7 8 8 8 8 8 8 8 8 & 8 y K e & 8 8 8 8 i i 8 8 8 8 8 i p 8 8 8 8 8 8 8 8 8 8 8 8 e p e 8 8 8 8 8 8 8 p 8 8 8 7 7 w Z q * 8 8 8 8 8 8 8 8 8 & r K y & 9 8 8 8 8 8 p 8 8 8 8 8 q p q 8 8 8 8 8 8 8 8 8 8 8 8 p e 8 8 8 8 8 8 8 p 8 8 8 7 7 w Z q * 8 8 8 8 8 8 8 8 8 & y K r & 8 8 8 8 8 e p 8 8 8 8 8 p i 8 8 8 8 8 8 8 8 8 8 8 8 i i 8 8 8 8 8 8 8 p 8 8 8 8 * w Z w * 8 8 8 8 8 8 8 8 8 & r K y & 8 8 8 8 8 8 p 8 8 8 8 8 i p 8 8 8 8 8 8 8 8 8 8 8 8 e p e 8 8 8 8 8 ",
"8 8 8 8 p 8 8 8 * % k 8 8 8 8 8 8 8 p 8 8 8 8 7 S R.R.R.R.q 7 8 8 8 8 8 8 & y }.}.}.XXK & 8 8 8 i i 8 8 8 i z z z z p 8 8 8 8 8 8 8 8 8 s x s x s 8 8 8 8 8 8 p 8 8 7 q R.R.R.R.S 7 8 8 8 8 8 8 8 & 5.XX}.}.}.r 9 8 8 8 8 p 8 8 8 8 m z m z m 8 8 8 8 8 8 8 8 8 d x s x x 8 8 8 8 8 8 p 8 8 7 w R.R.R.R.Z * 8 8 8 8 8 8 8 r }.}.}.XX5.8 8 8 8 8 e p 8 8 8 a z z z z q 8 8 8 8 8 8 8 8 e x x x x p 8 8 8 8 8 p 8 8 8 8 S R.R.R.R.8 8 8 8 8 8 8 8 & 5.XX}.XX}.r 8 8 8 8 8 p 8 8 8 q z z z z a 8 8 8 8 8 8 8 8 8 x x s x s 8 8 8 8 ",
"8 8 * k C.k.B.X.g.X.m.g.* 8 8 8 8 8 p 8 8 8 * S R.$ ; . S R.7 8 8 8 8 8 8 r XXK X X # XXK & 8 8 i i 8 8 8 z =   . o z i 8 8 8 8 8 8 8 s s o     d x 8 8 8 8 8 p 8 8 7 R.S ;   . R.S * 8 8 8 8 8 & K }.$ X . K XX8 8 8 8 8 p 8 8 8 m m o   . m z 8 8 8 8 8 8 8 d x $     e x 8 8 8 8 8 p 8 8 8 R.Z ;   X R.Z * 8 8 8 8 8 & }.5.X X   }.5.& 8 8 8 e p 8 8 p z %   . & z 8 8 8 8 8 8 8 e x *     % x e 8 8 8 8 p 8 8 * S R.@ ; . R.R.* 8 8 8 8 8 & :.}.$ X . W }.8 8 8 8 8 p 8 8 8 z q       z a 8 8 8 8 8 8 8 x d       x s 8 8 8 ",
"8 8 % g.V.m.z.z.2Xc.v.C.8 8 8 8 8 8 p 8 8 8 q R.& = b C.y S Z * 8 8 8 8 & 7.5.X c f.q K }.& 8 8 i i 8 7 m a   i ) b 8 m 8 8 8 8 8 8 e x o - s s $ x e 8 8 8 8 p 8 * Z R.; d b.c.q R.8 8 8 8 8 8 8 XX7 - n ) + }.:.& 8 8 8 p 8 8 q z o - c j.8 m q 8 8 8 8 8 8 x $ $ s s $ x p 8 8 8 8 p 8 # S S ; m z.z., R.7 8 8 8 8 & K }.X d ) c * XXe 8 8 8 e p 8 8 z =   d j.s q a 8 8 8 8 8 8 x e   d c = e x 8 8 8 8 p 8 7 w R.@ 3 ) B.r R.w 7 8 8 8 8 8 XX* - b E + }.K & 8 8 8 p 8 7 a m   3 b 1.= m 8 8 8 8 8 8 p x   = k d % x 8 8 8 ",
"8 8 8 s 8 v c b v v c v X.* 8 8 8 8 p 8 8 7 w R.@ s j.BXx Z Z * 8 8 8 8 & }.K > c nXbX1 7.8 8 8 i i 8 8 z = - d C.x.o a 8 8 8 8 8 8 p s   i b vXs e p 8 8 8 8 p 8 # S S # c S.nX$ S q 7 8 8 8 8 r }.@ s ) VXv.K 5.& 8 8 8 p 8 8 p m   i f.D.= q i 8 8 8 8 8 e x   3 c vXb = d 8 8 8 8 p 8 # R.Z * c vXvX+ S q 8 8 8 8 & 5.5.+ c V.VXi 5.y 9 8 8 e p 8 8 z $ = s G.b % a 8 8 8 8 8 8 x * - d V.C.$ s 8 8 8 8 p 8 * Z R.; k x.BXe Z Z 7 8 8 8 9 u }.@ s f.VXz.K :.& 8 8 8 p 8 7 z q $ i c.B.o a 8 8 8 8 8 8 d d   i h.vXi d e 8 8 ",
"8 8 8 8 8 @ 8 % $ % $ % % 8 8 8 8 8 p 8 8 8 q R.+ = c 3 . S Z * 8 8 8 8 & 7.5.X k n + u 7.& 8 8 i i 8 7 z i   i 3   & a 8 8 8 8 8 8 e x   - d =   d e 8 8 8 8 p 8 # S R.  d c @ + R.8 8 8 8 8 8 8 XX# - c c X :.K & 8 8 8 p 8 8 i z   - d $   a 8 8 8 8 8 8 8 x $ $ d i   d e 8 8 8 8 p 8 # S S ; m k ; & S 7 8 8 8 8 & K }.X d n > @ 7.e 8 8 8 e p 8 8 z &   d = . q a 8 8 8 8 8 8 x e   i d   = d 8 8 8 8 p 8 * w R.  3 c = . S w 7 8 8 8 8 e XX# - c k X 5.K & 8 8 8 p 8 7 a a . 3 i   $ m 8 8 8 8 8 8 p x   = d - o d 8 8 8 ",
"8 8 8 B.j.c k.X.c c b c b p 8 8 8 8 p 8 8 8 * S R.@ $ @ Z S 8 8 8 8 8 8 8 r XXu   $ # 7.y & 8 8 i i 8 8 8 z =     $ m q 8 8 8 8 8 8 8 k d       e d 8 8 8 8 8 p 8 8 8 R.Z   $ $ S Z 7 8 8 8 8 8 & 5.}.$ $   u 7.8 8 8 8 8 p 8 8 8 z m     o i a 8 8 8 8 8 8 8 d x o     8 d 8 8 8 8 8 p 8 8 q R.Z   $ $ S Z 7 8 8 8 8 8 8 }.:.X $   5.K & 8 8 8 e p 8 8 p z $     = m 8 8 8 8 8 8 8 e x *     $ d e 8 8 8 8 p 8 8 * R.R.  $ @ Z S 7 8 8 8 8 8 & 5.}.o $   K 7.8 8 8 8 8 p 8 8 8 z q     $ a i 8 8 8 8 8 8 8 x p     o p p 8 8 8 ",
"8 8 i Z.B.S.C.S.B.V.V.B.F.v * 8 8 8 p 8 8 8 8 8 S q * 7 Z q 7 8 8 8 8 8 8 & K K & = y K & 8 8 8 i i 8 8 8 a a 7 8 i i 8 8 8 8 8 8 8 8 8 s 8 8 8 p 8 8 8 8 8 8 p 8 8 * Z S * * q Z 8 8 8 8 8 8 8 8 8 7.r * & K u & 8 8 8 8 p 8 8 8 8 m 8 8 8 a 8 8 8 8 8 8 8 8 8 s 8 8 8 p 8 8 8 8 8 8 p 8 8 * Z S * * q Z 7 8 8 8 8 8 8 & y 5.& * r K 8 8 8 8 8 e p 8 8 8 a p 8 8 p q 8 8 8 8 8 8 8 8 d p 8 8 e e 8 8 8 8 8 p 8 8 7 q S 8 * 8 Z q 7 8 8 8 8 8 8 8 7.r * 9 K u 9 8 8 8 8 p 8 8 8 p a 8 8 q p 8 8 8 8 8 8 8 8 e s 8 8 8 p 8 8 8 8 ",
"8 8 i v X.g.X.1.f.k.f.j.g.p 8 8 8 8 p 8 8 8 8 8 # 8 8 8 7 7 8 8 8 8 8 8 8 8 & & 8 8 8 & 8 8 8 8 i i 8 8 8 8 8 8 8 8 8 8 8 8 8 8 8 8 8 8 8 8 8 8 8 8 8 8 8 8 8 p 8 8 8 7 * 8 8 8 7 8 8 8 8 8 8 8 8 8 & 8 8 8 & 8 8 8 8 8 8 p 8 8 8 8 8 8 8 8 8 8 8 8 8 8 8 8 8 8 8 8 8 8 8 8 8 8 8 8 8 p 8 8 8 7 * 8 8 8 7 8 8 8 8 8 8 8 8 8 & 8 8 8 & 8 8 8 8 8 e p 8 8 8 8 8 8 8 8 8 8 8 8 8 8 8 8 8 8 8 8 8 8 8 8 8 8 8 8 p 8 8 8 8 # 8 8 8 7 8 8 8 8 8 8 8 8 8 & 8 8 8 & 8 8 8 8 8 8 p 8 8 8 8 8 8 8 8 8 8 8 8 8 8 8 8 8 8 8 8 8 8 8 8 8 8 8 ",
"8 8 * % % % % % * % % % % * 8 8 8 8 p 8 8 8 8 8 8 8 8 8 8 8 8 8 8 8 8 8 8 8 8 8 8 8 8 8 8 8 8 8 i i 8 8 8 8 8 8 8 8 8 8 8 8 8 8 8 8 8 8 8 8 8 8 8 8 8 8 8 8 8 p 8 8 8 8 8 8 8 8 8 8 8 8 8 8 8 8 8 8 8 8 8 8 8 8 8 8 8 8 8 p 8 8 8 8 8 8 8 8 8 8 8 8 8 8 8 8 8 8 8 8 8 8 8 8 8 8 8 8 8 p 8 8 8 8 8 8 8 8 8 8 8 8 8 8 8 8 8 8 8 8 8 8 8 8 8 8 8 8 e p 8 8 8 8 8 8 8 8 8 8 8 8 8 8 8 8 8 8 8 8 8 8 8 8 8 8 8 8 p 8 8 8 8 8 8 8 8 8 8 8 8 8 8 8 8 8 8 8 8 8 8 8 8 8 8 8 8 8 p 8 8 8 8 8 8 8 8 8 8 8 8 8 8 8 8 8 8 8 8 8 8 8 8 8 8 8 ",
"8 * c c k p d p 8 s k p p b i 8 8 8 p 8 8 8 8 8 e * 8 8 8 8 8 8 8 8 8 8 8 8 8 8 8 8 8 8 8 8 8 8 i i 8 8 8 8 8 8 8 8 8 8 8 8 8 8 8 8 8 8 8 8 8 8 8 8 8 8 8 8 8 p 8 8 8 8 8 8 8 8 8 8 8 8 8 8 8 8 8 8 8 8 8 * 8 8 8 8 8 8 8 p 8 8 8 8 8 8 8 8 8 8 8 8 8 8 8 8 8 8 8 8 8 8 8 8 8 8 8 8 8 p 8 8 8 8 8 * 8 8 8 8 8 8 8 8 8 8 8 8 8 8 8 8 8 8 8 8 8 8 e p 8 8 8 8 8 8 8 8 8 8 8 8 8 8 8 8 8 8 8 8 8 8 8 8 8 8 8 8 p 8 8 8 8 8 * 8 * 8 8 8 8 8 8 8 8 8 8 8 * 8 * 8 8 8 8 8 8 8 p 8 8 8 8 8 8 8 8 8 8 8 8 8 8 8 8 8 8 8 8 8 8 8 8 8 8 8 ",
"8 * h.m.C.z.m.c % m.C.z.x.z.c * 8 8 p 8 8 8 8 8 X.x.x.p k.f.* 8 8 8 8 8 8 8 e k.f.z.x.b * 8 8 8 i i 8 8 8 k f.g.d n X.8 8 8 8 8 8 8 8 8 X.v f.f.v * 8 8 8 8 8 p 8 8 * k z.x.v v x.8 8 8 8 8 8 8 8 * g.g.k.z.k.8 8 8 8 8 8 p 8 8 8 i X.f.v p g.p 8 8 8 8 8 8 8 * c b X.1.f.e 8 8 8 8 8 p 8 8 8 p z.x.X.k c.p 8 8 8 8 8 8 8 * h.f.z.z.j.* 8 8 8 8 e p 8 8 8 k f.g.s v X.8 8 8 8 8 8 8 8 i X.v f.f.k * 8 8 8 8 p 8 8 8 8 g.x.z.p x.n * 8 8 8 8 8 8 * n h.h.z.z.p 8 8 8 8 8 p 8 8 8 p 1.g.v s g.i 8 8 8 8 8 8 8 * X.v 1.f.b 8 8 8 8 ",
"8 * h.k.X.X.h.z.i f.X.X.h.m.k * 8 8 p 8 8 8 8 * v m.b.g.k.k.8 8 8 8 8 8 8 8 * b.k.B.B.g.* 8 8 8 i i 8 8 8 s h.f.b X.f.8 8 8 8 8 8 8 8 * b f.g.k.X.8 8 8 8 8 8 p 8 8 8 p c.x.h.g.v.k * 8 8 8 8 8 8 % b v.b.Z.k.p 8 8 8 8 8 p 8 8 8 8 f.g.X.n g.k * 8 8 8 8 8 8 * d j.X.x.f.k * 8 8 8 8 p 8 8 8 8 x.v.k.g.v.v * 8 8 8 8 8 8 % f.x.x.V.k.i 8 8 8 8 e p 8 8 8 s h.f.b X.f.e 8 8 8 8 8 8 8 8 f.X.k.j.v * 8 8 8 8 p 8 8 8 * 1.m.k.g.z.j.* 8 8 8 8 8 8 * k m.h.Z.z.v * 8 8 8 8 p 8 8 8 8 f.g.X.n g.k * 8 8 8 8 8 8 * v g.f.z.X.e 8 8 8 ",
"8 8 s p 8 8 8 k i 8 8 8 8 k 8 8 8 8 p 8 8 8 8 8 x.f.k.b h.X.* 8 8 8 8 8 8 8 8 c X.h.k.v * 8 8 8 i i 8 8 * 1.b X.c n v 8 8 8 8 8 8 8 8 8 s c X.b c * 8 8 8 8 8 p 8 8 % g.k.g.g.X.k.8 8 8 8 8 8 8 8 * k v h.g.j.8 8 8 8 8 8 p 8 8 * k f.v X.k X.i 8 8 8 8 8 8 8 8 i k b n X.8 8 8 8 8 8 p 8 8 * b z.f.j.b k.i 8 8 8 8 8 8 8 * k n h.j.f.* 8 8 8 8 e p 8 8 * X.b X.v n n 8 8 8 8 8 8 8 8 8 k v b X.s 8 8 8 8 8 p 8 8 8 p v.X.k.n k.c * 8 8 8 8 8 8 8 p v g.g.k.i 8 8 8 8 8 p 8 8 * k f.v X.c X.e 8 8 8 8 8 8 8 8 s k X.b v 8 8 8 8 ",
"8 8 8 8 8 8 8 * 8 8 8 8 8 * 8 8 8 8 p 8 8 8 8 8 * 8 * * * * 8 8 8 8 8 8 8 8 8 * * * * * 8 8 8 8 i i 8 8 8 * 8 * 8 * * 8 8 8 8 8 8 8 8 8 8 8 * * 8 8 8 8 8 8 8 p 8 8 8 * * * * * * 8 8 8 8 8 8 8 8 8 8 * * * * 8 8 8 8 8 8 p 8 8 8 8 8 8 * 8 * 8 8 8 8 8 8 8 8 8 8 8 * * * 8 8 8 8 8 8 p 8 8 8 8 * * * * * 8 8 8 8 8 8 8 8 8 8 * * * * 8 8 8 8 8 e p 8 8 8 * 8 * 8 8 * 8 8 8 8 8 8 8 8 8 8 8 * * 8 8 8 8 8 8 p 8 8 8 8 * 8 * * * * 8 8 8 8 8 8 8 8 8 * * * * 8 8 8 8 8 8 p 8 8 8 8 8 8 * 8 * 8 8 8 8 8 8 8 8 8 8 8 * * 8 8 8 8 8 ",
"8 8 8 8 8 8 8 8 8 8 8 8 8 8 8 8 8 8 p 8 8 8 8 8 8 8 8 8 8 8 8 8 8 8 8 8 8 8 8 8 8 8 8 8 8 8 8 8 i i 8 8 8 8 8 8 8 8 8 8 8 8 8 8 8 8 8 8 8 8 8 8 8 8 8 8 8 8 8 p 8 8 8 8 8 8 8 8 8 8 8 8 8 8 8 8 8 8 8 8 8 8 8 8 8 8 8 8 8 p 8 8 8 8 8 8 8 8 8 8 8 8 8 8 8 8 8 8 8 8 8 8 8 8 8 8 8 8 8 p 8 8 8 8 8 8 8 8 8 8 8 8 8 8 8 8 8 8 8 8 8 8 8 8 8 8 8 8 e p 8 8 8 8 8 8 8 8 8 8 8 8 8 8 8 8 8 8 8 8 8 8 8 8 8 8 8 8 p 8 8 8 8 8 8 8 8 8 8 8 8 8 8 8 8 8 8 8 8 8 8 8 8 8 8 8 8 8 p 8 8 8 8 8 8 8 8 8 8 8 8 8 8 8 8 8 8 8 8 8 8 8 8 8 8 8 ",
"8 8 8 8 8 8 8 8 8 8 8 8 8 8 8 8 8 8 p 8 8 8 8 8 8 8 8 8 8 8 8 8 8 8 8 8 8 8 8 8 8 8 8 8 8 8 8 8 i i 8 8 8 8 8 8 8 8 8 8 8 8 8 8 8 8 8 8 8 8 8 8 8 8 8 8 8 8 8 p 8 8 8 8 8 8 8 8 8 8 8 8 8 8 8 8 8 8 8 8 8 8 8 8 8 8 8 8 8 p 8 8 8 8 8 8 8 8 8 8 8 8 8 8 8 8 8 8 8 8 8 8 8 8 8 8 8 8 8 p 8 8 8 8 8 8 8 8 8 8 8 8 8 8 8 8 8 8 8 8 8 8 8 8 8 8 8 8 e p 8 8 8 8 8 8 8 8 8 8 8 8 8 8 8 8 8 8 8 8 8 8 8 8 8 8 8 8 p 8 8 8 8 8 8 8 8 8 8 8 8 8 8 8 8 8 8 8 8 8 8 8 8 8 8 8 8 8 p 8 8 8 8 8 8 8 8 8 8 8 8 8 8 8 8 8 8 8 8 8 8 8 8 8 8 8 ",
"8 8 8 8 8 8 8 8 8 8 8 8 8 8 8 8 8 8 p 8 8 8 8 8 8 8 * 8 8 8 8 8 8 8 8 8 8 8 8 8 7 7 8 8 8 8 8 8 i i 8 8 8 8 8 8 8 8 8 8 8 8 8 8 8 8 8 8 8 8 8 8 8 8 8 8 8 8 8 p 8 8 8 8 8 = * 8 8 8 8 8 8 8 8 8 8 8 8 8 9 8 8 8 8 8 8 8 8 p 8 8 8 8 8 8 8 8 8 8 8 8 8 8 8 8 8 8 8 8 8 8 8 8 8 8 8 8 8 p 8 8 8 8 8 = * 8 8 8 8 8 8 8 8 8 8 8 8 8 & 8 8 8 8 8 8 8 e p 8 8 8 8 8 8 8 8 8 8 8 8 8 8 8 8 8 8 8 8 8 8 8 8 8 8 8 8 p 8 8 8 8 8 8 * 8 8 8 8 8 8 8 8 8 8 8 8 8 = = 8 8 8 8 8 8 8 p 8 8 8 8 8 8 8 8 8 8 8 8 8 8 8 8 8 8 8 8 8 8 8 8 8 8 8 ",
"8 8 8 % % 8 8 8 8 8 8 8 8 8 8 8 8 8 p 8 8 8 8 8 * 8 w q # 8 8 8 8 8 8 8 8 8 7 7 > > 7 7 8 8 8 8 i i 8 8 8 8 8 8 8 8 8 8 8 8 8 8 8 8 8 8 * 8 p 8 * 8 8 8 8 8 8 p 8 8 8 8 # q w 8 * 8 8 8 8 8 8 8 8 8 9 8 4 i 9 8 8 8 8 8 8 p 8 8 8 8 8 8 q 8 8 8 8 8 8 8 8 8 8 8 * 8 p 8 * 8 8 8 8 8 8 p 8 8 8 = * q w * * 8 8 8 8 8 8 8 8 8 & r y 8 & 8 8 8 8 8 e p 8 8 8 8 8 8 8 8 8 8 8 8 8 8 8 8 8 8 * i i 8 8 8 8 8 8 8 p 8 8 8 8 * 8 w q # 8 8 8 8 8 8 8 8 8 = 8 w 8 - 8 8 8 8 8 8 p 8 8 8 8 8 8 q 8 8 8 8 8 8 8 8 8 8 8 * 8 p 8 * 8 8 8 8 ",
"8 8 e X.f.p % 8 * % k k * 8 8 8 8 8 p 8 8 8 8 * *.7X7X7X*.8 8 8 8 8 8 8 8 7 q L.L.L.L., 7 8 8 8 i i 8 8 8 8 z v v v i 8 8 8 8 8 8 8 8 8 c h.f.h.v 8 8 8 8 8 8 p 8 8 8 8 *.7X7X7XO.* 8 8 8 8 8 8 8 9 F _.)._./ e 8 8 8 8 8 p 8 8 8 8 l n z o.l 8 8 8 8 8 8 8 8 8 k j.f.h.b 8 8 8 8 8 8 p 8 8 = q :X7X7X7X] * 8 8 8 8 8 8 8 8 p.tX0XtX,.& 8 8 8 8 e p 8 8 8 p v v n z 8 8 8 8 8 8 8 8 8 p f.g.j.g.p 8 8 8 8 8 p 8 8 8 * *.7X7X7X*.* 8 8 8 8 8 8 8 = [ ;X-X;X*.8 8 8 8 8 8 p 8 8 8 8 z n v n p 8 8 8 8 8 8 8 8 8 n j.f.h.k 8 8 8 8 ",
"8 8 8 z.m.m.h.g.x.z.z.C.k * 8 8 8 8 p 8 8 8 * *.7Xw @ o -X7X* 8 8 8 8 8 8 8 P.N @ $ M P., 7 8 8 i i 8 8 8 n p o   = o.i 8 8 8 8 8 8 * v g.% o % g.b * 8 8 8 8 p 8 8 * 7X*.$ $ w 7X*.* 8 8 8 8 8 9 F _.1 $ $ / ).9 8 8 8 8 p 8 8 8 l z $ o o z k 8 8 8 8 8 8 * k j.= o $ b f.* 8 8 8 8 p 8 8 = 7X-.@ o w 7X] * 8 8 8 8 8 & 0X9X$ $ r tXr.& 8 8 8 e p 8 8 i n 8 o   p n 8 8 8 8 8 8 8 8 h.s o @ s k.i 8 8 8 8 p 8 8 # *.7X9 $ + 7X-X# 8 8 8 8 8 = [ ;X9 $ % -X-X= 8 8 8 8 p 8 8 8 v a o   % o.p 8 8 8 8 8 8 * X.X.$ o * h.c * 8 8 ",
"8 8 * 1.g.k.B.X.Z.z.C.k.g.8 8 8 8 8 p 8 8 8 8 7Xq ; c n 1 7X] * 8 8 8 8 7 V V # s s # M L.7 8 8 i i 8 * k l . 3 s = p z * 8 8 8 8 8 i h.o $ d $ o j.p 8 8 8 8 p 8 * *.7X. d c ; w 7X* 8 8 8 8 8 9 _.1 + j 3 O ).F 9 8 8 8 p 8 8 8 n o $ d d * v 8 8 8 8 8 8 8 h.*   d - . g.s * 8 8 8 p 8 # *.:X. d n 4 ] 7X* 8 8 8 8 & ;.tXX i c X r tX8 8 8 8 e p 8 8 v q   i d * l l * 8 8 8 8 * X.c . i 3 . k X.* 8 8 8 p 8 * w 7X$ - n j = 7Xw * 8 8 8 8 8 ;X9 ; c 3 ; -X[ = 8 8 8 p 8 8 s z   = d 1 q z 8 8 8 8 8 * s g.  - i   % h.8 8 8 ",
"8 8 8 p p 8 p 8 k k c e b s * 8 8 8 p 8 8 * w 7Xo s j.VXj.[ *.* 8 8 8 8 7 L.M * n S.j.X L.8 8 8 i i 8 8 z 8 - d V.C.$ l 8 8 8 8 8 * k X.  i ) z.  b k * 8 8 8 p 8 # *.-.; c V.nX% 7Xw * 8 8 8 9 4 ).$ d j.F.9 H / 0 8 8 8 p 8 8 p z   i f.vXd q p 8 8 8 8 8 p f.  3 n c.$ c v * 8 8 8 p 8 # :X-.- c vXbX& *.q 8 8 8 8 + a.p.X c B.B.  0Xy & 8 8 e p 8 8 v $ = s vXh.% l 8 8 8 8 8 * f.8 - s v.s * g.8 8 8 8 p 8 *  .:X; k v.VXx -.] * 8 8 8 = w -Xo s j.F.- @.*.- 8 8 8 p 8 * z q $ i B.G.% l 8 8 8 8 8 * v v   d j.j.  f.d 8 8 ",
"8 8 8 8 8 s 8 % % % % % * 8 8 8 8 8 p 8 8 = q 7Xo 1 n n . -.[ * 8 8 8 8 7 K.N # d F.S.< L.7 8 8 i i 8 * z i   d k $ % l 8 8 8 8 8 8 d g.  - b S.= f.s * 8 8 8 p 8 # *.-X; s b.C.8 :Xq 8 8 8 8 8 e _.$ = b bX..H H 0 8 8 8 p 8 8 p v   = s i   l q 8 8 8 8 8 e h.o - c S.i n c * 8 8 8 p 8 # *.-.; c ) 1 9 -X8 8 8 8 8 + r.0XX d B.nX= tXt = 8 8 e p 8 8 n % $ d s   q a 8 8 8 8 8 * f.d   i B.j.i g.* 8 8 8 p 8 * ] 7X. i b c . *.w * 8 8 8 8 8 ;X$ = E bXj -X@.- 8 8 8 p 8 * k a   i k - $ l 8 8 8 8 8 * k 1.. = g.V.% j.p 8 8 ",
"8 8 8 8 8 v.k.n X.1.b b * 8 8 8 8 8 p 8 8 8 # -X-X  -   w -X8 8 8 8 8 8 7 , P.< @   o V M 7 8 8 i i 8 8 p n %     o l p 8 8 8 8 8 8 8 f.c     . s b 8 8 8 8 8 p 8 8 q 7X] ; $ . -.*.* 8 8 8 8 8 9 / ).o $ . 5 ).i 9 8 8 8 p 8 8 8 z a   $   q l 8 8 8 8 8 8 * b b     . i X.8 8 8 8 8 p 8 * w 7Xw ; $   -.-.* 8 8 8 8 8 e tX,.X ; . a.p.& 8 8 8 e p 8 8 s z o     % l 8 8 8 8 8 8 8 s j.%   . $ b s 8 8 8 8 p 8 8 * 7X-.  -   [ *.= 8 8 8 8 8 - *.-X; $ . w -Xq = 8 8 8 p 8 8 8 n =       a p 8 8 8 8 8 8 8 j.s     . k n 8 8 8 ",
"8 8 8 8 p z.k.m.B.x.F.x.* 8 8 8 8 8 p 8 8 8 = q 7Xq % * *.] * 8 8 8 8 8 8 7 V V # 7 , N 7 8 8 8 i i 8 8 8 l l * * i a 8 8 8 8 8 8 8 8 p f.8 * 8 c e 8 8 8 8 8 p 8 8 # *.-X# * q *.8 8 8 8 8 8 8 8 8 ).4 % 9 R L 9 8 8 8 8 p 8 8 8 i z 8 * 8 s 8 8 8 8 8 8 8 8 8 f.e * * c p 8 8 8 8 8 p 8 8 # *.*.# % w *.= 8 8 8 8 8 8 & >.9X+ * r a.8 8 8 8 8 e p 8 8 8 z p * * p p 8 8 8 8 8 8 8 * b c % * s k * 8 8 8 8 p 8 8 * w 7X8 * * *.w * 8 8 8 8 8 8 8 -Xp % = @.] = 8 8 8 8 p 8 8 8 s k * * 8 a 8 8 8 8 8 8 8 * s X.* * 8 c 8 8 8 8 ",
"8 8 8 8 s k.b X.k k X.c 8 8 8 8 8 8 p 8 8 8 8 8 * 8 8 8 * = 8 8 8 8 8 8 8 8 7 7 8 8 8 7 8 8 8 8 i i 8 8 8 8 8 8 8 8 8 8 8 8 8 8 8 8 8 8 * 8 8 8 8 8 8 8 8 8 8 p 8 8 8 * * 8 8 8 * 8 8 8 8 8 8 8 8 8 9 8 8 8 9 9 8 8 8 8 8 p 8 8 8 8 8 8 8 8 8 8 8 8 8 8 8 8 8 8 * 8 8 8 8 8 8 8 8 8 8 p 8 8 8 * * 8 8 8 * 8 8 8 8 8 8 8 8 & & 8 8 8 & 8 8 8 8 8 e p 8 8 8 8 8 8 8 8 8 8 8 8 8 8 8 8 8 * 8 8 8 8 8 8 8 8 8 8 p 8 8 8 = * 8 8 8 * = 8 8 8 8 8 8 8 8 - 8 8 8 = = 8 8 8 8 8 p 8 8 8 8 8 8 8 8 8 8 8 8 8 8 8 8 8 8 * 8 8 8 8 8 8 8 8 ",
"8 8 8 8 * % % % 8 % % * * * 8 8 8 8 p 8 8 8 8 8 8 8 8 8 8 8 8 8 8 8 8 8 8 8 8 8 8 8 8 8 8 8 8 8 i i 8 8 8 8 8 8 8 8 8 8 8 8 8 8 8 8 8 8 8 8 8 8 8 8 8 8 8 8 8 p 8 8 8 8 8 8 8 8 8 8 8 8 8 8 8 8 8 8 8 8 8 8 8 8 8 8 8 8 8 p 8 8 8 8 8 8 8 8 8 8 8 8 8 8 8 8 8 8 8 8 8 8 8 8 8 8 8 8 8 p 8 8 8 8 8 8 8 8 8 8 8 8 8 8 8 8 8 8 8 8 8 8 8 8 8 8 8 8 e p 8 8 8 8 8 8 8 8 8 8 8 8 8 8 8 8 8 8 8 8 8 8 8 8 8 8 8 8 p 8 8 8 8 8 8 8 8 8 8 8 8 8 8 8 8 8 8 8 8 8 8 8 8 8 8 8 8 8 p 8 8 8 8 8 8 8 8 8 8 8 8 8 8 8 8 8 8 8 8 8 8 8 8 8 8 8 ",
"8 8 e b X.x.v.c * k x.z.z.v * 8 8 8 p 8 8 8 8 8 p 8 8 8 i 8 e 8 8 8 8 8 8 8 8 8 e 8 8 8 8 8 8 8 i i 8 8 8 p 8 8 8 8 8 8 8 8 8 8 8 8 8 8 8 8 8 8 8 8 8 8 8 8 8 p 8 8 8 8 8 i 8 8 8 i 8 8 8 8 8 8 8 8 8 i 8 i 8 e 8 8 8 8 8 p 8 8 8 e 8 8 8 8 8 8 8 8 8 8 8 8 8 8 8 8 8 8 8 8 8 8 8 8 8 p 8 8 8 p 8 8 8 8 8 8 8 8 8 8 8 8 8 8 8 i 8 e 8 e 8 8 8 8 e p 8 8 8 p 8 8 8 8 8 8 8 8 8 8 8 8 8 8 8 8 8 8 8 8 8 8 8 8 p 8 8 8 8 p * 8 8 e 8 8 8 8 8 8 8 8 8 8 e 8 e 8 i 8 8 8 8 8 p 8 8 8 e 8 8 8 8 8 8 8 8 8 8 8 8 8 8 8 8 8 8 8 8 8 8 8 ",
"8 * k m.c.B.Z.X.* c.B.C.m.k.* 8 8 8 p 8 8 8 8 8 k.X.k.p v.x.z.e 8 8 8 8 8 8 * v.k n c.v.f.* 8 8 i i 8 8 8 b v 1.p f.g.g.p 8 8 8 8 8 8 * 1.c s j.g.b 8 8 8 8 8 p 8 8 % g.k.m.* g.h.x.c * 8 8 8 8 8 % f.h.p v.x.z.8 8 8 8 8 p 8 8 * s X.b c c g.g.c * 8 8 8 8 8 * k g.8 f.g.g.p 8 8 8 8 p 8 8 * v k.h.v X.c.c.b * 8 8 8 8 8 % h.f.s c.v.k.8 8 8 8 e p 8 8 * b v 1.p 1.g.g.p 8 8 8 8 8 8 8 j.p v g.g.c * 8 8 8 p 8 8 8 e b.X.h.s c.v.k.8 8 8 8 8 8 * k v.8 z.x.v.s * 8 8 8 p 8 8 * k X.b k c g.g.c * 8 8 8 8 8 * b v p g.g.X.8 8 8 ",
"8 * d z.k.k.x.k.i j.k.z.z.j.* 8 8 8 p 8 8 8 s v g.m.A.X.x.V.z.k * 8 8 8 8 8 1.C.k.g.B.B.j.8 8 8 i i 8 p k v j.v.v X.z.f.k * 8 8 8 8 8 c k.1.v j.k.X.8 8 8 8 8 p 8 8 c X.1.k.X.c v.z.X.% 8 8 8 8 8 c m.c.f.z.V.z.s * 8 8 8 p 8 8 k k 1.v.f.v k.h.b * 8 8 8 8 8 p f.k.v X.z.f.k * 8 8 8 p 8 8 v n z.S.k.f.C.m.g.* 8 8 8 8 8 v B.x.f.v.V.k.p 8 8 8 e p 8 i k v g.v.v X.z.f.k * 8 8 8 8 8 n z.b n k.h.n * 8 8 8 p 8 * k v h.C.C.X.c.V.k.p 8 8 8 8 8 s x.B.f.k.V.x.v % 8 8 8 p 8 8 k k 1.v.1.v k.h.n * 8 8 8 8 8 k k.g.v g.z.X.p 8 8 ",
"8 8 8 p 8 * 8 p 8 * 8 * e p 8 8 8 8 p 8 8 8 8 s x.k 1.n g.X.g.8 8 8 8 8 8 8 8 X.1.b f.f.v * 8 8 i i 8 8 e f.k c c v c b 8 8 8 8 8 8 8 8 k n k n v c * 8 8 8 8 p 8 8 8 s c X.b k k j.p 8 8 8 8 8 8 8 k j.v g.X.f.8 8 8 8 8 p 8 8 8 n b l v c v n k 8 8 8 8 8 8 8 p b k v c b 8 8 8 8 8 p 8 8 * j.g.c 1.X.1.g.k * 8 8 8 8 8 8 v g.v g.X.X.* 8 8 8 e p 8 8 8 f.k c c v c b 8 8 8 8 8 8 8 8 v c c v n s 8 8 8 8 p 8 8 * c z.k f.n g.X.X.* 8 8 8 8 8 8 p j.v f.X.j.i 8 8 8 8 p 8 8 8 b b k v c v n s 8 8 8 8 8 8 8 k b k n v v 8 8 8 ",
"8 8 8 8 8 8 8 8 8 8 8 8 8 8 8 8 8 8 p 8 8 8 8 8 % * % * * * * 8 8 8 8 8 8 8 8 * * * * * * 8 8 8 i i 8 8 8 * 8 * * * * * 8 8 8 8 8 8 8 8 8 * * * * * 8 8 8 8 8 p 8 8 8 8 * * * 8 * % 8 8 8 8 8 8 8 8 * * * * * * 8 8 8 8 8 p 8 8 8 * * * * * * * 8 8 8 8 8 8 8 8 8 * * * * * 8 8 8 8 8 p 8 8 8 * * * % * * % 8 8 8 8 8 8 8 8 * * * * * * 8 8 8 8 e p 8 8 8 * 8 * * * * * 8 8 8 8 8 8 8 8 * * * * * 8 8 8 8 8 p 8 8 8 * % * % * * * * 8 8 8 8 8 8 8 8 * * * * % 8 8 8 8 8 p 8 8 8 * * * * * * * 8 8 8 8 8 8 8 8 8 * 8 * * * 8 8 8 ",
"8 8 8 8 8 8 8 8 8 8 8 8 8 8 8 8 8 8 p 8 8 8 8 8 8 8 8 8 8 8 8 8 8 8 8 8 8 8 8 8 8 8 8 8 8 8 8 8 e e 8 8 8 8 8 8 8 8 8 8 8 8 8 8 8 8 8 8 8 8 8 8 8 8 8 8 8 8 8 p 8 8 8 8 8 8 8 8 8 8 8 8 8 8 8 8 8 8 8 8 8 8 8 8 8 8 8 8 8 p 8 8 8 8 8 8 8 8 8 8 8 8 8 8 8 8 8 8 8 8 8 8 8 8 8 8 8 8 8 p 8 8 8 8 8 8 8 8 8 8 8 8 8 8 8 8 8 8 8 8 8 8 8 8 8 8 8 8 e e 8 8 8 8 8 8 8 8 8 8 8 8 8 8 8 8 8 8 8 8 8 8 8 8 8 8 8 8 p 8 8 8 8 8 8 8 8 8 8 8 8 8 8 8 8 8 8 8 8 8 8 8 8 8 8 8 8 8 p 8 8 8 8 8 8 8 8 8 8 8 8 8 8 8 8 8 8 8 8 8 8 8 8 8 8 8 ",
"8 8 8 8 8 8 8 8 8 8 8 8 8 8 8 8 8 8 p e 8 e e e e e e e e e e e e e e e e e e e e e e e e e e 8 p p 8 e e e e e e e e e e e e e e e e e e e e e e e e e e 8 i p 8 e e e e e e e e e e e e e e e e e e e e e e e e e e e e p 8 e e e e e e e e e e e e e e e e e e e e e e e e e e e e p 8 e e e e e e e e e e e e e e e e e e e e e e e e e e 8 p p 8 e e e e e e e e e e e e e e e e e e e e e e e e e e 8 p e 8 e e e e e e e e e e e e e e e e e e e e e e e e e e e p 8 e e e e e e e e e e e e e e e e e e e e e e e e e p ",
"8 8 8 8 8 8 8 8 8 8 8 8 8 8 8 8 8 8 p p p p p p p p p p p p p p p p p p p p p p p p p p p p p p p p p p p p p p p p p p p p p p p p p p p p p p p p p p p p p p p p p p p p p p p p p p p p p p p p p p p p p p p p p p p p p p p p p p p p p p p p p p p p p p p p p p p p p p p p p p p p p p p p p p p p p p p p p p p p p p p p p p p p p p p p p p p p p p p p p p p p p p p p p p p p p p p p p p p p p p p p p p p p p p p p p p p p p p p p p p p p p p p p p p p p p p p p p p p p p p p p p p p p p p p p p p p p p p ",
"8 8 8 8 8 8 8 8 8 8 8 8 8 8 8 8 8 8 p 8 8 8 8 8 8 8 8 8 8 8 8 8 8 8 8 8 8 8 8 8 8 8 8 8 8 8 8 8 8 8 8 8 8 8 8 8 8 8 8 8 8 8 8 8 8 8 8 8 8 8 8 8 8 8 8 8 8 8 8 8 8 8 8 8 8 8 8 8 8 8 8 8 8 8 8 8 8 8 8 8 8 8 8 8 8 8 8 8 8 8 8 8 8 8 8 8 8 8 8 8 8 8 8 8 8 8 8 8 8 8 8 8 8 8 8 8 8 8 8 8 8 8 8 8 8 8 8 8 8 8 8 8 8 8 8 8 8 8 8 8 8 8 8 8 8 8 8 8 8 8 8 8 8 8 8 8 8 8 8 8 8 8 8 8 8 8 8 8 8 8 8 8 8 8 8 8 8 8 8 8 8 8 8 8 8 8 8 8 8 8 8 8 8 8 8 8 8 8 8 8 8 8 8 8 8 8 8 8 8 8 8 8 8 8 8 8 8 8 8 8 8 8 8 8 8 8 8 8 8 8 8 8 8 8 8 8 ",
"8 8 8 8 8 8 8 8 8 8 8 8 8 8 8 8 8 8 p 8 8 8 8 8 8 8 8 8 8 8 8 8 8 8 8 8 8 8 8 8 8 8 8 8 8 8 8 8 8 8 8 8 8 8 8 8 8 8 8 8 8 8 8 8 8 8 8 8 8 8 8 8 8 8 8 8 8 8 8 8 8 8 8 8 8 8 8 8 8 8 8 8 8 8 8 8 8 8 8 8 8 8 8 8 8 8 8 8 8 8 8 8 8 8 8 8 8 8 8 8 8 8 8 8 8 8 8 8 8 8 8 8 8 8 8 8 8 8 8 8 8 8 8 8 8 8 8 8 8 8 8 8 8 8 8 8 8 8 8 8 8 8 8 8 8 8 8 8 8 8 8 8 8 8 8 8 8 8 8 8 8 8 8 8 8 8 8 8 8 8 8 8 8 8 8 8 8 8 8 8 8 8 8 8 8 8 8 8 8 8 8 8 8 8 8 8 8 8 8 8 8 8 8 8 8 8 8 8 8 8 8 8 8 8 8 8 8 8 8 8 8 8 8 8 8 8 8 8 8 8 8 8 8 8 8 8 ",
"8 8 8 8 8 8 8 8 8 8 8 8 8 8 8 8 8 8 p 8 8 8 8 8 8 8 8 8 8 8 8 8 8 8 8 8 8 8 8 8 8 8 8 8 8 8 8 8 8 8 8 8 8 8 8 8 8 8 8 8 8 8 8 8 8 8 8 8 8 8 8 8 8 8 8 8 8 8 8 8 8 8 8 8 8 8 8 8 8 8 8 8 8 8 8 8 8 8 8 8 8 8 8 8 8 8 8 8 8 8 8 8 8 8 8 8 8 8 8 8 8 8 8 8 8 8 8 8 8 8 8 8 8 8 8 8 8 8 8 8 8 8 8 8 8 8 8 8 8 8 8 8 8 8 8 8 8 8 8 8 8 8 8 8 8 8 8 8 8 8 8 8 8 8 8 8 8 8 8 8 8 8 8 8 8 8 8 8 8 8 8 8 8 8 8 8 8 8 8 8 8 8 8 8 8 8 8 8 8 8 8 8 8 8 8 8 8 8 8 8 8 8 8 8 8 8 8 8 8 8 8 8 8 8 8 8 8 8 8 8 8 8 8 8 8 8 8 8 8 8 8 8 8 8 8 8 ",
"8 8 8 8 8 8 8 8 8 8 8 8 8 8 8 8 8 8 p 8 8 8 8 8 8 8 8 8 8 8 8 8 8 8 8 8 8 8 8 8 8 8 8 8 8 8 8 8 8 8 8 8 8 8 8 8 8 8 8 8 8 8 8 8 8 8 8 8 8 8 8 8 8 8 8 8 8 8 8 8 8 8 8 8 8 8 8 8 8 8 8 8 8 8 8 8 8 8 8 8 8 8 8 8 8 8 8 8 8 8 8 8 8 8 8 8 8 8 8 8 8 8 8 8 8 8 8 8 8 8 8 8 8 8 8 8 8 8 8 8 8 8 8 8 8 8 8 8 8 8 8 8 8 8 8 8 8 8 8 8 8 8 8 8 8 8 8 8 8 8 8 8 8 8 8 8 8 8 8 8 8 8 8 8 8 8 8 8 8 8 8 8 8 8 8 8 8 8 8 8 8 8 8 8 8 8 8 8 8 8 8 8 8 8 8 8 8 8 8 8 8 8 8 8 8 8 8 8 8 8 8 8 8 8 8 8 8 8 8 8 8 8 8 8 8 8 8 8 8 8 8 8 8 8 8 8 ",
"8 8 8 8 8 8 8 8 8 8 8 8 8 8 8 8 8 8 p 8 8 8 8 8 8 8 8 8 8 8 8 8 8 8 8 8 8 8 8 8 8 8 8 8 8 8 8 8 8 8 8 8 8 8 8 8 8 8 8 8 8 8 8 8 8 8 8 8 8 8 8 8 8 8 8 8 8 8 8 8 8 8 8 8 8 8 8 8 8 8 8 8 8 8 8 8 8 8 8 8 8 8 8 8 8 8 8 8 8 8 8 8 8 8 8 8 8 8 8 8 8 8 8 8 8 8 8 8 8 8 8 8 8 8 8 8 8 8 8 8 8 8 8 8 8 8 8 8 8 8 8 8 8 8 8 8 8 8 8 8 8 8 8 8 8 8 8 8 8 8 8 8 8 8 8 8 8 8 8 8 8 8 8 8 8 8 8 8 8 8 8 8 8 8 8 8 8 8 8 8 8 8 8 8 8 8 8 8 8 8 8 8 8 8 8 8 8 8 8 8 8 8 8 8 8 8 8 8 8 8 8 8 8 8 8 8 8 8 8 8 8 8 8 8 8 8 8 8 8 8 8 8 8 8 8 8 ",
"8 8 8 8 8 8 8 8 8 8 8 8 8 8 8 8 8 8 p 8 8 8 8 8 8 8 8 8 8 8 8 8 8 8 8 8 8 8 8 8 8 8 8 8 8 8 8 8 8 8 8 8 8 8 8 8 8 8 8 8 8 8 8 8 8 8 8 8 8 8 8 8 8 8 8 8 8 8 8 8 8 8 8 8 8 8 8 8 8 8 8 8 8 8 8 8 8 8 8 8 8 8 8 8 8 8 8 8 8 8 8 8 8 8 8 8 8 8 8 8 8 8 8 8 8 8 8 8 8 8 8 8 8 8 8 8 8 8 8 8 8 8 8 8 8 8 8 8 8 8 8 8 8 8 8 8 8 8 8 8 8 8 8 8 8 8 8 8 8 8 8 8 8 8 8 8 8 8 8 8 8 8 8 8 8 8 8 8 8 8 8 8 8 8 8 8 8 8 8 8 8 8 8 8 8 8 8 8 8 8 8 8 8 8 8 8 8 8 8 8 8 8 8 8 8 8 8 8 8 8 8 8 8 8 8 8 8 8 8 8 8 8 8 8 8 8 8 8 8 8 8 8 8 8 8 8 ",
"8 8 8 8 8 8 8 8 8 8 8 8 8 8 8 8 8 8 p 8 8 8 8 8 8 8 8 8 8 8 8 8 8 8 8 8 8 8 8 8 8 8 8 8 8 8 8 8 8 8 8 8 8 8 8 8 8 8 8 8 8 8 8 8 8 8 8 8 8 8 8 8 8 8 8 8 8 8 8 8 8 8 8 8 8 8 8 8 8 8 8 8 8 8 8 8 8 8 8 8 8 8 8 8 8 8 8 8 8 8 8 8 8 8 8 8 8 8 8 8 8 8 8 8 8 8 8 8 8 8 8 8 8 8 8 8 8 8 8 8 8 8 8 8 8 8 8 8 8 8 8 8 8 8 8 8 8 8 8 8 8 8 8 8 8 8 8 8 8 8 8 8 8 8 8 8 8 8 8 8 8 8 8 8 8 8 8 8 8 8 8 8 8 8 8 8 8 8 8 8 8 8 8 8 8 8 8 8 8 8 8 8 8 8 8 8 8 8 8 8 8 8 8 8 8 8 8 8 8 8 8 8 8 8 8 8 8 8 8 8 8 8 8 8 8 8 8 8 8 8 8 8 8 8 8 8 ",
"8 8 8 8 8 8 8 8 8 8 8 8 8 8 8 8 8 8 p 8 8 8 8 8 8 8 8 8 8 8 8 8 8 8 8 8 8 8 8 8 8 8 8 8 8 8 8 8 8 8 8 8 8 8 8 8 8 8 8 8 8 8 8 8 8 8 8 8 8 8 8 8 8 8 8 8 8 8 8 8 8 8 8 8 8 8 8 8 8 8 8 8 8 8 8 8 8 8 8 8 8 8 8 8 8 8 8 8 8 8 8 8 8 8 8 8 8 8 8 8 8 8 8 8 8 8 8 8 8 8 8 8 8 8 8 8 8 8 8 8 8 8 8 8 8 8 8 8 8 8 8 8 8 8 8 8 8 8 8 8 8 8 8 8 8 8 8 8 8 8 8 8 8 8 8 8 8 8 8 8 8 8 8 8 8 8 8 8 8 8 8 8 8 8 8 8 8 8 8 8 8 8 8 8 8 8 8 8 8 8 8 8 8 8 8 8 8 8 8 8 8 8 8 8 8 8 8 8 8 8 8 8 8 8 8 8 8 8 8 8 8 8 8 8 8 8 8 8 8 8 8 8 8 8 8 8 ",
"8 8 8 8 8 8 8 8 8 8 8 8 8 8 8 8 8 8 p 8 8 8 8 8 8 8 8 8 8 8 8 8 8 8 8 8 8 8 8 8 8 8 8 8 8 8 8 8 8 8 8 8 8 8 8 8 8 8 8 8 8 8 8 8 8 8 8 8 8 8 8 8 8 8 8 8 8 8 8 8 8 8 8 8 8 8 8 8 8 8 8 8 8 8 8 8 8 8 8 8 8 8 8 8 8 8 8 8 8 8 8 8 8 8 8 8 8 8 8 8 8 8 8 8 8 8 8 8 8 8 8 8 8 8 8 8 8 8 8 8 8 8 8 8 8 8 8 8 8 8 8 8 8 8 8 8 8 8 8 8 8 8 8 8 8 8 8 8 8 8 8 8 8 8 8 8 8 8 8 8 8 8 8 8 8 8 8 8 8 8 8 8 8 8 8 8 8 8 8 8 8 8 8 8 8 8 8 8 8 8 8 8 8 8 8 8 8 8 8 8 8 8 8 8 8 8 8 8 8 8 8 8 8 8 8 8 8 8 8 8 8 8 8 8 8 8 8 8 8 8 8 8 8 8 8 8 ",
"8 8 8 8 8 8 8 8 8 8 8 8 8 8 8 8 8 8 p 8 8 8 8 8 8 8 8 8 8 8 8 8 8 8 8 8 8 8 8 8 8 8 8 8 8 8 8 8 8 8 8 8 8 8 8 8 8 8 8 8 8 8 8 8 8 8 8 8 8 8 8 8 8 8 8 8 8 8 8 8 8 8 8 8 8 8 8 8 8 8 8 8 8 8 8 8 8 8 8 8 8 8 8 8 8 8 8 8 8 8 8 8 8 8 8 8 8 8 8 8 8 8 8 8 8 8 8 8 8 8 8 8 8 8 8 8 8 8 8 8 8 8 8 8 8 8 8 8 8 8 8 8 8 8 8 8 8 8 8 8 8 8 8 8 8 8 8 8 8 8 8 8 8 8 8 8 8 8 8 8 8 8 8 8 8 8 8 8 8 8 8 8 8 8 8 8 8 8 8 8 8 8 8 8 8 8 8 8 8 8 8 8 8 8 8 8 8 8 8 8 8 8 8 8 8 8 8 8 8 8 8 8 8 8 8 8 8 8 8 8 8 8 8 8 8 8 8 8 8 8 8 8 8 8 8 8 ",
"8 8 8 8 8 8 8 8 8 8 8 8 8 8 8 8 8 8 p 8 8 8 8 8 8 8 8 8 8 8 8 8 8 8 8 8 8 8 8 8 8 8 8 8 8 8 8 8 8 8 8 8 8 8 8 8 8 8 8 8 8 8 8 8 8 8 8 8 8 8 8 8 8 8 8 8 8 8 8 8 8 8 8 8 8 8 8 8 8 8 8 8 8 8 8 8 8 8 8 8 8 8 8 8 8 8 8 8 8 8 8 8 8 8 8 8 8 8 8 8 8 8 8 8 8 8 8 8 8 8 8 8 8 8 8 8 8 8 8 8 8 8 8 8 8 8 8 8 8 8 8 8 8 8 8 8 8 8 8 8 8 8 8 8 8 8 8 8 8 8 8 8 8 8 8 8 8 8 8 8 8 8 8 8 8 8 8 8 8 8 8 8 8 8 8 8 8 8 8 8 8 8 8 8 8 8 8 8 8 8 8 8 8 8 8 8 8 8 8 8 8 8 8 8 8 8 8 8 8 8 8 8 8 8 8 8 8 8 8 8 8 8 8 8 8 8 8 8 8 8 8 8 8 8 8 8 ",
"8 8 8 8 8 8 8 8 8 8 8 8 8 8 8 8 8 8 p 8 8 8 8 8 8 8 8 8 8 8 8 8 8 8 8 8 8 8 8 8 8 8 8 8 8 8 8 8 8 8 8 8 8 8 8 8 8 8 8 8 8 8 8 8 8 8 8 8 8 8 8 8 8 8 8 8 8 8 8 8 8 8 8 8 8 8 8 8 8 8 8 8 8 8 8 8 8 8 8 8 8 8 8 8 8 8 8 8 8 8 8 8 8 8 8 8 8 8 8 8 8 8 8 8 8 8 8 8 8 8 8 8 8 8 8 8 8 8 8 8 8 8 8 8 8 8 8 8 8 8 8 8 8 8 8 8 8 8 8 8 8 8 8 8 8 8 8 8 8 8 8 8 8 8 8 8 8 8 8 8 8 8 8 8 8 8 8 8 8 8 8 8 8 8 8 8 8 8 8 8 8 8 8 8 8 8 8 8 8 8 8 8 8 8 8 8 8 8 8 8 8 8 8 8 8 8 8 8 8 8 8 8 8 8 8 8 8 8 8 8 8 8 8 8 8 8 8 8 8 8 8 8 8 8 8 8 ",
"8 8 8 8 8 8 8 8 8 8 8 8 8 8 8 8 8 8 p 8 8 8 8 8 8 8 8 8 8 8 8 8 8 8 8 8 8 8 8 8 8 8 8 8 8 8 8 8 8 8 8 8 8 8 8 8 8 8 8 8 8 8 8 8 8 8 8 8 8 8 8 8 8 8 8 8 8 8 8 8 8 8 8 8 8 8 8 8 8 8 8 8 8 8 8 8 8 8 8 8 8 8 8 8 8 8 8 8 8 8 8 8 8 8 8 8 8 8 8 8 8 8 8 8 8 8 8 8 8 8 8 8 8 8 8 8 8 8 8 8 8 8 8 8 8 8 8 8 8 8 8 8 8 8 8 8 8 8 8 8 8 8 8 8 8 8 8 8 8 8 8 8 8 8 8 8 8 8 8 8 8 8 8 8 8 8 8 8 8 8 8 8 8 8 8 8 8 8 8 8 8 8 8 8 8 8 8 8 8 8 8 8 8 8 8 8 8 8 8 8 8 8 8 8 8 8 8 8 8 8 8 8 8 8 8 8 8 8 8 8 8 8 8 8 8 8 8 8 8 8 8 8 8 8 8 8 ",
"8 8 8 8 8 8 8 8 8 8 8 8 8 8 8 8 8 8 p 8 8 8 8 8 8 8 8 8 8 8 8 8 8 8 8 8 8 8 8 8 8 8 8 8 8 8 8 8 8 8 8 8 8 8 8 8 8 8 8 8 8 8 8 8 8 8 8 8 8 8 8 8 8 8 8 8 8 8 8 8 8 8 8 8 8 8 8 8 8 8 8 8 8 8 8 8 8 8 8 8 8 8 8 8 8 8 8 8 8 8 8 8 8 8 8 8 8 8 8 8 8 8 8 8 8 8 8 8 8 8 8 8 8 8 8 8 8 8 8 8 8 8 8 8 8 8 8 8 8 8 8 8 8 8 8 8 8 8 8 8 8 8 8 8 8 8 8 8 8 8 8 8 8 8 8 8 8 8 8 8 8 8 8 8 8 8 8 8 8 8 8 8 8 8 8 8 8 8 8 8 8 8 8 8 8 8 8 8 8 8 8 8 8 8 8 8 8 8 8 8 8 8 8 8 8 8 8 8 8 8 8 8 8 8 8 8 8 8 8 8 8 8 8 8 8 8 8 8 8 8 8 8 8 8 8 8 ",
"8 8 8 8 8 8 8 8 8 8 8 8 8 8 8 8 8 8 p 8 8 8 8 8 8 8 8 8 8 8 8 8 8 8 8 8 8 8 8 8 8 8 8 8 8 8 8 8 8 8 8 8 8 8 8 8 8 8 8 8 8 8 8 8 8 8 8 8 8 8 8 8 8 8 8 8 8 8 8 8 8 8 8 8 8 8 8 8 8 8 8 8 8 8 8 8 8 8 8 8 8 8 8 8 8 8 8 8 8 8 8 8 8 8 8 8 8 8 8 8 8 8 8 8 8 8 8 8 8 8 8 8 8 8 8 8 8 8 8 8 8 8 8 8 8 8 8 8 8 8 8 8 8 8 8 8 8 8 8 8 8 8 8 8 8 8 8 8 8 8 8 8 8 8 8 8 8 8 8 8 8 8 8 8 8 8 8 8 8 8 8 8 8 8 8 8 8 8 8 8 8 8 8 8 8 8 8 8 8 8 8 8 8 8 8 8 8 8 8 8 8 8 8 8 8 8 8 8 8 8 8 8 8 8 8 8 8 8 8 8 8 8 8 8 8 8 8 8 8 8 8 8 8 8 8 8 ",
"8 8 8 8 8 8 8 8 8 8 8 8 8 8 8 8 8 8 p i 8 8 8 8 8 8 8 8 8 8 8 8 8 8 8 8 8 8 8 8 8 8 8 8 8 8 8 8 8 8 8 8 8 8 8 8 8 8 8 8 8 8 8 8 8 8 8 8 8 8 8 8 8 8 8 8 8 8 8 8 8 8 8 8 8 8 8 8 8 8 8 8 8 8 8 8 8 8 8 8 8 8 8 8 8 8 8 8 8 8 8 8 8 8 8 8 8 8 8 8 8 8 8 8 8 8 8 8 8 8 8 8 8 8 8 8 8 8 8 8 8 8 8 8 8 8 8 8 8 8 8 8 8 8 8 8 8 8 8 8 8 8 8 8 8 8 8 8 8 8 8 8 8 8 8 8 8 8 8 8 8 8 8 8 8 8 8 8 8 8 8 8 8 8 8 8 8 8 8 8 8 8 8 8 8 8 8 8 8 8 8 8 8 8 8 8 8 8 8 8 8 8 8 8 8 8 8 8 8 8 8 8 8 8 8 8 8 8 8 8 8 8 8 8 8 8 8 8 8 8 8 8 8 8 8 8 ",
"@ % % % % % % % % % % % % % % % % % * % % % % % % % % % % % % % % % % % % % % % % % % % % % % % % % % % % % % % % % % % % % % % % % % % % % % % % % % % % % % % % % % % % % % % % % % % % % % % % % % % % % % % % % % % % % % % % % % % % % % % % % % % % % % % % % % % % % % % % % % % % % % % % % % % % % % % % % % % % % % % % % % % % % % % % % % % % % % % % % % % % % % % % % % % % % % % % % % % % % % % % % % % % % % % % % % % % % % % % % % % % % % % % % % % % % % % % % % % % % % % % % % % % % % % % % % % % % % $ ",
"2XF.2X2X2X2X2X2X2X2X2X2X2X2X2X2X2X2XF.2X2X2X2X2X2X2X2X2X2X2X2X2X2X2X2X2X2X2X2X2X2X2X2X2X2X2X2X2X2X2X2X2X2X2X2X2X2X2X2X2X2X2X2X2X2X2X2X2X2X2X2X2X2X2X2X2X2X2X2X2X2X2X2X2X2X2X2X2X2X2X2X2X2X2X2X2X2X2X2X2X2X2X2X2X2X2X2X2X2X2X2X2X2X2X2X2X2X2X2X2X2X2X2X2X2X2X2X2X2X2X2X2X2X2X2X2X2X2X2X2X2X2X2X2X2X2X2X2X2X2X2X2X2X2X2X2X2X2X2X2X2X2X2X2X2X2X2X2X2X2X2X2X2X2X2X2X2X2X2X2X2X2X2X2X2X2X2X2X2X2X2X2X2X2X2X2X2X2X2X2X2X2X2X2X2X2X2X2X2X2X2X2X2X2X2X2X2X2X2X2X2X2X2X2X2X2X2X2X2X2X2X2X2X2X2X2X2X2X2X2X2X2X2X2X2X2X2X2X2X2X2X2X2X2XF.iX",
"h.k.k.k.k.k.k.k.k.k.k.k.k.k.k.k.k.k.k.k.k.k.k.k.k.k.k.k.k.k.k.k.k.k.k.k.k.k.k.k.k.k.k.k.k.k.k.k.k.k.k.k.k.k.k.k.k.k.k.k.k.k.k.k.k.k.k.k.k.k.k.k.k.k.k.k.k.k.k.k.k.k.k.k.k.k.k.k.k.k.k.k.k.k.k.k.k.k.k.k.k.k.k.k.k.k.k.k.k.k.k.k.k.k.k.k.k.k.k.k.k.k.k.k.k.k.k.k.k.k.k.k.k.k.k.k.k.k.k.k.k.k.k.k.k.k.k.k.k.k.k.k.k.k.k.k.k.k.k.k.k.k.k.k.k.k.k.k.k.k.k.k.k.k.k.k.k.k.k.k.k.k.k.k.k.k.k.k.k.k.k.k.k.k.k.k.k.k.k.k.k.k.k.k.k.k.k.k.k.k.k.k.k.k.k.k.k.k.k.k.k.k.k.k.k.k.k.k.k.k.k.k.k.k.k.k.k.k.k.k.k.k.k.k.k.k.k.k.k.k.k.k.k.k.k.h.",
"D.D.D.D.D.D.D.D.D.D.D.D.D.D.D.D.D.D.D.D.D.D.D.D.D.D.D.D.D.D.D.D.D.D.D.D.D.D.D.D.D.D.D.D.D.D.D.D.D.D.D.D.D.D.D.D.D.D.D.D.D.D.D.D.D.D.D.D.D.D.D.D.D.D.D.D.D.D.D.D.D.D.D.D.D.D.D.D.D.D.D.D.D.D.D.D.D.D.D.D.D.D.D.D.D.D.D.D.D.D.D.D.D.D.D.D.D.D.D.D.D.D.D.D.D.D.D.D.D.D.D.D.D.D.D.D.D.D.D.D.D.D.D.D.D.D.D.D.D.D.D.D.D.D.D.D.D.D.D.D.D.D.D.D.D.D.D.D.D.D.D.D.D.D.D.D.D.D.D.D.D.D.D.D.D.D.D.D.D.D.D.D.D.D.D.D.D.D.D.D.D.D.D.D.D.D.D.D.D.D.D.D.D.D.D.D.D.D.D.D.D.D.D.D.D.D.D.D.D.D.D.D.D.D.D.D.D.D.D.D.D.D.D.D.D.D.D.D.D.D.D.D.D.D.D.D.",
"o o o @ @ @ @ @ @ @ @ @ @ @ @ @ o o o o $ @ @ @ @ @ @ @ @ @ @ @ o o o o @ @ @ @ @ @ @ @ @ @ @ @ @ @ @ @ @ @ @ @ @ @ @ @ @ @ @ @ @ @ @ @ @ @ @ @ @ @ @ @ @ @ @ @ @ @ @ @ @ @ @ @ @ @ @ @ @ @ @ @ @ @ @ @ @ @ @ @ @ @ @ @ @ @ @ @ @ @ @ @ @ @ @ @ @ @ @ @ @ @ @ @ @ @ @ @ @ @ @ @ @ @ @ @ @ @ @ @ @ @ @ @ @ @ @ @ @ @ @ @ @ @ @ @ @ @ @ @ @ @ @ @ @ @ @ @ @ @ @ @ @ @ @ @ @ @ @ @ @ @ @ @ @ @ @ @ @ @ @ @ @ @ @ @ @ @ @ @ @ @ @ @ @ @ @ @ @ @ @ @ @ @ @ @ @ @ @ @ @ @ @ @ @ @ @ @ o o @ o @ o @ @ @ o o o o @ @ @ @ o o o @ o o o ",
"X.f.X.e 8 8 8 8 8 8 8 8 8 8 8 8 h.k.k.v 8 e 8 8 8 8 8 8 8 8 8 i X.X.f.k 8 8 8 8 8 8 8 8 8 8 8 8 8 8 8 8 8 8 8 8 8 8 8 8 8 8 8 8 8 8 8 8 8 8 8 8 8 8 8 8 8 8 8 8 8 8 8 8 8 8 8 8 8 8 8 8 8 8 8 8 8 8 8 8 8 8 8 8 8 8 8 8 8 8 8 8 8 8 8 8 8 8 8 8 8 8 8 8 8 8 8 8 8 8 8 8 8 8 8 8 8 8 8 8 8 8 8 8 8 8 8 8 8 8 8 8 8 8 8 8 8 8 8 8 8 8 8 8 8 8 8 8 8 8 8 8 8 8 8 8 8 8 8 8 8 8 8 8 8 8 8 8 8 8 8 8 8 8 8 8 8 8 8 8 8 8 8 8 8 8 8 8 8 8 8 8 8 8 8 8 8 8 8 8 8 8 8 8 8 8 8 8 8 8 8 i i i i k e p 8 8 e 4 e e e e 8 8 y } { t 8 >.{ >.",
"C.z.z.e 8 8 >.t = r t e 8 8 8 8 m.x.V.g.% 8 t } 8 8 t r 8 8 8 e k.V.Z.c * 8 { { = e t r 8 8 8 8 8 8 8 8 8 8 8 8 8 8 8 8 8 8 8 8 8 8 8 8 8 8 8 8 8 8 8 8 8 8 8 8 8 8 8 8 8 8 8 8 8 8 8 8 8 8 8 8 8 8 8 8 8 8 8 8 8 8 8 8 8 8 8 8 8 8 8 8 8 8 8 8 8 8 8 8 8 8 8 8 8 8 8 8 8 8 8 8 8 8 8 8 8 8 8 8 8 8 8 8 8 8 8 8 8 8 8 8 8 8 8 8 8 8 8 8 8 8 8 8 8 8 8 8 8 8 8 8 8 8 8 8 8 8 8 8 8 8 8 8 8 8 8 8 8 8 8 8 8 8 8 8 8 8 8 8 8 8 8 8 8 8 8 8 8 8 8 8 8 8 8 8 8 8 8 8 8 8 8 8 8 8 * c X.g.b c h.b d 9 D D G G D e 8 8 y } r.t 8 >.} >.",
"v.B.F.8 = t ,X{ & { >.t = 8 8 8 v.B.b v * = >.r.e e >.} 8 8 8 d p j.v.p 8 8 r.r.= t >.{ 8 8 8 8 8 8 8 8 8 8 8 8 8 8 8 8 8 8 8 8 8 8 8 8 8 8 8 8 8 8 8 8 8 8 8 8 8 8 8 8 8 8 8 8 8 8 8 8 8 8 8 8 8 8 8 8 8 8 8 8 8 8 8 8 8 8 8 8 8 8 8 8 8 8 8 8 8 8 8 8 8 8 8 8 8 8 8 8 8 8 8 8 8 8 8 8 8 8 8 8 8 8 8 8 8 8 8 8 8 8 8 8 8 8 8 8 8 8 8 8 8 8 8 8 8 8 8 8 8 8 8 8 8 8 8 8 8 8 8 8 8 8 8 8 8 8 8 8 8 8 8 8 8 8 8 8 8 8 8 8 8 8 8 8 8 8 8 8 8 8 8 8 8 8 8 8 8 8 8 8 8 8 8 8 8 8 * c k.k.h.e z.X.p 9 J D G G W.8 8 8 t y } t 8 >.>.>.",
"k.B.V.8 8 = r 8 8 = & 8 8 8 8 8 h.z.c k 8 8 8 r = 8 & & 8 8 8 p c j.z.p 8 = e e 8 8 & = 8 8 8 8 8 8 8 8 8 8 8 8 8 8 8 8 8 8 8 8 8 8 8 8 8 8 8 8 8 8 8 8 8 8 8 8 8 8 8 8 8 8 8 8 8 8 8 8 8 8 8 8 8 8 8 8 8 8 8 8 8 8 8 8 8 8 8 8 8 8 8 8 8 8 8 8 8 8 8 8 8 8 8 8 8 8 8 8 8 8 8 8 8 8 8 8 8 8 8 8 8 8 8 8 8 8 8 8 8 8 8 8 8 8 8 8 8 8 8 8 8 8 8 8 8 8 8 8 8 8 8 8 8 8 8 8 8 8 8 8 8 8 8 8 8 8 8 8 8 8 8 8 8 8 8 8 8 8 8 8 8 8 8 8 8 8 8 8 8 8 8 8 8 8 8 8 8 8 8 8 8 8 8 8 8 8 * X.c 8 k c p k s 9 r D r r 4 8 8 8 y } { t = r.{ >.",
"8 * * 8 8 8 8 8 8 8 8 8 8 8 8 8 8 8 8 8 8 8 8 8 8 8 8 8 8 8 8 8 8 8 8 8 8 8 8 8 8 8 8 8 8 8 8 8 8 8 8 8 8 8 8 8 8 8 8 8 8 8 8 8 8 8 8 8 8 8 8 8 8 8 8 8 8 8 8 8 8 8 8 8 8 8 8 8 8 8 8 8 8 8 8 8 8 8 8 8 8 8 8 8 8 8 8 8 8 8 8 8 8 8 8 8 8 8 8 8 8 8 8 8 8 8 8 8 8 8 8 8 8 8 8 8 8 8 8 8 8 8 8 8 8 8 8 8 8 8 8 8 8 8 8 8 8 8 8 8 8 8 8 8 8 8 8 8 8 8 8 8 8 8 8 8 8 8 8 8 8 8 8 8 8 8 8 8 8 8 8 8 8 8 8 8 8 8 8 8 8 8 8 8 8 8 8 8 8 8 8 8 8 8 8 8 8 8 8 8 8 8 8 8 8 8 8 8 8 8 8 p 8 8 * * 8 * 8 8 8 9 8 8 9 8 8 8 8 8 8 8 8 = 8 = ",
"8 8 8 8 8 8 8 8 8 8 8 8 8 8 8 8 8 8 8 8 8 8 8 8 8 8 8 8 8 8 8 8 8 8 8 8 8 8 8 8 8 8 8 8 8 8 8 8 8 8 8 8 8 8 8 8 8 8 8 8 8 8 8 8 8 8 8 8 8 8 8 8 8 8 8 8 8 8 8 8 8 8 8 8 8 8 8 8 8 8 8 8 8 8 8 8 8 8 8 8 8 8 8 8 8 8 8 8 8 8 8 8 8 8 8 8 8 8 8 8 8 8 8 8 8 8 8 8 8 8 8 8 8 8 8 8 8 8 8 8 8 8 8 8 8 8 8 8 8 8 8 8 8 8 8 8 8 8 8 8 8 8 8 8 8 8 8 8 8 8 8 8 8 8 8 8 8 8 8 8 8 8 8 8 8 8 8 8 8 8 8 8 8 8 8 8 8 8 8 8 8 8 8 8 8 8 8 8 8 8 8 8 8 8 8 8 8 8 8 8 8 8 8 8 8 8 8 8 8 8 8 8 8 8 8 8 8 8 8 8 8 8 8 8 8 8 8 8 8 8 8 8 8 8 8 8 "
};
