/* XPM */
static char *sc_mb_gate_lr[] = {
/* columns rows colors chars-per-pixel */
"256 256 256 2 ",
"   c #040404",
".  c #050A0D",
"X  c #0C0C0C",
"o  c #070408",
"O  c #1E0505",
"+  c #160909",
"@  c #0C0D14",
"#  c #070915",
"$  c #150E14",
"%  c #0E1116",
"&  c #091719",
"*  c #131314",
"=  c #1B1315",
"-  c #14151B",
";  c #1C151A",
":  c #16191E",
">  c #1B1B1C",
",  c #191B15",
"<  c #11160D",
"1  c #220A0A",
"2  c #280505",
"3  c #360A0B",
"4  c #2B1313",
"5  c #2D1A1E",
"6  c #25181A",
"7  c #331B1D",
"8  c #381516",
"9  c #330E12",
"0  c #1B2418",
"q  c #2D2E1D",
"w  c #0D1D24",
"e  c #141D23",
"r  c #1B1C22",
"t  c #161525",
"y  c #1C1D36",
"u  c #0A0C37",
"i  c #231C22",
"p  c #281A23",
"a  c #37192A",
"s  c #291E34",
"d  c #3B1B32",
"f  c #370A25",
"g  c #1E2125",
"h  c #19262A",
"j  c #1B2534",
"k  c #193438",
"l  c #0B2C2D",
"z  c #232323",
"x  c #23242A",
"c  c #26292D",
"v  c #2A2B2C",
"b  c #2B2726",
"n  c #3D2525",
"m  c #342C2C",
"M  c #3D2A2A",
"N  c #342426",
"B  c #2C2D32",
"V  c #2B2238",
"C  c #392736",
"Z  c #2E3134",
"A  c #273738",
"S  c #333334",
"D  c #3B3232",
"F  c #34353A",
"G  c #3A3A3D",
"H  c #37393B",
"J  c #30322A",
"K  c #570E12",
"L  c #45181A",
"P  c #510A0C",
"I  c #6A0405",
"U  c #770607",
"Y  c #6D1214",
"T  c #471B39",
"R  c #4F142F",
"E  c #6D1232",
"W  c #432C2C",
"Q  c #472727",
"!  c #4A2E3D",
"~  c #442638",
"^  c #463131",
"/  c #4A3333",
"(  c #4C313E",
")  c #463A39",
"_  c #55373B",
"`  c #532A2D",
"'  c #6A2626",
"]  c #752C32",
"[  c #48261B",
"{  c #1E5328",
"}  c #535A20",
"|  c #12134A",
" . c #15384B",
".. c #372B42",
"X. c #3C3D42",
"o. c #3B3B4A",
"O. c #373646",
"+. c #2C3549",
"@. c #02026F",
"#. c #331E5D",
"$. c #511A4D",
"%. c #641853",
"&. c #443644",
"*. c #4D3342",
"=. c #463846",
"-. c #4A3C4A",
";. c #463A49",
":. c #513544",
">. c #543B4A",
",. c #563748",
"<. c #502B4C",
"1. c #6D334F",
"2. c #461C6E",
"3. c #4F296E",
"4. c #682D75",
"5. c #70197A",
"6. c #194748",
"7. c #1A5658",
"8. c #0B4D55",
"9. c #3D4146",
"0. c #2E4B53",
"q. c #10536E",
"w. c #375A68",
"e. c #0F6F72",
"r. c #2F6C71",
"t. c #136F4C",
"y. c #424345",
"u. c #44454A",
"i. c #494A4E",
"p. c #4A454C",
"a. c #4C4D52",
"s. c #464554",
"d. c #544552",
"f. c #4F5055",
"g. c #47555A",
"h. c #525355",
"j. c #54555A",
"k. c #57585C",
"l. c #5B5B5D",
"z. c #5A5858",
"x. c #55444A",
"c. c #695558",
"v. c #5D5E62",
"b. c #585964",
"n. c #475767",
"m. c #6E5969",
"M. c #5E6064",
"N. c #466C77",
"B. c #626265",
"V. c #646569",
"C. c #6A6A6D",
"Z. c #68666A",
"A. c #6C6D72",
"S. c #676B75",
"D. c #6F7075",
"F. c #667279",
"G. c #717276",
"H. c #77797C",
"J. c #7A7A7C",
"K. c #77757A",
"L. c #7B666E",
"P. c #5F605D",
"I. c #860507",
"U. c #990506",
"Y. c #911517",
"T. c #AF1111",
"R. c #8C2B30",
"E. c #B0272B",
"W. c #971433",
"Q. c #C31717",
"!. c #CE0809",
"~. c #EF1718",
"^. c #C71D26",
"/. c #C8282C",
"(. c #E51F22",
"). c #8E1548",
"_. c #8A3549",
"`. c #A71C51",
"'. c #894550",
"]. c #876E75",
"[. c #AF585C",
"{. c #C1353F",
"}. c #6F9C09",
"|. c #0D8D59",
" X c #79817A",
".X c #0C9710",
"XX c #9B980A",
"oX c #B5B326",
"OX c #02028E",
"+X c #262696",
"@X c #0505B4",
"#X c #2828BC",
"$X c #653185",
"%X c #5E228A",
"&X c #0B6E8F",
"*X c #1B7197",
"=X c #7B7C80",
"-X c #777880",
";X c #677D84",
":X c #4F6E87",
">X c #1D1DD0",
",X c #0778CC",
"<X c #8C7687",
"1X c #A16E9C",
"2X c #A97EC1",
"3X c #078384",
"4X c #119394",
"5X c #308D92",
"6X c #309AA3",
"7X c #0EA9AA",
"8X c #2EAEB3",
"9X c #0B8AB1",
"0X c #4D8C92",
"qX c #4CB2B4",
"wX c #6D8F96",
"eX c #0699CC",
"rX c #06B0D0",
"tX c #2BB9C3",
"yX c #02B3ED",
"uX c #048BEC",
"iX c #13CFD1",
"pX c #2AC9CC",
"aX c #1BE6EF",
"sX c #42C2D1",
"dX c #858687",
"fX c #979799",
"gX c #95888F",
"hX c #AA9297",
"jX c #9D9EA1",
"kX c #AF98A7",
"lX c #ACACAC",
"zX c #A4A4A5",
"xX c #BAA7B5",
"cX c #B3B3B3",
"vX c #BCBCBC",
"bX c #B8B5BA",
"nX c #B6A8AA",
"mX c #9FA0A4",
"MX c #C6AEB3",
"NX c #C09DAD",
"BX c #BDBBC1",
"VX c #B188C4",
"CX c #C5B8C6",
"ZX c #C3C3C3",
"AX c #CACACB",
"SX c #D7D7DA",
"DX c #CECFD1",
"FX c #DEDFE1",
"GX c #EAEBED",
"HX c #E4E5E7",
"JX c #EEEFF0",
"KX c #FBFCFD",
"LX c #F3F4F6",
"PX c #EFF0F2",
"IX c #DFE0E2",
"UX c #C1C0C0",
/* pixels */
"r r r r r r r r r r r r r r r r r r r r r r r r r r r r r r r r r r r r r r r r r r r r r r r r r r r r r r r r r r r r r r r r r r r r r r r r r r r r r r r r r r r r r r r r r r r r r r r r r r r r r r r r r r r r r r r r r r r r r r r r r r r r r r r r r r r r r r r r r r r r r r r r r r r r r r r r r r r r r r r r r r r r r r r r r r r r r r r r r r r r r r r r r r r r r r r r r r r r r r r r r r r r r r r r r r r r r r r r r r r r r r r r r r r r r r r r r r r r r r r r r r r r r r r r r r r r r r r r ",
"r r r r r r r r r r r r r r r r r r r r r > ; ; > r r r r r r r r r r r r r r r r r r r r r r r r r r r r r r r r r r r r r r r r r r r r r r r r r r r r r r r r r r r r r r r r r r r r r r r r r r r r r r r r r r r r r r r r r r r r r r r r r r r r r r r r r r r r r r r r r r r r : - - - - % r - - : * - r : r - r - : - : r : - r - : : : : r - - - : - - r - r - r : - * r r - - r - : - * - - r : : r - : - : * - - - - : : * : : r - * - r - : - - : r r r r ; ; > = ; ; r ; ; ; r ; ; r ; > > r > ; > r r r r r r ",
"r r r r > = ; ; ; ; r > ; ; ; ; = > r r r  .q.q. .r > r r r r r r r r r r r r r r r r r r r r r r r r r r r r r r r r r r r r r r r r r r r r r r r r r r r r r r r r r r r r r r r r r r r r r r r r r r r r r r r r r r r r r r r r r r r r r r r r r r r r r r r r r r r r r r r r r : F l.a.a.i.D.x h.k.B Z.a.B H x i.B l.y.y.F c F i.B h.X.S 9.X.r V.Z.M.X.v.h.: a.c f.B X.B.b.r - i.M.r y.F v.C.f.B.r F S c C.9.v.a.A.v.k.h.a.u.S V.Z G x u.C.v.x u.X.y.v.B - F x ;  .8.h q. . .h 8. .q.g  .q.h 8. . .r  .q.h > r r h { .X",
" .; r > j *XeXeXeX*X= q.eXeXeXeX&Xh > r q.rX7X7XrX4Xj > r r r r r r r r r r r r r r r r r r r r r r r r r r r r r r r r r r r r r r r r r r r r r r r r r r r r r r r r r r r r r r r r r r r r r r r r r r r r r r r r r r r r r r r r r r r r r r r r r r r r r r r r r r r r r r r r % v.H.a.V.C.l.A.dXB.H.X.a.dXdXH cXj.C.l.jXK.B a.fXC.fXV.9.G.A.@ B.V.V.j.fXfXB bXa.fXK.G.Z.Z.a.c =XV.B fXD.i.A.A.dX- v.y.F fXi.zXX.G.k.dXdXA.v.D.V.a.dXdXl.A.v.. K.dXu.bXi.@ X.x ; &X8.q. . .*Xq.&Xq.*Xq.q.q. .9Xq.q.> q.*X6.; r r 0 .X{ ",
"8.= g = &XyXeXeXeX9X+ &XyXeXeXrXyX&X+ q.rXe.r ; 6.9X&Xh > r r r r r r r r r r r r r r r r r r r r r r r r r r r r r r r r r r r r r r r r r r r r r r r r r r r r r r r r r r r r r r r r r r r r r r r r r r r r r r r r r r r r r r r r r r r r r r r r r r r r r r r r r r r r r r r r B dX=XB.A.C.Z.dXj.K.a.h.G.A.K.fXdXH.k.C.lXB y.fXfXA.D.G.M.dXF a.h.V.v.dXwXG.fXgXV.fXdXA.G.i.c H.H.H.fXdXh.j.V.H.* l.A.a.dXi.dX* V.u.dXdXA.B.C.K.H.A.A.h.k.i.@ K.dXv.zXj.@ X.x >  .&X&X8. .&X&Xq.e.&Xq.q.q.q.&Xq.e. .q.*X .; r r 0 .X{ ",
"8.= r = eXyXr = = = = &XyXh O h yX&Xh eXe.O r j  .j 9X .> r r r r r r r r r r r r r r r r r r r r r r r r r r r r r r r r r r r r r r r r r r r r r r r r r r r r r r r r r r r r r r r r r r r r r r r r r r r r r r r r r r r r r r r r r r r r r r r r r r r r r r r r r r r r r r r : G a.X.u.9.M.r u.a.c v.9.c B u.r X.j.F c 9.x c X.X.B F v.r h.a.B Z i.H h.u.X.r y.F Z X.j.a.: : X.j.9.x B X.B H l.r B B.X.j.9.Z * F B S B j.G B v.F S c B S c x G Z X.a.B : B g >  . .g 8. .k  .k  .8.r  .8.j 6.k  .8.k j k > r r g { { ",
"8.= g = &XyXrXeXeXq.O &XyX .h  .yX&X; q.eX8.; j k = &Xq.> r r r r r r r r r r r r r r r r r r r r r r r r r r r r r r r r r r r r r r r r r r r r r r r r r r r r r r r r r r r r r r r r r r r r r r r r r r r r r r r r r r r r r r r r r r r r r r r r r r r r r r r r r r r r r r r r : - - - - @ r - - r % - r : - r - - : r - r r - - : : % r * - : : - : * - - r - : : - * - r r - * - r : - : : % r : @ - * - : r : : : : * : : % : : r : : : r - : - * : r r r r ; ; r = > > ; > ; ; r ; = r ; > ; ; > r > r r r r r t ",
"6.= r r r &XeX9XrXyXr &XyXyXyXyXyXq.g 9XyX&XO ; r > &Xq.> r r r r r r r r r r r r r r r r r r r r r r r r r r r r r r r r r r r r r r r r r r r r r r r r r r r r r r r r r r r r r r r r r r r r r r r r r r r r r r r r r r r r r r r r r r r r r r r r r r r r r r r r r r r r r r r r r r r r r r r r r : r r r r r r r r r r r r r r r r r r : r r r r r r r r r r r r r r r r r r r r r r r r r r r r r r r r r r r r r g r r r r r g g > r r r r r r r r r ; ; r r e r : e e : r : r e r r r > r r r e r : e : - : r r : ",
"8.; r r r ; ; + q.yXj &XyX&X&X&Xq.; k &X9XyXq. .= 6.9X .> r r r r r r r r r r r r r r r r r r r r r r r r r r r r r r r r r r r r r r r r r r r r r r r r r r r r r r r r r r r r r r r r r r r r r r r r r r r r r r r r r r r r r r r r r r r r r r r r r r > h g r r r r r r r r r r r r r r r r r r r x y.x : F c r r B B : x r r r r r g r c B r r r r r r r r r r r r r r r r r r r h h > r r r r r r r r r r .Xg r r > = = ; r r ; e.4X .; r r r r r r r h  . .j v F c X.X.G F c F x B r r h k k h : F c y.F c u.B B c G ",
"yXrXyX8.k yXyXyXyXyX> &XyXg + = = r ; h rXeXyXeX .9Xq.h r r r r r r r r r r r r r r r r r r r r r r r r r r r r r r r r r r r r r r r r r r r r r r r r r r r r r r r r r r r r r r r r r r r r r r r r r r r r r r r r r r r r r r r r r r r r r r r r r r > j  .r r r r r r r r r r r r r r r r r r r : Z h.X.v.j.k.l.i.a.a.x j.i.f.f.v.j.9.k.B.i.: r r r r r r r r r r r r r r r r r r r 8.h r r r r r r r r t { .X{ t > k e.3X4Xr r ; 3X7X7.= r r r r r r > j q.q. .F v.i.v.j.X.V.u.j.B i.r r h  . .h > Z.u.v.h.a.c v.9.H X.",
"9X9X9X .j 9X9X9X9X6.= q.9Xj r r r r > k  .q.eX&X*Xq.j > r r r r r r r r r r r r r r r r r r r r r r r r r r r r r r r r r r r r r r r r r r r r r r r r r r r r r r r r r r r r r r r r r r r r r r r r r r r r r r r r r r r r r r r r r r r r r r r r r r r h  .r r r r r r r r r r r r r r r r r r r r r i.V.h.a.V.a.f.G 9.c j.j.u.a.f.y.v.l.i.X.: r r r r r r r r r r r r r r r r r r g  .g r r r r r r r r t { { { r r h  .6.7.r r ; e.4X6.; r r r r r r > j q.q. .v v.l.i.h.X.y.B.i.p.u.: r j  . .h F v.v.k.a.a.X.a.i.a.B ",
"= = = > r = = = = ; r > = r r r r r r r =  . .j 6.r r r r r r r r r r r r r r r r r r r r r r r r r r r r r r r r r r r r r r r r r r r r r r r r r r r r r r r r r r r r r r r r r r r r r r r r r r r r r r r r r r r r r r r r r r r r r r r r r r r r r r r r g r r r r r r r r r r r r r r r r r r r x F x S c c B B S B B k.c x x Z B c B v B r r r r r r r r r r r r r r r r r r r g r r r r r r r r r r r g t g r r r ; ; ; r r r h k > r r r r r r r r g j j h z c c x F Z g B x H x r r h j j g c r c G B z X.g B F r ",
"- - - * * - - - - - * - - * * * * * * * - $ $ * $ * - * * * * * * * * * * * * * * * * * * * * * * * * * * * * * * * * * * * * * * * * * * * * * * * * * * * * * * * * * * * * * * * * * * * * * * * * * * * * * * * * * * * * * * * * * * * * * * * * * * * * * * * * * * * * * * * * * * * * * * * * * * % @ % @ @ @ @ @ @ @ - : @ * % @ @ @ @ @ @ * * * * * * * * * * * * * * * * * * * * * * * * * * * * * * * * * * * * * - - - * * * % $ - * * * * * * * * * % $ * % @ @ % @ @ * @ % @ % * * * % % * @ * @ @ @ * @ * @ @ * ",
"i.i.i.i.i.i.i.i.i.i.i.i.i.i.i.i.i.i.i.i.i.a.a.i.a.i.i.i.i.i.i.i.i.i.i.i.i.i.i.i.i.i.i.i.i.i.i.i.i.i.i.i.i.i.i.i.i.i.i.i.i.i.i.i.i.i.i.i.i.i.i.i.i.i.i.i.i.i.i.i.i.i.i.i.i.i.i.i.i.i.i.i.i.i.i.i.i.i.i.i.i.i.i.i.i.i.i.i.i.i.i.i.i.i.i.i.i.i.i.i.i.i.i.i.i.i.i.i.i.i.i.i.i.i.i.i.i.i.i.i.i.i.i.i.i.i.i.i.i.i.a.i.a.i.i.a.i.i.a.i.i.a.i.i.a.a.i.a.i.i.i.i.i.i.i.i.i.i.i.i.i.i.i.i.i.i.i.i.i.i.i.i.i.i.i.i.i.i.i.i.i.i.i.i.i.i.i.i.i.i.i.i.i.i.i.i.i.i.i.i.i.i.i.a.a.a.a.a.a.a.a.a.a.a.a.a.a.a.a.a.a.a.a.a.a.a.a.a.a.a.a.a.a.a.a.a.",
"G.G.G.G.G.G.G.G.G.G.G.G.G.G.G.G.G.G.G.G.G.G.G.G.G.G.G.G.G.G.G.G.G.G.G.G.G.G.G.G.G.G.G.G.G.G.G.G.G.G.G.G.G.G.G.G.G.G.G.G.G.G.G.G.G.G.G.G.G.G.G.G.G.G.G.G.G.G.G.G.G.G.G.G.G.G.G.G.G.G.G.G.G.G.G.G.G.G.G.G.G.G.G.G.G.G.G.G.G.G.G.G.G.G.G.G.G.G.G.G.G.G.G.G.G.G.G.G.G.G.G.G.G.G.G.G.G.G.G.G.G.G.G.G.G.G.G.G.G.G.G.G.G.G.G.G.G.G.G.G.G.G.G.G.G.G.G.G.G.G.G.G.G.G.G.G.G.G.G.G.G.G.G.G.G.G.G.G.G.G.G.G.G.G.G.G.G.G.G.G.G.G.G.G.G.G.G.G.G.G.G.G.G.G.G.G.G.G.G.G.G.G.G.A.B.B.B.B.B.B.B.B.B.B.B.B.B.V.V.V.V.V.V.V.V.V.V.V.V.V.V.V.V.V.V.V.",
"@ @ @ @ @ @ @ @ @ @ @ @ @ @ @ @ @ @ @ @ @ @ @ @ @ @ @ @ @ @ @ @ @ @ @ @ @ @ @ @ @ @ @ @ @ @ @ @ @ @ @ @ @ @ @ @ @ @ @ @ @ @ @ @ @ @ @ @ @ @ @ @ @ @ @ @ @ @ @ @ @ @ @ @ @ @ @ @ @ @ @ @ @ @ @ @ @ @ @ @ @ @ @ @ @ @ @ @ @ @ @ @ @ @ @ @ @ @ @ @ @ @ @ @ @ @ @ @ @ @ @ @ @ @ @ @ @ @ @ @ @ @ @ @ @ @ @ @ @ @ @ @ @ @ @ @ @ @ @ @ @ @ @ @ @ @ @ @ @ @ @ @ @ @ @ @ @ @ @ @ @ @ @ @ @ @ @ @ @ @ @ @ @ @ @ @ @ @ @ @ . o # @ @ @ @ @ @ @ @ @ @ @ @ @ @ @ @ @ @ % . B =XH.=XH.H.H.H.H.H.=XH.H.H.A.A.A.A.A.A.A.A.A.A.A.A.A.A.A.A.A.A.A.",
"x x x x B c c x r g z r z r c x x r r z x r r r r r r r r r r r r r r r r r r r r r r r r r r r r r r r r r r r r r r r r r r r r r r r r r r r r r r r r r r r r r r r r r r r r r r r r r r r r r r r r r r r r r r r r r r r r r r r r r r r r r r r r r r r r r r r r r r r r r r r r r r r r r r r r r r r r r r r r r r r r r r r r r r r r r r r r r r r r r r r r r r r r r r r r r r r r r r r r g r B a.j.X.x r r r r r x x : r r r r r c r r r r - v.KXKXLXKXKXKXKXKXKXLXKXKXKXh.G X.X.X.X.X.X.X.X.X.X.X.X.X.X.X.X.X.",
"M.k.u.a.y.v.l.v.y.F C.X.k.c h.G V.X.h.u.V.a.9.X.: r r r r r r r r r r r r r r r r r r r r r r r r r r r r r r r r r r r r r r r r r r r r r r r r r r r r r r r r r r r r r r r r r r r r r r r r r r r r r r r r r r r r r r r r r r r r r r r r r r r r r r r r r r r r r r r r r r r r r r r r r r r r r r r r r r r r r r r r r r r r r r r r r r r r r r r r r r r r r r r r r r r r r r r r r r r r r - X.=XV.V.x r r r r : F a.9.c r r : S h.i.c G a.@ h.KXcXcXDXBXAXvXSXZXlXGXGXHXB @ - - - - - - - - - - - - - - - - - ",
"X.v.j.y.r i.l.Z.a.i.C.A.j.G a.l.D.k.A.C.i.a.Z.u.- r r r r r r r r r r r r r r r r r r r r r r r r r r r r r r r r r r r r r r r r r r r r r r r r r r r r r r r r r r r r r r r r r r r r r r r r r r r r r r r r r r r r r r r r r r r r r r r r r r r r r r r r r r r r r r r r r r r r r r r r r r r r r r r r r r r r r r r r r r r r r r r r r r r r r r r r r r r r r r r r r r r r r r r r r r r r r - u.G.a.fXr r r r r : B v.v.y.- r - u.X.l.k.V.j.@ j.KXDXfXfXzXfXzXzX=XjXJXGXHXB : r r r r r r r r r r r r r r r r r ",
"* X.S y.B B B B X.X.B X.B r u.y.B y.x 9.r c x c - : : : : : : : : : : : : : : : : : : : : : : : : : : : : : : : : : : : : : : : : : : : : : : : : : : : : : : : : : : : : : : : : : : : : : : : : : : : : : : : : : : : : : : : : : : : : : : : : : : : : : : : : : : : : : : : : : : : : : : : : : : : : : : : : : : : : : : : : : : : : : : : : : : : : : : : : : : : : : : : : : : : : : : : r r r r r r : F B.dXlXx r r r r : B u.B B : r r z a.S y.y.X.* j.KXSXZXSXzXcXGXAXBXSXLXKXzX- r r r r r r r r r r r r r r r r r r ",
"B x c x c c c c x x c x c c x x c x c x v c c c v v v v v v v v v v v v v v v v v v v v v v v v v v v v v v v v v v v c c c c c c c c c c c c c c v c c c c c c c c c c c c c c c c c c c c c c c c c c c c v c c c c c c c c c c c c c c c c c c c c c c c c c c c c c c c c c c c c c c c c c c c c c c c c c c c c c c c c c c c c c c c c c c c c c c c c c c c c c c c c c c c c c c c c c x * r r r r r r r - r r r r r r r r : : r r r r r - : : - r % k.SXZXAXAXzXBXAXAXAXAXZXgXx : r r r r r r r r r r r r r r r r r r ",
"G.H.K.H.K.K.K.H.H.H.H.H.H.H.J.H.H.J.H.J.H.H.J.H.H.H.H.H.H.H.J.J.H.H.J.J.J.J.H.J.J.J.J.H.J.J.J.J.J.J.J.J.J.J.J.J.J.J.J.J.J.J.J.J.J.J.J.J.J.J.J.J.J.J.J.J.J.J.J.J.J.J.J.J.J.J.J.J.J.J.J.J.J.J.J.J.J.J.J.J.J.J.J.J.J.J.J.J.J.=XJ.J.=XJ.J.=X=X=X=X=X=X=XwXwXwXwXwXwXwXdX=X=XdXdXdXdXdXdXdXdXdXwXdXdXdXdXdXdXdXdXdXdXdXdXdXdXdXdXdXdXdXdXdXdXdXdXdXdXdXdXdXdXdXdXdXdXdXdXdXdXdXdXdXdXdXdXdXdXdXdXdXdXdXG.: r r r r r b.dX-X: r r r r r r r r r r r r r r r r r i @ v.v.. : - r : - - - : : @ r r r r r r r r r r r r r r r r r r r r ",
"+                             o                                   o         X         X     o X     X     X   X X   o o o o o o o o o o o o X X X * o X X X X X X X X * X X X X X X * X X X X X * X X X = 1 f s : - @ * * X * * X , * * * * * * * * * * * * * * * * , , * * * * * * * * , > * * * , , , > * , , , > > , > , z > , > z > > z > , z > > z > > > > > > > > > > > > > > > > z z p N d 1XV.@ r r r r mXPXdX- r r r r p 7 7 5 7 7 r r p 7 7 5 7 a @ v.v.@ r r r r r r r r r g r r r r r r r r r r r r r r r r r r r r ",
"9 4 + o o o o o o o o o o X o * * o X X X X X X X * * X X X X X * > X X X o > $ o X * > X X * > X X > X @ g o + > % * * * * * * * * * * * * * * * z * * * * * * * * * z * * * * , * z > * , , , z * , = N 8 $.2.V s ; > z * z z * v > , > > > > > > > > > > > > > > z b > > > > > > > > z v > > > z > z v > z z > v v > z z S z z z v z z v b z S z z S z z z z z z z z z z z z z b b z S v C ~ $.$XwX- r r r r mXIXS.- r r r r p 7 5 5 7 7 r r p 7 5 5 7 a @ v.v.@ r r r r r = ; g r = > r r r r r r r r r r r r r r r r r r r ",
"W M +         o o o o o o o   * X   o o o o o o o * * o X X X X X * o X % 4X4X7X8.X % = X X * , X X > X % = 8.7Xh   % X X X X X * * * * * * * * * > * * * * * * * * * z * * * * * * z , * * * * z * * = p 4 $.#.V i ; > z * > z * b > , > > > > , > > > > > > > > > z z > > > > > > > > z b > > > > > > v > > > > b b > z z v z > z v z z v z > v z z S z z z z z z z z z z z z z z z z S v C ~ $.4. X- r r r r dXbXv.- r r r r p 7 5 5 7 7 r r p 7 5 5 7 a @ v.v.@ r r r > g &XeXeXeX&Xj ; r r r r r r : r r r r r r r r r r r ",
"n N +         o o o o o o o   * X   o o o o o o o * * o X X X X X * o o w 4Xk 6.7X3X7Xk o X * , X X > X % = 3X3X7Xk X % X X X X * * * * * * * * * > * * * * * * * * * z * * * * * * z , * * * * z * * = p 4 $.#.V i ; > z * > z * b > , > > > > , > > > > > > > > > z z > > > > > > > > z b > > > > > > v > > > > b b > z z v z > z v z z v z > v z z S z z z z z z z z z z z z z z z z S v C ~ $.4. X- r r : c X.- y.r r r r r p 7 5 5 7 7 r r p 7 5 5 7 a @ v.v.@ r r > j eXeX&X8.&XeXrX8.; r r r r x c - : : : : r r r r r r ",
"2 1 o         o o o o o o o   * X   o o o o o o o * * o X X X X X * . o l 3Xb v h g 3X7.  X * , X X > X X > 3Xk e.4XX X X X X X * * * * * * * * * > * * * * * * * * * z * * * * * * z , * * * * z * * = p 4 $.#.V i ; > z * > z * b > , , > > > , > > > > > > > > > z z > > > > > > > > z b > > > > > > v > > > > b b > z z v z > z v z z v z > v z z S z z z z z z z z z z z z z z z z S v C ~ $.4. X- r r : B G   i.r r r r r p 7 5 5 7 7 r r p 7 5 5 7 a @ v.v.@ r r r 9XeXe O = + + 9XrXj > r r : B j.a.y.i.X.B v.H : r r r ",
"2 1 o         o o o o o o o   * X   o o o o o o o * * o X X X X X * .   k 3Xb Z c 5 r.7.  X * , X X > X X = 4XA k 3X% X X X X X * * * * * * * * * > * * * * * * * * * z * * * * * * z , * * * * z * * = p 4 $.#.V i ; > z * > z * b > , , > > > , > > > > > > > > > z z > > > > > > > > z b > > > > > > v > > > > b b > z z v z > z v z z v z > v z z S z z z z z z z z z z z z z z z z S v C ~ $.4. X- r r : B G o i.r r r r r p 7 5 5 7 7 r r p 7 5 5 7 a @ v.v.@ g = q.yXw + H X.G > X eX&X= r r : c v.a.B.v.V.k.C.Z : r r r ",
"3 O o         o o o o o o o   * X   o o o o o o o * * o X X X X X - X   6.e.b Z c 5 r.7.  X * , X X > X & 3X4Xv S 4X& X X X X X * * * * * * * * * > * * * * * * * * * z * * * * * * z , * * * * z * * = p 4 $.#.V i ; > z * > z * b > , , > > > > > > > > > > > > > z z > > > > > > > > z b > > > > > > v > > > > b b > z z v z > z v z z v z > v z z S z z z z z z z z z z z z z z z z S v C ~ $.4. X- r r : B X.  i.r r r r r p 7 5 5 7 7 r r p 7 5 5 7 a @ v.v.@ g = *XeX+ J G G h.l.= &XeX> r r r x G z X.h.x X.B B : r r r ",
"8 O X o o o o . . . . . . . o * % . . X X X X X . * * . X X X X % *     k e.b A c z r.7.  X - : X % g o 6.7Xk Z S 4Xw X % % % % * * * * * * * * * g * * * * * * * * * z - * * * = * z ; * = * , z * * = p 8 $.#.V i ; > z * > z * b > , > > > > > > > > > > > > > > z z > > > > > > > > z b > > > > > z v > > z > b b > z z v z z z v z z v z > v z z S z z z z z z z z z z z z z z z z S v C ~ $.4. X- r r : B y.  i.r r r r r p 7 5 5 7 7 r r p 7 5 5 7 a @ v.v.@ g = 9X&X+ S H S fXUXp. .9Xr r r r r - r r r : * r r r r r r ",
"2 2                           + o                 + +             h e.e.4X7.7 b 5 4 0.4X6.% + +     =   k e.+ m N 3X&   o   o o   o o o o o + + + 1 + + + + + + + + + 1 + + + o X & h & & & % * z * * = 5 4 $.#.x r - > z * > z * z > * , , , , , , , , , , , , , , z z , > > > > > > , z b , > > > > > v > > > > z z > > > v > > z v > > v z > v z z v > z z z z z z z z z z z z z z z v b N C $.4. X- r r : B y.  a.r r r r r p 7 5 5 7 7 r r p 7 5 5 7 a @ v.v.@ g = &XeX+ b H H H S + &X&X; r : B v.B i.j.k.B B v.v.a.: r r ",
"4X7X7X7X7X7X7X7X7X7X7X7X7X7X7X7X7X7X7X7X7X7X7X7X7X7X7X7X7X7X7X7X4XiXaXiXiX7X7X7X7X7X7XaXaX7X7X7X4X4X7X4X7XiX7X7X7XiX7X7X7X7X4X4X7X7X7X7X7X7X7X7X7X7X7X7X7X7X7X7X7X4X4X4X4Xr.w.i.' Y U I K L L N c h g 5 M n $.2.C V z b v > b v z v b z z z z z z z z z z z z z b z v v z b b b b b b b v S b b b b b v S b v v b S S b v v S v v v S v v S v v F v v H v v v v v v v v v v v v v v v v H S C ! <.4. X- r r : B y.  a.r r r r r p 7 5 5 7 7 r r p 7 5 5 7 a @ v.v.@ g =  .rX .+ b J v $ e &X8.; r - H j.i.u.C.k.X.h.B.C.v.r r r ",
"0.0.6.6.6.6.6.6.6.6.6.6.6.6.6.7.7.6.6.6.6.6.6.6.6.7.7.6.7.7.7.7.6.4X5X0.w.r.r.r.r.r.r.w.r.7X0.5X4X7.0.6.4X6Xw.r.r.7.7Xr.7.6.7X7X7.7.7.7.7.7.7.7.7.w.7.7.7.7.7.7.7.7.r.r.r.5X6X8XpXqX0Xc.U I.Y.Y.Y.Y L : N 7 $.2.V s r z b > z b > v z > > z z z z z z z z z z z z z b v z z z z z z z z b v z z z z z b S z z z z v v z b b S b b v S b b S v b S v v S b v v v v v v v v v v v v v v v S m C ~ <.4. X- r r : B y.  a.r r r r r p 7 5 5 7 7 r r p 7 5 5 7 a @ v.v.@ r r = *XyX .X * X e 9X&Xr r r r x a.H u.y.a.x X.u.a.y.r r r ",
"P 3 2 O O O O O O O O O O 2 O 2 2 O 2 2 2 2 2 2 2 2 2 2 2 2 2 2 2 r.7.8 N 7 n n 7 7 N Q S 4X3X4Xe.4X0.2 7.r.8 M W 8 3Xz 2 2 4X4X4 2 2 2 2 2 2 2 2 9 2 2 2 2 2 2 2 2 2 3 2 2 2 2 6 k e.iX7Xk 2 6 L K Y.Y.L 6 $.#.x r - > z * > z * z > * , , , , , , , , , , , , , , z z , > > > > > > > z b > > > > > > v > > > > z z > > > v > > z v > > v z > v z z v > z z z z z z z z z z z z z z z v b N C $.4. X- r r : B y.  h.r r r r r p 7 5 5 7 7 r r p 7 5 5 7 a @ v.v.@ r r r r *X6.; r > j &Xh > r r r r : : : : : r : : : : r r r ",
"P 3 1 O O O O O O O O O O O O 4 1 O O 1 1 1 1 1 O 4 4 O 1 1 1 1 2 r.w.N S m D D m m D H m c A Z 5 6.7X7.6.r.N D G N 5XA 2 7.4Xe.3X6 A 4 4 4 4 4 4 N 4 4 4 4 4 4 4 4 4 N 6 4 4 4 4 2 3 3 7.iXr.2 N = 6 K T.Y $.2.V i ; > z * > z * b > , , > > > > > > > > > > > > > z z > > > > > > > > z b > > > > > z v > > > > b b > z > v z > z v > > v z > v z z S z z z z z z z z z z z z z z z z S b C C $.4. X- r r : B y.  h.r r r r r p 7 5 5 7 7 r r p 7 5 5 7 a @ v.v.@ r r r r = = r h r = = r r r r r r r r r r r r r r r r r r r ",
"P 3 2 O O O O O O O O O O O O 4 1 O 1 1 1 1 1 1 O 4 4 O 1 1 1 1 2 r.0.N m m D m m m m D m m m D D N H 7X7Xw.N D G N 5X6.2 4X6.c 4X7X7X6 1 4 4 4 4 N 4 4 4 4 4 4 2 7.4X8 4 4 4 4 4 4 N 5 2 b iX5X3 4 4 4 7 T.`.#.V i ; > z * > z * b > , , , > > > , > > > > g > > > z z > > > > > > > > z b > > > > > > v > > > > b b > > > v z > z v > > v z > v z z v z z z z z z z z z z z z z z z z v b C C $.4. X- r r : B y.  h.r r r r r p 7 5 5 7 7 r r p 7 5 5 7 N @ v.v.@ r r r > h &XeXeXrX*Xk ; r r r r r : : r r r r r r r r r r r ",
"P 3 2 O O O O O O O O O O O O 4 1 O O 1 1 1 1 1 O 4 4 O 1 1 1 1 2 r.0.N m m D m m m m D m m D D m m ^ 6.6.D m D G 7 5X7.2 4XA z A e.4Xx 2 4 4 4 4 8 2 4 4 4 4 4 2 4X7X7 4 4 4 4 4 4 8 4 6 4 2 8X5X2 5 9 L 8 E.E j p - > z - > z * b > , , , > > > , > > > > g > > > z z > > g > > > > > z b > > > > > > v > > > > b b > > > v z > z v > > v z > v z z v z z z z z z z z z z z z z z z z v b C C $.4. X- r r : B y.  h.r r r r r b q q q q q r r b q q q q q % v.v.@ r r > k eXeX&X .&X9XyX8.; r r r : F c - r r : : : r r r r r ",
"L 8 1 O O O O O O O O O O O O 4 1 O O 1 1 1 1 1 O 4 4 O 1 1 1 1 2 5X0.N m m D m m m m D m m D D m m D c x D m D G N w.7X4X4Xc A c 4 5Xe.2 4 4 2 A 8X7.2 4 4 4 4 2 4X7XN 4 4 4 4 4 2 9.Z 4 6 4 4 iX7.2 7 L L $.`.` t ; > z : > z * b > , , , > > > , > g > > z > > > z z > > g > g > > > z b > > > > > > v > > > > b b > > > v z > z v > > v z > v z z v > z z z z z z z z z z z z z z z v b C C $.4. X- r r : B y.  h.r r r r r b q q q q q r r b q q q q q % v.v.@ r r r 9XeX- O = + + *XrXj > r : F a.f.G X.v.i.i.S a.h.: r r ",
"L L 4 O O O O O O O O O O O O 4 1 O O 1 1 1 1 1 O 4 4 O 1 1 1 1 2 5X0.N m m D m m m m D m m D D m m D m m D m D D m m A 7.6.c c c S H 4X4 1 4 2 r.6Xe.2 4 4 4 4 c 4X5Xm 4 4 4 4 2 0.8X8XA 2 5 9 F iXZ 3 L [ %.$.T.p - > z g > z * b > , , , > > > , > g > > c > > g z z > > z > z > g > z b > > > > > > v > > > > b b > > > v z > z v > > v z > v z z v z z z z z z z z z z z z z z z z v b C C $.4. X- r r : B y.  h.r r r r r b q q q q q r r b q q q q q % v.v.@ g = q.yXe = H y.G > o eX&X= r - F i.a.v.B.k.v.B.v.V.i.: r r ",
"L Q 4 O O O O O O O O O O O O 4 1 O O O O O O O O 4 4 O 1 1 6 g 6 4X0.N m m D m m m m D m m D D m m D m m D m D D m m c z c m m m D m 4X6 1 4 2 e.w.4Xz 1 4 4 2 7.r.5X0.2 4 4 4 2 4X0.w.r.2 4 5 3 7.pX3 L [ %.$.' Y.& > z g > z * z > * , , , > , , > g , , c > , g z b > > z , x > g > > b > > > > > > v > > > > z b > > > v > > z v > > v z > v z z v > z z z z z z z z z z z z z z z v b N C $.4. X- r r : B u.  h.r r r r r b q q q q q r r b q q q q q % v.v.@ g = *X9X+ J G H z.V.6 &XeX> r r r H B B F B v.c S B B r r r ",
"P 3 2 1 1 1 1 1 1 1 1 1 1 1 1 4 4 1 1 1 1 1 1 1 1 4 4 1 1 6 7X4X4X4XS m m m D D m m D D m m D D m m ) D D ) m D ) m D D Z S D D D D M 5Xc 4 4 2 e.i.r.0.2 5 9 0.7X9.r.r.3 5 4 4 4 4X9.0.5X3 5 7 M 2 8X5XP Q %.$.V Y.K e v c z z , v > > > > > g > > g c > > v z > c z v z > c > v z c z z v > z z z z z v z z z z v v z z z v z z b v z z v b z S b b S z z z z z z z z z z z z z z b z S v C ~ $.4. X- r r : B u.  h.r r r r r b q q b q q r r b q q q q q % v.v.@ g = 9X&X+ S H S fXvXy. .*Xr r r r r : r : r r - r r r r r r ",
"P 3 9 4 4 4 4 4 4 4 4 4 4 4 4 7 4 4 4 4 4 4 4 4 4 7 7 4 9 A 4Xb Z D D D D D ) D D D D ) D D ) ) D D ) D D ) D ) ) D D D ) D D D D G W 5Xv 3 0.w.8Xy.r.r.9 7 m 7X0.M w.5X8 7 S N m 6XH 0.5X8 N N W 7 m iX=.[ 1.$.~ ~ T.N Z Z b v z v c x z z x v z z c Z z z F b b Z v S v b Z b S v Z v v S b v b b b v S b v v b S S v v v S v v v S v v S v v S v v H v v v v v v v v v v v v v v v v H S C ! <.4. X- r r : B u.  j.r r r r r b q q q q q r r b q q q q q % v.v.@ g = &XeX+ b H H S J + &X&X; r : B v.B i.k.l.B S v.v.a.: r r ",
"P 3 2 O O O O O O O O O O O O 4 1 O O O O O O O O 1 4 O 2 h 5X7 S D m m m m D m m m m D m m m D m m D m m D m D D m m m m m m m m S n 5X4Xe.4X4X0.^ G 4X1 2 A 4Xz D 9.5X2 4 iXc A 4Xv G 6X6 4 4 N 4 2 r.8XL %.$.d p Y Y.h c > z * z g > * * : z , * > x * , c > > c > v g > c , c > c > z b , > > > > > b > > > > z z > > > v > > z v > > v z > v z z v > z > > > > z z z z z z z z z > v b N C $.4. X- r r : B u.o j.r r r r r i 5 5 7.e.e.h r p 7 7 h k k % v.v.@ g ;  .rX .+ z v v $ h &X8.; r - H k.i.p.C.k.X.h.B.C.v.r r r ",
"P 3 2 O O O O O O O O O O O O 4 1 O 1 1 1 1 1 1 O 4 4 O 2 k 5X7 S D m m m m D m m m m D m m D D m m D m m D m D D m m m m m m m m D D S 7.7.c z v ) n 5X6.2 4Xe.m D M 4X8X5XiX6.r.r.D W 6X7.2 5 n 4 5 3 8Xw.%.$.M a 6 Y.Q h > z * z x > , , > c , , g c , > Z > > v > v z > v > v > v g c b > > > > > > v > > > > b b > > > v z > z v > > v z > v z z v z z z z z z z z z z z z z z z z v b N C $.4. X- r r : B p.o j.r r r r r i 5 4 e.4X3Xh r p 7 7 j k k % v.v.@ r r = &XyX .+ * X e 9X&Xr r r r x i.F y.X.i.x X.u.u.X.r r r ",
"P 3 2 O O O O O O O O O O O O 4 1 O O O 1 1 1 1 O 4 4 O 2 6.r.7 S D m m m m D m m m m D m m D D m m D m m D m D D m m m m m m m m m D S b z A A D ) M w.3X7.4Xb D D M 0.7XiX5X7.4X9.) W 0.4X2 4 N 4 4 3 9.iX%.$.C a 6 K Y.j 6 z * z c r ; ; > c > ; g v ; > Z r r Z i v x > B > Z r v g v v > g g > r i v > r i > c c > i i v i i z v r i v z r v z z B i z z z z z z z z z z z z z z z B b C C $.4. X- r r : B p.o k.r r r r r r i 6 e.4X&Xh r p 7 7 j k k % v.v.@ r r r > &X .; e r h e.h > r r r r - : : : - r : : : : r r r ",
"P 3 2 O O O O O O O O O O O O 4 1 O O O 1 1 1 1 O 1 4 O 2 6.r.7 S D m m m v S Z m m m D m m D D m m D m m D m D D m m m m m m m m m D D D Z Z D D ) D N 7XiXN D D D D H z A w.4Xr.m ) D M 6Xc 4 N 4 4 7 P 6X0X$.C a 7 6 R.^ : z < 0 z , < < < z < < 0 z < < v , , v , b 0 < v < v , b 0 z z 0 0 0 < < , q < , , < 0 0 < , , q , , 0 q , , q 0 , q 0 0 b , 0 0 0 0 0 0 0 0 0 0 0 0 0 0 , b 0 b N T 4. X- r r : B i.o k.r r r r e L Y I e.4X3Xh r p 7 7 j k k % v.v.@ r r r r = - r q z t ; r r r r r r r r r r r r r r r r r r r ",
"P 3 2 O O O O O O O O O O O O 4 1 O O O 1 1 1 1 2 7.7X4X3X7X7.N S D m m m Q ' ` m v m D m m D D m m D m m D m S D m m m m m m m m m m D D D D D D ) D M 6.6.m D D D D G A m D pX6Xn ) G n 5X7.9 N 4 4 4 L y.aX;.T a 5 4 [ ] > V s ..O.#.#.#.#.3.2.2.2.3.2.2.3.2.2.3.2.3.3.2.3.2.3.2.3.2.3.3.2.2.2.2.2.2.3.2.2.2.2.3.3.2.2.2.3.2.2.2.3.2.2.3.2.2.3.2.2.3.2.2.2.2.2.2.2.2.2.2.2.2.2.2.2.2.3.3.3.3.%X$X X- r r : B i.o k.r r r r e Y U.I.7.4X3Xh r p 7 7 j k k % v.v.@ r r r t b } XXXXXXXXq t r r r r r r r : : r r r r r r r r r ",
"L Q 4 O O O O O O O O O O O O 4 1 O O O 1 1 1 1 2 3X7.h k h N m m D m m M T.R.T.Y.Q Q D m m D D m m D m m D W ' F v m m m m m m m m m D D D D D D ) D D m v D D D D D ) S D n 4X5Xn ) G n r.4X5 m 5 4 4 L r.pX6XR a 4 a 3.4.%X%X%X%X%X3.2.2.2.3.2.2.2.3.2.2.3.2.2.3.2.3.3.2.3.2.3.2.3.3.3.3.3.3.3.2.3.3.%X2.3.2.2.3.3.2.2.2.3.2.2.2.3.2.2.3.3.2.3.2.2.3.2.2.2.2.2.2.2.2.2.2.2.2.2.2.2.2.3.3.3.%X%X$X X- r r : B i.o k.r r r r e K I.I.7.4X3Xh r p 7 7 j k k % v.v.@ r r t q XXXX} q } XXXX} t r r r r r r F F - r : r r r r r r ",
"L Q 4 O O O O O O O O O O O O 4 1 O O O 1 1 1 1 2 4X9.N m m m m m D m v ` Y.A S Y.Y.T.` v m D D v m ^ m m F Y.T.E.' m m m m m m m m m D D D D D D ) D D D D D D D D D ) D D D Z D D ) D D M 6X6.F B b 4 P 5X0XtX0.f %X%X3.<.W.V t x B x r r x Z r r x Z r r F i i F x F B i F i F x Z c F Z B B c h c A F x c i i B B i x x B i i x B i i B x i Z x x S i x x x x x x x x x x x x x x x Z V C ~ $.4. X- r r : B i.o l.r r r r e K I.I.7.4X3Xh r p 7 7 g h h @ v.v.@ r r g XXXX* # > % # } XXq t r r r r r f.a.l.u.y.c : r r r r ",
"M b 6 O O O O O O O O O O O O 4 1 O O O O O O O O 4XH N m m m m m D m v ` Y.S M v k ' ] v M D / ' M A m m D Y.D ' T.m m m m m m m m m m m m m m D ) D D D D D D D D D ) D D D D D D ) D D n 5Xr.S A A b L 6X6X:XtX%X2.a W F W.R t V ..V s s V ..V V V O.s s O.s s O.V O...s O.s O.V O.V O.O.....+.+...+.O.+...s s C ..s ..V ..s s V ..s s ..V s ..V V ..s s s s s s s V V V V V V V V s ..C ..$.$.$X X- r r : B i.o l.r r r r e K I.I.7.4X3Xh r p 7 7 7.e.q.& v.v.@ z t } XX, - G y.y.b # XX} t r r r r r h.f.M.S A.r r r r r r ",
"5X4X7X5 9 4 4 4 4 4 4 4 4 4 4 7 7 4 4 9 2 3 3 3 2 5X9.D D D D D D ) S A ` R.G ) ^ F ] ] A F A E.E.E.R./ H ) Y.) G Y./ G ) ) ) ) ) ) ) ) ) ) ) ) ) y.) ) ) ) ) ) ) ) ) y.) ) ) ) ) ) y.) ) ) i.8X) H 9.9./ 8XtX5.pXr.L ~ :.;.` W.V ..o.O...V ..o.+.+.O.o.V C u.....u...;.o...s...;.O.o.o.o.o.o.o.9.o.o.9.0.o.o.O...o.o.O.o.O.o.......o.....o.....&.....;.................................;.&.<.<.3.$X X- r r : B i.o l.r r r r e K I.I.7.4X3Xh r p a 9 4XiXiXw l.M.@ g t } XX# J H S X.y.@ } XXr r r r r : F S : F u.- r r r r r ",
"7 9 3Xk 1 = = = = = = = = O O 4 4 + 1 h e.e.e.e.e.7Xm m m m m m m ^ ' ' Y.' Z m m v ' T.Y.' ' E.c ` E.] m E.Y.S D Y.W m m m D D D D D D D D D D D ) D D D D D D D D D ) D D D D D D ) D D D n r.6XS Z S W 8XsX%Xw.pXd d &.&.C W.R V O.+.V p V O.V  .+.O.s s O.V V o.V O.O.V o.+.O.+.O.+.O.o.O.O.o.O.O.o.0.+.+.+.V O.O.+.O.....V V V ..s s ..V s ..V V ..V V V V V V V V V V V V V V V V ..C ..<.%.$X X- r r : B i.o l.r r r r e K I.I.7.4X3Xh r p a 9 4XiX7Xw l.M.@ g t }.} # v y.z.S ) - } XXr r r r r g @ - B g r x x r r r r ",
"Q L 7.4X3X4X4X4X4X4X4X4X4X4X4X4X4X4X4X4Xe.7.7.7.7.0.M m m m m m v ] Y.' ' Q D m m m m ` ' ' R.' m c ` ' ` R.v D F Y.W m m m m m m m m m D D D D D ) D D D D D D D D D ) D D D D D D ) D D D D M 5X5Xn G W 8XsX<.T 6X5Xf o.&.C R W.V O.+.V p A O.+.+.+.O.s V o.+.V o.+.O.O.V o.+.O.+.O.+.o.9.O.O.O.O.+.o.0.+.+.+.+.+.+.+.o.+.O.+.V V ..s s ..V s ..V V ..s V V V V V V V V V V V V V V s ..C ..$.$.$X X- r r : B i.o l.r r r r e K I.I.7.4X3Xh r p a 9 4XiXrXw l.M.@ g t } XX# , cXdXv D # XXXXt r r r r H y.i.l.r j.v.B.B : r r ",
"Q n N g h h h h h h h h h h h A k h h h 6 6 6 6 6 b m m m m m m v R.` k v v D m m m m S v c Z S m m ` Y.Y.] v D F R.T.m m m m m m M W m D D D D D ) D D D D D D D D D ) D D D D D D ) D D D D D W pX5XQ :.tXqX3.;.T iX0.&.&.~ V W.` +.O.+.V +.O.+.+.+.O.s V O.+.V O.+.o.O.+.O.O.o.O.O.O.o.o.O.O.o.o.O.o.9.O.+.O.+.0.0.+.o.O.9.+.+.V ..s s ..V s ..V V ..s V V V V V V V V V V V V V V s ..C ..$.$.$X X- r r : B i.o l.r r r r e K I.I.7.4X3Xh r p a 9 4XiXrXw l.M.@ g t q XX[ t dXv b @ q XX} t r r r X.B.k.V.X.G B.B.A.F : r r ",
"Q n N b b b b b b b b b b g g c c g h x m m m m m m m m m m m m v R.' v m m D m m m m D m m D D m m D ' Y./ m D ^ v Y.` Z m m M Z ' Q.m D D D D D ) D D D D D D D D D ) D D D D D D ) D D D D D ) G 8XD $X8X8X<.s.d w.iX&.&.*.O.R R.+.O.O.+.+.O.O.O.O.O.V +.9.O.+.O.o.o.O.+.o.O.o.o.o.O.o.u.O.o.o.o.O.o.s.O.o.o.+.9.9.O.o.o.0.+.+.+.O.s s C V s ..V V ..s s s s V V V V V V V V V V V s ..V ..$.$.$X X- r r : Z i.o l.r r r r e K I.I.7.4X3Xh r p a 9 4XiXrXw l.M.@ r r t } oXq # * @ 0 XXXXt r r r r r H B F c x u.X.i.x r r r ",
"Q n N b b b b b b b N N N N b m m b N N N N m m N m m N m m v c k R.` v m m D m m m m D m m D D m m D v v D m D ^ v R.Y.m m M Z M T.T.Q S D D D D ) D D D D D D D D D ) D D D D D D ) D D D D D ) n 5X:X4.6XtX:X-.o.d 6XpX5X*.o.s R.:.O.O.+.O.O.O.O.9.0.+.O.6X0.O.O.o.o.O.O.O.O.o.o.o.O.o.u.O.o.o.o.o.o.s.o.o.o.O.9.9.o.o.o.0.o.+.+.0.V s C V s ..V V ..s s s s s V V V V V V V V V V s ..V ..$.$.$X X- r r : Z a.o v.: r r r e K I.I.7.4X3Xh r p a 9 4XiXrXw l.M.@ r r r t } q ; = ; z } z r r r r r r : : : r r - : - r r r r ",
"/ / m b b b b b b b b N N N b m m N N N N N m m N m m N m m ' ' ' T.Q v m m D m m m m D m m D D m m D m m D m D D m ` Y.T.Y.Y.Y.T.' R.` Z D D D D ) D D D D D D D D D ) D D D D D D ) D D D D D ) M w.6X:.6X8XtX-.;.O...aXtX~ ;.+.,.1.+.O.+.O.O.O.F w.6XC O.8X0.O.F o.o.O.o.0.o.O.O.o.o.o.u.O.o.o.o.o.o.s.o.o.o.o.u.u.o.o.o.9.o.o.O.0.+.s ..V s ..V V ..s s s s s s s s V V V V V V V s ..V ..$.$.$X X- r r : Z h.o v.: r r r e K I.I.7.4X3Xh r p a 9 4XiXrXw l.M.@ r r r r $ e  .q. .h $ r r r r r r r r r r r r r r r r r r r ",
"_ x.M b b b b b b b N N N N b m m N N N N N m m N m m N v Q T.' ' ' m m m m D m m m m D m m D D m m D m m D m D D m m B ` ` m ` ' A R.Y.Z D D D D ) D D D D D D D D D ) D D D D D D ) D D D D D ) m 3.8X5X5X8XaX-.;.o.~ N.aXn.! o.;._.&.O.O.O.O.O.F w.6XC O.tX0.F r.9.o.O.o.6Xo.w.9...O.o.u.O.o.o.o.o.o.s.o.o.o.o.u.u.o.o.o.s.o.o.o.0.+.+.O.+.V C V V ..s V s s s s s s s V V V V V V s ..C ..$.$.$X X- r r : Z h.o v.: r r r e K I.I.7.4X3Xh r p a 9 4XiXrXw l.M.@ r r r ; 8.,XuX,XuXuXq.r r r r r r r r : : : r : r r r r r r ",
"^ ^ m b b b b b b b b N N N b m m N N N N N N N N m m N v ` Y.h v Z N m m m D m m m m D m m m D m m D m m D m D D m m M m m m m v m m Y.M m m m S H S m D D D D D S S ) D D D D D D ) D D D D D ) ;.$X~ pX5X8XaXs.&.&.! N.aXiXw.~ ;.,.1.+.O.O.O.O.C w.8XC O.pXw.C 8X0.9.0.o.8XO.8X0.r.0.O.;.O.O.O.O.o.o.s.O.o.o.O.;.;.o.o.o.s.o.o.o.s.+.+.o.+.V C s s ..s s s s s s s s s s s s s s s s ..V C $.$.$X X- r r : Z h.o B.: r r r e K I.I.7.4X3Xh r p a 9 4XiXrXw l.M.@ r r ; q.uX&Xl * w q.uX&X; r r r r : c X.X.Z r F c r r r r r ",
"Q M m m m m m m m m m m m m m D S m m m m m m m m D D m Z ` Y.Z D D S S S S H D S S D G S S D H S D G D D G D D G D D D D D D D D D S Y./ S D F ' E.^ H D H H D F ' E.9.G H H H G D ) G H G G G ) $X-.! r.c.0XiXn.;.;.*.0XqXr.aX5X:.*._.;.o.o.o.o.O.r.8X..o.iXw.O.pX9.:X5Xo.pXo.8X0.6Xr.o.s.o.o.o.o.o.9.s.o.9.9.o.s.s.9.9.9.s.9.9.9.s.9.0.0.0.0.0.V +.O.V V V V V V V V V V V V V V V V O.....<.3.$X X- r r : Z h.o B.: r r r e K I.I.7.4X3Xh r p a 9 4XiXrXw l.M.@ r > j ,X&X+ 6 v b +  .uX .; r r r : c A.A.k.V.G.Z : r r r r ",
"R.R.R.] ] ] ] ] ] ] ] R.R.R.R.R.R.R.R.R.R.R.R.R.R.R.R.R.] R.E.] R.R.R.R.R.R.R.R.R.R.R.R.R.R.R.R.R.R.R.R.R.R.R.R.R.R.R.R.R.R.R.R.R.R.R.E.R.R.R.] E.(.E.] R.R.R.R.] ^.(.R.R.R.R.R.R.] R.E.R.R.R.R.'.'.R._._.^.].tXm._._.R.;XqX1.'.pXpXG._.E.R._._._.R.S.pX_._.aXC._.pX'.;X0X_.pX_.pXm.qXS.R.'._._._._._._.'._._._._.'.'._.'.'.'.'.'.'.'.'.'.'.'.'.'._.'._.W.R.R.R.R.R.R.R.R.R.R.R.R.R.R.R.`.R.`.`.`._. X- r r : S h.o B.: r r r e K I.I.7.4X3Xh r p a 9 4XiXrXw l.M.@ g = &XuXX z G G G c   ,X,X= r r r r r j.h.u.j.a.Z : r r r r ",
"` ` Q Q Q Q Q Q Q Q Q Q Q Q Q ` Q Q Q Q Q Q Q Q Q W ^ Q M ' Y.M ` / Q Q Q Q / ` Q Q W / Q Q / / Q Q / Q W _ Q / / Q ` ` ` ` ` ` ` ` ^ E.' D ^ ^ E.] E.^ / / / ` ^ Y.T._ / / / / / ] _ Q.E.^ ` / $X,._ :.>.E.^.5XN.,.,._ 0XqXf._ ` N.tXpXqX:X:X6Xp.*.N.pX` *.aXn.( aX>.:X6X! pX*.pXg.8XN.f.>.( :.:.:.:.:.,.:.:.:.:.,.,.:.:.:.>.:.:.:.>.*.*.>.-.&.-.&.;.:.T R R R R R R R R R R R R R R R ` R R E %.4. X- r r : S h.o B.: r r r e K I.I.7.3X&Xh r p a 9 4XiX7Xw l.M.@ g = *X&X+ S H H dXzX) q.,Xr r r r - r - : - r r r - : r r r ",
"` Q Q n n n n n n n n n n n n W W n M M M M M W m ' T.Y.Y.T.' m W ^ W W W W ^ W W W W / W W ^ ^ W W / W W / W ^ / W W W W W W W W W D ' T.Y.' E.Y.) E.' D ^ ^ ^ ^ E.E.] D / / ^ ` E.E.E.R./ W 3.4./ *.:.-.E.^.:X:X<.-.( 0XqXg.:.:._ f.r.:XqXpXaXpXpXpXaXpXpXaXpXpXaXpXpXaXpXaXpXaXpXaXpXaXpXpXpXpXpXpXpXpXpXpXpXpXpXpXpXpXpXpXpXpXpXpXpXpXpXpXpXpXpXpXpXtXtXtXtXtXtXtXtXtXtXtXtXtXtXtXtXtXtXtXtXtX:XJ.- r r : S h.o B.: r r r e K U.I.e.4X3Xh r p a 9 4XiXiXw l.M.@ g = &X&X+ J H S G.dXm  .&Xr r r r X.r S B H r : F G B r r r ",
"Q Q N N N N N N N N N N m m N M m N m m m m m m v Y.` m M M m m m D m m m m D M m m m ) m m D D m m ) m m ) m D ) m M D D D D D D D D S D ' R.' S H ] R.S D D S R.R.` R.F ^ ^ S ] ] ) / R.] F $X-.&.&.*.;.E.^.:X5X<.;.*.5XqXw.*.;.*.8X5XR R.w.pXo.O.5XaX0.w.aX5Xr.aXr.8XpXw.aXr.aX5XpX5XtXr.w.w.w.w.w.w.w.w.w.w.w.w.w.w.w.w.w.w.w.w.w.w.w.w.w.w.r.w.w.r.w.w.0.0.0.0.0.0.0.0.0.0.0.0.0.0.w.0.0.s.n.$XJ.- r r : S h.o B.: r r r e K I.U 7.3Xe.h r p p 4 3XrX7Xw v.M.@ g = q.uXX , S H J ,   &X&X; r : F v.H i.V.l.F y.V.Z.k.: r r ",
"Y Y ' ' ' ' ' ' ' ' ' ' ' ' ' ' ' ' ' ' ' ' ' ' ' T.' ' ' ' ' ' ' ' ' ' ' ' ' ' ' ' ' ] ' ' ' ' ' ' ] ' ' ] ' ' ] ' ' ' ' ' ' ' ' ' ' ' ' ' ' ' ' ] R.Q.' ' ] ' Q.' R.E.' ] ] ' E.Y.] ] R.T.1._.] ] ] ] ] ^.(.m.F.] ] ] A.wXc.] ] R.0XF.] R.'.qX] ' m.qX] ] qXc.] qX1.F.0X] qX1.qXc.wXV.wXc.] ] ] ] ] ] ] ] ] ] ] ] ] ] ] ] ] ] ] ] ] ] ] ] ] ] ] ] ] 1._ ] ' E E E E E E E E E E E E E ] E E E ).4. X- r r : S h.o B.: r r r e P I I 7.e.e.h r i 5 4 e.7X4Xw v.M.@ r > j ,X&XX , z > $  .&X .> r : Z l.i.a.B.l.H h.v.V.k.r r r ",
"Q.Q.Q.T.Q.T.Q.Q.Q.Q.Q.Q.Q.Q.Q.Q.Q.Q.Q.T.Q.Q.Q.Q.Q.~.Q.Q.Q.Q.Q.Q.Q.Q.Q.Q.Q.Q.Q.Q.Q.Q.Q.Q.Q.Q.Q.Q.Q.Q.Q.Q.Q.Q.Q.Q.Q.Q.Q.Q.Q.Q.Q.Q.Q.Q.Q.Q.Q.Q.Q.Q.Q.Q.T.(.T.Q.E.~.Q.T.Q.~.Q.Q.E.Q.~.Q.Q.Q.Q.(./.Q.^.^.^.^.^.(.~./.{.^.^.^./.{./.^.^.^.[.{.^.^./.[.^.^./.[.^./.[.E./.[./.{.[./.[./.[./.[.{.[./.E././././././.^././.^.{.{.^././././././././././././././././.E.E.E.E.E.^.^.^.^.^.^.^.^.^.^.^./.^.^.^.^._. X- r r : S h.o V.: r r r e P U I 7.e.e.h r i 5 4 e.7X4Xw v.M.@ r r ; 8.uXq.+ - * j ,X8.> r r r r Z x B c B r c B B c r r r ",
"x.p.D N N N N N N N N N m c c Z v c h ` T.Y.Y.Y.Y.Y.S m m m m m m D m m m m D D m m m D m m D D m m D m m D m D D m m m D D D D D D D D D D D D D ) S Y.R.Z ] E.^ D ^ R.] E.' ` R.D ) ) S E.4.O.-.&.&.&.-.E./.n.6X*.;.&.5X5Xr.*.;.*.pX6X~ &.N.aX9.C :XiXo.0.iXr.g.iXw.6XtXw.aXw.iX*XpX5XpX5X8X5Xr...o.9.w.5XO.o.~ 5X5X! o.o.s.o.o.;.s.o.o.s.;.o.s.o.o.s.+.+.+.+.+.s s s s s s s s s s s ..C $.$.%.4. X- r r : S j.o V.: r r r e P U I 7.e.e.h r i 5 4 e.7X4Xw v.M.@ r r r ;  .y t t t t  .> r r r r r : r : r : r : : : : r r r ",
"_ _ W n n n n Q Q Q Q n Q Y.Y.Y.Y.Y.Y T.' M Q Q Q W W Q Q Q W Q W ^ Q W W W / W W W W / W W ^ ^ W W / W W / W ^ / W W W W W W W W W W ^ ^ ^ ^ ^ ^ _ ^ W E.T.E.^ ^ ^ ^ E.E.Q.(.R.R.^ _ / ^ _.R.&.,.*.:.:.,.E./.^.tXN.! :.0X0XN._ :.,.8X5X` ( N.sXs.~ :XpX=.g.pXr.n.pXg.0X8Xn.pXw.8X0X8X5XpX5XpX8X5X! ! N.8X8Xr.s.~ 5X5X! -.-.d.-.-.-.d.=.-.d.-.=.d.-.-.d.;.;.o.o.O.C ..C T T T T T T T d ! T T $.%.4. X- r r : S j.o V.: r r r e P U I 7.e.e.h r i 5 4 e.7X4Xw v.M.@ r r r r - q } }.} } ; r r r r r r r r r r r r r r r r r r r ",
"' ' Q n n n n Q Q Q Q m Y.Y.' ' ' ' ' ' M W W W W W W W W W W W W / W W W W / W W W W / W W ^ / W W / W W / W / / W W W W ^ ^ ^ ^ ^ ^ ^ ^ ^ ^ ^ ^ _ / ^ / R./ ^ / / D R.(.] E.E.R.D _ / <.4.E.:.>.*.:.:.,.E.^.~.5X5X! ,.5X:X:X_ :.>.8X6X( ( N.sXa.~ :XpX;.g.pXr.n.pXn.5X8Xn.pXr.8X5X8X6XpX6XqXpX6X` w.5XpX8XtXg.` 6X6X! ;.-.d.-.-.-.d.-.-.d.-.-.d.-.-.d.-.;.o.o.o.o.o.C T ~ ~ ~ ~ ~ ~ ~ *.~ $.$.%.4. X- r r : S z.o V.: r r r e P U I 7.e.e.h r i 5 4 e.7X4Xw v.M.@ r r r r } }.}.} }.}.}.q r r r r x : - : : r r r r : - r r r ",
"T.T.Y.T.Y.Y.Y.T.T.T.Y.T.T.W D ) D D D D ^ ^ ^ ^ W / / ^ ^ ^ ^ ^ / / ^ / / / / / / / / _ / / / / / / _ / / _ / / _ / / / / / / / / / / / / / / / / _ / / ) ) / / _ _ ) _ E.) _ Q.] ) _ _ $X-.R.] d.,.>.>.1.E.E.~.b.6X_ d.0XN.0X,.>.d.8X6X,.,.:XqXc.! 5XtXs.n.tXr.N.8XN.0X8XN.tX0X8X6X6X6XpX6XqXpXqXn.8XaXpXpXaXn.( 6X6Xf.F.,.d.d.d.d.d.d.d.d.d.d.d.d.d.d.d.d.s.s.s.9.9.;.! ! ! ! ! ! ! ! :.*.<.<.%.4. X- r r : S z.o Z.: r r r e P U I 7.e.e.h r i 5 4 e.7X4Xw v.M.@ r r t } XXq # @ # 0 }.}.r r : S v.y.X.Z c j.h.h.X.F a.B : r ",
"Q Q n Q Q Q Q Q Q Q Q Q n n n W W n Q Q n n n n n W W n M M M M W ^ M W W W ^ W W W W / W W W ^ W W / W W / W W / W W W W W W W W W W W W W W W W / W W W W W W ^ ^ W / ^ W ^ ^ ^ ^ / <.4.) ] E.;.( *.*.1.E.1./.1.8X:.g.;Xj.5X` *.d.8X5X( ! :XqXD.` 5X8Xs.w.8Xr.N.6XN.5X6Xr.8X5X6X6X5X6XsX8XqXsXqXiXqXsXpXaXaXg.R 8X5Xw.aX:Xs.=.*.-.p.=.=.p.-.=.d.-.-.d.=.;.;.;.;.o.o.O.C d d d d d d d ~ T T $.%.4. X- r r : S z.o Z.: r r r e P U I 7.e.e.h r i 5 4 e.7X4Xw v.M.@ g t q }.q # J G H - , }.} t : G y.C.f.j.v.i.C.A.l.G.A.c : r ",
"` Q Q n n n n n n n n n n n n W W n n M M M M M n W W M W W W W W ^ W W W W ^ W W W W / W W ^ ^ W W / W W / W ^ / W W W W W W W W W W W W W W W W / ^ ^ ^ ^ ^ ^ ^ ^ ^ _ / ^ ^ ^ / ^ / $X<.( _ E.-.&.*.&.1.E.3.`.] N.8X6X'.d.8X:.! j.6X8X5X` 0X0XpX:X:X8X0.w.8Xr.N.0X5X5X6X5X6X6X0X8X5X8XqX8XqXqXqXpXqXqXqXwXwXpXn.6X8X:XaXpX:X-.:X-.d.;.;.d.-.;.d.-.-.d.;.-.;.-.;.o.o.o...d d d d d d d ~ T T $.%.4. X- r r : S z.o Z.: r r r e P U I 7.e.e.h r i 5 4 e.7X4Xw v.M.@ g t } }.# v G G y.G # }.}.t : c h.X.x f.u.x X.X.F y.X.B : r ",
"` Q Q n n n n n n n n n n n n W W n n n M M M M n W W M W W W W W ^ W W W W ^ W W W W / W W ^ ^ W W / W W / W ^ / W W W W W W W W W W W W W W W W / W ^ ^ ^ ^ ^ ^ ^ ^ _ ^ ^ ^ ^ / W >.$X/ *.*.E.1.] ] ] E.R.3.`.1.-.8X0XE.,.pXn.` n.0XpXpX` 0X0XpXpX8X5Xw.w.6X:X:X0X0X5X5X6X5XaXr.tX5X8XwXsX0XwXqXqXqXdXE.Q.(.0X8XpXpXaXaXaX5X;.8X*.>.;.;.d.-.=.d.-.-.d.;.-.-.-.;.;.;.o.O.C d d d d d d ~ T T $.%.4. X- r r : F z.o C.: r r r e P U I 7.e.e.h r i 5 4 e.7X4Xw v.M.@ g t }.} # J H G G G - } }.r r r : - : S - - - - - : : r r r ",
"` Q Q n n n n n n n n n n n n W W n n n M M M M n W W M W W W M W ^ W W W W ^ W W W W / W W ^ ^ W W / W W / W ^ / W W W W W W W W W W W W W W W W / W ^ ^ ^ ^ ^ ^ ^ ^ _ ^ ^ ^ ^ / W $X<.( :.&.R.^.^.^.~.R.:.1.`._.;.! ' E.~ K.N.R N.0X0XqX&.0XF.pXr.].N.w.r.:XpX8Xb.0X6XN.qXg.8Xr.0XV.8X0X[._.E.'.[.qX(./.(.(.W.pXaXaXqX].aX5Xr.pXn.n.=.;.d.-.=.d.-.-.d.;.-.-.-.-.;.;.o.o.C d d d d d d ~ T T $.%.4. X- r r : F z.o C.: r r r e P U I 7.e.e.h r i 5 4 e.7X4Xw v.M.@ g t } }.# J v C.zXJ @ } }.r r r r g u.F i.a.S F u.c r r r r ",
"` Q Q n n n n n n n n n n n n W W n n n M M M M n W W M W W W M W ^ W W W W ^ W W W W / W W ^ ^ W W / W W / W ^ / W W W W W W W W W W W W W W W W / W ^ ^ ^ ^ ^ ^ ^ ^ _ ^ ^ ^ ^ ^ <.$X( *.*.&.] E.E.^.R.,._ 1._.E.,.;.] R.! M.5X*.N.5XQ.wX0.wXc.iXE.~.:Xr.5Xs.qXpX,.qX6X>.aXw.;.9./.R.F.'.!.E.E.T./.qXQ./.(.(.~.c.0X].~.~.aXtXaXpX6X:X! ;.d.-.;.d.-.-.d.;.-.-.-.-.;.-.;.o.C d d d d d d ~ T T $.%.4. X- r r : F l.o C.: r r r e P U I 7.e.e.h r i 5 4 e.7X4Xw v.M.@ g t } }., @ J H cXG . }.} t r r r r h.a.M.B.9.u.dXh.: r r r ",
"_ _ ^ n n n n n n n n n n n n W W n n n n M M M n W W M W W W M W ^ W W W W ^ W W W W / W W ^ ^ W W / W W / W ^ / W W W W W W W W W W W W W W W W / W W ^ ^ ^ ^ ^ ^ ^ _ ^ ^ ^ ^ W 4.3.( *.*.*.*.-.( _ &.,._ 1.1.~.E.o.R.R.&.>.aX8XM.:X` 0X5X].] [.~.~.F.6X0X! c.pXo.].c._ wX9.( O.R.,.R.R.R.R.R.] E.E.R.R.E.R.(.R.Q.~.~.(.dXaXpXaXaX8Xs.&.d.-.=.d.-.-.d.;.-.-.-.-.-.-.-.;.C d d d d d d ~ T T $.%.4. X- r r : F l.o C.: r r r e P U I 7.e.e.h r i 5 4 e.7X4Xw v.M.@ r r r }.}.0 @ < > z }.}.z r r r r : G u.h.j.G x f.a.r r r r ",
"_ _ ^ n n n n n n n n n n n n W W n n n n M M M n W W M W W W W W ^ W W W W ^ W W W W / W W ^ ^ W W / W W / W ^ / W W W W W W W W W W W W W W W W / W W ^ ^ ^ ^ ^ ^ ^ _ ^ ^ ^ ^ *.$X:.:.*.*.*.*.,.*.*.:.,._ 1.1.E.^.E.R.] &.` wXpXdXB.` 5XpXE.] E.] ] '.aX0X~ :.E.O.E.] :.W.o.=.=.&.&.:.>.u.&.=.o.] ^.=.p.o.=.] (.(.(./.R.~.wX/.[.aXaX8X! -.s.;.>.-.-.d.;.-.-.-.-.-.-.-.;.C d d d d d d ~ T T $.%.4. X- r r : F l.o C.: r r r e P U I 7.e.e.h r i 5 4 e.7X4Xw v.M.@ r r r q }.} t > - q }.q t r r r r r r r r r r r : r r r r r ",
"` Q Q n n n n n n n n n n n n W W n n n n n n M n W W n W M M M W ^ M W W M ^ W W W W / W W W ^ W W / W W / W W / W W W W W W W W W W W W W W W W / W W W W W W W ^ W / ^ ^ ^ W 4.3._ *.( *.( *.,.*.*.*.,._ 1.4.>.-.R.^.1.*.;.E.[.pX:.` N.qX] ;.;.=.&.] [.:X~ =.( &.;.;.&.o.&.&.&.&.&.&.;.-.&.=.&._ E.o.>.=.=.=.E.,./.:.=./.(.~.~./.qXiX-.a.aXr.:.-.-.d.=.;.;.;.;.;.;.;.;.C d d d d d d ~ T T $.%.4. X- r r : F l.o C.: r r r e P U I 7.e.e.h r i 5 4 e.7X4Xw v.M.@ r r r t r r r r r r g r r r r r r r r r r r r r r r r r r r ",
"` ` W W W W W W W W W W W W W / ^ W W W W W ^ ^ W / / W ^ ^ ^ ^ / / ^ / / ^ / / / / / _ / / / / / / _ / / _ / / _ / / / / / / / / / / / / / / / / _ / / / / / / / / / _ _ _ / :.$X:.>.>.,.,.,.,.>.,.,.,.,.,.1.4.>.>.1.E.>.,.>.,.c.0X,.-.] (.,.>.>.>.>.>._.,.-.-.-.-.p.d.-.-.-.-.-.-.-.-.p.d.-.-.-.>.1.p.d.-.p.x.>.d.d.-.>.R.^.1._.~.^.pXtX:XpX8X>.d.d.d.d.d.d.d.d.d.d.d.d.=.~ ~ ~ ~ ~ ~ *.*.<.<.%.4. X- r r : F l.o C.: r r r e P U I 7.e.e.h r i 5 4 e.7X4Xw v.M.@ r r r r r r r r r r r r r r r r r r r r r r r r r r r r r r ",
"` Q Q n n n n n n n n n n n n W W n W W W W W W M W W M W W W W W ^ W W W W ^ W W W W / W W ^ ^ W W / W W / W ^ / W W W W W W W W W W W W W W W ^ / ^ ^ ^ ^ ^ ^ ^ ^ ^ / ^ / W 3.3./ ,.:.*.*.*.*.,.*.*.:.,._ 1.4.>.,.*.=.>.*.:.>.*.,.:.*.] ^.*.:.:.:.:.=.1.,.X.=.&.&.-.-.&.=.=.=.=.=.=.=.;.-.=.=.=.=.;.=.p.=.=.;.=.-.-.=.;.;.R.=.o.>.~.].aXaX_.0Xs.! *.d.;.-.-.-.-.-.-.-.-.&.d d d d d d ~ T T $.%.4. X- r r : F l.o C.: r r r e P U I 7.e.e.h r i 5 4 e.7X4Xw v.v.% g r r r r r r r r r r r r r r r r r r r r r r r r r r r r r ",
"` Q Q n n n n n n n n n n n n W W n n n n n n M n W W n M W W M W W M W W W ^ W W W W / W W W ^ W W / W W / W ^ / W W W W W W W W W W W W W W W W / W W W W W ^ ^ ^ W / ^ ^ / $X*.( :.*.( *.*.*.,.( *.*.,._ 1.4.>.,.*.:.,.*.:.:.*.>.:.*.*.:.*.*.:.:.:.*.,._.X.&.&.&.=.-.&.&.&.&.&.&.&.&.=.-.&.=.=.=.=.=.-.=.=.=.=.-.-.=.=.=.p.=.=.o.R.~.'.5X~.wXiX:Xn.:.&.;.=.=.=.;.;.;.-.&.d d d d d d ~ T T $.%.4. X- r r : F l.X A.: r r r e P U I 7.e.e.h r i 5 4 e.7X4Xw i.H.o - - - - - - - - - - - - - - - - - - - - - - - - - - - - - - ",
"` Q Q n n n n n n n n n n n n W W n n n n n n M n W W n M W W M W ^ M W W W ^ W W W W / W W W ^ W W / W W / W ^ / W W W W W W W W W W W W W W W W / W W W W W ^ ^ ^ W / ^ W 3.4./ *.:.*.( *.*.*.,.*.*.:.,._ 1.4.>.,.*.:.,.*.:.,.*.>.:.*.*.*.*.*.:.:.:.:.&._.,.X.&.&.;.-.&.&.&.&.&.&.&.&.=.-.&.=.=.=.=.=.-.=.=.=.&.-.-.=.=.=.d.=.=.;.,.~.(.R.~.wX8XaXpX:Xs.=.;.;.;.;.=.=.-.&.d d d d d d ~ T T $.%.4. X- r r - F l.X A.: r r r e P U I 7.e.e.h r i 5 4 e.7X4Xj ; dXD.9.u.u.u.u.u.u.u.u.u.u.u.u.y.y.y.y.y.y.y.y.y.y.y.y.y.y.y.y.y.",
"` Q Q n n n n n n n n n n n n W W n n n n n n M n W W n M W W M W ^ M W W W ^ W W W W / W W W ^ W W / W W / W ^ / W W W W W W W W W W W W W W W W / W W W W W ^ ^ ^ W / ^ ^ $X*.( ( :.*.( *.*.*.,.*.*.( ,._ 1.4.>.,.*.:.,.*.:.,.*.>.:.*.*.*.*.*.*.:.:.:.*.,._.O.&.&.;.-.&.&.&.&.&.&.=.&.=.-.&.=.&.=.=.=.-.=.=.=.&.-.-.=.=.=.p.=.=.-.s.E.~.(.(.(.n.r.w.aX5X~ -.;.;.=.;.=.-.&.d d d d d d ~ T T $.%.4. X- r r - F l.X A.: r r r e P U I 7.e.e.h r i p 6 e.7X4Xj - @ h.C.C.C.C.C.C.C.C.C.C.C.C.C.C.A.A.A.A.A.A.A.A.A.A.A.A.A.A.A.A.",
"Q Q n n n n n n n n n n n n n W W n n n n n n M n W W n M M W M W ^ M W W W ^ W W W W / W W W ^ W W / W W / W ^ / W W W W W W W W W W W W W W W W / W W W W W W ^ ^ W / W <.4./ *.( :.*.( *.*.*.,.*.*.( ,._ 1.4.>.,.*.:.,.*.:.,.*.>.:.*.*.*.*.*.*.*.:.:.:.*._.,.&.&.;.-.&.&.&.&.&.&.&.&.=.-.&.=.&.&.=.=.-.=.=.=.&.-.-.&.=.=.p.=.=.-.9.E.E.p.;.(.R.R.E.aXpXn.! =.;.;.=.=.-.&.d d d d d d ~ T T $.%.4. X- r r - F M.X G.: r r r e P U I 7.e.e.h r 7 L L e.7X4Xh F =XC.C.C.C.C.A.A.C.C.A.C.C.A.A.C.Z.Z.Z.Z.Z.Z.Z.Z.Z.Z.Z.Z.Z.Z.Z.C.",
"_ / W n n n n n n n n n n n n W W n n n n n n n n W W n M M W M W ^ M W W W ^ W W W W / W W W ^ W W / W W / W ^ / W W W W W W W W W W W W W W W W / W W W W W W ^ ^ W / ^ $X<.( *.( :.*.( *.*.*.,.*.*.( ,._ 1.4.>.,.*.:.,.*.:.,.*.>.:.*.*.*.*.*.*.*.*.:.:.*.1.1.O.&.=.-.&.&.&.&.&.&.&.&.=.-.&.=.&.&.&.=.-.=.=.=.&.-.-.&.=.=.p.=.=.-.s.R.R.s.;.E.~.(.(.c.0.8Xg.s.=.=.;.;.-.&.d d d d d d ~ T T $.%.4. X- r r - F B.X G.: r r r e P U I 7.e.e.h e Y U.U.e.7X4Xw k.KXKXKXKXKXKXKXKXKXKXKXKXKXKXKXDXX.i.i.i.i.i.i.i.i.i.i.i.i.i.i.i.",
"_ _ W n n n n n n n n n n n n W W n n n n n n n n W W n M M W W W ^ M W W W ^ W W W W / W W W ^ W W / W W / W ^ / W W W W W W W W W W W W W W W W / W W W W W W W ^ ^ / <.4./ *.*.( :.*.*.*.*.*.,.*.*.( ,._ 1.4.>.,.*.:.:.*.:.,.*.>.:.*.*.*.*.*.*.*.*.:.:.:.*._.*.&.=.-.&.&.&.&.&.&.&.&.=.-.&.=.=.=.&.=.-.=.=.=.=.-.-.=.=.=.-.=.=.-.p.=.=.-.;.R./.E.] R.F b.aXaX8X=.=.=.-.&.d d d d d d ~ T T $.%.4. X- r r - F B.X G.: r r r e P U I 7.e.e.h r i p 6 e.7X4Xw h.LXSXlXDXAXFXbXbXFXZXDXZXSXGXLXlX. - - - - - - - - - - - - - - - ",
"` / W n n n n n n n n n n n n W W n n n n n n n n W W n n n n n W W n M M M ^ W M W W ^ W W W W W W / W W / W W / W W W W W W W W W W W W W W W W / W W W W W W W W ^ / $X<.! ! ! ! :.*.! ( ( *.:.( ( ( ,._ 1.4.>.:.*.*.:.( :.:.( >.*.*.*.*.*.*.*.*.*.*.*.:.&.1.1.O.=.;.&.&.&.&.&.&.&.&.=.-.&.&.&.&.&.&.-.&.&.&.&.-.-.&.=.&.-.=.&.=.-.&.&.-.-.O.1.E.:.^.] R.sXiXpXs.s.g.*.=.d d d d d a ~ T T T %.4. X- r r - F B.X G.: r r r e P U I 7.e.e.h r p 7 4 e.7X4Xw f.KXcXwXfXzXjX=XmXfXzXfXfXvXJXLXlX* g r r r r r r r r r r r r r r ",
"` ` W W W W W W W W W W W W W ^ W W W W W W W W W ^ ^ W W W W W ^ / W W W W / / W W ^ / ^ ^ / / ^ ^ / ^ ^ / ^ / / ^ / ^ / ^ / / / / / / / / / / / _ / / / / / / / / / >.$X( :.:.:.:.>.,.:.:.:.:.>.:.:.:.,.,.1.4.>.>.,.>.>.:.>.>.:.>.>.:.,.,.>.>.>.>.>.>.>.>.>.>._.-.-.-.;.-.-.-.-.-.-.-.-.d.-.-.-.-.-.-.d.-.-.-.-.d.d.-.-.-.d.-.-.-.d.-.-.d.-.;.1.E.u./.E.^.c.0.:X5X8X5X:.p.O.~ ~ ~ ~ ~ *.~ $.$.%.4. X- r r - F B.X G.: r r r e P U I 7.e.e.h e Y U.U.e.7X4Xw h.KXSXSXZXSXcXUXZXbXSXvXAXDXKXKXZ.% r r r r r r r r r r r r r r r ",
"` ` W W W W W W W W W W W W W ^ W W W W W W W W W ^ ^ W W W W W ^ / W W W W / ^ W W ^ / W W / / W ^ / ^ ^ / ^ / / ^ ^ ^ ^ ^ ^ ^ / ^ ^ / ^ / / / / _ / / / / / / / / ^ $X<.( *.*.*.*.>.:.:.:.:.:.>.:.:.:.,.,.1.4.>.,.:.,.>.:.>.>.:.>.,.:.:.:.:.,.,.,.,.,.,.,.,.-.1.1.;.-.=.;.;.;.-.;.-.;.-.p.=.-.-.-.-.-.d.-.-.-.;.-.p.-.-.-.d.-.-.-.d.-.-.d.-.;.1.R.u.s.] ~.R._ :X8XaX6X*.p.o.~ ~ ~ ~ ~ *.~ $.$.%.4. X- r r - F B.X G.: r r r e P U I 7.e.e.h e Y T.U.r.7X4Xw j.HXDXSXSXSXSXSXvXZXSXSXDXSXAXK.- r r r r r r r r r r r r r r r r ",
"Q Q n n n n n n n n n n n n n W W n n n n n n n n W W n n n n n W W n M M n W W M W W ^ W W W W W W / W W / W W ^ W W W W W W W W W W W W W W W W / W W W W W W W W *.$X/ ! ! ! ! ! :.*.! ( ( *.:.( ( ( ,._ 1.3.>.:.*.*.:.! :.:.( >.*.*.*.*.*.*.*.*.*.*.*.*.*.*.:._.=.;.&.&.&.&.&.&.&.&.=.-.&.&.&.&.&.&.-.&.&.&.&.;.;.&.=.&.-.=.&.=.-.&.&.-.=.&.-.;.=.s.] ~.(.(.'.aXpX6X~ ;.O.d a a d a ~ d T T %.4. X- r r - F B.X G.: r r r e K U I 7.e.e.h e Y T.U.r.7X4Xw v.M.@ g r r r r x z r r r r : % r r r r r : : : : r r : > > : r r ",
"Q Q Q n n n n n n n n n n n n W W n n n n n n n n W W n M M M n W ^ M W W M ^ W W W W ^ W W W ^ W W / W W / W ^ / W W W W W W W W W W W W W W W W / W W W W W W ^ W 4.3.( *.( ( ( ! :.*.*.*.*.*.:.*.*.( ,._ 1.4.>.,.*.:.:.( :.:.( >.:.*.*.*.*.*.*.*.*.*.*.*.*.:.&.1.1.;.&.&.&.&.&.&.&.&.=.-.&.&.&.&.&.=.-.&.=.=.&.-.-.&.=.=.-.=.=.;.-.=.=.-.;.&.-.=.=.p.=.] ~.Q.].6X~ pX:X( O.d d d d d ~ T T $.%.4. X- r r - F B.X K.: r r r e L I P 6.8.8.g e K I.I.7.3X&X& v.v.@ r : : : - : - r r r r r r r r r e P I I I P = u @.@.@.| t r ",
"Q Q Q n n n n n n n n n n n n W W n n n n n n n n W W n M M M n W ^ M W W M ^ W W W W ^ W W W ^ W W / W W / W ^ / W W W W W W W W W W W W W W W W / W W W W W ^ W ! $X( *.( ( ( ( ! :.*.( *.*.*.:.*.*.( ,._ 1.4.>.:.*.:.:.( :.:.( >.:.*.*.*.*.*.*.*.*.*.*.*.*.*.*.,._.;.&.&.&.&.&.&.&.&.=.-.&.&.&.&.&.&.-.&.=.=.&.-.-.&.=.&.-.=.=.;.-.=.=.-.;.&.-.=.=.-.&.=.~.E.] 1.( pX8X! o.d d d d d ~ T T $.%.4. X- r r - F B.X K.: r r r e 8 P P  .8.8.g e K U U 7.&Xe.& v.M.@ F 9.X.X.f.c X.x r r r r r r r r e P U.I.U.U = | @X@.OXOXt r ",
"Q Q n n n n n n n n n n n n n W W n n n n n n n n W W n M M M n W W M W W M W W W W W ^ W W W ^ W W / W W / W ^ / W W W W W W W W W W W W W W W W / W W W W W ^ W 3.3.( *.( ( ( ( ! :.*.( *.*.*.:.*.*.( ,._ 1.4.>.:.*.:.:.( :.:.( >.*.*.*.*.*.*.*.*.*.*.*.*.*.*.:.&.1.,.O.&.&.&.&.&.&.&.=.-.&.&.&.&.&.&.-.&.&.=.&.-.-.&.=.&.-.=.&.=.-.=.=.-.;.&.-.=.=.-.=.=.] ,.] ] E.[.6X! =.d d d d d ~ T T $.%.4. X- r r - F B.X K.: r r r e 8 P P 6.8.8.g e K I.U 7.3Xe.& v.M.o f.j.B.G j.r f.l.h.r r r r r r r e I U.U U.U 6 | @X@.OXOXt r ",
"` Q Q n n n n n n n n n n n n W W n n n n n n n n W W n M M M n W W M W W M ^ W W W W ^ W W W ^ W W / W W / W ^ / W W W W W W W W W W W W W W W W / W W W W W W ! $X! :.( ! ( ( ( ! :.*.! *.*.*.:.*.*.( ,._ 1.4.>.:.*.:.:.( :.:.( >.*.*.*.*.*.*.*.*.*.*.*.*.*.*.:.*.,._.O.&.&.&.&.&.&.&.=.-.&.&.&.&.&.&.-.&.&.&.&.-.-.&.=.&.-.=.&.=.-.&.&.-.;.&.-.=.=.-.=.=.o.o.] ~.~.E.8Xw.! d d d d d ~ T T $.%.4. X- r r - F V.X K.: r r r e 8 P P 6.8.8.g e K I.U 7.3Xe.& v.M.. y.H i.x u.r k.i.u.g r r r r r r e I !.U.U.I.= @.@X@X@XOXt r ",
"x.x.^ n n n n n n n n n n n n W W n n n n n n n n W W n M M M n W W M W W M ^ W W W W ^ W W W ^ W W / W W / W ^ / W W W W W W W W W W W W W W W W / W W W W ^ W 3.3.^ :.( ! ! ( ( ! :.*.! ( *.*.:.*.*.( ,._ 1.4.>.:.*.:.:.( :.:.( >.*.*.*.*.*.*.*.*.*.*.*.*.*.*.*.:.-._.:.X.&.&.&.&.&.&.=.-.&.&.&.&.&.&.-.&.&.&.&.-.-.&.=.&.-.=.&.=.-.&.&.-.=.&.-.=.=.-.=.=.=.=.:.E.E.W.6X6X~ d d d d a ~ T T T %.4. X- r r - F V.X K.: r r r e 8 P P 6.8.8.g e K U U 7.3Xe.& v.v.@ g r r r r r x r r r r r r r r r e I U.I.U I 6 | OXOX@.@.t r ",
"_ _ W n n n n n n n n n n n n W W n n n n n n n n W W n n M M n W W n W W n W W M W W ^ W W W ^ W W / W W / W W / W W W W W W W W W W W W W W W W / W W W W W ^ $X*.! :.! ! ! ! ( ! :.*.! ( ( *.:.( *.( ,._ 1.3.>.:.*.*.:.( :.:.( ,.*.*.*.*.*.*.*.*.*.*.*.*.*.*.*.*.*.1.1.O.&.&.&.&.&.&.=.-.&.&.&.&.&.&.-.&.&.&.&.;.;.&.&.&.-.&.&.=.-.&.&.-.=.&.-.=.=.-.&.=.=.=.=.o.o.^.R.6X*.d a d d a ~ d T T %.4.J.- r r - F Z.X H.: r r r e 8 P P 6.8.8.g e K I.U 7.3Xe.& v.v.@ r r r r r r : r r r r r r r r r r > : : : : r r : : : : r r ",
"` Q Q n n n n n n n n n n n n W W n W W W M W W Q W W Q W W W W W ^ W W W W ^ W W W W / W W W ^ W W / W W / W ^ / W W W W W W W W W W W W W W W W / W ^ ^ ^ W 3.4./ *.:.*.( ( ( *.( :.*.*.*.*.*.,.*.*.:.,._ 1.4.>.,.*.:.,.*.:.,.*.>.:.*.*.*.*.*.*.*.*.*.*.*.:.:.:.:.,.>._.:.&.&.=.=.=.&.=.-.&.=.=.=.=.=.-.&.=.=.&.-.-.&.=.=.-.=.=.;.-.=.=.-.;.=.-.=.=.p.=.=.=.=.=.-.;.] E.6X=.d d d d d ~ T T $.%.4.J.- r r - F Z.X H.: r r r e 8 P P 6.8.8.g e K I.U 7.3Xe.& v.v.- x x x x x x x x x x x x x x x x x x x x x x x x x x x x x x ",
"` ` W W W W W W W W W W W W W ^ W W W W W W W W W / / W W W W W ^ / W ^ ^ W / / ^ ^ / / ^ ^ / / ^ / _ / / _ ^ / / ^ / / / / / / / / / / / / / / / _ / / / / / $X,.:.:.>.:.:.:.:.:.:.>.,.:.:.:.:.>.:.:.,.,.,.1.4.>.>.,.>.>.:.>.>.:.>.>.,.,.,.,.,.>.>.>.>.>.>.,.>.>.>.>.>.1.1.;.-.-.-.-.-.-.d.-.-.-.-.-.-.d.-.-.-.-.p.p.-.-.-.d.-.-.-.d.-.-.d.-.-.d.-.-.d.-.-.-.-.-.-.-.9.E.0Xs.~ ~ ~ ~ ~ *.~ $.$.%.4.J.- r r - H Z.X H.: r r r e 8 P P 6.8.8.g e K I.U 7.3Xe.& v.v.% x r r r r r r r r r r r r r r r r g g g g g r r g g g g r r ",
"Q Q n n n n n n n n n n n n n W W n n n n n n n n W W n n n n n W W n n M n W W n M W ^ W W W W M W / W W / W W ^ W W W W W W W W W W W W W W W W / W W W W <.4.^ ! ! :.! ! ! ! ! ! :.*.! ! ! ( :.( *.! ,._ 1.3.,.:.*.*.:.! :.:.! ,.*.*.*.*.*.*.*.*.*.*.*.*.*.*.*.*.:.,.*._.*.&.&.&.&.&.=.-.&.&.&.&.&.&.-.&.&.&.&.;.;.&.&.&.-.&.&.=.-.&.&.-.=.&.-.&.=.-.&.&.&.&.&.&.&.o.] wX9.d a a a a ~ d T T %.4. X- r r - H Z.X J.: r r r e 8 P P 6.8.8.g e K I.U 7.3Xe.& v.v.@ r : r : : r r r r r r r r r r r r 4 9 9 4 4 > t u u u u t r ",
"Q Q Q n n n n n n n n n n n n W W n n n n n n n n W W n n n M M W W n M W M ^ W W W W ^ M M W ^ W W / W W / W W / W W W W W W W W W W W W W W W W / W W W W $X<.! ! ! :.( ! ! ! ! ! :.*.( ( ( *.:.! ( ( ,._ 1.3.,.:.*.:.:.( :.:.( ,.*.*.*.*.*.*.*.*.*.*.*.*.*.*.*.*.:.,.&.1.1.O.&.&.&.&.=.-.&.&.&.&.&.&.-.&.&.&.&.-.-.&.&.&.-.&.&.=.-.&.&.-.=.&.-.=.=.-.&.=.=.=.=.=.=.=.( 0X9.d d d d a ~ T T T %.4.J.- r r - H Z.X J.: r r r e 8 P P 6.8.8.g e K I.U 7.3Xe.& v.v.@ g x z c c r r x : r - r r r r r e P U.I.I.I = | OXOXOX@.t r ",
"Q Q Q n n n n n n W W W n n n W W n n n n n n n n W W W W W n M W W n M M M ^ W M W W ^ ^ ^ / ^ W W / W W / W W ^ W W W W W / / W W W W W W W W W / W W W <.4.( *.*.! :.( ! ! ! ! ! :.*.! ( ( ( >.:.:.( ,._ 1.3.,.:.*.:.:.( :.:.( >.>.:.*.*.*.*.*.*.*.*.*.*.*.*.*.*.:.>.>.>._.&.&.&.&.&.=.-.&.&.&.&.&.&.d.-.-.&.&.-.;.&.&.&.-.&.&.=.-.&.&.-.d.-.p.=.=.-.&.=.&.&.&.&.&.=.( 0X0.d a d d a ~ d T T %.4.J.- r r - H C.X J.: r r r e 8 P P 6.8.8.g e K I.U 7.3Xe.& v.M.. u.h.k.u.B.x i.h.H x h.B : r r r e I U.I.U.U = | @X@.@.OXt r ",
"Q Q n n n n n n n / W / W n n W W n n n n n n n n W / W ^ ^ n M W W n W M n ^ W W W W / _ W _ ^ W W / W W / W W ^ W W W W _ W _ / W W W W W W W W / W W W 4.>.:.>.>.! :.! ! ! ! ! ! :.*.( ( ! *.>.:.>.( ,._ 1.3.>.:.*.:.:.( :.:.( >.,.d.:.*.*.*.*.*.*.*.*.*.*.*.*.*.>.>.,.>.1.1.O.&.&.&.&.-.&.&.&.&.&.=.d.-.d.&.&.;.;.&.&.&.-.&.&.=.-.&.&.d.-.d.d.&.=.-.&.=.=.&.=.=.=.=.! 0Xw.d a d d a ~ d T T %.4.J.- r r - H C.X J.: r r r e 8 P P 6.8.8.g e K I.U 7.3Xe.& v.M.. a.a.v.B i.x h.X.Z.h.A.c : r r r e I T.I.U.U 6 | @XOXOXOXt r ",
"Q Q Q n n n n n n W W / W n n W W n n n n n n n n W ^ / W W n n W W n M M n W W M M W ^ / / _ W W W ^ W W / W W ^ W W W W / / / ^ W W W W W W W W / W W *.$X/ ,.:.,.! :.! ! ! ! ! ! :.*.! ( ( ( >.:.>.( ,._ 1.3.,.:.*.*.:.( :.:.! >.>.>.:.*.*.*.*.*.*.*.*.*.*.*.*.*.,.>.,.:.:._.&.&.&.&.&.-.&.&.&.&.&.&.d.-.d.&.&.;.;.&.&.&.-.&.&.=.-.&.&.d.-.p.d.&.=.-.&.&.&.&.&.&.&.=.! 0Xw.a a d d a ~ d T T %.4.J.- r r - H C.X J.: r r r e 8 P P 6.8.8.g e K I.U 7.3Xe.& v.M.@ S x Z r H : X.u.Z a.X.B : r r r e U !.T.U.I.= @.@X@X@XOXt r ",
"_ _ W n n n n n n n n n n n n W W n n n n n n n n W W n W n W n W W M W M n ^ W W W W ^ W W W ^ W W / W W / W W ^ W W W W W W W W W W W W W W W W / W W 4.<.^ ! ! ! ! :.! ! ( ( ! ! :.*.! ( ( *.:.*.( ! ,._ 1.3.>.:.*.*.:.( :.:.( ,.:.( *.*.*.*.*.*.*.*.*.*.*.*.*.*.:.,.*.*.&._.,.O.&.&.=.-.&.&.&.&.&.&.-.&.&.&.&.;.;.&.&.&.-.&.&.=.-.&.&.-.;.&.-.=.=.-.&.&.&.&.=.=.=.=.! 0Xw.a d d d a ~ d T T %.4.J.- r r - H C.X J.: r r r e 8 P P 6.8.8.g e K I.U 7.3Xe.& v.v.@ r r : r : r : : : - : r r r r r r 9 P P 3 3 ; u | | | u t r ",
"_ x.W n n n n n n n hXL.N hXc.W hXhX].7 gX].7 hXL.n gXgXgXN ].gXN ].hXhX/ c.kXW L.hXn ].gXhX_ x.nX/ c.hXhXc.^ nXc._ nX_ x.gXhX].M hXm./ hXhXgXn gX].n gX$X( <XgXgX~ ].gX~ <XhXhX,.m.kX! L.hX~ ].gXkXd.c.hX,.1.1XkXm.,.kXc.>.kXd.c.gXhX].( kXL.>.hXhX<X~ gX<X~ hX].*.gXgXhX! <XhX] dXkXkX-.Z.kX&.K.kXC <XfXlXd.b.xX-.Z.kXnXL.-.xXv.d.xXd.m.fXkXK.&.nXL.-.kXkXgXG gXnXv.O.! ;Xr.a d d d a ~ d T T %.4.J.- r r - H C.X =X: r r r e 8 P P 6.8.8.g e K I.U 7.3Xe.& v.v.@ z r r r g r r r g g r r r r r r r e h h h g r r > > > r r r ",
"` Q Q n n n n n n N nX].N MXL.^ nXNXhX7 hXgX7 nX].n hXhXkX7 gXhX7 gXnXMX/ m.MXW ].nXN ].hXMXx.x.MX/ m.MXMXL./ MXc._ MXx.c.kXnX].n MXL./ nXMXhXn hXhXQ 1X$X( hXhXkX~ <XkX~ gXnXxX>.L.MX! ].nX~ <XhXMXd.c.NX,.1.1XxXL.,.MXm.d.MXd.m.kXxX<X( MX].>.kXxXhX~ hXgX~ kX<X:.kXkXkX! gXkX] kXxXCXp.L.CX&.<XxXC gXkXCXj.m.CX-.L.bXCXK.-.CXm.d.CXj.m.nXbX<X&.CXK.p.xXbXkXC jXCXm.G ~ F.r.a a a a a ~ d T T %.4.J.- r r - H C.X =X: r r r e 8 P P 6.8.8.g e K I.U 7.3Xe.& v.M.- c x x x 6 z c x 6 x x x x x x x x x x x x x x x x x x x x x ",
"` ` W W W W W W W W kX].N nXL.^ kXnXhX7 hXgX7 kX].Q hXhXhXn ].hXN gXnXnX/ m.MXW ].nXn ].hXMXx.x.MX/ m.nXMXL./ MXc._ MXx.c.hXnX].M MXL./ nXnXhXn hXgXn 1X].! hXhXkX~ <XhX~ gXkXxX>.L.xX! ].kX~ <XhXxXd.c.NXx.1.1XxXL.>.MXm.d.MXd.m.hXkX<X*.xXL.>.kXnXhX! hXgX~ kX<X:.hXhXkX! gXhX` [.xXxXd.L.bX&.<XxXG gXkXbXj.m.CXd.L.xXBXK.-.CXm.d.CXj.m.kXxX<X&.bXK.d.xXxXjXG fXCXm.;.*.A.:XT ~ ~ ~ ~ *.~ $.$.%.4.J.- r r - H C.X =X: r r r e 8 P P 6.8.8.g e K I.U 7.3Xe.& v.v.@ r r ; r e.eXeXeX&Xr ; r r r r : : : : : : - : r : r - : : r ",
"` Q Q n n n n n n n kX].5 nXm.W kXnXhX4 hXgX4 kX].7 hXhXhX7 ].hX4 gXnXNXW c.MXn ].nX7 ].hXMX_ x.MXW c.nXMXm.W MXc./ MX_ x.hXnX].N MXL.W nXnXhX7 hXgX$.VX].~ hXhXkXC <XhXC gXkXxX*.m.xX~ ].kXC <XhXxXx.c.NX,.1.1XxXm.*.MXc.>.MX>.c.kXkX].~ xXL.:.kXxXhXC hXgXC kX].! hXhXkX~ <XhX~ [.kXBX=.C.BXC <XxXC gXkXbXd.b.CX;.C.xXCXL.&.CXv.d.CXd.m.kXxX<XC bXL.=.xXxXjXC fXCXm.&.&.c.aX0.f d d a ~ T T T %.4.J.- r r - H C.X =X: r r r e 8 P P 6.8.8.g e K I.U 7.3Xe.& v.v.@ g > h eXeX&X .&XeXeXj > r r : X.j.B c c x X.y.B g F u.c x r ",
"Q Q n n n n n n n n hXhX].nXgX].kXkXkX].kXhX].nXhX].hXhXnX].hXkX].hXkXnX].gXNX].hXnX].hXgXnX].gXMX].hXkXnXgX].MXgX].MX].gXhXkXhX].MXgX].nXnXkX].nXhX$XxXhX<XhXhXkX].hXkX].kXkXnX<XgXnX].hXkX].hXgXnX<X<XkX].<X1XkX1X<XxX<X<XxX<XgXhXkXhX<XxXgX<XkXkXkX].kXhX].nXhX<XkXhXkX].kXkX<X1X1XBX<XfXbX<XkXxX<XkXfXxXgXgXbX<XjXxXbXfXgXbXgXgXBXgXfXkXxXkX<XbXfXgXxXxXxX<XnXbXm.D o.R.qXw.f d a a ~ d T T %.4.J.- r r - H C.X dX: r r r e 8 P P 6.8.8.g e K I.U 7.3Xe.& v.v.@ g ; &XeXl O = O e eX&X; r r - h.A.Z.B.M.A.i.v.v.v.v.B.l.i.: ",
"Q Q n n n n n n n n kXMXMXMXMXMXMXnXMXMXMXMXMXMXMXMXnXhXMXMXMXMXMXMXnXMXMXMXMXMXMXMXMXMXhXMXMXMXMXMXMXnXMXMXMXMXMXMXMXMXMXhXnXMXMXMXMXMXMXMXMXMXUXkX2XMXxXMXxXhXMXxXMXxXxXMXkXMXxXMXMXxXMXMXxXMXhXMXxXMXNXkX1X1XxXkXMXMXxXMXMXxXMXkXnXMXMXMXxXMXxXxXMXNXMXxXMXMXxXMXxXhXMXxXMXMXMXMX[.MXBXCXCXbXCXCXCXCXkXCXbXCXCXbXCXxXCXCXCXCXbXCXCXbXCXkXxXCXCXCXbXCXCXbXCXCXCXCXm.C o.R.A.r.f d a a ~ d T T %.4.J.- r r - G C.X dX: r r r e 8 P P 6.8.8.g e K I.U 7.3Xe.& v.v.@ r j yX8.+ H y.9.+  .yXk ; r : H y.h.a.v.j.y.a.9.a.X.9.v.H - ",
"Q Q n n n n n n n n m.L.L.].L.L.L.L.L.m.].L.L.].L.L.L.c.].L.].L.L.].L.].L.L.].L.].].L.].c.].L.].].L.].L.].].L.].].L.].L.].m.L.].L.].L.L.].L.].L.].$XL.].L.L.L.m.].L.].].L.].L.].L.].].L.].].L.].L.].L.].].].].m.].].L.].].].].].].L.].].].].].].].].].L.].].].].].].].L.].L.].].].].'.].K.<X<XK.<X<XK.<XL.<XK.K.<XK.<XK.<XK.<X<XK.K.<XK.<XK.K.K.K.<XK.<XK.K.<XK.<X<Xd.&.o.] K.r.f d a a ~ d T T %.4.J.- r r - G A.X dX: r r r e 8 P P 6.8.8.g e K U U 7.3Xe.& v.v.% ;  .eXl 6 H H G b w eX8.= r r r : - r - * : : r - : r X.r r ",
"Q Q n n n n n n n n 7 7 7 7 7 n 7 7 7 7 7 7 7 7 7 n n 7 7 7 7 7 n n 7 7 7 7 n N 7 7 N n N 7 n n 7 N M N N W N n M 7 N N N n n n n N n n n n n 7 $.4.n C C C ~ ~ ~ ~ ~ ! ~ ~ ~ ~ ~ ~ ! ~ ~ ~ ~ ~ ! ~ ~ ~ ! ` 1.<.*.*.~ ~ ! ~ ! ! ~ *.~ ~ ~ ~ ~ ~ ~ ~ ~ ~ ~ ~ ~ ~ ~ ~ ! ( ~ ~ ~ ~ ~ ~ ! R.C ..C C C C C C &.C C C C &.C C C C &.C C C &.C C &.C C &.C C &.C C C C C C &.&.o.` ].r.f a a a ~ d T T %.4.J.- r r - G G.X dX: r r r e 8 P P 6.8.8.g e K I.U 7.3Xe.& v.v.@ >  .yX .= v J.fX< l yX .; r r r r X.x B X.X.B r x r r r r r ",
"` Q Q n n n n n n n n n n M n W ^ ) / n n n n W n W ^ ) ) W Q W W ^ W W W W W ) / ) W / W W W ^ W W / W W / W W / ) ) ) / W W W W W W W W W W W $X,.:.>.>.>.! ! ! ! ! :.>.>.>.>.*.! :.*.! ( *.*.>.x.>.>.x._ 1.3.>.:.*.:.:.( :.:.*.,.>.>.:.*.*.*.*.*.*.*.*.*.*.*.*.*.:.>.x.>.*.*.*.:.&.1.1.;.d.-.&.&.&.&.-.&.&.&.&.=.d.p.-.&.-.&.&.=.-.&.&.-.=.&.-.=.=.d.p.d.d.;.=.=.&.&.=.~ S.r.f d a a ~ ~ <.<.%.4.J.- r r - G G.X dX: r r r e 8 P P 6.8.8.g e K I.U 7.3Xe.& v.v.@ r r eX&X+ > y.gX+ q.eXh > r r r - h.B X.B.B.X.y.C.h.h.X.: r ",
"_ _ Q n n n n n n n n n n n n W ^ ) ) M n n n n n W W ) x.^ n n W W n n n n W ) x.) W W M M W W M W ^ W W ^ W W / ) _ x.) W W W W W W W W W M <.4./ >.x.d.x.! ! ! ! ! *.>.d.d.x.*.! :.( ! ! ! ! :.x.d.d.d._ 1.3.,.:.*.*.:.! *.:.( :.>.d.x.! *.*.*.*.*.*.*.*.*.*.*.*.:.>.d.z.*.*.*.*.*.:._.;.d.z.&.&.&.&.-.&.&.&.&.=.p.h.h.&.-.&.&.&.-.&.&.-.&.&.-.&.&.-.d.d.z.d.&.&.&.&.&.~ r.r.f d a a T ! ,.>.4.4.J.- r r - G G.X dX: r r r e 8 P P 6.8.8.g e K I.U 7.3Xe.& v.v.@ g ; 8.yXq.+ % + q.yXq.; r r r r - H X.p.l.v.X.X.a.u.a.a.- r ",
"` _ Q n n n n n n n n n M W n W ) / / W W W W W n W ^ / ) W W W W ^ W W W W ^ / ) / W / W W ^ / W W / W W / W ^ / / ) ) / W W W W W W W W ^ W $X<.:.>.>.>.>.! ! ( ( ( ,.>.>.>.>.*.( :.*.*.*.*.*.>.>.>.>.x._ 1.4.>.,.*.:.,.*.:.,.*.>.>.>.>.*.*.*.*.:.:.:.:.:.:.:.:.*.:.x.x.x.:.:.:.:.:.&._.1.p.d.=.&.&.=.-.&.&.&.&.-.p.d.d.=.-.=.=.=.-.&.&.-.;.&.-.=.=.-.-.d.d.p.=.=.=.=.;.! N.r.f d d d ~ *.<.<.1.4.J.- r r - G G.X dX: r r r e 8 P P 6.8.8.g e K I.U 7.3Xe.& v.v.@ r r = &Xq.= ; = 8.&X; r r r r r r r z x x x r r g r x x r r ",
"8 9 4 4 4 4 4 4 4 4 4 4 4 4 4 7 4 4 4 4 4 4 4 4 4 7 7 4 4 4 4 4 7 7 4 5 5 4 7 7 4 4 7 7 5 5 7 7 5 7 N 7 7 N 7 7 N 7 7 7 7 7 7 7 7 7 7 7 7 7 d 2.a C a a a a a a a a a C a a a a d d C C d d d d ~ d d d ~ Q $.$.~ ~ C C ~ d C ~ d ~ C C C C C C C C C C C C C C C C ~ ~ C C C C C C C C ` ] V V C C C C C C C C C C C V C C C C C C C C C C C C C C C C C C C C C C C C C a w.e.2 f f 4 f f f f R $XD.@ r r - X.K.X dX: r r r e 8 P P 6.8.8.g e K I.U 7.3Xe.& v.v.@ r r r = >  .q.8.r = r r r r r r r r r : - r r : : r r r r r ",
"l.l.l.l.l.l.l.l.l.l.l.l.l.P.P.P.P.P.P.P.P.P.P.P.P.P.P.P.P.P.P.P.P.P.P.P.P.P.P.P.B.B.P.P.P.P.B.B.B.B.B.B.B.B.B.B.B.B.B.B.B.B.B.B.B.B.B.B.B.B.Z.Z.B.B.B.B.B.B.B.B.B.B.B.B.Z.Z.Z.Z.B.Z.Z.Z.Z.Z.Z.Z.Z.Z.Z.Z.Z.Z.Z.Z.Z.Z.Z.Z.Z.Z.Z.Z.Z.Z.Z.Z.Z.Z.Z.Z.Z.Z.Z.Z.Z.Z.Z.Z.Z.Z.Z.Z.Z.Z.Z.Z.Z.Z.Z.Z.Z.L.Z.Z.Z.Z.Z.Z.Z.Z.Z.Z.Z.Z.Z.Z.Z.Z.Z.Z.C.C.C.C.C.C.C.C.C.C.C.C.C.C.C.C.C.C.C.C.C.Z.D.F.Z.Z.Z.Z.Z.Z.Z.Z.C.gXc : r r r x =XdXC.- r r r e 8 P P 6.8.8.g e K I.U 7.3Xe.& v.v.@ r r ; 8.eXyXeXyXeX8.; r r r r r r r r x S x : B B : r r r r ",
"a.a.a.a.a.a.a.a.a.a.a.a.a.a.a.a.a.a.a.a.a.a.a.a.a.a.a.a.a.a.a.a.a.a.a.a.a.a.a.a.a.a.a.a.a.a.a.a.a.a.a.a.a.a.a.a.a.a.a.a.a.a.a.a.a.a.a.a.a.a.i.i.a.a.a.a.a.a.a.a.a.a.a.a.a.a.a.a.a.a.a.a.a.a.a.a.a.i.i.i.i.i.i.i.a.a.a.a.a.a.a.a.a.a.a.a.a.a.a.a.a.a.a.a.a.a.a.a.a.a.a.a.a.i.a.a.a.a.a.a.a.a.a.a.a.a.a.a.i.i.i.a.a.a.a.a.a.a.a.a.a.a.a.a.a.a.a.a.a.a.a.a.a.a.a.a.a.a.a.a.a.a.a.i.f.a.a.a.a.a.a.f.i.r : r r r r - c u.: : r r r e 8 P P 6.8.8.g e K I.U 7.3Xe.& v.v.@ g ;  .yX&Xl - w &XyX .; r r r r r r r k.a.v.F v.A.F : r r r ",
"% * % % * % % % * @ . . . . . . . . . . . . . . . . # # . . * * % * * * * * * * % * * * * * * % * @ . . . . . . . . . . . . . @ . . @ * % * % @ @ @ @ @ @ @ @ @ @ @ @ @ * * * * * * * * * * * * * % % % % % % % * * * * * * * * * * * * * * * * * * * * * * * * * * * * * * @ @ @ @ @ @ @ @ @ @ @ @ @ @ - - % @ . # # . . . . . . . . . . . . . . . . . . . . . . . . . . . . . . . . . . . . . . r r r r r x F : c v S r r r e 8 P P  .8.8.g e K U U 7.3Xe.& v.v.@ r > 9X&X+ 6 b m b q.&Xr r r r r r r : X.Z.a.B.j.k.F : r r r ",
"r r r r r r r r r F y.X.9.9.X.9.9.9.X.9.9.9.9.9.9.y.X.G y.X.r r r r r r r r r r r r r r r r r r r F y.9.X.9.9.9.X.X.X.9.9.9.y.H X.u.B : r r x S S S S F F F F F F H G F r r r r r r r r r r r r r 6 4 4 4 4 4 6 t t t t t t r r r r r r r r r r r r r r r r r r r r r r r r B S S S S F F F F F H H G c r c r B h.f.h.h.h.h.h.h.h.h.h.h.h.j.j.j.j.j.j.j.k.k.k.k.k.l.l.l.l.l.l.l.l.l.l.l.v.v.v.v.v.c r r r : u.j.F j.V.j.c : r r r r r r h h r r i i r h h h @ v.v.@ > k yX .= H h.DXy.w 9Xk ; r r r r r r F F c B B B B : r r r ",
"r : : : g : r % k.LXPXLXPXJXPXJXJXPXPXPXGXJXJXJXGXLXDXAXLXLXJ.% r r r r r g r : : : : : : - : * k.LXPXGXPXJXJXJXLXLXLXJXJXGXPXbXGXPXSXB : r v fXlXlXcXcXcXbXvXvXZXZXAXgX: r r g x r - : : : : r e 4 I.I.I.U I 4 u OXOXOX@.@.t r r r r r r r r r r r r r r r r r r r r r r - Z.lXzXlXcXcXcXbXvXvXZXZXZXX.: x - X.lXlXlXlXlXcXcXcXcXcXcXbXbXbXvXvXvXvXUXZXZXZXZXZXZXZXZXZXAXAXAXAXAXAXDXDXDXDXDXSXZXZ : r r : y.k.u.h.V.j.c : r r e 7 5 6 8 7 r r e i 7 7 5 L @ v.v.% ;  .eXw 6 S p.P.z - &X .; r r r r r r - : : : - - r r r r r ",
"h.G B F h.B F * K.SXDXAXHXPXvXSXGXHXFXHXJXGXGXGXGXLXDXDX=XfXbX@ g : h.X.a.B u.y.c S B S B u.X.@ J.ZXZXHXHXZXIXHXcXBXlXHXJXGXJXvXDXf.HXa.* r c zXfXgXfXfXzXcXzXzXfXzXAXfX: : y.a.G k.G Z S F S r e 4 U.U.I.U.U 4 u OXOX@.OX@.t r r r r r r r r r r r r r r r r r r r r r r - C.lXzXlXgXzXlXlXfXlXlXcXAXX.: x - G zXzXzXzXzXlXlXlXlXlXlXlXlXlXcXfXzXgXJ.fXfXdXlXvXvXvXvXvXvXvXZXZXZXZXZXZXZXAXAXAXvXB : r r r x F x B c S r r r r i L L L K L r r i K Y K 5 L @ v.v.@ > j yX8.+ S S S = l 9Xk > r r r : i.i.B k.h.i.r i.k.v.B : r ",
"A.v.v.v.V.K.h.* A.fXfXgXlXzXfXfXgXlXzXzXGXGXGXGXGXPXDXZXfXlXzX@ r : X.Z.i.@ i.B.B.l.v.k.v.C.y.- A.fXlXmXzXgXlXIXdXlXlXGXGXGXJXvXUXdXDXa.* r c zX=XJ.G.K.fXfXA.J.gXK.ZXgX: - a.h.k.B.v.G.C.y.v.r e 4 U.U.I.U.I.4 u @XOX| OXOXt r r r r r r r r r r r r r r r r r r r r r r - C.zXgXfXA.dXfXfXH.G.C.fXAXG : x - X.zXzXzXzXlXlXlXlXlXlXlXlXcXcXvXgXfXgX=XA.J.Z.cXbXbXvXvXvXZXZXZXZXZXZXZXZXAXAXAXAXvXB : r r r r - r z g : r r r r r 6 6 6 5 6 r r r 6 5 5 5 6 @ v.v.@ r > *X9Xw * z , % &X&Xr r r r r r a.a.u.k.C.u.y.M.B.A.G - r ",
"X.u.X.u.u.u.X.- H.vXzXlXlXlXzXzXzXAXAXvXHXGXGXGXGXPXDXDXK.fXvX@ r r G u.i.B F a.X.u.9.9.X.a.y.- G.SXSXzXAXjXcXFXfXvXZXGXGXGXGXvXAXa.HXf.* r c jXfXlXfXfXfXlXfXzXfXzXZXgX- : F c X.X.u.u.X.c a.r e 9 T.T.I.U.I.4 u @X@XOXOXOXt r r r r r r r r r r r r r r r r r r r r r r - C.lXdXjXfXzXfXgXzXfXfXlXZXG : x - G zXzXzXzXzXlXlXlXlXlXlXlXlXlXcXfXdXgXjXfXfXfXfXfXzXvXvXvXvXvXZXZXZXZXZXZXZXZXZXAXbXB : r r r r x k.v.B.c : r r r > h h k k k r r ; k k k j  .@ M.v.% g > k yX&X+ - $ q.9Xk > r r r r : X.a.H a.u.y.x a.u.h.B r r ",
": : : : : : r % l.LXLXLXGXLXGXLXJXLXPXLXLXLXLXLXPXKXSXDXLXLXdX@ r r r : : r : : : : : : r - r * l.LXPXLXPXLXLXPXGXLXLXLXLXPXLXvXJXGXSXZ : r v fXlXlXcXcXcXbXvXvXvXvXZXdX: r r r : : : : : r : r e 9 !.T.U.U.I.9 | @X@X@XOXOXt r r r r r r r r r r r r r r r r r r r r r r - Z.cXlXlXcXcXcXbXvXvXUXZXvXG : x - X.lXlXlXlXcXcXcXcXcXcXbXbXbXvXvXvXvXZXZXZXZXZXZXZXZXZXZXAXAXAXAXAXAXAXDXDXDXDXDXSXZXB : r r r - u.B.B.C.B : r r r g 8.k k  . .r r h 6.6.q.k e.@ f.K.o : : $ l l * : - e l $ - - - - - - * % * % % * - % * * - - - ",
"g g g g z g g g r y.a.i.a.a.a.i.a.a.a.a.a.a.a.a.i.a.u.y.a.u.r r r r r g g r g g g g g g g g g r r 9.a.i.a.i.a.a.a.a.a.a.a.i.a.X.i.f.F r g r x H H G G G G G G G X.G X.H r r g r g g g g g r g r g 5 L 8 8 8 9 6 y | u u u u r g r r r r r r r r r r r r r r r r r r r r r r S G H G G G G G G G G X.X.c g c r S k.k.k.k.k.l.l.l.l.l.l.l.l.l.l.l.v.v.v.v.v.B.B.B.B.B.B.B.B.B.B.V.V.V.V.V.V.Z.Z.Z.V.B r g r g r B i.9.a.x r r r r g k k j h h r r g j k 6.k 6.r r dXC.G X.X.G G X.X.X.G G X.X.X.X.X.X.X.X.X.X.X.X.X.X.X.X.X.X.X.X.",
"@ @ @ @ @ @ @ @ @ . o o o o o o o o o o o o o o o o o . o o @ @ @ @ @ @ @ @ @ @ @ @ @ @ @ @ @ @ @ . o o o o o o o o o o o o o . o o . @ @ @ @ . . . . . . . . . . . . . @ @ @ @ @ @ @ @ @ @ @ @ @ @ # # @ @ % @ @ X X X X % @ @ @ @ @ @ @ @ @ @ @ @ @ @ @ @ @ @ @ @ @ @ @ @ # . . . . . . . . . . . . @ @ * @ @ o . o o o o o o o o o o o o o o o o o o o o o o o o o o o o o o o o o o o o o o o @ @ @ @ @ @ @ . . . @ @ @ @ @ @ @ @ @ @ @ @ @ @ @ @ X @ X @ @ * k.A.A.A.D.D.A.A.A.A.D.A.A.A.A.A.A.A.A.A.A.A.A.A.A.A.A.A.A.A.A.",
"A.A.D.D.A.A.A.A.A.G.G.G.G.G.G.G.G.G.G.G.G.G.G.G.G.G.G.G.G.G.D.D.D.D.D.D.D.D.D.D.D.D.D.D.D.D.D.D.D.G.G.G.G.G.G.G.G.G.G.G.G.G.G.G.G.G.G.D.D.D.D.G.G.G.G.G.G.G.G.G.G.G.G.G.D.D.D.D.D.D.D.D.D.D.D.D.D.G.G.G.G.G.G.D.D.D.D.D.D.D.D.D.D.D.D.D.D.D.D.D.D.D.D.D.D.D.D.D.D.D.D.D.D.D.G.G.G.G.G.G.G.G.G.G.G.G.G.G.D.D.D.G.G.G.G.G.G.G.G.G.G.G.G.G.G.G.G.G.G.G.G.G.G.G.G.G.G.G.G.G.G.G.G.G.G.G.G.G.G.G.G.G.G.D.D.D.D.D.D.G.G.G.G.D.D.D.D.D.D.D.D.D.D.D.D.D.D.D.D.D.D.D.D.G.A.B.V.V.V.V.V.V.V.V.V.V.V.V.V.V.V.V.V.V.V.V.V.V.V.V.V.V.V.V.V.V.",
"KXKXKXKXKXKXKXKXKXLXKXKXKXKXGXf.i.a.a.a.a.a.a.a.a.a.a.a.a.a.a.a.a.a.a.a.a.a.a.a.a.a.a.a.a.a.a.a.a.a.a.a.a.a.a.a.a.a.a.a.a.a.a.a.a.a.a.a.a.a.a.a.a.a.a.a.a.a.a.a.a.a.a.a.a.a.a.a.a.a.a.a.a.a.a.a.a.a.a.a.a.a.a.a.a.a.a.a.a.a.a.a.a.a.a.a.a.a.a.a.a.a.a.a.a.a.a.a.a.a.a.a.a.a.a.a.a.a.a.a.a.a.a.a.a.a.a.a.a.a.a.a.a.a.a.a.a.a.a.a.a.a.a.a.a.a.a.a.a.a.a.a.a.a.a.a.a.a.a.a.a.a.a.a.a.a.a.a.a.a.a.a.a.a.a.a.a.a.a.a.a.a.a.a.a.a.a.a.a.a.a.a.a.a.a.a.a.a.a.a.a.a.a.a.a.a.a.a.a.a.a.a.a.a.a.a.a.a.a.a.a.a.a.a.a.a.a.a.a.a.a.a.a.a.a.a.",
"DXLXlXzXSXDXZXHXzXSXBXZXJXGXDX: @ * * * * * * * * * * * * * * * * * * * * * * * * * * * * * * * * * * * * * * * * * * * * * * * * * * * * * * * * * * * * * * * * * * * * * * * * * * * * * * * * * * * * * * * * * * * * * * * * * * * * * * * * * * * * * * * * * * * * * * * * * * * * * * * * * * * * * * * * * * * * * * * * * * * * * * * * * * * * * * * * * * * * * * * * * * * * * * * * * * * * * * * * * * * * * * * * * * * * * * * * * * * * * * * * * * * * * * * * * * * * * * * * * * * * * * * * * * * * * * * ",
"AXLXjXfXjX=XzXfXfXSXDXBXPXJXDXg r r r r r r r r r r r r r r r r r r r r r r r r r r r r r r r r r r r r r r r r r r r r r r r r r r r r r r r r r r r r r r r r r r r r r r r r r r r r r r r r r r r r r r r r r r r r r r r r r r r r r r r r r r r r r r r r r r r r r r r r r r r r r r r r r r r r r r r r r r r r r r r r r r r r r r r r r r r r r r r r r r r r r r r r r r r r r r r r r r r r r r r r r r r r r r r r r r r r r r r r r r r r r r r r r r r r r r r r r r r r r r r r r r r r r r r r r r r r r r r r ",
"HXKXUXbXcXbXSXAXcXHXHXSXLXKXfX% r r r r r r r r r r r r r r r r r r r r r r r r r r r r r r r r r r r r r r r r r r r r r r r r r r r r r r r r r r r r r r r r r r r r r r r r r r r r r r r r r r r r r r r r r r r r r r r r r r r r r r r r r r r r r r r r r r r r r r r r r r r r r r r r r r r r r r r r r r r r r r r r r r r r r r r r r r r r r r r r r r r r r r r r r r r r r r r r r r r r r r r r r r r r r r r r r r r r r r r r r r r r r r r r r r r r r r r r r r r r r r r r r r r r r r r r r r r r r r r r ",
"SXSXSXSXFXSXSXSXSXSXSXSXDXfXx r r r r r r r r r r r r r r r r r r r r r r r r r r r r r r r r r r r r r r r r r r r r r r r r r r r r r r r r r r r r r r r r r r r r r r r r r r r r r r r r r r r r r r r r r r r r r r r r r r r r r r r r r r r r r r r r r r r r r r r r r r r r r r r r r r r r r r r r r r r r r r r r r r r r r r r r r r r r r r r r r r r r r r r r r r r r r r r r r r r r r r r r r r r r r r r r r r r r r r r r r r r r r r r r r r r r r r r r r r r r r r r r r r r r r r r r r r r r r r r r r ",
"x x x x z x x z x x x x g * r r r r r r r r r r r r r r r r r r r r r r r r r r r r r r r r r r r r r r r r r r r r r r r r r r r r r r r r r r r r r r r r r r r r r r r r r r r r r r r r r r r r r r r r r r r r r r r r r r r r r r r r r r r r r r r r r r r r r r r r r r r r r r r r r r r r r r r r r r r r r r r r r r r r r r r r r r r r r r r r r r r r r r r r r r r r r r r r r r r r r r r r r r r r r r r r r r r r r r r r r r r r r r r r r r r r r r r r r r r r r r r r r r r r r r r r r r r r r r r r r r ",
"- r : : r : : : : : : r - r r r r r r r r r r r r r r r r r r r r r r r r r r r r r r r r r r r r r r r r r r r r r r r r r r r r r r r r r r r r r r r r r r r r r r r r r r r r r r r r r r r r r r r r r r r r r r r r r r r r r r r r r r r r r r r r r r r r r r r r r r r r r r r r r r r r r r r r r r r r r r r r r r r r r r r r r r r r r r r r r r r r r x r r : : r r r r r r r r : r r x r r r r r r r r r r r r r r : r r r r r r r r r r r r g x r r r r r r r r r : r r r : r r r r r r r r r r r r r r : r r r ",
"a.H x a.F x c j.B x B B Z r r r r r r r r r r r r r r r r r r r r r r r r r r r r r r r r r r r r r r r r r r r r r r r r r r r r r r r r r r r r r r r r r r r r r r r r r r r r r r r r r r r r r r r r r r r r r r r r r r r r r r r r r r r r r r r r r r r r r r r r r r r r r r r r r r r r r r r r r r r r r r r r r r r r r r r r r r r r r r r r r r r r r x r r F Z : r - : : : - r B r r x r r r r r r r r r r r x : - F c r r r r r r r r r r r g x r r r r r r r r r B c r - B r r r r r r r r r r r r : c Z : r r ",
"a.k.v.v.C.G.f.k.l.h.A.v.B.Z : r r r r r r r r r r r r r r r r r r r r r r r r r r r r r r r r r r r r r r r r r r r r r r r r r r r r r r r r r r r r r r r r r r r r r r r r r r r r r r r r r r r r r r r r r r r r r r r r r r r r r r r r r r r r r r r r r r r r r r r r r r r r r r r r r r r r r r r r r r r r r r r r r r r r r r r r r r r r r r r r r r r x - i.G B.u.F a.a.y.a.X.j.a.- r x r r r r r r r r r : c y.c h.C.V.x r r r r r r r r r r g x r r r r r r r : x A.h.X.i.v.f.k.B : r r r r r r r r z j.G F i.u.",
"9.j.i.h.a.a.a.9.X.v.l.u.X.B : r r r r r r r r r r r r r r r r r r r r r r r r r r r r r r r r r r r r r r r r r r r r r r r r r r r r r r r r r r r r r r r r r r r r r r r r r r r r r r r r r r r r r r r r r r r r r r r r r r r r r r r r r r r r r r r r r r r r r r r r r r r r r r r r r r r r r r r r r r r r r r r r r r r r r r r r r r r r r r r r r r r x - h.F a.j.Z.H.a.V.a.D.A.a.- r x r r r r r r r r r r c f.a.G.h.j.x r r r r r r r r r r g x r r r r r r r : c Z.l.M.l.v.a.V.x r r r r r r r r r x h.j.C.K.v.",
"r - : r : r r r : : : : : r r r r r r r r r r r r r r r r r r r r r r r r r r r r r r r r r r r r r r r r r r r r r r r r r r r r r r r r r r r r r r r r r r r r r r r r r r r r r r r r r r r r r r r r r r r r r r r r r r r r r r r r r r r r r r r r r r r r r r r r r r r r r r r r r r r r r r r r r r r r r r r r r r r r r r r r r r r r r r r r r r r r r x : x X.c c G S x B x B S c r r x r r r r r r r r r r r X.S S c Z x r r r r r r r r r r g x r r r r r r r r g c B S C.F x S c r r r r r r r r r : Z X.H F B ",
"x x x x x x x x x x x x x x x x x x x x x x x x x x x x x x x x x x x x x x x x x x x x x x x x x x x x x x x x x x x x x x x x x x x x x x x x x x x x x x x x x x x x x x x x x x x x x x x x x x x x x x x x x x x x x x x x x x x x x x x x x x x x x x x x x x x x x x x x x x x x x x x x x x x x x x x x x x x x x x x x x x x x x x x x x x x x x x x x x r x r : - : : - : : : : : : : r r x r r r r r r r r r r r - : : : : : r r r r r r r r r r r x r r r r r r r r r : - r c : : : : r r r r r r r r r r - - - - - ",
"r r r r r r r r r r r r r r r g r r r g r r r r r r r r r r r r r r r r r r r r r r r r r g r r r r r r r r r r r r r r r r r r r r r r r r r r r r r r r g r r r r r r r r r r r r r r r r r r r r r r r r r r r r r r r r r r r r r r r r r r r r r r r r r r r r r r r r r r r r r r r r r r r r r r r r r r r r r r r r r r r r r r r r r r r r r r r r r r r r x g g x g g x x g x g x x g g g x g g g g g g g g g g g x z x z z g g g g g g g g g g g x x r g g g g g g g g g x r r g g g g g g g g g g g g r r b q q b b ",
"r r r r r r r r r r r r r r r - - r g - r r r r r r r r r r r r r r r r r r r r r r r - : - g x - r x - - : - : c r r r r r r r r r r r r r c : : - : : - - : - : r r r r r r r r r r r r c : - : - : : r : r r - : r r r r r r r r r r r r r r r r r r r r r z c c z r r r r r r r r r r r r r r r r r r r r r r r r r r r r r c x c r r r r r r r r r r r r r r r x x x x x x x x x x x x x x x x x x x g x g g x x x x x x x x x x x x x x x x x x x x x x x x x x x x x x x x x x x x x x x x x x x x x x x x z t XXoXoXXXoX",
"r r r r r r r r r r r r M.u.v.X.B k.i.X.r r r r r r r r r r r r r r r r r r r r - y.c X.F G u.a.c u.B.S y.F G y.k.- r r r r r r r r r r : S A.i.H y.F X.y.a.F y.F : r r r r r r r r r - H A.X.X.F G y.j.y.B X.k.X.Z r r r r r r r r r r r r r r r r r r : y.B a.X.B.c r r r r r r r r r r r r r r r r r r r r r r r r r - y.u.l.9.j.a.: r r r r r r r r r r r r r r x : r r r r r r r r r r r r r r x r > ; ; ; ; ; ; ; ; ; ; ; ; ; ; ; ; ; ; ; ; ; ; ; ; r r g > t t t t t t t t t t t t t t t t t t t : : - : r r > +X#X#XV c ",
"r r r r r r r r r r r r B.C.C.k.V.l.D.A.z r r r r r r r r r r r r r r r r r r r - i.X.j.B.k.B.G.a.=Xj.B.K.v.J.V.h.: r r r r r r r r r r - X.h.i.a.G.v.H.V.k.k.B.j.r r r r r r r r r r - X.A.V.A.B.=Xi.k.v.Z.v.v.k.k.- r r r r r r r r r r r r r r r r r - i.9.a.c M.r r r r r r r r r r r r r r r r r r r r r r r r r r - a.v.G.B a.u.: r r r r r r r r r r r r r r x r r r : : r r : r : r r r r r x e 9 U.U.U.U.U.U.U.I.I.I.I.U U U I I I I I I I P P 3 e z x > | @XOXOXOXOXOXOXOXOXOX@.@.@.@.@.@.@.@.@.@.@.u > r > +X>X#X| y ",
"r r r r r r r r r r r r S G S X.B y.F H r r r r r r r r r r r r r r r r r r r r : F u.X.S X.F F u.y.B B G X.X.X.H : r r r r r r r r r r r c x x x H X.u.S B F M.B r r r r r r r r r r r c B H H y.X.X.X.S H B S h.X.- r r r r r r r r r r r r r r r r r : F y.H y.c : r r r r r r r r r r r r r r r r r r r r r r r r r r B x Z y.F r r r r r r r r r r r r r r r r x r r : u.i.x x B : u.B : r r r x e 8 !.!.!.T.T.T.T.T.T.T.U.T.U.U.U.U.I.I.I.U I I I 3 e z x , | @X@X@X@X@X@X@X@X@X@X@X@XOXOXOXOXOX@.@.@.@.| > r > +X>X#X| y ",
"r r r r r r r r r r r r : - : - : - : : r r r r r r r r r r r r r r r r r r r r r : - - : - : : - - : : : - - - : r r r r r r r r r r r r : r r : : - - : : r x - r r r r r r r r r r r r : - : - - : - : - : - B r r r r r r r r r r r r r r r r r r r r : - : - r r r r r r r r r r r r r r r r r r r r r r r r r r r r : r : - : r r r r r r r r r r r r r r r r x r r : v.V.h.A.v.k.V.F - r r r x e 8 !.!.T.T.Q./.T.T.Q.^.E./.U.E.E.Y.Y.E.E.I I I I 3 e z x , | @X@X@X@X>X>X@X@X@X@X@X@XOX>X@XOXOXOX@.@.@.| > r > +X>X#X| y ",
"r r r r r r r r r r r r r g r g r g r r r r r r r r r r r r r r r r r r r r r r r r g g r g r r g g r r g g g g r r r r r r r r r r r r r r r r r g g g r r r r g r r r r r r r r r r r r r g g g g g g r r r g r r r r r r r r r r r r r r r r r r r r r r g r g r r r r r r r r r r r r r r r r r r r r r r r r r r r r r r r g r r r r r r r r r r r r r r r r r x r r : a.l.M.v.G a.k.B : r r r x e 8 !.!.!.T.Q.^.Q.T.T.T.T.T.U.T.Y.U.I.E.Y.I I I I 3 e z x , @.@X@X@X@X>X>X@X@X@X@X@X@XOX@XOXOXOXOX@.@.@.| > r > +X>X#X| y ",
"x x x x x x x x x x x x x x x x x x x x x x x x x x x x x x x x x x x x x x x x x x x x x x x x x x x x x x x x x x x x x x x x x x x x x x x x x x x x x x x x x x x x x x x x x x x x x x x x x x x x x x x x x x x x x x x x x x x x x x x x x x x x x x x x x x x x x x x x x x x x x x x x x x x x x x x x x x x x x x x x x x x x x x x x x x x x x x x x x r x r r r r r r r r r r r r r r r x e L !.!.!.!.!.T.T.T.U.U.U.U.U.U.I.I.I.U U U I I I 3 e z x , @.@X@X@X@X@X@X@X@X@X@XOXOXOXOXOXOXOX@.@.@.@.| > r > +X>X#X| y ",
": * % % % % % % % % % % % % % % % % % % % % % % % % % % % * - @ @ : r r r r r r r r r r r r r r r e r r r r r r r r r r r r r r r r r r r r r r r r r e r r r r r r r r r r r r r r r r r r r r r r r e r r r r r r r r r r r r r r r r r r r r r r r r r r r r r r r r r r r r r r r r r r r r r r r r r r r r r r r r r r r r r r r r r r r r r r r r r r r r r r x r r r r r r r r r r r r r r r x e 4 I K K P P P P P P P P P P P P P 3 3 3 3 3 3 3 1 r g x > | @.@.@.@.| | | | | | | | | | | | u u u u u u r r > +X>X#X| y ",
"x a.f.a.a.a.f.f.f.f.f.f.f.f.f.f.f.f.f.f.f.f.f.f.f.f.f.f.h.a.u.h.h.c : r r r r r r r r r r r r e r i e e r r r r r r r r r r r r r r r r r r r r r e r p r e r r r r r r r r r r r r r r r r r r r e r p r e r r r r r r r r r r r r : - - - - - - - - - - - - - - - - - - - - - - - - - * : r r r : - - - - - - - - - - - - - - - - - - - - - - - - - - - - - r r r x r r r r r r r r r r r r r r r x r r e e e e e e e e e e e : e e e e e e e e e e e r r g x r > , > > > > > > > > > , > > > > > > > > > > r r r > +X>X#X| y ",
"fXKXKXKXKXKXLXLXLXLXLXLXLXLXLXLXLXLXLXLXLXLXLXLXLXLXLXLXKXHXZXLXLXlX- r r r r r r r r r r r r K U U U 8 e r r r r r r r r r r r r r r r r r r r e L I.Y I.L e r r r r r r r r r r r r r r r r r e K T.Y.T.K e r r r r r r r r r r : X.j.h.h.j.j.j.j.k.k.k.k.l.l.l.l.l.l.l.v.v.M.B.B.B.B.Z.i.: r r y.j.h.h.h.j.j.j.j.k.k.k.k.k.l.l.l.l.l.l.l.v.v.M.B.B.B.B.B.V.Z : r x r r r x : : - : - : - r r r r x r r r r r r r r r r r r r F r r r r r r r r r r r r r g x r r r r r r r r r r r r F r r r r r r r r r r r r r > +X>X#X| y ",
"mXbXlXDXbXlXDXJXGXGXGXGXGXGXGXGXGXGXGXGXGXGXGXGXGXGXGXGXJXSXZXfXC.SXr r r r r r r r r r r e Y Y = * 4 I.L e r r r r r r r r r r r r r r r r r w Y I.+ X 4 I.K e r r r r r r r r r r r r r r r w Y U.4 * 4 T.Y w r r r r r r r r r - C.bXlXcXcXcXcXbXbXvXvXvXvXZXvXZXZXZXAXAXAXAXDXDXDXDXSXdX* g - G.cXlXcXcXcXcXcXbXbXvXvXvXZXZXvXvXZXZXZXAXAXAXAXDXDXDXDXDXDXy.- g x r - u.B.Z F y.B X.S X.g r r r x r r r r r r r r r r r : B v.H : r r r r r r r r r r r g x r r r r r r r r r r : B v.H : r r r r r r r r r r r > +X>X#X| y ",
"dXgXfXfXgXzXZXPXGXGXGXGXGXGXGXGXGXGXGXGXGXGXGXGXGXGXGXGXJXSXBXlXfXZXr r r r r r r r r r e 8 U @ 0 J : 4 U r r r r r r r r r r r r r r r r r e 7 T.- K.i.: = I.i r r r r r r r r r r r r r r e 7 T.% : J & = T.i r r r r r r r r r - V.lXzXlXlXlXlXlXlXcXcXlXjXfXfXdXbXvXvXvXZXZXZXZXZXZXDXJ.- r - C.lXzXzXlXlXlXlXlXlXcXcXlXgXgXfXgXjXvXvXvXvXZXZXZXZXZXZXAXZXX.- r x r - a.C.h.=Xl.B.j.A.G.c : r r x r r r r r r r r r r r : B v.X.- r r r r r r r r r r r g x r r r r r r r r r r : B v.X.- r r r r r r r r r r r > +X>X#X| y ",
"zXZXbXlXbXvXvXLXGXGXGXGXGXGXGXGXGXGXGXGXGXGXGXGXGXGXGXGXPXSXAXzXK.SXr r r r r r r r r r e K K & G i.D % Y 5 e r r r r r r r r r r r r r r r w K I.. J.G.D & Y 8 e r r r r r r r r r r r r r w K I.& m z.cXA U L e r r r r r r r r - V.lXzXzXlXlXlXlXlXcXcXlXdXgXjXdXvXvXvXvXZXZXZXZXZXZXDXJ.- r - C.lXzXzXlXlXlXlXlXlXcXcXlX=XK.fXgXzXvXvXvXvXZXZXZXZXZXZXAXZXX.- r x r r B F a.i.B F V.a.X.r r r r x r r r r r r r r r r r r r H z r r r r r r r r r r r r g x r r r r r r r r r r r r H x r r r r r r r r r r r r > +X>X#X| y ",
"dXKXGXPXPXGXPXGXGXGXGXGXGXGXGXGXGXGXGXGXGXGXGXGXGXGXGXGXPXFXvXLXLXfX- r r r r r r r r r e L Y   fXJ.> * U i r r r r r r r r r r r r r r r r e L U.. z S v @ U 7 e r r r r r r r r r r r r r e L U.. b y.i.& U 7 e r r r r r r r r - Z.cXlXlXcXcXcXcXbXbXvXbXzXlXzXvXZXZXZXZXAXAXAXAXAXAXSXJ.- g - G.cXlXlXcXcXcXcXcXbXbXvXbXcXbXzXcXZXZXZXZXZXAXAXAXAXAXAXDXAXX.- r x r r : : * - - - F r - r r r r x r r r r r r r r r r - r : * : : - : r r r r r r r r r g x r r r r r r r r r r : r - - - r r r r r r r r r r r > +X>X#X| y ",
": c B c c B c v B B B B B B B B B B B B B B B B B B B B B c c B c : r r r r r r r r r r r i U 9 9.6 . K Y e r r r r r r r r r r r r r r r r r r U.K % , % P Y e r r r r r r r r r r r r r r r r U.K @ = . P Y e r r r r r r r r r - l.gXdXgXgXgXgXgXfXfXfXfXfXfXfXfXfXfXfXfXzXzXzXzXzXzXlXC.- r : B.gXdXgXgXgXgXgXgXfXfXfXfXfXfXfXfXfXfXfXfXfXzXzXzXzXzXzXzXzXG - r x r r r : X.X.S F G c r r r r r x r r r r r r r r r c X.x F X.F H X.B : r r r r r r r r g x r r r r r r r r r : B B B X.u.r r r r r r r r r r r > +X>X#X| y ",
"c h.j.j.j.j.j.j.j.j.j.j.j.j.j.j.j.j.j.j.j.j.j.j.j.j.j.j.j.h.u.k.k.B : r r r r r r r r r r e L Y & - 6 Y i r r r r r r r r r r r r r r r r r r e L Y.e - r Y 5 e r r r r r r r r r r r r r r r e L Y.e - r Y 5 e r r r r r r r r r r r r r r r r r r r r r r r r r r r r r r r r r r r r r z r r r r r r r r r r r r r r r r r r r r r r r r r r r r r r r r g r r r x r r r r f.B.B.k.k.G - r r r r x r r r r r r r r r r a.k.G.f.Z.v.B.u.: r r r r r r r r g x r r r r r r r r r : B.a.Z.9.h.r r r r r r r r r r r > +X>X#X| y ",
"jXKXKXKXKXKXKXLXKXKXKXKXKXKXKXKXKXKXKXKXKXKXKXKXKXKXKXKXKXGXAXLXPXbX- r r r r r r r r r r r e e r r r e r r r r r r r r r r r r r r r r r r r r e e r r r e r r r r r r r r r r r r r r r r r r e e r r r e r r r r r r r r r r r r r r r r r r r r r r r r r r r r r r r r r r r r r r r r r r r r r r r r r r r r r r r r r r r r r r r r r r r r r r r r r r r r x r r r r a.y.H v.a.H - r r r r x r r r r r r r r : F v.h.C.j.v.k.v.y.: r r r r r r r r g x r r r r r r r r r r f.B.V.h.H - r r r r r r r r r r > +X>X#X| y ",
"fXAXcXAXSXlXDXfXAXSXHXGXGXGXGXGXGXGXGXGXGXGXGXGXGXGXGXGXGXSXZXfXC.SXr r r r r r r r r r r r r r r r r r r r r r r r r r r r r r r r r r r r r r r r r r r r r r r r r r r r r r r r r r r r r r r r r r r r r r r r r r r r r r r r r r r r r r r r r r r r r r r r r r r r r r r r r r r r r r r r r r r r r r r r r r r r r r r r r r r r r r r r r r r r r r r r x r r r r B x r r B x r r r r z c r r r r r r r r r c S r r B x c c x r r r r r r r r r x x r r r r r r r r r r x x r x g r r r r r r r r r r r > +X>X#X| y ",
"dXfXgXfXzXfXzXfXfXdXSXJXGXGXGXGXGXGXGXGXGXGXGXGXGXGXGXGXJXSXBXlXfXZXr r r r r r r r r r r r r r r r r r r r r r r r r r r r r r r r r r r r r r r r r r r r r r r r r r r r r r r r r r r r r r r r r r r r r r r r r r r r r r r r r r r r r r r r r r r r r r r r r r r r r r r r r r r r r r r r r r r r r r r r r r r r r r r r r r r r r r r r r r r r r r r r g r @ @ @ @ @ @ @ @ @ @ @ @ @ @ * @ @ @ @ @ @ @ @ @ @ # @ @ @ @ @ @ @ @ @ @ @ @ @ @ @ @ % % @ @ @ @ @ @ @ @ @ @ @ @ @ @ @ @ @ @ @ @ @ @ @ * r r > +X>X#X| y ",
"zXBXbXvXbXcXbXcXBXcXGXPXJXJXJXJXJXJXJXJXJXJXJXJXJXJXJXJXLXFXAXzX=XSX: r r r r r r r r r r r r r r : r : r r r r r r r r r r r r r r r r r r r r r r g r r r r r r r r r r r r r r r r r r r r r r : r r r r r r r r r r r r r r r r r r r r : z z : r r r r r r r r r r r r r r r r r r r r r r r r r r : r x r : r r r r r r r r r r r r r r r r r r r r r r r r r - z j.l.l.l.l.l.l.l.l.l.l.l.l.l.l.l.l.l.l.l.l.l.l.l.l.l.l.l.l.l.l.l.l.l.l.l.l.l.l.l.l.l.l.l.l.l.l.l.l.l.l.l.l.l.l.l.l.l.l.l.l.l.l.l.l.l.l.i.: r > +X>X#X| y ",
"=XLXGXGXGXGXGXGXGXGXHXHXHXHXHXHXHXHXHXHXHXHXHXHXHXHXHXHXGXSXbXPXPXfX- r r r r r r r r r : B k.x i.f.f.h.i.r r r r r r r r r r r r r r r r r r - F a.a.y.G h.j.F : r r r r r r r r r r r r r r : c a.u.u.B k.x r r r r r r r r r r r r r r x y.u.i.u.x r r r r r r r r r x X.G H c u.z r r r r r r r r r B i.u.i.G r r r r r r r r r r : F y.X.x u.c r r r r r r r : B gXl.h.j.j.j.j.j.z.z.z.z.z.z.z.z.z.z.z.z.z.z.l.l.l.l.l.l.l.l.l.l.l.l.l.l.l.l.l.l.M.l.M.B.M.B.B.B.B.B.B.B.B.B.B.B.B.B.B.B.B.B.B.V.B.V.Z.M.].dX: > +X>X#X| y ",
"- r r r r r r r r g g g g g g g g g g g g g g g g g g g g g r r r - r r r r r r r r r r - X.j.u.i.A.k.C.a.x r r r r r r r r r r r r r r r r r F S k.u.F y.V.v.u.: r r r r r r r r r r r r r r r r k.f.a.u.k.F - r r r r r r r r r r r r r i.v * * v a.r r r r r r r r r r u.X.X.H u.B : r r r r r r : B i.r * * X.y.: r r r r r r r r x l.a.X.H y.F : r r r r r r @ G.y.  X X X X X > X X X * X * , X * * * * , > * * * * * > , * * , , * z > , - 8 8 - z > = 6.k = 6 ).).6 > > > z b > z > > > S H > z z g N T.].f.X +X>X#X| y ",
"B B.B.B.B.B.B.B.B.B.B.V.B.B.B.B.B.B.B.B.B.B.B.B.B.B.B.B.V.v.h.Z.C.S : r r r r r r r r r : c h.G i.u.i.i.u.: r r r r r r r r r r r r r r r r r r G i.X.B u.i.a.F : r r r r r r r r r r r r r r r r F y.i.G f.x r r r r r r r r r r r r : X.S X b J X S X.: r r r r r r r r B F X.S 9.g r r r r r r r r i.: o J b X u.v : r r r r r r r r H X.X.B 9.c r r r r r r r * J.z X * X * * * z * * * * * , z * * * * * > z * , , , * z > , , > > , v > > : L L : v g = 6.k ; i ).).i g z > z v z z z S H u.y.> b z g /.' k.B.X +X>X#X| y ",
"zXKXKXKXKXKXKXKXKXKXKXLXKXKXKXKXKXKXKXKXKXKXKXKXKXKXKXKXKXGXAXLXGXvX- r r r r r r r r r r r : : - : - : : r r r r r r r r r r r r r r r r r r r r : - : - : : r r r r r r r r r r r r r r r r r r : - : : : r r r r r r r r r r r r r : u.r > i.u.z > u.: r r r r r r r r : : : : : r r r r r r r r x y.r fXZ.H , S F : r r r r r r r r - : : : : r r r r r r r r * J.z X * X * * * z * * * * * , > * * * * * > z * , , , * z > , , > > , b > > : L L : b g = 6.k ; z ).).i r z z z v z z H u.y.i.G > b h E.R.w B.v.X +X>X#X| y ",
"fXcXSXAXBXSXDXDXAXFXSXcXHXGXGXGXGXGXGXGXGXGXGXGXGXGXGXGXGXSXZXfXC.SXr r r r r r r r r r r r r x c g x r r r r r r r r r r r r r r r r r r r r r r r y.i.u.r r r r r r r r r r r r r r r r r r r r x c g x g r r r r r r r r r r r r r : u.z > bXu.* x y.: r r r r r r r r x x B x r r r r r r r r r x v.> h.p.J X X.S : r r r r r r r r x c c c r r r r r r r r r * J.z o X X X X X z * * * * X * > * * * * * > z * , * * * z > , , , , * b > > : 8 8 - b g = 6.k = 6 ).).i r > > z v z z v S S y.y.> h R.E.h z B.v.X +X>X#X| y ",
"dXbXzXfXmXdXdXbXfXlXgXfXGXGXGXGXGXGXGXGXGXGXGXGXGXGXGXGXJXSXBXzXgXZXr r r r r r r r r r r r g M.V.a.k.c r r r r r r r r r r r r r r r r r r r r : y.B.V.Z.x r r r r r r r r r r r r r r r r r r r l.V.a.k.B : r r r r r r r r r r r r : B u.x H X * i.B : r r r r r r r : Z a.u.u.x r r r r r r r r : a.i.  * X x i.r r r r r r r r r r x a.u.u.B : r r r r r r r * J.z X * X > > > > * * X z > z > * * * b b z z * * , z z v > , , , b b v > > - Q Q g b g = 6.6.z v ).).i > v v v v z z z z > H p.h ' ^.z z z B.v.X +X>X#X| y ",
"jXZXUXZXUXbXZXSXSXBXlXBXPXPXPXPXPXPXPXPXPXPXPXPXPXPXPXPXLXIXAXlXdXSX: r r r r r r r r r r r x i.y.y.j.S : r r r r r r r r r r r r r r r r r r r : y.k.k.v.x r r r r r r r r r r r r r r r r r r r u.u.y.j.G - r r r r r r r r r r r r r : X.B @ - B G : r r r r r r r r : B F y.u.r r r r r r r r r r g j.x - - X.v : r r r r r r r r r x H G a.x r r r r r r r r * J.z v S * v y.v z * * * F G G > * * > v v v > * * b G S S > , > S u.G v > > > Q x.H v g = 6.6.H p.).).z z H S F v z z z z > H a._ (.N g z z B.v.X +X>X#X| y ",
"K.HXFXIXIXIXFXFXFXHXHXHXSXSXSXSXSXSXSXSXSXSXSXSXSXSXSXSXFXDXlXHXGXdX- r r r r r r r r r r r r r r r x r r r r r r r r r r r r r r r r r r r r r r r x r x r r r r r r r r r r r r r r r r r r r r r r r x r r r r r r r r r r r r r r r r : r r r r : r r r r r r r r r r r r r x r r r r r r r r r r r : r r r r r r r r r r r r r r r r r r x r r r r r r r r r * J.z > > * > b z > X X * b b b > X * > > v z > * * z v v v , * > z S v v > = : Q / Z v > = 6.0.v S ).).i z b S v b > > > z > F x.E.Q g z z > B.v.X +X>X#X| y ",
"- x c x x x x x x x x x c c c c c c c c c c c c c c c c c x x c x - r r r r r r r r r r r r r r r r r r r r r r r r r r r r r r r r r r r r r r r r r r r r r r r r r r r r r r r r r r r r r r r r r r r r r r r r r r r r r r r r r r r r r r r r r r r r r r r r r r r r r r r r r r r r r r r r r r r r r r r r r r r r r r r r r r r r r r r r r r r r r r r * J.b * , , , , , b > > > > , > b > > > > > z v > z > > > v z z z > z z v b z g Q Q g S c 6 7.A i b `.`.v b b b v S b v v v b F /.] h m v v b B.v.X +X>X#X| y ",
"r r : : : : : : : : : : : : : : : : : : : : : : : : : : : : r : : r r r r r r r r r r r r r r r r r r r r r r r r r r r r r r r r r r r r r r r r r r r r r r r r r r r r r r r r r r r r r r r r r r r r r r r r r r r r r r r r r r r r r r r r r r r r r r r r r r r r r r r r r r r r r r r r r r r r r r r r r r r r r r r r r r r r r r r r r r r r r r r r * H.S H G G G G G y.G G G G G y.y.G y.y.y.G y.u.y.y.y.y.y.p.y.y.y.y.y.y.i.u.y.9._ x.9.i.i.) r.g.y.p.`.`.p.i.i.i.i.h.i.i.i.i.9./.E.0.i.i.i.i.y.B.v.X +X>X#X| y ",
"x c c c c c c c c c c c c c c c c c c c c c c c c c c c c c c c c x x x x x x x x x x x x x x x x x x x x x x x x x x x x x x x x x x x x x x x x x x x x x x x x x x x x x x x x x x x x x x x x x x x x x x x x x x x x x x x x x x x x x x x x x x x x x x x x x x x x x x x x x x x x x x x x x x x x x x x x x x x x x x x x x x x x x x x x x x x x x x x c * J.z   X X X X X > X X X X X * > X X X * X , > X * * * * > , * * * * * z > * % 8 8 % z > $ 6.k * > ).).6 > > > > b > > 6 & Y./.H ; > z S H > l.v.X +X>X#X| y ",
"r - * * * * * * * * * * * * * * * * * * * * * * * * * * * - - * * r r r r r r r r r r r r r r r r r r r r r r r r r r r r r r r r r r r r r r r r r r r r r r r r r r r r r r r r r r r r r r r r r r r r r r r r r r r r r r r r r r r r r r r r r r r r r r r r r r r r r r r r r r r r r r r r r r r r r r r r r r r r r r r r r r r r r r r r r r r r r r r r * J.z X * * * * * z * * * * * , > * * * * * > z * , , , * z > , > , > , b > > : L L : b g = 6.k ; i ).).i > z > z v > z h ' Q.H 9.> z y.u.p.b l.M.X +X>X#X| y ",
"z u.a.a.i.i.a.a.a.a.a.a.a.a.a.a.a.a.a.a.a.a.a.a.a.a.a.a.a.i.9.a.a.x : r r r r r r r r r r r r e e e e r r r r r r r r r r r r r r r r r r r r r r e w e w e r r r r r r r r r r r r r r r r r r r e w e w e r r r r r r r r r r r r : : : : : : : : : : : : : : : : : : : : : : : : : : - : r r r : : : : : : : : : : : : : : : : : : : : : : : : : : : : : - r r * J.z o X X X X * z * * * * * , > * * * * * > z * * * , * z > * , , , , b > > - 8 L - b g = 6.k = i ).).i > > > z v 6 g Q (.7 F y.> z S S S z l.v.X +X>X#X| y ",
"fXKXKXLXKXKXLXLXLXLXLXLXLXLXLXLXLXLXLXLXLXLXLXLXLXLXLXLXLXHXZXLXLXlX- r r r r r r r r r r r e 7 Y Y Y r e r r r r r r r r r r r r r r r r r r r e 7 Y.Y.Y.5 e r r r r r r r r r r r r r r r r r e 7 Y.Y.Y.5 e r r r r r r r r r r r v S S S S S S S S S S F F F F F F F F F F H H H H H G S r r r B S S S S S S S S S S F F S F F F F F F F F F H H H H H H G c r * J.z o X X X X X z * * * * * , > * * * * * > z * * * , * z > * , , , , b > ; - 8 L - b > = 6.k = i ).).i > > > z v > b (.[ & G y.> z > > > > l.v.X +X>X#X| y ",
"zXbXlXDXbXlXSXJXGXGXGXGXGXGXGXGXGXGXGXGXGXGXGXGXGXGXGXGXJXSXZXfXA.SXr r r r r r r r r r r e L U L 9 K I.5 e r r r r r r r r r r r r r r r r r e L T.K 3 K T.8 e r r r r r r r r r r r r r r r e L T.K 9 Y T.L e r r r r r r r r r - V.lXzXzXzXzXlXlXlXlXlXcXcXcXbXbXbXbXvXvXvXvXvXZXZXZXDXJ.- r - C.lXzXzXzXzXzXlXlXlXlXlXcXcXcXbXbXbXbXbXvXvXvXvXvXZXZXZXZXZX9.: - J.z o X X X X X z * * * * * , > * * * * * > z * * * , * z > * , , , , b > ; - 8 L - b > = 6.k = i ).).i > > > z v : Q.' w > H y.> z z z z > l.v.X +X>X#X| y ",
"dXgXfXfXgXzXZXPXGXGXGXGXGXGXGXGXGXGXGXGXGXGXGXGXGXGXGXGXJXSXBXlXfXZXr r r r r r r r r r e 5 U = & z & P Y e r r r r r r r r r r r r r r r r r i T.9 & g A 8 U r r r r r r r r r r r r r r r r i T.9 & g . 3 T.r r r r r r r r r r - Z.cXzXlXlXlXlXcXcXcXbXcXlXzXfXfXvXZXZXZXZXZXZXAXAXAXSXJ.- g - A.cXzXlXlXlXlXcXcXcXcXbXcXzXzXfXfXlXZXvXZXZXZXZXZXAXAXAXAXAXX.: - J.z o X X X X X z * * * * * , > * * * * * > z * * * , * z > * , , , * b > , - 8 8 - b > = 6.k = i ).).6 > > > z h E.Y.& z > H y.> z z z z > l.v.@ | #.| y y ",
"mXZXbXlXbXvXbXLXGXGXGXGXGXGXGXGXGXGXGXGXGXGXGXGXGXGXGXGXPXSXAXjXG.SXr r r r r r r r r r e K K & m G S % U 5 r r r r r r r r r r r r r r r r e L Y.& b J.zX@ Y 7 e r r r r r r r r r r r r r e L Y.& m h.gXh I.8 e r r r r r r r r - V.lXzXlXlXlXlXlXcXcXcXzXgXgXzXdXvXvXvXvXZXZXZXZXZXZXDXJ.- r - C.lXzXlXlXlXlXlXlXcXcXcXlXH.G.jXdXfXZXvXvXvXZXZXZXZXZXZXAXZXX.: - J.z X X X * * X z * * * * * , > * * * * * > z * * * , * z > , , , > , b > ; - L L - b g = 6.k = i ).).i > > 6 w R.E.h z z > H y.> z z z z > l.v.@ j y y y y ",
"dXKXGXLXPXGXPXJXJXJXJXJXJXJXJXJXJXJXJXJXJXJXJXJXJXJXJXJXLXIXvXLXLXmX- r r r r r r r r r e K K . dXK.b * U 5 e r r r r r r r r r r r r r r r e L I.. m y.D @ Y 8 e r r r r r r r r r r r r r e L I.& v a.=Xg I 8 e r r r r r r r r - V.cXzXlXlXlXlXcXcXcXcXcXgXfXfXlXvXvXvXZXZXZXZXZXZXZXDXJ.- g - A.lXzXlXlXlXlXlXcXcXcXcXcXzXzXfXjXbXvXvXZXZXZXZXZXZXZXAXAXZXX.: - J.b , > > > > > v > > > > > z b > z z z z b v z z z z z v b z z z b z S v b g Q Q g S v 5 7.6.b v `.`.m v v h ' ^.v v v v b y.p.b v v v v b l.v.@ j y y y y ",
": B B B B Z B B B B B B B B B B B B B B B B B B B B B B B B B B B : r r r r r r r r r r e 7 U $ C.G . 8 U e r r r r r r r r r r r r r r r r r p T.4 * z % 4 U r r r r r r r r r r r r r r r r p T.4 * z   1 I.r r r r r r r r r r - Z.lXzXzXzXlXlXlXlXlXcXcXcXbXbXvXbXvXvXvXvXvXvXZXZXUXAXJ.- r - C.lXzXzXzXzXlXlXlXlXlXcXcXcXbXbXbXbXbXvXvXvXvXvXMXZXZXZXZXZXX.: - J.z o X X X X X > * X * * X * > X * * * * > z * * * * * z > * , , , * z > , - 8 8 - b > = 6.k = 6 ).).6 > : L (.n : 6 > > > H G > v v z > > l.v.@ j y y y y ",
"x a.a.a.a.a.a.f.f.a.a.a.a.a.a.a.a.a.a.a.a.a.a.a.a.a.a.a.f.a.y.h.h.c : r r r r r r r r r r e K Y # X ; I.7 e r r r r r r r r r r r r r r r r r w K T.& * - U L e r r r r r r r r r r r r r r r w K T.& * : U L e r r r r r r r r r r B F F F F F F F H H H H H H H H G G G G G G G G G G X.S r r r B F F F F F F F F H H H H H H H H H G G G G G G G G G G G X.c r * J.z o X X X X X > * * * * * * > * * * * * > z * * * * * z > * , , , * b > , - 8 8 - b > = 6.k = i ).).6 : 5 (.[ h 6 > > > > H G b S S z > > l.v.@ j y y y y ",
"fXKXKXLXKXKXKXLXLXKXKXKXKXKXKXKXKXKXKXKXKXKXKXKXKXKXKXKXKXGXZXLXPXcX- r r r r r r r r r r r r 5 r r r i e r r r r r r r r r r r r r r r r r r r e 5 r r r 5 e r r r r r r r r r r r r r r r r r e 5 r r r 5 e r r r r r r r r r r r : : : : : : : : : : : : : : : : - - - - - - - - - - - : r r r : : : : : : : : : : : : : : : : : - - - - - - - - - - - - - r r * J.z o X X X X X > * * * * * * > * * * * * > z * * * * * z > * , , , * b > , - 8 8 - b > = 6.k = 6 ).).6 : Q.Y w v > > > > , S y.z S H z > > l.v.@ j y y y y ",
"fXDXcXAXSXcXSXjXAXSXHXGXGXGXGXGXGXGXGXGXGXGXGXGXGXGXGXGXGXSXZXfXC.SXr r r r r r r r r r r r r r r r r r r r r r r r r r r r r r r r r r r r r r r e r r r r r r r r r r r r r r r r r r r r r r r e r r r r r r r r r r r r r r r r r r r r r r r r r r r r r r r r r r r r r r r r r r r r r r r r r r r r r r r r r r r r r r r r r r r r r r r r r r r r r r r * J.z o X X X X X > * * * * * * > * * * * * > z * * * * * z > * , , , * z > , - 8 8 - b > = 6.k = 6 ).).: T.Y.& z v > > > > , F G , > z > > > l.v.@ j y y y y ",
"dXfXgXfXzXfXzXfXfXdXSXJXGXGXGXGXGXGXGXGXGXGXGXGXGXGXGXGXJXSXBXlXfXZXr r r r r r r r r r r r r r r r r r r r r r r r r r r r r r r r r r r r r r r r r r r r r r r r r r r r r r r r r r r r r r r r r r r r r r r r r r r r r r r r r r r r r r r r r r r r r r r r r r r r r r r r r r r r r r r r r r r r r r r r r r r r r r r r r r r r r r r r r r r r r r r * J.z o X X X X X > * * * * * * > * * * * * > z * * * * * z > * * , , * z > , - 8 8 & b > = 6.k = 6 ).).Y.T.& > z v > > > > , F G , > > > > > l.v.@ j y y y y ",
"zXvXbXbXbXcXcXcXvXcXGXJXGXJXJXJXJXJXJXJXJXJXJXJXJXJXJXGXPXFXAXzXJ.SXr r r r r r r r r r r r r r r : r : r r r r r r r r r r r r r r r r r r r r r r r r : r r r r r r r r r r r r r r r r r r r r : r r r r r r r r r r r r r r r r r r r r : g g : r r r r r r r r r r r r r r r r r r r r r r r r r r : r x r : r r r r r r r r r r r r r r r r r r r r r r r r * J.z o X X X X X > * * * * * * > * * * * * > > * * * * * z > * , , , * z > , - 8 8 - b > = 6.k = 6 ).`.^.> > > z b > > > > , S G , z > > > > l.v.@ j y y y y ",
"=XLXGXGXGXGXGXGXJXGXGXGXGXGXGXGXGXGXGXGXGXGXGXGXGXGXGXGXGXSXbXPXLXfX- r r r r r r r r r : B k.x i.a.a.a.i.r r r r r r r r r r r r r r r r r r : B j.x a.a.h.x r r r r r r r r r r r r r r r r : c a.u.y.B k.x r r r r r r r r r r r r r r x y.p.i.y.z r r r r r r r r r x X.H F c u.g r r r r r r r r r B i.u.i.H r r r r r r r r r r : F 9.X.x u.c r r r r r r r * J.z   X X X X X > X X X X X * > X * * * X , > X * * * * > , * * * * * z > * & 8 8 % z > $ 6.k = > `.{.7 - > > > b , > > > * S G * > > > > > l.v.@ j y y y y ",
"- z x x x x x x x x x x x x x x x x x x x x x x x x x x x x x x x - r r r r r r r r r r - X.j.u.i.A.k.C.a.x r r r r r r r r r r r r r r r r r - X.j.u.i.A.j.F - r r r r r r r r r r r r r r r r r k.f.a.u.k.F - r r r r r r r r r r r r r i.v * * v a.r r r r r r r r r r u.X.X.H u.B : r r r r r r : B i.r * * 9.y.: r r r r r r r r x l.a.X.H y.F : r r r r r r * J.b , > > > > > v > > > > > z b > z z z > b v > z z z z v b z z z z z v b z g Q Q g S v 5 7.6.z h {.{.h b b b v S b v v v b G u.z v v v v z l.v.@ j y y y y ",
"B l.v.v.v.v.v.v.v.v.v.v.v.v.v.v.v.v.v.v.v.v.v.v.v.v.v.v.v.k.a.B.B.B : r r r r r r r r r : c h.X.i.i.a.i.u.: r r r r r r r r r r r r r r r r r : B j.X.a.i.a.x r r r r r r r r r r r r r r r r r r H y.a.X.h.x r r r r r r r r r r r r : X.S X b J X S X.: r r r r r r r r B F X.S 9.g r r r r r r r r i.:   J b X u.c : r r r r r r r g G X.X.Z y.c r r r r r r r * J.z X * * * * * z * * * * * , z * * * * * > z * , , , * z > , > > > , b > > : L L : b g = 6.k = G {.`.i > > > z v > z z z > H G > z z z z > l.v.@ j y y y y ",
"jXKXKXKXKXKXKXKXKXKXKXLXKXKXKXKXKXKXKXKXKXKXKXKXKXKXKXKXKXGXAXLXGXvX- r r r r r r r r r r r : : : : : : : r r r r r r r r r r r r r r r r r r r r : - - * : r r r r r r r r r r r r r r r r r r r : : : : : r r r r r r r r r r r r r : u.r > i.u.z > u.: r r r r r r r r : : : : : r r r r r r r r x y.> fXB.G , S F : r r r r r r r r - : : : : r r r r r r r r * J.z o X X X X X > X X X X X * > X * * * X , > * * * * * > , * * * * * z > * & 8 8 % z > $ 6.h c ` `.).6 > > > > b , > > > * S G > F G z > > l.v.@ j y y y y ",
"lXBXDXAXZXSXSXDXAXFXSXcXHXGXGXGXGXGXGXGXGXGXGXGXGXGXGXGXGXSXZXfXC.SXr r r r r r r r r r r r r x x r x r r r r r r r r r r r r r r r r r r r r r r r X.u.u.r r r r r r r r r r r r r r r r r r r r x x r x g r r r r r r r r r r r r r : u.z > bXp.* x y.: r r r r r r r r x x v x r r r r r r r r r x l.> z.i.J X X.S : r r r r r r r r x c c c r r r r r r r r r * J.z o X X X X X > X X X * X * > X * * * * , > * * * * * z > * * * , * z > = & 8 8 & b > = 6.9.c Y {.).6 > > > > b > > > > , S y.v H G z > > l.v.@ j y y y y ",
"lXcXjXfXfXdXgXcXfXlXgXfXGXGXGXGXGXGXGXGXGXGXGXGXGXGXGXGXJXSXBXzXgXZXr r r r r r r r r r r r g v.B.a.k.x r r r r r r r r r r r r r r r r r r r r : y.B.V.Z.x r r r r r r r r r r r r r r r r r r r k.V.a.k.B : r r r r r r r r r r r r : B u.x G < * p.B : r r r r r r r : Z a.u.u.x r r r r r r r r : a.u.  * @ z i.r r r r r r r r r r x a.u.u.B : r r r r r r r * J.z o X X X X X > X X X X X * > X * * * * , > * * * * * z , * * * * * z > = & 8 8 & b > + 6.0.@ Y.{.).6 > > > > b > > > > * S G > z > > > > l.v.@ j y y y y ",
"lXBXDXAXvXbXZXSXDXvXzXvXPXPXJXJXJXJXJXJXJXJXJXJXJXJXJXJXLXFXAXlXdXSX: r r r r r r r r r r r x i.u.u.k.S : r r r r r r r r r r r r r r r r r r r : u.l.k.v.x r r r r r r r r r r r r r r r r r r r i.u.u.j.X.- r r r r r r r r r r r r r : X.B @ - B G : r r r r r r r r : B F y.u.r r r r r r r r r r z k.x - - X.B : r r r r r r r r r x H X.a.x r r r r r r r r * J.z o X X X X X > X X X X X * > X * * * * , > * * * * * z , * * * * * z > * & 8 8 % b > = w.k % T.`.).6 > > > > b , > > > * S G * > > > > > l.v.@ j y y y y ",
"K.GXIXHXHXHXHXHXHXHXHXHXFXFXFXFXFXFXFXFXFXFXFXFXFXFXFXFXHXDXcXGXGXgX- r r r r r r r r r r r r r r r x r r r r r r r r r r r r r r r r r r r r r r r x g x r r r r r r r r r r r r r r r r r r r r r r r x r r r r r r r r r r r r r r r r : r r r r : r r r r r r r r r r r r r x r r r r r r r r r r r : r r r r r r r r r r r r r r r r r r x r r r r r r r r r * J.z o X X X X X > X X X X X * > X * * * * > > * * * * * z , * * * * * z > * & 8 8 & z > m 7.k 4 Q.`.).6 , > > > b , > > > * S G * > > > > , l.v.@ j y y y y ",
": c c c c c c c c c c c c c c c c c c c c c c c c c c c v c c c c : r r r r r r r r r r r r r r r r r r r r r r r r r r r r r r r r r r r r r r r r r r r r r r r r r r r r r r r r r r r r r r r r r r r r r r r r r r r r r r r r r r r r r r r r r r r r r r r r r r r r r r r r r r r r r r r r r r r r r r r r r r r r r r r r r r r r r r r r r r r r r r r * J.z   X X X X X > X X X X X * > X X X X X , > X * * * X > , * * * * * z , * % 8 8 % z S 6 6.l 8 T.).).; , , , > z , , , > * S G * > > > > , l.v.@ j y y y y ",
"r r : : : : : : : : : : : : : : : : : : : : : : : : : : : : : : : r r r r r r r r r r r r r r r r r r r r r r r r r r r r r r r r r r r r r r r r r r r r r r r r r r r r r r r r r r r r r r r r r r r r r r r r r r r r r r r r r r r r r r r r r r r r r r r r r r r r r r r r r r r r r r r r r r r r r r r r r r r r r r r r r r r r r r r r r r r r r r r r * J.z * * * * * * z , , , , , > z , , , > , > z , > > > > z z > > > > > v z > : L L : F S = 6.k Y E.).).z z z z z v z z z z > H y.> z z z z > z.v.@ j y y y y ",
"r : r r r r r r r r r r r r r r r r r r r r r r r r r r r r r r r r r r r r r r r r r r r r r r r r r r r r r r r r r r r r r r r r r r r r r r r r r r r r r r r r r r r r r r r r r r r r r r r r r r r r r r r r r r r r r r r r r r r r r r r r r r r r r r r r r r r r r r r r r r r r r r r r r r r r r r r r r r r r r r r r r r r r r r r r r r r r r r r * J.z X * * * * * z , , , , , > z , , , > , > z , > > > > z > > > > > > v z > : L 8 c G > 6 6.k Y.Y.).).z g z z z v z z z z > H G z b z z z > z.v.@ j y y y y ",
"r B r : : - : r r r r r r r r r r r r r r r r r r r r r r r r r r r r r r r r r r r r r r r r r r r r r r r r r r r r r r r r r r r r r r r r r r r r r r r r r r r r r r r r r r r r r r r r r r r r r r r r r r r r r r r r r r r r r r r r r r r r r r r r r r r r r r r r r r r r r r r r r r r r r r r r r r r r r r r r r r r r r r r r r r r r r r r r r r * J.z   X X X X X > X X X X X * > X X X X X * > X * * * X > * * * * * * z , * % 8 Q Z z , + 6.l U.Y %.).; * , * > z * , , , * S H > G S > , , z.v.@ j y y y y ",
"a.X.B a.a.y.B : r r r r r r r r r r r r r r r r r r r r r r r r r r r r r r r r r r r r r r r r r r r r r r r r r r r r r r r r r r r r r r r r r r r r r r r r r r r r r r r r r r r r r r r r r r r r r r r r r r r r r r r r r r r r r r r r r r r r r r r r r r r r r r r r r r r r r r r r r r r r r r r r r r r r r r r r r r r r r r r r r r r r r r r r r * J.z o X X X X X > X X X X X * > X * * * X , > X * * * * > , * * * * * z > * % 8 _ - z > + 6.l T.L ).).; , , , > z , > > > * S G z G G z , , z.v.@ j y y y y ",
"h.a.V.H.l.H.X.: r r r r r r r r r r r r r r r r r r r r r r r r r r r r r r r r r r r r r r r r r r r r r r r r r r r r r r r r r r r r r r r r r r r r r r r r r r r r r r r r r r r r r r r r r r r r r r r r r r r r r r r r r r r r r r r r r r r r r r r r r r r r r r r r r r r r r r r r r r r r r r r r r r r r r r r r r r r r r r r r r r r r r r r r r * J.z   X X X X X > X X X X X * > X * * * X , > X * * * * > , * * * * * z , * & ` 8 % z > + 6.k T.5 ).).; , , , > z * , , > * S H , > > > > , z.v.@ j y y y y ",
"F u.y.X.F X.x : r r r r r r r r r r r r r r r r r r r r r r r r r r r r r r r r r r r r r r r r r r r r r r r r r r r r r r r r r r r r r r r r r r r r r r r r r r r r r r r r r r r r r r r r r r r r r r r r r r r r r r r r r r r r r r r r r r r r r r r r r r r r r r r r r r r r r r r r r r r r r r r r r r r r r r r r r r r r r r r r r r r r r r r r r * J.z   X X X X X > X X X X X * > X X * * X , > X * * * * > , * * * * * z , * Z Q 8 % z > + 6.S T.; ).).; * , , > z * , , , * S H * , , > > , z.v.@ j y y y y ",
"r : : r r r r r r r r r r r r r r r r r r r r r r r r r r r r r r r r r r r r r r r r r r r r r r r r r r r r r r r r r r r r r r r r r r r r r r r r r r r r r r r r r r r r r r r r r r r r r r r r r r r r r r r r r r r r r r r r r r r r r r r r r r r r r r r r r r r r r r g g r r g g r r r r r r r r r r r r r r r r r r r r r r r r r r r r r r r r r x * J.z   X X X X X > X X X X X * > X X X * X , > X * * * * > , * * * * * z * v x 9 8 % z : + 6./ T.- ).).; , , * > z * , , > * S H * > , , , * z.v.@ j y y y y ",
"x x x x x x x x x x x x x x x x x x x x x x x x x x x x x x x x x x x x x x x x x x x x x x x x x x x x x x x x x x x x x x x x x x x x x x x x x x x x x x x x x x x x x x x x x x x x x x x x x x x x x x x x x x x x x x x x x x x x x x x x x x x x x x x x x x x x x x x x x g g x x g r x x x x x x x x x x x x x x x x x x x x x x x x x x x x x x x x x x * J.g   X X X X X > X X X X X * > X X X X X * > X * * * X > * * * * * * > b v . 8 8 % z , + 8.] Y.& ).).; * , * > z * , , , * S H * , , , , * z.v.@ j y y y y ",
"r r r r r r r r r r r r r r r r r r r r r r r r r r r r r r r r r r r r r r r r r r r r r r r r r r r r r r r r r r r r r r r r r r r r r r r r r r r r r r r r r r r r r r r r r r r r r r r r r r r r r r r r r r : r r : - - : - - r r r r r r r r r r r r r r r r r r r r : z c c r : x c : : r r : x x r r r r r r r r r r r r r r r r r r r r r r r r r r r * J.z X X X X * X > * * * * * * > * * * * * > > * * * * * z > * * * , * b H * - 8 8 & z > = 8.R.I.& ).).6 , > > > b , > > > * S G * > > > > , z.v.@ j y y y y ",
"r r r r r r r r r r r r r r r r r r r r r r r r r r r r r r r r r r r r r r r r r r r r r r r r r r r r r r r r r r r r r r r r r r r r r r r r r r r r r r r r r r r r r r r r r r r r r r r r r r r r r r r r r r c h.H x F X.c F F r r r r r r r r r r r r r r r r r r r r : B v.V.f.h.l.v.l.B.i.v.v.f.h.a.r r r r r r r r r r r r r r r r r r r r r r r r r r * H.z * > > > > > b > > > > > z b > > > > > z b > > > z > b z z z z > z G z z g Q Q g v z 6 8.E.Y h ).).b z z z b v z z z b z H y.> z z z b > z.v.@ j y y y y ",
"r r r r r r r : r : : : : - : : : r : r r r r r r r r r r r r : : r r r r - : r : : : r r r r : : : : r r : : r : : r r r r r r r r : : - : : : r r r r r r r r r r r : r r : : : : : r r r r r r r r r r r r r r - X.9.F k.C.u.B.A.C.r r r r r r r r r r r r r r r r r r r r : c a.u.Z.u.v.j.B.v.H V.a.V.h.k.x r r r r r r r r r r r r r r r : : r : r r r r r r * J.>   o X X X X > X X X X X * , X X X X X * > X X X X X > * X * * * v b * * % 8 8 % z * + 6.E.P % ).).= * * * , z * * * * X v S * S S , * * z.v.@ j y y y y ",
"r r r r r r : X.i.B c B F 9.B B B u.Z r r r r r r r r r : h.i.B x i.X.r c 9.9.c B c F r r r - a.F f.x u.F c B x c F r r r r r r : c i.H i.B c v a.B r r r r r r x v.X.c i.B c c B c B r r r r r r r r r r r r r r r g i.X.a.9.r y.F 9.r r r r r r r r r r r r r r r r r r r r r r r x i.x x x x x r x x x x c r r r r r r r r r r r r r : H F G c y.S h.r r r r r * J.z   X X X X X > X X X X X * > X X X X X * > X * * * X > * * * X v > > , * % 8 8 % z , + 6.E.9 - ).).; * * * > z * , , , * v G v y.G > * * z.v.@ j y y y y ",
"r r r r r r : k.x h.v.v.v.B.j.a.v.v.v.v : r r r r r r r : Z.V.A.C.v.M.a.B.a.v.v.j.B.v.c : r - v.C.V.l.=XV.V.G.a.v.M.G - r r r r - u.H.v.v.i.H.f.V.l.- r r r r : c G.M.D.V.D.v.V.V.B.K.B : r r r r r : : r r r r r r r : : - : r - : : r : r r r r r r r r r r r r r r : : r r r r r r r r r r r r r r : r : - r r : r r r r r r r r r r - a.V.C.j.B.v.v.r r r r r * J.>   X X X X X > X X X X X * , X X X X X * > X * * * X > * * X b b X z * * % 8 8 % z , X 6.E.+ ; ).).; * * * , z * , * , * v H * z z , * * z.v.@ j y y y y ",
"r r r r r r : X.p.u.i.F X.a.S X.a.X.a.B : r r r r r r r r X.y.f.u.f.u.j.i.y.i.u.a.X.G c : r r G a.u.l.h.u.a.u.f.v.v.c : r r r r r X.H a.y.h.k.i.a.u.r r r r r r x 9.u.a.y.a.i.l.i.h.a.x r r r r r r B S r - : : - x z : r r r r r r r r S g - : : : : r r r r r r r r B F r - : : - x x : r r r r r r r r h.X.x x c r x r r r r r r r r : F Z i.i.y.i.a.r r r r r * J.>   X X X X X > X X X X X * , X X X X X * > X * * * X > * X z v X * z * * % 8 8 % z , X 9.E.X ; ).).= * * * , z * * * , * v F X * * * * * z.v.@ j y y y y ",
"r r r r r r r : r r : : : r r r : : r r r r r r r r r r r : : : r r : : : r r : r : r r r r r : : : : : : : r - B c : r r r r r r : : : r : - r : : r r r r r r r : : r : : r : r : r r r r r r r r k.v.h.X.X.u.u.a.v.x r r r r r r r r k.a.X.y.y.X.X.: r r r r r r r j.v.j.X.X.u.u.a.B.c r r r r r r r r i.h.j.v.k.C.k.: r r r r r r r r r r : r : : r r r r r r * J.>   X X X X X > X X X X X * > X X X X X * > X * X * X > * > S * * X z * * % 8 8 % z , X 9.R.X ; ).).= * * * , z * * * * * v F X , , , * * z.v.@ j y y y y ",
"r r r r r r r r r r r r r r r r r r r r r r r r r r r r r r r r r r r r r r r r r r r r r r r r r r r r r r r r r r r r r r r r r r r r r r r r r r r r r r r r r r r r r r r r r r r r r r r r r : y.i.j.V.u.G.k.V.k.X.- r r r r r r c j.a.v.v.j.J.h.: r r r r r r - X.i.h.V.u.G.l.V.k.y.- r r r r r : B v.u.h.u.X.v.y.: r r r r r r r r r r r r r r r r r r r r * J.>   X X X X X > X X X X X * , X X X X X * > X X X X X > , v * X * X > * * % 9 8 @ 6 - o 9.] . = ).).= * * * , z * * * * X v S X * * * * * j.v.@ j y y y y ",
"r r r r r r r r r r r r r r r r r r r r r r r r r r r r r r r r r r r r r r r r r r r r r r r r r r r r r r r r r r r r r r r r r r r r r r r r r r r r r r r r r r r r r r r r r r r r r r r r r r B B B S z F S X.v c r r r r r r r c i.F G c c F B r r r r r r r r B B c S g F S X.B c r r r r r r r r z r r r r : r r r r r r r r r r r r r r r r r r r r r r * J.> o X X X X X > X X X X X * > X * * * * , > X * * * * > S > * * * * z , * % 8 8 % z > X x.' X ; ).).; , , * > z * , , , * S H * > , , , * j.v.@ j y y y y ",
"r r r r r r r r r r r r r r r r r r r r r r r r r r r r r r r r r r r r r r r r r r r r r r r r r r r r r r r r r r r r r r r r r r r r r r r r r r r r r r r r r r r r r r r r r r r r r r r r r r : : : : r : : - : : r r r r r r r : - : - : : : : r r r r r r r r : : : : r : : - : : r r r r r r r r r r r r r r r r r r r r r r r r r r r r r r r r r r r r * H.z * , * , , , z , , , , , > z , > > > , z z > > > > > F b > > > > > v z > : L L : b z * c._ : z ).).z g z z z v > z z z > F G > z > z z > h.M.@ j y y y y ",
"x x x x x x x x x x x x x x x x x x x x x x x x x x x x x x x x x x x x x x x x x x x x x x x x x x x x x x x x x x x x x x x x x x x x x x x x x x x x x x x x x x x x x x x x x x x x x x x x x x x x x x x c x x x x x x x x x x x x x x x x x x x x x x x x x x x x x x x x x x x x x x x x x x x x x x x x x x x x x x x x x x x x x x x x x x x x x x x x c * J.>   o o o o o , X X X X o X , o X X X X * , X X X X z v X X X X X X > * X . 9 9 . 6 * o c.v X = ).).= * * * * > * * * * X v S * z z * * * h.v.@ j y y y y ",
"r r r r r r r r r r r r r r r r r r r r r r r r r r r r r r r r r r e e e e r r r r r r r r r r r r r e w e e r r r r r r r r r r r r r e e e r r r r r r r r r r r r r ; ; ; ; r r r r r r r r r r r r r & : & e r r r r r r r r r r r r e w w w r r r r r r r r r r r r r r r r r r r r r r r r r r r r r r : : : r r r r r r r r r r r r r e e e e r r r r r r * J.>   X X X X X > X X X X X * , X X X X X * > X * X > b , * X * * * X > * * % 9 8 @ 6 * + '.h X = ).).= * * * , z * * * * X v H v G S > * * h.v.@ j y y y y ",
"e e e e e e e e e e e e e r r : - - - - r : - - - - r r r r r r r e 7 Y Y K r e r r r r r r r r r r e K Y.Y L e r r r r r r r r r r e i E E E p e r r r r r r r r r r ; 6.|.|.t.; r r r r r r r r r r e i E ).).a : r r r r r r r r r r e L Y.Y.Y e e r r r r r r r r r r r v C m z r r r r r r r r r r r : c X.y.H r r r r r r r r r r r r r K Y Y 8 e r r r r r * J.>   o X X X o > X X X X X * , X X X X X * > X X , v X > * X X X * X > * @ % 9 9 . 6 % 2 '.l + = ).).= * * * , z * * * * X v H > v v , * * h.v.@ j y y y y ",
"3 P P P P P 3 3 3 3 3 9 9 1 : F i.i.i.i.z B i.i.a.a.c r r r r r e K U L 9 K I.i r r r r r r r r r e I.Y.P 3 Y Y r r r r r r r r r e p ).R f R ).R e r r r r r r r r ; t.|.{ k |.|.r r r r r r r r r e p `.E L E `.E : r r r r r r r r w Y U.K P U T.i r r r r r r r r r r D v > z D v r r r r r r r r r : S p.v z G i.g r r r r r r r r r r U K 9 P U K e r r r r * J.>   o o X X o > X X X X X * , X X X X X * > X * v * X > * X X X X X > * @ @ 9 9 . 6 & 3 {.l + = ).).= * * * * > * * * * X v S X * * * * * h.v.@ j y y y y ",
"I.!.T.U.U.U.I.I.I.U U U I P @ C.ZXlXAXvXr h.ZXcXvXZXH : r r r e 5 U * & g & K Y e r r r r r r r e K Y.. i.M.. Y K e r r r r r r r e E f . 0 & 6 ).i r r r r r r r ; 6.|.@ = =   t.t.; r r r r r r r : ).R . 0 . = `.p e r r r r r r e 8 U.* & e w Y Y e r r r r r r r r m b . , o @ D i r r r r r r r r x p.* X *   S y.: r r r r r r r e Y K & g : * I.7 e r r r * J.>   o o o X o > X X X X X * , X X X X X * , X v * X X > * X X X * X > * @ % 9 9 . 6 & P {.l + = ).).= * * * * > * * * * X v S X * * * * * h.v.@ j y y y y ",
"I.!.T.U.U U U U I K P U I P % V.vXdXvXcXr h.bXG.dXvXS : r r r e K K & m ) J $ U i r r r r r r r w Y.P . K.gX, 4 Y e r r r r r r e p E X u.i.G & E R e r r r r r r ; t.6.$ S D.G.h |.r r r r r r r e p `.% b y.fXH E R : r r r r r r w Y Y & m gXgX$ U r r r r r r r r r D * > S P.v b v r r r r r r r : H F X b i.B.: y.r r r r r r r r r U $ z D ) & P K e r r r * J.>   X o o o X > X X X X X X , X X X X X * * b > X X X > * X X X * X > * X @ 9 9 . 6 & I '.l + = ).).= * * * * > * * * * X v S X * * * * * h.v.@ j y y y y ",
"I.!.T.U.I.U.U.I.U U I U U P % B.vXfXbXlXr a.vXgXzXbXS : r r r e K K . dXC.z * U i r r r r r r r w Y.P : D H z 1 Y e r r r r r r e a E x lXB.S & E R : r r r r r r ; |.{ = S C.C.: t.r r r r r r r e a ).X b y.dXc R R : r r r r r r w Y K & D h.S $ U r r r r r r r r r D @ > v C.S > b r r r r r r r : H S X z u.h.* F r r r r r r r r r U + H fXG : P K e r r r * J.>   o o o o o , o o o X o X * o X X X X X v > o X X X , * X X X X X > * X . 9 9 . 7 9 U.'.l + * ).).* % * * * > X * * * X v S X * * * * X h.v.@ j y y y y ",
"U.!.!.T.T.U.U.U.U.I.I.U U P * V.bXcXvXzXg a.bXbXvXcXF : r r r e 8 U % K.G . 8 Y e r r r r r r r w Y I.. 6 z @ K K e r r r r r r r r `.a X z , * ).p e r r r r r r ; 6.|.X > >   { t.; r r r r r r r e `.L X z X X E a e r r r r r r e L U.@ > i . L Y e r r r r r r r r C i X > X . v i r r r r r r r : c u.X * ,   z H r r r r r r r r e Y 3 H G., % U L e r r r * H.z * , , , , , z > > > > > > z , > > > , b S , > > > > z z > > > > > b z > > L L 5 ' Y.!.'.) 5 z ).).z g z z z v > z z z > F G > z > z z > h.v.@ j y y y y ",
"3 3 3 3 3 3 3 3 2 2 1 1 1 1 - c F F F F : x F S F F x r r r r r e Y Y # X 6 I.5 e r r r r r r r r e T.K & % 8 I.r r r r r r r r r : R `.- * & E R : r r r r r r r r ; |.t.+ * h t.g r r r r r r r r : T `.; % & E R : r r r r r r r r w Y.Y & % 6 I.5 e r r r r r r r r i ^ > @ * b b r r r r r r r r r : X.X.@ * r G z r r r r r r r r e 5 I.6 . & K Y e r r r r * H.>   o o o X o , X X X X X * , X X X X * S * X X X X X > * X X X X X > * X @ 9 9 9 Y.Y.T.'.' 3 * ).).= * * * * > * * * * X v S * v z * * * h.v.@ j y y y y ",
"Z A A A A F F F F F H X.G G G H F F F S H H S F F F x r r r r r r r 5 r r i 5 e r r r r r r r r r e i p r r i i e r r r r r r r r r e a i r r p r r r r r r r r r r r g h r r h h r r r r r r r r r r e a i r r p r r r r r r r r r r r r 7 r r i 6 e r r r r r r r r r r r r r r r r r r r r r r r r r r r x r r r g r r r r r r r r r r e 5 i r r 5 r r r r r r * J.>   o o o o o , o o X X o X * o X o X v * * X X X X X , * X X X X X > * X . 9 9 3 Y.Y.!.c.' 3 * ).).* @ * X * > X * * * X v S , v b * * X h.v.@ j y y y y ",
"K.lXzXzXzXlXlXlXlXzXzXzXzXlXlXlXlXcXbXUXvXZXZXZXAXZXH : r r r : : : r : r : r r r : r r r r r r r r r e r r r r : : r r r r r r : r r : : r r r r r r r r r r r r r r : ; r r r r r r r r r r r r r : : e : r : e r r : : r r r r r r r r e : r e r r : : r r r r r r r r r r r r r r r r r r r r r r r r r r r r : r r r r r r r r r r r > r : r r r r r r r r r * J.>   o o o o o , o o o X o X * o X X v * X , o X X X X , * X X X X X > * X . 9 9 4 Y Y.!.'.` 2 * ).).* @ * X * > X * * * X v S * z v * * X h.v.@ j y y y y ",
"K.cXzXlXlXlXcXfXdXJ.dXgXdX=XwXgXgXgXzXAXZXZXAXAXAXZXF : r r r B B c : c z c r : c c z r r r r r c g r x x x - x B c r r r r r r c : c x c g g : - : : : r r r r r x r c x c : - - : : r r r r r r x c c r x x c x - x B c r r r r r x g x r B g c : r v c g r r r r r r x r r x x g : z x x r r r r r g z x r r x x r r x x r r r r r r x c : v r : - : : r r r r * J.>   o o o o o , o o o o o X * o o b ,   * , o X X X X , * X X X X X > * X . 9 9 X L Y !.x.m + * ).).$ @ * X * > X * * * X v S o * X * * X h.v.@ j y y y y ",
"K.lXzXlXlXlXlXfXgXfXfXfXgXgXgXfXgXfXjXZXZXZXZXZXAXvXF : r r r u.h.a.B f.v.k.c 9.B.V.i.: r r r r k.9.G v.v.y.c v.v.B.x r r r : X.k.B h.v.a.k.F c h.u.X.H : r r r - i.a.h.v.a.c a.i.G X.r r r r r r B h.u.9.c B.l.X.c v.M.M.x r r r r h.i.Z.r 9.V.l.c u.B.V.u.: r r r B u.u.H S y.G G x i.i.a.x r r r r y.Z u.x u.S u.x F a.a.X.: r r r : i.f.B v.B X.h.G y.c r r r * H.>   o o o o o , o o o o o X *   z > o X * , o X X X X , * X X X X X > * X . 9 9 . > K T.6.l X * ).).$ X X X * > X * * * X v S X * * * * X h.v.@ j y y y y ",
"J.cXlXlXcXcXcXbXvXvXbXvXvXZXZXvXZXZXZXAXAXAXAXAXDXZXH : r x S X.X.a.H h.C.j.X.k.v.C.h.: r r r x j.a.u.M.V.y.u.B.B.C.B : r r : 9.k.i.a.C.a.a.Z X.B.j.j.j.: r r r : F j.h.C.i.X.v.k.h.v.r r r r r S X.i.i.X.c C.v.y.i.M.B.V.c r r c S X.h.C.S i.i.V.H v.v.C.a.: r r B c G 9.u.X.i.X.X.F a.a.h.c r r x B F B u.H a.X.u.Z u.i.h.y.: r r r r i.j.u.k.X.j.v.h.v.G - r r * H.>   o o o o o , o o o o o X * , z   X X * , o X X X X , * X X X X X > * X . 3 9 . & K U.8.l X * ).).* X * X * > X * * * X v S X * * * * X h.v.@ j y y y y ",
"X.i.i.i.i.i.i.i.i.a.a.a.a.f.h.h.h.h.h.h.h.h.h.j.j.j.c r r r r B S i.B X.F X.r G H 9.S r r r r : G H S G G B x y.H 9.r r r r r c y.B X.F X.c x x B B S H r r r r r x B X.F H g B B B X.r r r r r : G u.i.H H F X.c c 9.H X.r r r r : c Z X.F i.F F r X.H y.B r r r r r x B B v S S c x F B F r r r r r x B S v B S S r Z Z F B r r r r : B X.B 9.x B B B G B : r r * J.>             *       o   o > z o o o   X *   o o X o * X o X X X o , X X . 3 3 . & U I.l l o $ ).).$ X X X * > X X X X o b S o X X X X X h.v.@ j y y y y ",
": - - - - - - - - - - - - - - - - - - - - - - - - - r r r r r : : - : - : - r : : - : r r r r r : : : : : : r - : - r r r r r r - : - : : r r r : : : : r r r r r r : - : : r : : : - r r r r r r : - - : : : - r r - : - r r r r r r : : : - : : r - : - : r r r r r r r : : : : r r : : : r r r r r r r : : : : : r : : : : r r r r r : - : - r : : : : : r r r * H.> X * * * * * z * * * * * , S * * * * * > z * * * * * z > * , , , * z > , - 8 8 - h Y.U 8.k = > ).).> , > > > z , > > > * S H * > > > > * h.M.@ j y y y y ",
"r r r r r r r r r r r r r r r r r r r r r r r r r r r r r r r r r r r r r r r r r r r r r r r r r r r r r r r r r r r r r r r r r r r r r r r r r r r r r r r r r r r r r r r r r r r r r r r r r r r r r r r r r r r r r r r r r r r r r r r r r r r r r r r r r r r r r r r r r r r r r r r r r r r r r r r r r r r r r r r r r r r r r r r r r r r r r r r r r * H.>   X X X X X > X X X X X v > X X X X X * > X * * * X > * * * * * X > * * % 9 8 % : T.P 8.l X = ).).= * * * , > * * * * X v S * > > , * * h.v.@ j y y y y ",
"x x x x x x x x x x x x x x x x x x x x x x x x x x x x x x x x x x x x x x x x x x x x x x x x x x x x x x x x x x x x x x x x x x x x x x x x x x x x x x x x x x x x x x x x x x x x x x x x x x x x x x x x x x x x x x x x x x x x x x x x x x x x x x x x x x x x x x x x x x x x x x x x x x x x x x x x x x x x x x x x x x x x x x x x x x x x x x x x c * H.>             *     o   z > *   o o o o X *   o o X o * X o X X X o , X X . 3 3 . : T.2 k l o $ ).).$ X X X * > X X X X o b v > S S * X X h.v.@ j y y y y ",
"r r r r r r r r r r r r r r r r r r r r r r r r r r r r r r r r r r e e r e e r r r r r r r r r r r r w e r e r r r r r r r r r r r r e & r : : r r r r r r r r r r r r ; ; r ; r r r r r r r r r r r r e & r : : r r r r r r r r r r r r w e r w e r r r r r r r r r r r r e r r r r r r r r r r r r r r r : : r : r r r r r r r r r r r r r e r e e r r r r r r * H.>             , o o   > > o *   o o o o * * o X X X o , X X X X X X > X X . 3 3 . 6 T.O k l o $ ).).$ X X X * > X X X X X b S z S v * X X h.v.@ j y y y y ",
": - - - - - - * * * * * * - r : - * * - r : - * * - r r r r r r r e L Y Y Y 6 e r r r r r r r r r r r Y U.U Y r r r r r r r r r r r : a ).).`.R : r r r r r r r r r r r t.|.|.t.g r r r r r r r r r r e a ).).`.R : r r r r r r r r r r e Y U.Y.Y.p e r r r r r r r r r r r m D D b r r r r r r r r r r r r S u.u.y.z r r r r r r r r r r e i Y Y U L e r r r r r * H.>             * o   , z   X *   o o o o X * o X X X o * X X X X X X > X X . 3 3 . 8 T.  k l o $ ).).$ X X X * > X X X X o b v o X X X X X h.v.@ j y y y y ",
"i.l.v.B.B.B.B.Z.Z.C.C.C.C.B.r y.V.Z.Z.V.z H V.Z.C.C.B : r r r r e Y U 1 1 L I.5 e r r r r r r r r e Y.U 4 4 K I.r r r r r r r r r : R `.R 6 f `.E : r r r r r r r r ; |.|.l w t.|.h r r r r r r r r e a `.R 6 f `.%.& r r r r r r r r e Y.Y.9 4 K T.5 e r r r r r r r r i D i * > C m r r r r r r r r r : G y.r : B a.x r r r r r r r r r 6 I.P = 4 Y Y e r r r r * H.>             *   * z     X *   o o o o X *   X X X o * X X X X X o > X X . 3 3 . K T.  k l o $ ).).$ X X X * > X X X X o b S o X X X X X f.v.@ j y y y y ",
"J.vXfXzXzXlXcXzXbXcXcXvXSXlX- C.AXlXDXvXr h.ZXlXvXAXF : r r r e L U.c f.v & 8 Y e r r r r r r r w Y Y.  M.K.. K K e r r r r r r r r `.f & b 0 i ).p e r r r r r r ; 6.|.+ 6 z   t.|.; r r r r r r r e ).f . b & * `.a e r r r r r r e L U.# r z & K Y.w r r r r r r r r C i X > < X D z r r r r r r r : c u.X * > o c y.: r r r r r r r e Y L & b g & U 8 e r r r * H.>             * X b o     X *   o o o o X * o X X X o * X o X X X o > X X . 3 3 . Y Y.  k l o $ ).).$ X X X * > X X X X o b S o X X X X X a.v.@ j y y y y ",
"K.cXG.J.dXH.J.fXzXfXJ.G.AXzX- B.vXdXbXlXr f.cXA.dXvXS : r r r w Y I h cXz.v * U i r r r r r r r w Y.L & Z.J.0 4 Y e r r r r r r e a ).@ v h.vXA R R : r r r r r r ; |.{ = S  XgXh |.r r r r r r r e a ).% b i.bXu.R R : r r r r r r w Y K & D z.H + Y.i r r r r r r r r D @ > S i.* z v r r r r r r r : H S X b y.v X u.g r r r r r r r r U $ z G y.: P K e r r r * H.,             * z X       o *           X *   o   o   * X   o o o   , X o   3 3 . I.U   k w   X ).).X X X o X , o X X X   z v   X X X X X f.v.@ j y y y y ",
"J.cXjXfXfXfXlXcXvXzXcXlXDXzX- B.ZXzXvXlXr a.vXfXlXvXS : r r r w Y Y . m G b * U i r r r r r r r w Y.P & J S g 4 Y e r r r r r r e a ).. b X.y.. E R : r r r r r r ; t.6.+ S l.i.w t.r r r r r r r e p `.@ z X.z.& R R : r r r r r r w Y Y & b dXdX= T.r r r r r r r r r D @ , v J.H p m r r r r r r r : H F X z l.C.* p.r r r r r r r r r U + G lXD & P K e r r r * H.> X * * * * X v z X * * * , > * * * * * > > * * * * * > > * * * , * z > = & 8 L & T.K X 6.k * ; ).).; , , , > z , > , > * v F * > > > > * i.M.@ j y y y y ",
"G.zXzXzXlXlXlXlXlXcXcXbXvXfX: v.lXzXlXfXz i.lXlXlXzXS : r r r e 7 T.4 * > % P Y e r r r r r r r e K U.@ , > % Y K e r r r r r r r e ).R X > X 6 ).i r r r r r r r ; 6.|.% , ,   t.6.; r r r r r r r : ).E . > X = ).p r r r r r r r e L T.$ * , : Y Y e r r r r r r r r m b X * X - m i r r r r r r r r x i.- X * * B G : r r r r r r r e Y P Z h.< * U 7 e r r r * H.>   X X X o z b o X X X X * , X X X X X * , X X X X X > * X * * * X > * * % 9 9 . T.9 o 6.l X = ).).= * * * * > * * * * X v S X * * * * X i.M.@ j y y y y ",
"z z z z z z z z z z z z z z - r r r r z - : g r r z r r r r r r w Y Y.& * 6 U i r r r r r r r r r e Y.Y & % 8 Y e r r r r r r r r e a `.> * - E R e r r r r r r r r ; |.t.$ * k t.r r r r r r r r r e a `.i * & E R : r r r r r r r r w I.Y & - 4 U r r r r r r r r r r r D r * - b z r r r r r r r r r : H X.* * r H r r r r r r r r r r i I.4 @ & K K e r r r r * H.,         * > *           o *           X *   o   o   * X   o o o   , X o   3 2 X T.+   k w   X ).).X . X o X , o X X X   z v   X X X X o i.v.@ j y y y y ",
"G u.u.u.u.u.u.i.i.i.a.a.a.a.h.h.h.h.h.a.h.h.h.h.h.h.c r r r r r r e i r r r r r r r r r r r r r r r e i r r r r r r r r r r r r r r e r r r r r e r r r r r r r r r r r g r r r r r r r r r r r r r r e r r r r r e r r r r r r r r r r e i r r r r r r r r r r r r r r r r r r r r r r r r r r r r r r r r r r r r r r r r r r r r r r r r r i r r r e r r r r r * H.,       X z   *           X *   o o o   X *   o o o   * X o o o X o , X X . 3 1 2 T..   k l   X ).).X X X X X , X X X X   z v   X X X X X i.v.@ r r > > r ",
"J.cXlXlXcXcXcXcXlXlXzXzXzXlXlXlXcXcXvXAXAXAXDXDXDXAXH - r r r : r : r : : : r r : : r r r r r r : r r : : : r r : : r r r r r r : : : r : : r r r r r r r r r r r : r : : : r r r r r r r r r r r : : r r r : : : r r : : r r r r r r : r : : : r r : : : r r r r r r r : r r : : r r r : : r r r r r r r r : : : r r r : r r r r r r r : : r - r r r r r r r r r * H.,     o z     *           X *       o   X *   o o o   * X o o o o   , X o . 3 1 P T..   k l   X ).).X X X X X , X X X X   z v   X X X X o i.v.@ > y | | y ",
"K.lXzXlXlXlXcXgXH.H.dXdX=XJ.H.dXdXdXfXZXZXZXZXZXAXZXF : r r : F x c r S B F r r F F c r r r r : S c x S B c - B F S r r r r r : B B F x c S : : : : r r r r r r r B c S B Z : : : : r r r r r r : B Z z c x Z Z c - B F S r r r r r : B r B B F r : F F B r r r r r z c B x x B c x - c B B r r r r r r c r c c B r : B B c r r r r r : c Z r H r : : : : r r r r * H.,     z X     *           X *           X *   o o o   * X   o o o o , X o . 3 O U Y..   k w   X ).).X X X X X , o X X X   z v o X X * X X i.v.@ j | +X#.| ",
"K.lXzXlXlXlXcXzXfXzXfXzXfXfXfXfXfXzXzXZXZXZXZXAXAXZXF : r r g X.a.B.B h.V.k.Z i.V.C.a.: r r r x k.y.X.B.B.y.Z B.B.V.c : r r r r x B.v.X.u.j.B l.j.u.p.r r r r r - u.j.h.V.a.Z l.j.u.p.r r r r r x c a.v.y.G B.B.9.S B.B.V.x r r r r H V.c a.V.v.F 9.V.V.k.: r r r r B 9.B H Z a.a.F v a.a.a.x r r r r B f.x X.a.i.B S a.a.u.r r r r r : a.f.F v.F i.v.u.a.c r r r * H.,   z *       *           X *           X *   o o o   * X o o o o   , X o . 3 1 U.K .   k w   X ).).X X X X X , o X X X   z H z z v z o o i.v.@ r y y y y ",
"K.lXzXzXzXlXlXlXcXcXcXcXbXbXvXvXvXvXvXvXvXZXZXZXZXvXH : r x F h.h.D.p.a.V.j.H k.v.Z.f.: r r r z j.f.u.v.B.y.u.v.v.V.B : r r r : X.k.h.a.a.h.H k.h.a.v.z r r r r : S f.j.V.a.G k.h.a.v.z r r r r B u.j.V.l.u.M.B.X.u.v.M.V.c : r r x u.B.i.a.B.l.G h.v.V.k.r r r r B c H X.F H i.a.F H i.i.a.x r r r z H a.X.X.a.i.Z X.i.a.i.r r r r r : i.k.u.k.H a.h.a.v.X.- r r * J.* , >         * o     o   X *   o o o   X *   X o X o * X o X X X o , X X . 3 3 T.7 .   k l o $ ).).X X X X @ > X X X X o z H > z b > X X i.B.@ r y r y y ",
"Z F F F F F F F F H H H H H H H H G G G G G G G G G x r r r r X.c x B Z c S : B B F c r r r r : B B v B B c g F B F r r r r r : F S Z B B B r c x c Z r r r r r r x x Z c B r c x c Z r r r r r - Z F r B B B B x x F B S r r r r r r S c B c S r B B S B r r r r r r x B B x c c x r B c B r r r r r r v x c x B r x B v c r r r r r r c S x F r x x x Z x r r r @ K.G             X             X             X           X             X       O P U..     l &     E E           X           , >             Z.h.% | #.| #.#.",
"r : r : : : : : : : : : : : : : : : : : : : : : : : r r r r r : r r r r r : r r r : r r r r r r r r r r r r r : r : r r r r r r : : r r r r r r r r r r r r r r r r r r r r r r r r r r r r r r r r : r r r r r r r : r : r r r r r r : r r r : r r r : r r r r r r r r r r r r r r r r r r r r r r r r r r r r r r r r r r r r r r r r r : r : r r r r r r r r r : S gXi.y.y.y.y.y.y.y.y.y.y.y.y.u.u.u.u.u.u.u.u.u.u.u.u.u.p.p.u.u.u.p.p.i.p.p.p.u.x.c.u.i.p.i.i.p.i.i.i.i.i.i.i.i.i.i.i.i.i.i.i.i.i.i.i.i.u.V.dXr r y | j | | ",
"- - - - - - - - - - - - - - - - - - - - - - - - - - - - - - - - - - - - - - - - - - - - - - - - - - - - - - - - - - - - - - - - - - - - - - - - - - - - - - - - - - - - - - - - - - - - - - - - - - - - - - - - - - - - - - - - - - - - - - - - - - - - - - - - - - - - - - - - - - - - - - - - - - - - - - - - - - - - - - - - - - - - - - - - - - - - - - - - - - @ r h.k.k.k.k.k.k.k.k.k.k.k.k.k.k.k.k.k.k.k.k.k.k.k.k.k.k.k.k.k.k.k.k.k.k.k.k.k.j.j.k.k.k.k.k.k.k.k.k.k.k.k.k.k.k.k.k.k.k.k.k.k.k.k.k.k.k.i.- * - - * * * * ",
"J.=X=X=X=X=X=X=X=X=X=X=X=X=X=X=X=X=X=X=X=X=X=X=X=X=X=X=X=X=X=X=X=X=X=X=X=X=X=X=X=X=X=X=X=X=X=X=X=X=X=X=X=X=X=X=X=X=X=X=X=X=X=X=X=X=X=X=X=X=X=X=X=X=X=X=X=X=X=X=X=X=X=X=X=X=X=X=X=X=X=X=X=X=X=X=X=X=X=X=X=X=X=X=X=X=X=X=X=X=X=X=X=X=X=X=X=X=X=X=X=X=X=X=X=X=X=X=X=X=X=X=X=X=X=X=X=X=X=X=X=X=X=X=X=X=X=X=X=X=X=X=X=X=X=X=X=X=X=X=X=X=X=X=X=X=X=X=X=X=X=X=X=X=X=X=X=X=X=XH.A.A.A.A.A.A.A.A.A.A.A.A.A.A.A.A.A.A.A.A.A.A.A.A.A.A.A.A.A.A.A.A.A.A.A.A.A.A.A.A.A.A.A.A.A.A.A.A.A.A.A.A.A.A.A.A.A.A.A.A.A.A.A.A.A.A.A.D.=X=X=X=X=X=X=X=X",
"a.a.a.a.a.a.a.a.a.a.a.a.a.a.a.a.a.a.a.a.a.a.a.a.a.a.a.a.a.a.a.a.a.a.a.a.a.a.a.a.a.a.a.a.a.a.a.a.a.a.a.a.a.a.a.a.a.a.a.a.a.a.a.a.a.a.a.a.a.a.a.a.a.a.a.a.a.a.a.a.a.a.a.a.a.a.a.a.a.a.a.a.a.a.a.a.a.a.a.a.a.a.a.a.a.a.a.a.a.a.a.a.a.a.a.a.a.a.a.a.a.a.a.a.a.a.a.a.a.a.a.a.a.a.a.a.a.a.a.a.a.a.a.a.a.a.a.a.a.a.a.a.a.a.a.a.a.a.a.a.a.a.a.a.a.a.a.a.a.a.a.a.a.a.a.a.a.a.a.a.f.f.f.f.f.f.f.f.f.f.f.f.f.f.f.f.f.f.f.f.f.f.f.f.f.f.f.f.f.f.f.f.f.f.f.f.f.f.f.f.f.f.f.f.f.f.f.f.f.f.f.f.f.f.f.f.f.f.f.f.f.f.f.f.f.f.f.a.a.a.a.a.a.a.a.a.",
"H.H.H.H.H.H.H.H.H.H.H.H.H.H.H.H.J.J.H.H.H.H.H.H.H.H.H.H.H.H.H.H.H.H.H.H.H.H.H.H.H.H.H.H.H.H.H.H.H.H.H.H.H.H.H.H.H.H.H.H.H.H.H.H.H.H.H.H.H.H.H.H.H.H.H.H.H.H.H.H.H.H.H.H.H.H.H.H.H.H.H.H.H.H.H.H.H.H.H.H.H.H.H.H.H.H.H.H.H.H.H.H.H.H.H.H.H.H.H.H.H.H.H.H.H.H.H.H.H.H.H.H.H.H.H.H.H.H.H.H.H.H.H.H.H.H.H.H.H.H.H.H.H.H.H.H.H.H.H.H.H.H.H.H.H.H.H.H.H.H.H.H.H.H.H.H.H.H.H.H.H.H.H.H.H.H.H.H.H.H.H.H.H.H.H.H.H.H.H.H.H.H.H.H.H.H.H.H.H.H.H.H.H.H.H.H.H.H.H.H.H.H.H.H.H.H.H.H.H.H.H.H.H.H.H.H.H.H.H.H.H.H.H.H.H.H.H.H.H.H.H.H.H.H.H.H.",
"@ @ % % % % % % % % % % % % % # @ @ @ * % % % % % % % % % % % @ @ @ @ % % % % % % % % % % % % % % % % % % % % % % % % % % % % % % % % % % % % % % % % % % % % % % % % % % % % % % % % % % % % % % % % % % % % % % % % % % % % % % % % % % % % % % % % % % % % % % % % % % % % % % % % % % % % % % % % % % % % % % % % % % % % % % % % % % % % % % % % % % % % % % % % % % % % % % % % % % % % % % % % % % % % % % % % % % % % % % % % % % % % % % % % % % % % % % % % % % % % % % @ @ % @ % @ % % % @ @ @ @ % % % @ @ @ @ % @ @ ",
"y.X.g r r r r r r r r r r r r i.a.a.S r r r r r r r r r r r x X.X.y.c r r r r r r r r r r r r r r r r r r r r r r r r r r r r r r r r r r r r r r r r r r r r r r r r r r r r r r r r r r r r r r r r r r r r r r r r r r r r r r r r r r r r r r r r r r r r r r r r r r r r r r r r r r r r r r r r r r r r r r r r r r r r r r r r r r r r r r r r r r r r r r r r r r r r r r r r r r r r r r r r r r r r r r r r r r r r r r r r r r r r r r r r r r r r r r r r r r r r r z x z g B z x r r r h g g g g r r k  . .k r 6. .",
"h.h.r r r 8.j > h j g r r r r M.j.A.y.- r k  .> r j h r r r x h.C.C.B : r  .k > h j h r r r r r r r r r r r r r r r r r r r r r r r r r r r r r r r r r r r r r r r r r r r r r r r r r r r r r r r r r r r r r r r r r r r r r r r r r r r r r r r r r r r r r r r r r r r r r r r r r r r r r r r r r r r r r r r r r r r r r r r r r r r r r r r r r r r r r r r r r r r r r r r r r r r r r r r r r r r r r r r r r r r r r r r r r r r r r r r r r r r r r r r r r r r r : B X.u.H S i.X.c t { { { { { g r r k  .q.k r 8. .",
"V.J.r > j &X .;  .8.j > r r r l.B.H F : > 8.q.r h 8. .r r r c z h.h.g r r q.8.; j 8. .> r r r r r r r r r r r r r r r r r r r r r r r r r r r r r r r r r r r r r r r r r r r r r r r r r r r r r r r r r r r r r r r r r r r r r r r r r r r r r r r r r r r r r r r r r r r r r r r r r r r r r r r r r r r r r r r r r r r r r r r r r r r r r r r r r r r r r r r r r r r r r r r r r r r r r r r r r r r r r r r r r r r r r r r r r r r r r r r r r r r r r r r r r r r : B a.a.a.g f.y.x t { { { { .Xr r r j k  .j r  .8.",
"B.Z.r r > h r r > ; r r r r r a.f.Z B r r r h > r ; > r r r x S i.a.x r > h r r r ; > r r r r r r r r r r r r r r r r r r r r r r r r r r r r r r r r r r r r r r r r r r r r r r r r r r r r r r r r r r r r r r r r r r r r r r r r r r r r r r r r r r r r r r r r r r r r r r r r r r r r r r r r r r r r r r r r r r r r r r r r r r r r r r r r r r r r r r r r r r r r r r r r r r r r r r r r r r r r r r r r r r r r r r r r r r r r r r r r r r r r r r r r r r r r : G F r B F x B c r g { 0 g 0 r r r k  . .k > 8. .",
": : r r r r r r r r r r r r r r r r r r r r r r r r r r r r r r r r r r r r r r r r r r r r r r r r r r r r r r r r r r r r r r r r r r r r r r r r r r r r r r r r r r r r r r r r r r r r r r r r r r r r r r r r r r r r r r r r r r r r r r r r r r r r r r r r r r r r r r r r r r r r r r r r r r r r r r r r r r r r r r r r r r r r r r r r r r r r r r r r r r r r r r r r r r r r r r r r r r r r r r r r r r r r r r r r r r r r r r r r r r r r r r r r r r r r r r x r r : : r : r r r t r r t r r r r r r r r > r ",
"r r r r r r r r r r r r r r r r r r r r r r r r r r r r r r r r r r r r r r r r r r r r r r r r r r r r r r r r r r r r r r r r r r r r r r r r r r r r r r r r r r r r r r r r r r r r r r r r r r r r r r r r r r r r r r r r r r r r r r r r r r r r r r r r r r r r r r r r r r r r r r r r r r r r r r r r r r r r r r r r r r r r r r r r r r r r r r r r r r r r r r r r r r r r r r r r r r r r r r r r r r r r r r r r r r r r r r r r r r r r r r r r r r r r r r r r r r r r r r r r r r r r r r r r r r r r r r r r "
};
