/* XPM */
static char *sc_mb_gate_stereo[] = {
/* columns rows colors chars-per-pixel */
"256 256 256 2 ",
"   c #040404",
".  c #0C0C0C",
"X  c #080608",
"o  c #130A09",
"O  c #16170A",
"+  c #0C0D13",
"@  c #070713",
"#  c #0B1416",
"$  c #131314",
"%  c #14151B",
"&  c #16191E",
"*  c #1A1A1C",
"=  c #1B1517",
"-  c #130F11",
";  c #27181C",
":  c #32191E",
">  c #37161B",
",  c #2C0D0C",
"<  c #1D2814",
"1  c #192812",
"2  c #26291A",
"3  c #303119",
"4  c #141D23",
"5  c #1B1C22",
"6  c #161525",
"7  c #121C28",
"8  c #271A25",
"9  c #2A1E34",
"0  c #281A37",
"q  c #2F132A",
"w  c #1E2126",
"e  c #18282A",
"r  c #1C3232",
"t  c #173638",
"y  c #142D31",
"u  c #222324",
"i  c #22232A",
"p  c #242A2A",
"a  c #2A2B2C",
"s  c #2C2726",
"d  c #332B2B",
"f  c #342829",
"g  c #2A372A",
"h  c #353525",
"j  c #3C3C2C",
"k  c #35382A",
"l  c #2B2136",
"z  c #2B2C31",
"x  c #2D2339",
"c  c #252937",
"v  c #34283B",
"b  c #2C3233",
"n  c #263839",
"m  c #323334",
"M  c #323E30",
"N  c #34353A",
"B  c #3B3B3C",
"V  c #3A3735",
"C  c #550E12",
"Z  c #4F0C0E",
"A  c #690202",
"S  c #770506",
"D  c #6C1013",
"F  c #52132D",
"G  c #473A2B",
"H  c #443A38",
"J  c #513030",
"K  c #6F2F2C",
"L  c #641B2A",
"P  c #184935",
"I  c #3D422C",
"U  c #2A4739",
"Y  c #334133",
"T  c #314C3E",
"R  c #3B4A3D",
"E  c #3A4436",
"W  c #2F5135",
"Q  c #2E5018",
"!  c #505019",
"~  c #42472C",
"^  c #424233",
"/  c #484737",
"(  c #4B5130",
")  c #73483A",
"_  c #52702D",
"`  c #65702D",
"'  c #5A6F13",
"]  c #301B43",
"[  c #133A49",
"{  c #372A44",
"}  c #2B3848",
"|  c #3D3D44",
" . c #3B3B49",
".. c #383646",
"X. c #313352",
"o. c #3D1663",
"O. c #393974",
"+. c #46374C",
"@. c #421C68",
"#. c #4F2877",
"$. c #6A2D47",
"%. c #164758",
"&. c #0C4F53",
"*. c #2C4544",
"=. c #314545",
"-. c #3F4044",
";. c #334E41",
":. c #3A4C4E",
">. c #37464B",
",. c #355143",
"<. c #395446",
"1. c #3B5649",
"2. c #39594A",
"3. c #364251",
"4. c #394553",
"5. c #3C4B54",
"6. c #3D4B5A",
"7. c #3B465A",
"8. c #375656",
"9. c #284D54",
"0. c #386C55",
"q. c #11536B",
"w. c #345565",
"e. c #0D6C6E",
"r. c #067779",
"t. c #156F71",
"y. c #326F70",
"u. c #126A4C",
"i. c #424345",
"p. c #44454A",
"a. c #4A4A4D",
"s. c #474948",
"d. c #445748",
"f. c #4C4D52",
"g. c #414D5B",
"h. c #444554",
"j. c #475457",
"k. c #515255",
"l. c #54555A",
"z. c #595A5E",
"x. c #5A565A",
"c. c #574F4B",
"v. c #6D4E4D",
"b. c #4F6B54",
"n. c #5D5E63",
"m. c #545E6B",
"M. c #4A4B6E",
"N. c #5B6467",
"B. c #526D71",
"V. c #616266",
"C. c #67686B",
"Z. c #6C6D72",
"A. c #656C7B",
"S. c #6F7074",
"D. c #657777",
"F. c #747579",
"G. c #777779",
"H. c #73746A",
"J. c #666657",
"K. c #880607",
"L. c #920B0C",
"P. c #A80607",
"I. c #B40B0C",
"U. c #8B322D",
"Y. c #AA2626",
"T. c #CA0808",
"R. c #E1201F",
"E. c #98114B",
"W. c #A81251",
"Q. c #A3305A",
"!. c #986360",
"~. c #AB423D",
"^. c #5A8C2B",
"/. c #659A14",
"(. c #368474",
"). c #2E8573",
"_. c #19946A",
"`. c #588D4A",
"'. c #638E6F",
"]. c #25B82F",
"[. c #9C990A",
"{. c #8D926F",
"}. c #99C61A",
"|. c #54378C",
" X c #612DA2",
".X c #0E7190",
"XX c #327787",
"oX c #0973A8",
"OX c #1C5C95",
"+X c #4C5088",
"@X c #787A83",
"#X c #59699C",
"$X c #2169D5",
"%X c #9962A5",
"&X c #098B8C",
"*X c #159291",
"=X c #308F91",
"-X c #0E8CB3",
";X c #0EACAC",
":X c #2CAEB0",
">X c #2A9DA3",
",X c #518C8C",
"<X c #74898D",
"1X c #649CAC",
"2X c #54ADAD",
"3X c #69AEAE",
"4X c #5CA49C",
"5X c #68C6B7",
"6X c #0D99C9",
"7X c #0DA7D4",
"8X c #07B5ED",
"9X c #25A9D1",
"0X c #10CBCC",
"qX c #2CCFD0",
"wX c #18FBFB",
"eX c #14EFEF",
"rX c #2BF1F1",
"tX c #11D1ED",
"yX c #4ECFCF",
"uX c #6FCECD",
"iX c #4EF3F2",
"pX c #6FEFEC",
"aX c #40B5C2",
"sX c #838485",
"dX c #86878B",
"fX c #8A8A8D",
"gX c #888C86",
"hX c #979798",
"jX c #8D928D",
"kX c #91AA98",
"lX c #AAA999",
"zX c #9399A9",
"xX c #98ACAB",
"cX c #A8A8A9",
"vX c #B6B6A7",
"bX c #A7B8B8",
"nX c #B7B7B8",
"mX c #A9B2AD",
"MX c #A69992",
"NX c #C3BBB6",
"BX c #AFC5B6",
"VX c #97D6A6",
"CX c #C3C4B5",
"ZX c #AAB7C4",
"AX c #B2B9C8",
"SX c #8D97CF",
"DX c #B6C5CC",
"FX c #86E2D8",
"GX c #C5C5C6",
"HX c #D5D6D8",
"JX c #CBCDD2",
"KX c #EAEBED",
"LX c #E4E5E7",
"PX c #F7F8F9",
"IX c #EEEFF1",
"UX c #DEDFE1",
/* pixels */
"5 5 5 5 5 5 5 5 5 5 5 5 5 5 5 5 5 5 5 5 5 5 5 5 5 5 5 5 5 5 5 5 5 5 5 5 5 5 5 5 5 5 5 5 5 5 5 5 5 5 5 5 5 5 5 5 5 5 5 5 5 5 5 5 5 5 5 5 5 5 5 5 5 5 5 5 5 5 5 5 5 5 5 5 5 5 5 5 5 5 5 5 5 5 5 5 5 5 5 5 5 5 5 5 5 5 5 5 5 5 5 5 5 5 5 5 5 5 5 5 5 5 5 5 5 5 5 5 5 5 5 5 5 5 5 5 5 5 5 5 5 5 5 5 5 5 5 5 5 5 5 5 5 5 5 5 5 5 5 5 5 5 5 5 5 5 5 5 5 5 5 5 5 5 5 5 5 5 5 5 5 5 5 5 5 5 5 5 5 5 5 5 5 5 5 5 5 5 5 5 5 5 5 5 5 5 5 5 5 5 5 5 5 5 5 5 5 5 5 5 5 5 5 5 5 5 5 5 5 5 5 5 5 5 5 5 5 5 5 5 5 5 5 5 5 5 5 5 5 5 5 5 5 5 5 5 ",
"5 5 5 5 5 5 5 5 5 * * * * 5 5 5 5 5 5 5 5 5 5 5 5 5 5 5 5 5 5 5 5 5 5 5 5 5 5 5 5 5 5 5 5 5 5 5 5 5 5 5 5 5 5 5 5 5 5 5 5 5 5 5 5 5 5 5 5 5 5 5 5 5 5 5 5 5 5 5 5 5 5 5 5 5 5 5 5 5 5 5 5 5 5 5 5 5 5 5 5 5 5 5 5 5 5 5 5 5 5 5 5 5 5 5 5 5 5 5 5 5 5 5 5 5 5 5 5 5 5 5 5 5 5 5 5 5 5 5 5 5 5 5 5 5 5 5 5 5 5 5 5 % & % 5 % % 5 & % 5 & % & 5 & 5 5 5 & & & 5 & 5 5 & 5 & & 5 5 5 & 5 % % % % 5 % & 5 5 5 5 5 5 5 % % 5 5 5 % % 5 5 5 % % % % % 5 5 % % % % & % & % & 5 % & 5 % 5 5 & 5 & & % 5 5 5 5 5 5 * * 5 = * * 5 * 5 * * ",
"= = = * 5 5 5 * * y t t e * 5 5 5 5 5 5 5 5 5 5 5 5 5 5 5 5 5 5 5 5 5 5 5 5 5 5 5 5 5 5 5 5 5 5 5 5 5 5 5 5 5 5 5 5 5 5 5 5 5 5 5 5 5 5 5 5 5 5 5 5 5 5 5 5 5 5 5 5 5 5 5 5 5 5 5 5 5 5 5 5 5 5 5 5 5 5 5 5 5 5 5 5 5 5 5 5 5 5 5 5 5 5 5 5 5 5 5 5 5 5 5 5 5 5 5 5 5 5 5 5 5 5 5 5 5 5 5 5 5 5 5 5 5 5 5 5 5 5 & | N | p | | % z a.5 z | a 5 p 5 p w N N z 5 a 5 w z & z a i i p z 5 B p.-.| i | b & p i p i i i | B % 5 % B | & p u B p.N | | 5 5 | N p.i.m p.z i.z w p.z u p.5 & m 5 z p N 5 5 z i 5 * t t * [ y y * e e [ t ",
"q.q.q.t = 5 * y e.-X7X7X.Xq.e * 5 5 5 5 5 5 5 5 5 5 5 5 5 5 5 5 5 5 5 5 5 5 5 5 5 5 5 5 5 5 5 5 5 5 5 5 5 5 5 5 5 5 5 5 5 5 5 5 5 5 5 5 5 5 5 5 5 5 5 5 5 5 5 5 5 5 5 5 5 5 5 5 5 5 5 5 5 5 5 5 5 5 5 5 5 5 5 5 5 5 5 5 5 5 5 5 5 5 5 5 5 5 5 5 5 5 5 5 5 5 5 5 5 5 5 5 5 5 5 5 5 5 5 5 5 5 5 5 5 5 5 5 5 5 5 $ k.hXB jXa.fXsXf.@XsXp.fXl.G.a.@Xi fXn.V.C.sXZ.C.b z nXi cXZ.n.f.V.F.w a.cXz.jXa.hXhX5 sXC.z.hXf.C.dXsXk.@ l.fXC.+ fXC.i.cXl.zXV.+ C.jXN hXG.G.fXk.jX@XZ.hXi.@XG.F.+ n.dXz.F.cXN # | z = [ oXt q..X[ -Xe oXq..XoX",
"8X8X8X7X[ = y e.tX-Xq.e.7X7X%.e 5 5 5 5 5 5 5 5 5 5 5 5 5 5 5 5 5 5 5 5 5 5 5 5 5 5 5 5 5 5 5 5 5 5 5 5 5 5 5 5 5 5 5 5 5 5 5 5 5 5 5 5 5 5 5 5 5 5 5 5 5 5 5 5 5 5 5 5 5 5 5 5 5 5 5 5 5 5 5 5 5 5 5 5 5 5 5 5 5 5 5 5 5 5 5 5 5 5 5 5 5 5 5 5 5 5 5 5 5 5 5 5 5 5 5 5 5 5 5 5 5 5 5 5 5 5 5 5 5 5 5 5 5 5 5 & z G.f.Z.p.C.a sX@Xn.Z.N.  G.fXhX| nXjXl.k.C.fXhXa z cXS.hXZ.n.p.Z.F.& % @X5 S.i.jXfX| mXhXz.jXjXC.n.z fX  dX| G.-.nXhX& @Xp hXp.% N sXN n.i.C.F.-.cX@XC.sXa.sX  hX5 i JXz G.cX| # B z & w q.%..X= * oXq.oXq..X.X",
"q.q.-X8X.X= q.tXq.o = - * t.-X[ * 5 5 5 5 5 5 5 5 5 5 5 5 5 5 5 5 5 5 5 5 5 5 5 5 5 5 5 5 5 5 5 5 5 5 5 5 5 5 5 5 5 5 5 5 5 5 5 5 5 5 5 5 5 5 5 5 5 5 5 5 5 5 5 5 5 5 5 5 5 5 5 5 5 5 5 5 5 5 5 5 5 5 5 5 5 5 5 5 5 5 5 5 5 5 5 5 5 5 5 5 5 5 5 5 5 5 5 5 5 5 5 5 5 5 5 5 5 5 5 5 5 5 5 5 5 5 5 5 5 5 5 5 5 5 & N <XG.fXf.jXfXa.G.F.i.jXz.F.N V.G.C.S.hXV.V.p.mXi N G.fXG.k.@XfX-.fXF.a @Xm hXa.hX@XF.Z.Z.jX| hXC.fXfXf.+ l.dXdXG.C.@Xf.F.z hXl.& | jXn.n.a.C.@Xf.G.Z.S.fXB G.sXS.+ C.S.Z.F.hXp.+ | z % y q..Xq..X%.q..Xe.q..X.X",
"o o [ 8X.Xw -X.X= w * [ q.= oXq.w 5 5 5 5 5 5 5 5 5 5 5 5 5 5 5 5 5 5 5 5 5 5 5 5 5 5 5 5 5 5 5 5 5 5 5 5 5 5 5 5 5 5 5 5 5 5 5 5 5 5 5 5 5 5 5 5 5 5 5 5 5 5 5 5 5 5 5 5 5 5 5 5 5 5 5 5 5 5 5 5 5 5 5 5 5 5 5 5 5 5 5 5 5 5 5 5 5 5 5 5 5 5 5 5 5 5 5 5 5 5 5 5 5 5 5 5 5 5 5 5 5 5 5 5 5 5 5 5 5 5 5 5 5 5 5 p | 5 N i N N % a i.5 z B i u i z % 5 N z i 5 i 5 5 i u i 5 z N % z | w i i N u B z i & & z 5 u i N b % 5 % N b p % 5 p i 5 N B & z B & i w i | z 5 i z | a 5 | 5 5 z & p i N & 5 i i * w [ 5 * [ y w w w 5 t y ",
"y t .X8X.X= [ 6X-X* 5 e w = .XoXe * 5 5 5 5 5 5 5 5 5 5 5 5 5 5 5 5 5 5 5 5 5 5 5 5 5 5 5 5 5 5 5 5 5 5 5 5 5 5 5 5 5 5 5 5 5 5 5 5 5 5 5 5 5 5 5 5 5 5 5 5 5 5 5 5 5 5 5 5 5 5 5 5 5 5 5 5 5 5 5 5 5 5 5 5 5 5 5 5 5 5 5 5 5 5 5 5 5 5 5 5 5 5 5 5 5 5 5 5 5 5 5 5 5 5 5 5 5 5 5 5 5 5 5 5 5 5 5 5 5 5 5 5 5 5 5 % 5 & 5 % % 5 & % 5 & % 5 5 5 & 5 5 % & 5 5 5 5 5 5 5 5 5 & % 5 & % 5 5 5 % 5 % & 5 5 5 & 5 5 5 % & 5 5 5 % & & 5 5 & 5 5 % % 5 & % 5 5 5 5 % & 5 5 & % & 5 % 5 5 & 5 & 5 & 5 5 5 5 5 5 * 5 5 * * 5 5 5 5 * * ",
"8X8X8X8X%.5 oX8X7X5 = * 5 = .X.Xe * 5 5 5 5 5 5 5 5 5 5 5 5 5 5 5 5 5 5 5 5 5 5 5 5 5 5 5 5 5 5 5 5 5 5 5 5 5 5 5 5 5 5 5 5 5 5 5 5 5 5 5 5 5 5 5 5 5 5 5 5 5 5 5 5 5 5 5 5 5 5 5 5 5 5 5 5 5 5 5 5 5 5 5 5 5 5 5 5 5 5 5 5 5 5 5 5 5 5 5 5 5 5 5 5 5 5 5 5 5 5 5 5 5 5 5 5 5 5 5 5 5 5 5 5 5 5 5 5 5 5 5 5 5 5 % 5 5 5 & 5 5 5 5 5 5 5 5 5 5 5 5 5 5 5 5 5 5 5 5 5 5 5 5 5 5 5 5 5 5 5 5 5 5 5 5 5 5 5 5 5 5 5 5 5 5 5 5 5 5 5 5 5 5 6 5 5 5 5 5 5 5 5 5 5 5 5 5 5 * 5 5 5 5 5 5 5 5 5 5 * * * 5 & 5 5 & & & & 5 5 & 5 & 5 5 5 ",
"oX-XoXq.= y -XoX8XoXy e = t -Xq.5 5 5 5 5 5 5 5 5 5 5 5 5 5 5 5 5 5 5 5 5 5 5 5 5 5 5 5 5 5 5 5 5 5 5 5 5 5 5 5 5 5 5 5 5 5 5 5 5 5 5 5 5 5 5 5 5 5 5 5 5 5 5 5 5 5 5 5 5 5 5 5 5 5 5 5 5 5 5 5 5 5 5 5 5 5 5 5 5 5 5 5 5 5 5 5 5 5 5 5 5 5 5 5 5 5 5 5 5 5 * 5 w 5 5 5 5 5 5 5 5 5 5 5 5 5 5 5 5 5 5 5 5 5 5 5 | z % w B % & & u p 5 & 5 & 5 5 & & 5 & & p 5 5 5 5 5 5 5 5 5 5 5 5 5 5 5 5 5 5 5 5 5 5 5 e * 5 5 5 5 5 5 5 5 5 5 5 6 Q < 6 5 5 = = = = 5 5 * e &X&Xr * 5 5 5 5 5 5 5 5 5 t t t 4 z p i m N N N w z z w z 5 5 5 ",
"o = = = 5 5 = oX8X8X8X.Xw oX.X[ * 5 5 5 5 5 5 5 5 5 5 5 5 5 5 5 5 5 5 5 5 5 5 5 5 5 5 5 5 5 5 5 5 5 5 5 5 5 5 5 5 5 5 5 5 5 5 5 5 5 5 5 5 5 5 5 5 5 5 5 5 5 5 5 5 5 5 5 5 5 5 5 5 5 5 5 5 5 5 5 5 5 5 5 5 5 5 5 5 5 5 5 5 5 5 5 5 5 5 5 5 5 5 5 5 5 5 5 5 5 w [ e 5 5 5 5 5 5 5 5 5 5 5 5 5 5 5 5 5 5 5 5 5 % B n.i k.k.f.f.a.i.k.V.& a.k.| f.p.k.k.| i.k.C.N & 5 5 5 5 5 5 5 5 5 5 5 5 5 5 5 5 5 5 5 5 * [ [ * 5 5 5 5 5 5 5 5 5 5 e ].Q 6 w * [ q.q.&Xe 5 * t ;X;X%.= 5 5 5 5 5 5 5 5 w q.q.q.4 l.k.p.V.z.| C.f.p.k.p k.5 5 w ",
"= w 5 5 5 5 w -X%.6X7XoXoXoX[ 5 5 5 5 5 5 5 5 5 5 5 5 5 5 5 5 5 5 5 5 5 5 5 5 5 5 5 5 5 5 5 5 5 5 5 5 5 5 5 5 5 5 5 5 5 5 5 5 5 5 5 5 5 5 5 5 5 5 5 5 5 5 5 5 5 5 5 5 5 5 5 5 5 5 5 5 5 5 5 5 5 5 5 5 5 5 5 5 5 5 5 5 5 5 5 5 5 5 5 5 5 5 5 5 5 5 5 5 5 5 * y %.5 5 5 5 5 5 5 5 5 5 5 5 5 5 5 5 5 5 5 5 5 5 5 5 i.V.C.f.C.C.z.f.z f.% l.| C.| V.l.f.k.Z.k.z.u 5 5 5 5 5 5 5 5 5 5 5 5 5 5 5 5 5 5 5 5 5 * t %.* 5 5 5 5 5 5 5 5 5 6 Q ].].w 5 * %.t.t.*Xe 5 * t ;X*X&.= 5 5 5 5 5 5 5 5 w q.q.q.4 i.V.n.f.z.m p.z.n.f.z k.& 5 e ",
"5 5 5 5 5 5 5 = = -X%.q.e.[ 5 5 5 5 5 5 5 5 5 5 5 5 5 5 5 5 5 5 5 5 5 5 5 5 5 5 5 5 5 5 5 5 5 5 5 5 5 5 5 5 5 5 5 5 5 5 5 5 5 5 5 5 5 5 5 5 5 5 5 5 5 5 5 5 5 5 5 5 5 5 5 5 5 5 5 5 5 5 5 5 5 5 5 5 5 5 5 5 5 5 5 5 5 5 5 5 5 5 5 5 5 5 5 5 5 5 5 5 5 5 5 5 * y e * 5 5 5 5 5 5 5 5 5 5 5 5 5 5 5 5 5 5 5 5 5 p f.| a.| | a.N a.-.a.5 z.k.| z | i.B f.p.| i.N & 5 5 5 5 5 5 5 5 5 5 5 5 5 5 5 5 5 5 5 5 5 t 5 5 5 5 5 5 5 5 5 5 5 5 Q 5 P e 5 5 = = = = 5 5 5 w e.q.w 5 5 5 5 5 5 5 5 5 5 %.%.%.4 m p.p.N f.-.B z k.m l.N & 5 5 ",
"5 5 5 5 5 5 5 w 5 5 5 5 w * 5 5 5 5 5 5 5 5 5 5 5 5 5 5 5 5 5 5 5 5 5 5 5 5 5 5 5 5 5 5 5 5 5 5 5 5 5 5 5 5 5 5 5 5 5 5 5 5 5 5 5 5 5 5 5 5 5 5 5 5 5 5 5 5 5 5 5 5 5 5 5 5 5 5 5 5 5 5 5 5 5 5 5 5 5 5 5 5 5 5 5 5 5 5 5 5 5 5 5 5 5 5 5 5 5 5 5 5 5 5 5 5 5 5 5 5 5 5 5 5 5 5 5 5 5 5 5 5 5 5 5 5 5 5 5 5 5 5 w & 5 w 5 5 w 5 5 5 5 f.i 5 5 5 w w 5 5 u 5 5 5 5 5 5 5 5 5 5 5 5 5 5 5 5 5 5 5 5 5 5 5 5 5 5 5 5 5 5 5 5 5 5 5 5 5 5 w 5 5 5 5 w w w w 5 5 5 5 = = 5 5 5 5 5 5 5 5 5 5 5 5 * 5 5 5 5 5 5 5 u 5 5 5 5 5 5 5 5 5 ",
"+ + + + + + + + + + + + + + + + + + + + + + + + + + + + + + + + + + + + + + + + + + + + + + + + + + + + + + + + + + + + + + + + + + + + + + + + + + + + + + + + + + + + + + + + + + + + + + + + + + + + + + + + + + + + + + + + + + + + + + + + + + + + + + + + + + + + + + + + + + + + + + + + + + + + + + + + + + + + + + + + + + + + + + + + + + + + + + + + + + + + + + + + + + + + + + + + + + + + + + + + + + + + + + + + + + + + + + + + + + + + + + + + # # + + + + + + + + + + + + + + + + + + + + + + + + + + + + + + ",
"V.V.V.V.V.V.V.V.V.V.V.V.V.V.V.V.V.V.V.V.V.V.V.V.V.V.V.V.V.V.V.V.V.V.V.V.V.V.V.V.V.V.V.V.V.V.V.V.V.V.V.V.V.V.V.V.V.V.V.V.V.V.V.V.V.V.V.V.V.V.V.V.V.V.V.V.V.V.V.V.V.V.V.V.V.V.V.V.V.V.V.V.V.V.V.V.V.V.V.V.V.V.V.V.V.V.V.V.V.V.V.V.V.V.V.V.V.V.V.V.V.V.V.V.V.V.V.V.V.V.V.V.V.V.V.V.V.V.V.V.V.V.V.V.V.V.V.V.V.V.V.V.V.V.V.V.V.V.V.V.V.V.V.V.V.V.V.V.V.V.V.V.V.V.V.V.V.V.V.V.V.V.V.V.V.V.V.V.V.V.V.V.V.V.V.V.V.V.V.V.V.V.V.V.V.V.V.V.V.V.V.V.V.V.V.V.V.V.V.V.V.V.V.V.V.V.V.V.V.V.V.V.V.V.V.V.C.C.C.C.C.C.C.C.C.C.C.C.C.C.C.C.C.C.C.C.",
"Z.Z.Z.Z.Z.Z.Z.Z.Z.Z.Z.Z.Z.Z.Z.Z.Z.Z.Z.Z.Z.Z.Z.Z.Z.Z.Z.Z.Z.Z.Z.Z.Z.Z.Z.Z.Z.Z.Z.Z.Z.Z.Z.Z.Z.Z.Z.Z.Z.Z.Z.Z.Z.Z.Z.Z.Z.Z.Z.Z.Z.Z.Z.Z.Z.Z.Z.Z.Z.Z.Z.Z.Z.Z.Z.Z.Z.Z.Z.Z.Z.Z.Z.Z.Z.Z.Z.Z.Z.Z.Z.Z.Z.Z.Z.Z.Z.Z.Z.Z.Z.Z.Z.Z.Z.Z.Z.Z.Z.Z.Z.Z.Z.Z.Z.Z.Z.Z.Z.Z.Z.Z.Z.Z.Z.Z.Z.Z.Z.Z.Z.Z.Z.Z.Z.Z.Z.Z.Z.Z.Z.Z.Z.Z.Z.Z.Z.Z.Z.Z.Z.Z.Z.Z.Z.Z.Z.Z.Z.Z.Z.Z.Z.Z.Z.Z.Z.Z.Z.Z.Z.Z.Z.Z.Z.Z.Z.Z.Z.Z.Z.Z.Z.Z.Z.Z.Z.Z.Z.Z.Z.Z.Z.Z.Z.Z.Z.Z.Z.Z.Z.Z.Z.Z.Z.Z.Z.Z.Z.Z.Z.Z.Z.Z.Z.Z.Z.Z.Z.Z.Z.Z.Z.Z.Z.Z.Z.Z.Z.Z.Z.Z.Z.Z.Z.C.n.n.n.n.n.n.n.n.n.n.n.n.n.n.n.n.n.n.n.n.",
"+ + + + + + + + + + + + + + + + + + + + + + + + + + + + + + + + + + + + + + + + + + + + + + + + + + + + + + + + + + + + + + + + + + + + + + + + + + + + + + + + + + + + + + + + + + + + + + + + + + + + + + + + + + + + + + + + + + + + + + + + + + + + + + + + + + + + + + + + + + + + + + + + + + + + + + + + + + + + + + + + + + + + + + + + + + + + + + + + + + + + + + + + + + + + + + + + + + + + + + + + + + + + + + + + @ @ @ @ + + + + + + + + + + + + + + + + + + + + + + @ u Z.C.C.C.C.C.C.C.C.C.C.C.C.C.C.Z.Z.Z.Z.Z.",
"5 5 5 5 5 5 5 5 5 5 5 5 5 5 5 5 5 5 5 5 5 5 5 5 5 5 5 5 5 5 5 5 5 5 5 5 5 5 5 5 5 5 5 5 5 5 5 5 5 5 5 5 5 5 5 5 5 5 5 5 5 5 5 5 5 5 5 5 5 5 5 5 5 5 5 5 5 5 5 5 5 5 5 5 5 5 5 5 5 5 5 5 5 5 5 5 5 5 5 5 5 5 5 5 5 5 5 5 5 5 5 5 5 5 5 5 5 5 5 5 5 5 5 5 5 5 5 5 5 5 5 5 5 5 5 5 5 5 5 5 5 5 5 5 5 5 5 5 5 5 5 5 5 5 5 5 5 5 5 5 5 5 5 5 5 5 5 5 5 5 5 5 5 5 5 5 5 5 5 5 5 5 5 5 5 5 5 5 5 5 5 5 5 5 5 5 5 5 5 5 5 5 5 5 5 5 5 5 z B B N i 5 5 5 5 5 5 5 5 5 5 5 5 5 5 5 5 5 5 5 5 5 % k.PXPXPXPXPXPXPXPXPXPXPXPXPXPXKXz.k.l.k.k.",
"| f.B n.z i.z z.a.b m z & 5 5 5 5 5 5 5 5 5 5 5 5 5 5 5 5 5 5 5 5 5 5 5 5 5 5 5 5 5 5 5 5 5 5 5 5 5 5 5 5 5 5 5 5 5 5 5 5 5 5 5 5 5 5 5 5 5 5 5 5 5 5 5 5 5 5 5 5 5 5 5 5 5 5 5 5 5 5 5 5 5 5 5 5 5 5 5 5 5 5 5 5 5 5 5 5 5 5 5 5 5 5 5 5 5 5 5 5 5 5 5 5 5 5 5 5 5 5 5 5 5 5 5 5 5 5 5 5 5 5 5 5 5 5 5 5 5 5 5 5 5 5 5 5 5 5 5 5 5 5 5 5 5 5 5 5 5 5 5 5 5 5 5 5 5 5 5 5 5 5 5 5 5 5 5 5 5 5 5 5 5 5 5 5 5 5 5 5 5 5 5 5 5 5 & a.sXfXV.m & 5 5 5 5 & z f.i p 5 5 5 5 w k.f.w 5 N N + a.PXHXcXJXLXHXLXHXLXLXnXHXKXKXJX% + $ # # ",
"z.m z.F.i.G.k.C.l.V.C.m & 5 5 5 5 5 5 5 5 5 5 5 5 5 5 5 5 5 5 5 5 5 5 5 5 5 5 5 5 5 5 5 5 5 5 5 5 5 5 5 5 5 5 5 5 5 5 5 5 5 5 5 5 5 5 5 5 5 5 5 5 5 5 5 5 5 5 5 5 5 5 5 5 5 5 5 5 5 5 5 5 5 5 5 5 5 5 5 5 5 5 5 5 5 5 5 5 5 5 5 5 5 5 5 5 5 5 5 5 5 5 5 5 5 5 5 5 5 5 5 5 5 5 5 5 5 5 5 5 5 5 5 5 5 5 5 5 5 5 5 5 5 5 5 5 5 5 5 5 5 5 5 5 5 5 5 5 5 5 5 5 5 5 5 5 5 5 5 5 5 5 5 5 5 5 5 5 5 5 5 5 5 5 5 5 5 5 5 5 5 5 5 5 5 5 + C.C.5 @Xa & 5 5 5 5 & p k.n.z.5 5 5 % p.| i.V.N Z.p.+ f.PXHXcXnXcXcXcXhXGXcXjXHXIXIXHXi 5 5 5 5 ",
"f.n.C.l.V.f.C.a.i k.f.N & 5 5 5 5 5 5 5 5 5 5 5 5 5 5 5 5 5 5 5 5 5 5 5 5 5 5 5 5 5 5 5 5 5 5 5 5 5 5 5 5 5 5 5 5 5 5 5 5 5 5 5 5 5 5 5 5 5 5 5 5 5 5 5 5 5 5 5 5 5 5 5 5 5 5 5 5 5 5 5 5 5 5 5 5 5 5 5 5 5 5 5 5 5 5 5 5 5 5 5 5 5 5 5 5 5 5 5 5 5 5 5 5 5 5 5 5 5 5 5 5 5 5 5 5 5 5 5 5 5 5 5 5 5 5 5 5 5 5 5 5 5 5 5 5 5 5 5 5 5 5 5 5 5 5 5 5 5 5 5 5 5 5 5 5 5 5 5 5 5 5 5 5 5 5 5 5 5 5 5 5 5 5 5 5 5 5 5 5 5 5 5 5 5 5 % f.F.sXJXN % 5 5 5 5 & z V.p.f.i 5 5 & m l.f.k.V.n.| + f.IXLXcXfXcXcXhXGXhXdXdXHXKXPXnX% 5 5 5 5 ",
"& z 5 % i + 5 & % & % % % % % % % % % % % % % % % % % % % % % % % % % % % % % % % % % % % % % % % % % % % % % % % % % % % % % % % % % % % % % % % % % % % % % % % % % % % % % % % % % % % % % % % % % % % % % % % % % % % % % % % % % % % % % % % % % % % % % % % % % % % % % % % % % % % % % % % % % % % % % % % % % % % % % % % % % % % % % % % % % % % % % % % % % % % % % % % % % % % % % % % % % % % % % % % 5 5 5 5 5 5 & B f.l.<Xm & 5 5 5 5 5 u z i i 5 5 5 5 & z a 5 m i z $ a.PXIXLXPXLXhXUXPXIXKXIXPXPXKXf.% 5 5 5 5 ",
"| B | -.| i.| | -.| | | i.i.-.-.-.-.-.-.-.i.-.-.-.-.-.-.-.-.-.-.-.-.-.-.-.-.-.-.-.-.-.-.i.-.-.i.-.-.-.-.-.-.-.-.-.-.-.-.-.-.-.-.-.-.-.-.-.-.-.-.-.-.-.| | | -.| | | | | | | -.| | | | | -.| | | -.-.-.-.-.-.-.| | | | | | | | | | | | | | | | | | | | | | | | | | | | | | | | | | | | | | | | | | | | | | | | | | | | | | | | | | | | | | | | | | | | | | | | | | | | | | | | | | | | | | | | | | | | | | | | | N $ 5 5 5 5 5 5 5 % % % 5 5 5 5 5 5 5 5 & 5 5 5 5 5 5 5 & & 5 & 5 5 $ k.GXhXcXhXhXfXhXhXhXhXhXhXfX| % 5 5 5 5 5 ",
"G.G.G.G.G.G.G.G.G.G.G.G.G.G.G.G.G.G.G.G.G.G.G.G.G.G.G.G.G.G.G.G.G.G.G.G.G.G.G.G.G.G.G.G.G.G.G.F.G.G.G.G.G.G.G.G.G.G.G.G.G.G.G.G.G.G.G.G.G.G.G.G.G.G.G.G.G.G.G.G.G.G.G.G.G.G.G.G.G.G.G.G.G.G.G.G.G.G.G.G.G.G.G.@X<XG.<XsX@X<XsX@X@XsXsXsXsXsXsXsXsXsXsXsXsXsXsXsXsXsXsXsXsXsXsXsXsXsXsXsXsXsXsXsXsXsXsXsXsXsX{.{.sXsXsXsXsXsXsXsXsXsXsXsXsXsXsXsXsXsXsXsXsXsXsXsXsXsXsXsXsXsXsXsXsXsXdXdXdXdXdXdXdXdXdXsXsXdXdXsXjXsX5 5 5 5 5 & z @XzXzXp & 5 5 5 5 5 5 8 5 5 5 5 5 5 5 8 5 5 8 5 8 + n.Z.  + + + $ + + + + + + + % 5 5 5 5 5 5 ",
"                                                    . & & $ % % & * $     X             o X # 3 O                                   .                       .             X .   X X X   . X X . . O e P + # # X X $ . X . . X $ . X . . . . . . . . . . . . . . . . . $ . . . . . . . . . . = - . . - $ & # ] 0 $ % $ $ $ = - $ $ $ * $ $ $ * $ $ $ * $ $ * $ $ * $ $ $ $ $ $ $ $ $ $ $ $ $ $ $ = = $ * * & 5 5 0 %XS.+ 5 5 5 & z nXKXzX5 5 5 5 5 5 8 : : : : : : 5 5 8 : : : : : : + z.G.+ i 5 5 5 5 5 w w w w w 5 5 5 5 5 5 5 ",
". . * X . . . . . . . . . * $ . . . . . . * $ . . . u N N a b a b N p $ $ u $ . * * . = : ; b ^.3 < < $ $ $ $ $ $ $ $ $ $ $ $ $ $ $ u * $ $ $ $ $ $ $ $ $ * s $ = $ = = $ * u $ = = * = a * * < 2 3 0.).e n z * * a * = s u = s u * * * * * * * * * * * * * * * * * u a * * * * * * * * u * m u u u u p n t +X#.l l i u a a u u u s m u u u m u u a m u u m u u V u u u u u u u u u s s s s s s s a u m m z v v @.|.jX% 5 5 5 & z mXHX@X& 5 5 5 5 5 8 : : ; : : ; 5 5 8 : : ; : : 8 + z.F.+ 5 5 5 5 5 5 = = = = = = 5 5 5 5 5 5 ",
"X . $   X X X X X X X . X = . X X . . . X * . . . . w b b p p p a b p - . * . . $ = . $ s 2 z ' < 1 O $ - . . . $ $ $ $ $ $ $ $ $ . * = $ $ $ $ $ $ $ $ $ $ u $ $ $ $ $ $ * u $ $ $ $ $ u $ $ * < 3 2.t.e r e & $ u * $ u u $ u u $ * * * * * * * * * * * * * * * * * a * * * * * * * * * * a * * * w e r r O.@.8 9 8 * u a * u * u a * u u a u u s a * u m u u m u u u u u u u u u u u u u u u u u u a a i x x o.#.gX& 5 5 5 & z mXHX@X& 5 5 5 5 5 8 : : ; : : ; 5 5 8 : : ; : : 8 + z.F.+ 5 5 5 5 5 = [ e.-X-X.X[ = 5 5 5 5 5 ",
"X . $   X X X X X X X . X = . X X . . . X * . . . . w b b p p p b b p - . * . . $ = . $ n p z ' < 1 O $ - . . . $ $ $ $ $ $ $ $ $ . * = $ $ $ $ $ $ $ $ $ $ u $ $ $ $ $ $ * u $ $ $ $ $ u $ $ * < 3 2.t.e n e & $ u * $ u u $ u u $ * * * * * * * * * * * * * * * * * a * * * * * * * * * * a * * * w e r r O.@.8 9 8 * u a * u * u a * u u a u u s a * u m u u m u u u u u u u u u u u u u u u u u u a a i x x o.#.gX% 5 5 5 & z k.-.f.5 5 5 5 5 5 8 : : ; : : ; 5 5 8 : : ; : : 8 + z.F.+ 5 5 5 5 * .X7X8X-X-X8X7X.X5 5 5 5 5 ",
"X . $   X X X X X X X . X = . X X . . . X * . . . . w b b p p p b b p $ . * . . $ = . $ n p d ' < 1 O $ - . . . $ $ $ $ $ $ $ $ $ . * = . $ $ $ $ $ $ $ $ $ u $ $ $ $ $ $ * u $ $ $ $ $ u $ $ * < 3 2.t.e n e & $ u * $ u u $ u u $ * * * * * * * * * * * * * * * * * a * * * * * * * * * * a * * * w e r r O.@.8 9 8 * u a * u * u a * u u a u u s a * u m u u m u u u u u u u u u u u u u u u u u u a a i x x o.#.gX% 5 5 5 % N V   a.u 5 5 5 5 5 8 : : ; : : ; 5 5 8 : : ; : : 8 + z.F.+ 5 5 5 * .X8X.X4 . . 4 e.8XoX= 5 5 5 ",
"X . $   X X X X X X X . X = . X X . . . X * . X . . u b b p p p b b p $ . * . . $ * . $ n a d ' < 1 O $ - . . . $ $ $ $ $ $ $ $ $ . * = . $ $ $ $ $ $ $ $ $ u $ $ $ $ $ $ * u $ $ $ $ $ u $ $ * < 3 2.t.e n e & $ u * $ u u $ u u $ * * * * * * * * * * * * * * * * * a * * * * * * * * * * a * * * w e r r O.@.8 9 8 * u a * u * u a * u u a u u s a * u m u u m u u u u u u u u u u u u u u u u u u a a i x x o.#.gX% 5 5 5 % N B   k.w 5 5 5 5 5 8 : : ; : : ; 5 5 8 : : ; : : 8 + z.F.+ 5 5 = %.7X.XX = a a * o .X7X%.= 5 5 ",
"X . $   X X X X X X X . X = . X X . . . X * . . + + p b b p p p b b p e y r . . $ * . $ N d d _ Q 1 O $ - . . . $ $ $ $ $ $ $ $ $ . * = . $ $ $ $ $ $ $ $ $ u $ $ $ $ $ $ * u $ $ $ $ $ u $ $ * < 3 2.t.e r e & $ u * $ u u $ u u $ * * * * * * * * * * * * * * * * * a * * * * * * * * * * a * * * w e r r O.@.8 9 8 * u a * u * u a * u u a u u s a * u m u u m u u u u u u u u u u u u u u u u u u a a i x x o.#.gX% 5 5 5 % B B   k.w 5 5 5 5 5 8 : : ; : : ; 5 5 8 : : ; : : 8 + z.F.+ 5 5 = -X7Xo * B E E B * X 6X-X= 5 5 ",
"X . $   X X X X X X X . X = . X X . . . X = % e e e p b b p p p b b p e y r . . $ * . $ V d d _ P 1 O $ - . . . $ $ $ $ $ $ $ $ $ . * = . $ $ $ $ $ $ $ $ $ u $ $ $ $ $ $ * u $ $ $ $ $ u $ $ * < 3 2.t.e r e & $ u * $ u u $ u u $ * * * * * * * * * * * * * * * * * a * * * * * * * * * * a * * * w e r r O.@.8 9 8 * u a * * * u a * u u a u u s a * u m u u m u u u u u u u u u u u u u u u u u u a a i x x o.#.gX% 5 5 5 % B B   k.w 5 5 5 5 5 8 : : ; : : ; 5 5 8 : : ; : : 8 + z.F.+ w * e 7X.Xo b V V s.Z.V.= .X7Xe * 5 ",
"X . $   X X X X X X X . X = . X . . . . X = * a a a p b b p p p b b p a a b . . $ * X $ V d d _ P 1 O $ - . . . $ $ $ $ $ $ $ $ $ - < * $ $ $ $ $ $ $ $ o & u $ % $ % % $ * u $ % % & % p * * < < 3 0.t.e n p & * a * % u u % u u * * * * * * * * * * * * * * * * * w a * * * * * * * * w * a u w w w e n t w.@.l l i u p a w u u u b u u u m u u a b u u m u u m u u u u u u u u u u u u p p p p p u b z a x v o.#.gX% 5 5 5 % B B   k.w 5 5 5 5 5 8 : : ; : : ; 5 5 8 : : ; : : 8 + z.F.+ w * e 6Xq.o b V d V.GXnXd %.-Xe * 5 ",
"  X $   X X X X X X X X   $ . X X X X X X $ & p p p p b b p p p a b p p p b 4 # $ = . & V d d _ P 1 O $ . . - - . . + + @ @ @ @ @ @ % + X X X         # &.X =         X   o $   X X X X = X X o O < W e.# e & X X = o X = -   = - X o o o o o o o o o o o o o o o o o ; o o o o o o o o o o ; - - o - % w 4 O.o.= = = o = ; o - - = ; o - - ; - - = ; - - 8 - - s = - - - - = = = = = = = = = = = = - ; ; = 8 8 ] #.jX% 5 5 5 % B B   k.w 5 5 5 5 5 8 : : ; : : ; 5 5 8 : : ; : : 8 + z.F.+ w 5 5 6X-XX p V V V V p X .XoX5 5 5 ",
". $ * . . . . . . . . $ . * $ . $ $ $ $ $ * w b b b a b b a b b b N a b b N t y r r y n B V V ` E g < * = - + + % * < < 3 Q Q Q Q Q Q Q W 2.8.w.y.y.B.,XiX,X,X,X,X,X,X,X,XB.,X,X,XXXXXXXXX,X,X,X,X,X4X2X,X,X,X,X,X,XB.B.,X,X,X,X,X,X,X,X,X,X,X,X,X,X,X,X,X,X,X,X,X,X,X,X,X,X,X,X,X,X,X,X,X,X,XB.B.,X,X,X,X,X1X1X,X,X,X,X,X,X(.,X,X,X,X,X,X,X,X,X,X,X,X,X,X,X,X,X,X,X,X,X,X,X,X,X,X,X,X,X,X,X,X,X,X,X,X,X,X,X,X,X1X+XgX& 5 5 5 % B B   l.u 5 5 5 5 5 8 : : ; : : ; 5 5 8 : : ; : : 8 + z.F.+ 5 5 = .X7X4 o a m V b o 4 oXq.= 5 5 ",
"$ * u $ $ = = = = = = = $ u * = = = * * = u p b b b b N N b b b N B b b m B b b n B b N H V H ` R U g = % h _ ^.^./././././.' ^.VXVXFXFXuXuX5X3X3X3X4X2XpX5X4X4X4X4X4X4X4XiX5X4X5X5XVXVX5X4X,X,X4X4X2X5XMX2X4X,X4XyXiXiXiXyXyX2X2X4X2X2X2X4XhX4X2X2X2X2X2X2X2X2X2X2X2X3X4X2X2X2X2X4X2X2XyXiXiXiXyX4X,X4X2X4X3X1X1X1X4X4X1XSXSXSXSX1X1X1X1X1X1X1X1X1X1X1X1X1X1X1X3X1X1X1X1X1X1X1X1X1X1X1X1X1X1X1X1X1X1X1X1X1X1X1X1X+XgX& 5 5 5 % B B   l.u 5 5 5 5 5 8 : : ; : : ; 5 5 8 : : ; : : 8 + z.F.+ 5 5 * y 7X6Xe . $ $ . 4 oXoXe * 5 5 ",
"  X $                 X   $ .   X X X X X $ * p p p p b b p p p a b p p p m p p b m p a V d d _ Y g e Q /./.' W P < 1 O X n 2XuX3XB.8.g 1 1 O O O O o &.3Xu.O O O O O O o ;Xt.o O 1 1 Q ' /./.1 X , P 0.I.* & e.*X*Xe.t t y # e e # & & 4 : T.& & & & & & & & & & & e p & w w w e e w w e y *.&.r.*Xt.e $ e O.o.= - 0 |. X@.] q q q 9 6 8 8 l 8 6 q 9 8 q l 8 8 x q q q q q q q q q q q q q q q q q 8 9 9 q 0 0 o.#.gX% 5 5 5 % B B   l.u 5 5 5 5 5 8 : : ; : : ; 5 5 8 : : ; : : 8 + z.F.+ 5 5 5 * %.8Xt.= & & = q.-X[ * 5 5 5 ",
"X . $   X X X X X X X . X = . X . . . . . = w p p p p b b p p p b b p a a N a a b n e p N d d _ Y Y ^.^.Q 1 e t P < 1 1 4XpX,Xg O O 2 2 1 < < < 2 < Z b.:Xy.3 < 2 2 2 2 1 qX>X1 2 2 2 < a 2 Q /.^.3 u.B.T.q.:X*X*.b e e n n y n n r r r t J R.b r r r r r r r r r r r *.r r r r r r r r r r n p e t *X:Xt.e +X@.i  X Xo.x m i l l x ..l x x ..x l v { x x ..x x ..x x x x x x x x v x x x x x x x v x ..{ { { { @.|.gX& 5 5 5 % B ^   l.u 5 5 5 5 5 8 : : ; : : ; 5 5 8 : : ; : : 8 + z.F.+ 5 5 5 5 = [ e * = = * w [ * 5 5 5 5 ",
"X . $   X X X X X X X X X = . X X X . . X = w p p p p b b p p p b b p p a N a e m K K K K G d _ ( ^._ r t P U P P < < uX5X2 O 1 < < 3 2 1 < < < 2 1 L.jX,Xt.3 < < < < < &.1X,Xe 2 2 2 2 h 2 < 2 ^./.u.n.R.:X%.& e n r y n n e n n y r r y J R.a y r r r r r r r r r r n r r r r r r r r r r *.r r r e *.:X*XO.#. X|.9 8 v { 9 9 9 x { 9 l l { l 9 x { 9 l { l l ..x x x x x x x x x x x x x x x x x l { { { { { @.|.gX& 5 5 5 % B i.  x.u 5 5 5 5 5 8 : : ; : : ; 5 5 8 : : ; : : 8 + z.F.+ 5 5 5 5 5 = * y %.%.t * = 5 5 5 5 5 ",
"X . $   X X X X X X X X X = . X X X . . X = w p p p p b b p p p b b p p a m e K U.K J J K U.K ^./.W M Y P U M Y r P uX4XO O < < < 1 3 2 1 < < < < 2 Y.,Xb.*X3 < < < < O e.!.,XP < 2 2 2 h 2 2 3 < ' ].'.R.*.t t y n r e n n e n n y r r y L R.a e e r r r r r r r r r n r r r r r r r r r r *.r r r t t r ;X9X X@.9 0 9 x { 9 9 9 x { 9 l l { l 9 x { 9 l { l l ..l x x x x x x x x x x x x x x x x l { { x { { @.|.gX& 5 5 5 % B i.  x.u 5 5 5 5 5 s s s 2 s s 2 5 5 u s s 2 s s s + z.F.+ 5 5 5 5 * [ -X8X8X8X8X-X[ * 5 5 5 5 ",
"X . $   X X X X X X X X X = . X X X . . X = w p p p p b b p p p b b p a a n K K V m a d V J U.[.W Y Y Y Y M M M r uX4X2 2 1 1 1 < 1 3 2 1 < < 2 1 A Y.*X0.*X2 < < < < O t.H.=XP < 2 2 2 h 2 2 3 Q 3 _.3XT.*.*.y y n r e n n e n n y r r y K R.f &.%.e r r r r r r r r n r r r r r r r r r r *.r r r t t *.P $X#Xq { 0 9 x { 9 9 9 x { 9 l l { l 9 x { 9 l { l l ..l l x x x x x x x x x x x x x x x l { { x { { @.#.gX& 5 5 5 % | i.  x.u 5 5 5 5 5 s h 3 3 3 h 3 5 5 s h 3 3 3 h h + z.F.+ 5 5 5 * %.8X-Xe.t t e.-X8X%.* 5 5 5 ",
"X . $   X X X X X X X X X = . X X X . . X = w p p p p b b p p p b b p a e U.K a V V d d H G ^.` U.W Y Y M M Y s 3X3X2 :Xt.O < 1 < 1 g 2 1 < < < < (.2X)./ :X3 < < < < O t.y.=Xu.1 2 2 2 h 2 2 3 3 0.0X!.R.} *.y e n r e n r e n n y r r y K R.> *X*X* r r r r r r r r n r r r r r r r r r r *.r r r t [ P  X X9Xw.0 x 9 x { 9 9 9 x { 9 l l { l 9 x { 9 l { l l ..l l x x x x x x x x x x x x x x x l { { x { { @.#.gX& 5 5 5 % | i.  z.u 5 5 5 5 5 s 3 3 2 3 h 3 5 5 s 3 3 2 3 3 h + z.F.+ 5 5 * y 7X6X4 o = = o 4 6X7Xy * 5 5 ",
"X . $   X X X X X X X X X = . X X X X X X = w p p p p b b p p p b b p e K K a d V V d d H ^.` _ ) ) U Y M Y g '.pXu.U qX=X1 < < 1 2 0X*.O < < O &X2X,XU G :XU < < *XP O _.y.=Xu.O 2 2 2 h 2 2 2 Q :X_.!.R.b.[ r q.n r y n r e n n y r r y K R.Z *X;X* r r r r r r r r n r r r r r r r r r r *.r r r t P O. X+X+X:X{ 0 9 x { 9 9 9 x { 9 l l { l 9 x { 9 l { l l ..l l l x x x x x x x x x x x x x x l { { x { { @.#.gX& 5 5 5 % | i.  z.u 5 5 5 5 5 2 h h s u s u 5 5 s 3 3 2 3 3 h + z.F.+ 5 5 = .X7X4 o m B / B - 4 6XoX= 5 5 ",
"X . $   X X X X X X X X X = . X . X # 4 & y e p p p p b b p p p b m e J U.V d d V V d f _ ^.J ` W U.( Y Y g <.pX:X*X>X>X>Xg < 1 1 *X;X0XP 1 < < ;XK D U k >XT 1 < 0Xu.O ).y.(.t.O 2 2 2 h 2 2 < ;X).0.!.T./.W y 0X9.e y n r y n n y r r y K R.J 0X0Xw r r r r r r r r n r r r r r r r r r r *.r r r r }  X9.+X#.XX>Xq l x { 9 l 9 x { 9 l l { l 9 v { 9 l { l l ..x l l l x x x x x x x x x x x x x l { { x { { @.#.gX& 5 5 5 % | i.  z.u 5 5 5 5 5 w u 5 ! }.}.[.6 5 s 3 3 2 3 3 h + z.F.+ w 5 w 7X-XX a B B B E b X -X7X5 5 5 ",
"  X $       X X X X X X   $ .   X   & p p b p p p p p b b p p p a b a U.d V d d V V f j ^.^ G ` ( ~ U.I M g uXiXu.0X>XY >X*.P O P ;Xg t.*XO O P ;XY.K U h >X,.O < eXu.o *X0.y._.O < < < g < O t.>XQ _.!.I._ /.t 0X9.e e r r e n n y y e y K I.c.wX:Xe y y y y y y y r n y r r r r r r r r r n r r r r  X|.*.+X|.] >Xw.q x v 9 9 9 l { 9 9 9 { 9 9 x { 9 9 { 9 9 { l 9 9 9 9 l l l l l l l l l l l l 9 { { x { { @.#.gX& 5 5 5 % | i.  z.u 5 5 5 5 6 ' [.[.' ' ' ! 5 5 s 3 3 2 3 3 h + z.F.+ w * e 6Xq.o m V m V.GXnXd %.6Xe * 5 ",
"$ * u $ $ $ = = = = = = $ u * = = $ p m b B b b b b b N N b b b N n K K m H V V H H v ^.` H / ` ( ( ) ) g '.pX8.E 0XD.j :X0X;X_.;X*XU ;.;Xg 2 t.=XI.R R j >Xd.2 0.eXy., =Xy.j.:X2 3 g g I Y.j :XW W ).!.Y.) _.:XeXw.n n *.*.9.*.*.n n n t U.I.V.eX;Xn n n n n n n n n =.n n n n n n n n n n =.n } U O. X9.w.+X|.X.w.:Xv { ..v { { {  .{ { { +.{ { .. .{ { +.{ { +.{ { { { { { { { { { { { { { { { { { +. .{ +.+.#.|.gX& 5 5 5 % | i.  z.u 5 5 5 5 6 ' [.[.' ' ' ! 5 5 s 3 3 3 3 3 h + z.F.+ w * e 7X.XX a V m i.C.z.= q.oXw 5 5 ",
". . = X . . . . . . . . . * $ . . . w b p m a a a a a b b a a a b J U.a d H d d V V ( ^.H ^ G ` ( ~ E U.) pXqXY Y Y.U.P v.U.u.t.0Xe.K K >XG O _.y.Y.U E k >Xd.O t.;Xt., =Xy.G >Xt.U 2 1 J R.,X_.Q W ).!.U.) r.wXeX0Xt r n 9.;Xb *.*.r r e N.U.C.sX4X&.r r r r r r r r *.r r r r r r n n n r *.n n r  XO.9.9.+X|.X.{ =XXXq { l x x v { l x x ..x x v { x x ..x x ..x x x x x x x x v v v v v v v v v x { { { { { @.#.gX& 5 5 5 % | i.  z.u 5 5 5 5 5 5 u 6 ! }.}.[.6 5 s 3 3 s g h g + z.F.+ 5 5 = -X7Xo = m V V d $ X oX.X= 5 5 ",
"# 4 e # # # # X X X X X X $ . X X X * p p b p p p p p b b p p p p U.J d d V d d V V ^.( H G G ` ( ~ E G xX2X*XP G Y.M Y G Y.g r r U.Y.Y.jX/ O ;X0.Y.U Y h =Xv.o t.>X).O =X8.I =XeXt.< 0XJ.!.:XP W W 0.~.U.) 0XeXqXwXt & p t.0Xu t.*X* t * ;XC.H.!.!.r.w e *X%.e r r r n r r r r r r r r r r n r e O. X} X.9.+X|.X.X.X.>Xv v 9 9 9 l { 9 9 9 { 9 9 x { 9 9 { 9 9 { l l l l l l l l l l l l l l l l l 9 { v x { { @.#.gX& 5 5 5 % | i.  z.u 5 5 5 5 5 ; : > %.&X&Xe.* 5 8 : : u t t r + z.F.+ 5 5 = %.7X.XX $ u u * o q.oX[ * 5 5 ",
"y y t 7 y y y 7 7 7 7 7 7 & . X X X w p p b p p p p p b b p a e J K a d d V d d d _ _ V / G G ` ( ~ G d.FXc.>XU.J U.U M M Y.Y.K M Y.T h (.y.< :XY.U.U Y h *X~.y.*X!.).O >X,.j >XeX*X>X;X>XrX*X3 W W 0.~.J.U.eX=X{.wXq.&.u t.rXs :X;Xw e r 0X,XG.J.!.&X* * ;X%.e p Y.p n r r r r r r r r r r *.r r  XX.} 9.9.+X|.X.X.] XXXXq 9 9 9 x { 9 l 9 { l 9 x { 9 l { l l { l l l l l l l l l l x x x x x x x l { { x { { @.#.gX& 5 5 5 % | i.  z.u 5 5 5 5 4 D K.K.H &X&Xe.* 5 8 : : u t t r + z.F.+ 5 5 5 = oXtXq.o + + o %.6Xq.* 5 5 5 ",
"e e b e e e e e e e e e e e + . . . w p p b p p p p p b b p p a U.H d d d V d d V ^.I j / G J ` ( ~ h 5X'.,X>XL.R.U.U M Y K K Y.K U.U j t.B.P <XL.E Y Y h *X!.2X;X!.).3 >XY G >XtX0XwXt.).wX*Xg W W ( !.qX!.;XY !.wX0X0X*.=XqX=XwXwX;Xt.0XeX4XjX8.!.t.%.t.;X*Xt a Y.z n r r e r r r r r r r } e |. Xn X.9.9.+X|.X.X.X.} :X..9 9 9 x { 9 9 9 { l 9 x { 9 l { l l { l l l l l l l l l l l l x x x x x l { { x { { @.#.gX& 5 5 5 % | s.  n.i 5 5 5 5 4 D K.K.H &X&Xe.* 5 8 : : 8 e e w + z.F.+ 5 5 5 5 * .X[ * 5 5 * t q.= 5 5 5 5 ",
"p p b u p p p p p p p p p r y 7 y y e p p b p p p p p b b p e K K m d d d V d f _ _ d G / / y.` ( G b.uXt.:XK n K j M M M U P K R.K T j u.G.B.'.h U Y Y M 2.qXwXqX~.>XG.>Xk E V.=X0X>Xu.U.,X>XP W W K !.0XqX(.I.~.wXeX0XtX>X3XwX2XrXwXqXwX4X,X3X:.H.0X*X0X;XwX&.: R.b n r r q.t w t.t.e r r U n  XX.} } 9.9.+X|.X.X.X.x XXXXq l 9 l { 9 9 9 { l 9 x { 9 l { l l { l l l l l l l l l l l l l l x x x l { { x { { @.#.gX& 5 5 5 % | s.  n.i 5 5 5 5 4 D K.K.H &X&Xe.* 5 8 8 ; [ *X*X.X+ z.F.+ 5 5 5 5 5 = % 6 5 5 6 6 = 5 5 5 5 5 ",
"i p b w p p p p p p p p p b p e e e p p p b p p p p p b b p d U.d V d d d V d k ^.^ j I G =X:X:X( I uX4X2X~.U.j U M M M M M M U J j R j u.<X<XU.g Y Y Y Y k c.<XaXK ;XqXM E T U.Y.qXY.t.!.K qX0XQ W J.2X:XeXc.R.!.iXqX0XwX2X3XeX~.rXrXyXeXi.:XyX>.N.wX;X0X0XwX&.*.!.d n r e :X%.* >X*X= r r U |.|.n } } 9.9.+X|.X.X.X.} } :Xx 9 9 l { 9 9 9 { l 9 x { 9 l { l l { l l l l l l l l l l l l l l l l x l { { x { { @.#.gX& 5 5 5 % | s.  V.i 5 5 5 5 4 D K.K.H &X&Xe.* 4 C D D H ;X;X*X+ z.F.+ 5 5 5 5 5 6 ! ' [.[.[.! 6 5 5 5 5 5 ",
"i p b u p p p p p p p p p b a p p p p p p b p p p p p b b e K K a V d d d V f _ _ V j G G =Xb.:X! '.uX).,XD / K g M M M M M M M U M E j *.2X<XU.g Y Y Y M E U U.R.h 8.0.h E T K R.:XU.>X~.J ;XwXI W qXqX>X3XR.K z.uX<X(.yX2X4X<XY.eXB.yXwXN ;X3XJ y.wXqXqXtXwXq.:XyXn t r r 0X%.r wX>X%.%.t N  XX.} } } 9.9.+X|.X.X.X.} { =Xy.q l l { 9 9 9 { l 9 x { 9 l { l l { l l l l l l l l l l l l l l l l l 9 { v x { { @.#.gX& 5 5 5 % | s.  V.i 5 5 5 5 4 D K.K.H &X&Xe.* 4 D T.T.D 7 w w + z.F.+ 5 5 5 5 5 [.[.[.' ' [.[.[.u 5 5 5 5 ",
"i p b u p p p p p p p p p b a p p p p p p b p p p p p b b d U.d d V d d d V k ^.^ ^ j G d.:X8.:X~ uXyX2Xx.M j U.G M M M M M M M M M E E h :XyXK U Y Y Y Y Y T J K U k k Y E T J Y.U K !.U.;.b.yX2._.3Xb.*X2XR.) ) ~.R.~.!.yX<X4XK qXm >XqXm ;X!.J y.rXqXqXeXrX&X,XuX;XL u ;XeX%.r wX;X;X:X_.#X|.n } } } 9.9.+X|.X.X.X.} } 7.>Xl 9 l { 9 l 9 +.J 9 x { 9 l { l l { l l l l l l l l l l l l l l l l l 9 { v 9 { { @.#.gX& 5 5 5 % | s.  V.i 5 5 5 5 4 D K.K.H &X&Xe.* 5 8 8 ; u t t r + z.F.+ 5 5 5 5 [.[.! @ @ @ @ ! [.[.5 5 5 5 ",
"u p b w p p p p p p p p u b p p p p p p p b p p p p p b r K K a d V d d d v _ _ V ^ h 8.0X(.K :X'.pX2XI.J I j K K g M M M M M M M M E E 3 =XeXk Y Y Y Y M Y R Y U Y Y Y Y Y R Y Y M =XR.) 9.J !.qX0X!.b.y.>Xs.d.;.) R.R.~.D.=X:X=.qX9.U.K n >X!.J y.yXG.qXrXyXtX4X2XwX!.C.qXwX*Xe.yX:X0X0XwXwX9.x } } } X.9.+X|.X.X.X.} X.{ =Xy.q x { 9 9 e U.Y.7 x { 9 9 { l 9 { l 9 9 9 9 9 9 l l l l l l l l l l 9 { v 0 { { @.#.gX& 5 5 5 % | s.  V.i 5 5 5 5 4 D K.K.H &X&Xe.* 5 8 : : u t t r + z.F.+ 5 5 6 ! [.! @ 2 m V s @ ! [.! 6 5 5 ",
"p p b p p p p p p p p p p b a p p p p p p b a p p p p b V U.d d V V d d d H ^.I ^ ^ G y.=XP.T.<XpX,XU.I Y G ^ I U.G Y Y Y Y Y Y Y M R E k 0.=Xk Y Y Y Y Y Y R Y E Y Y Y Y E R Y k 0.=XR.v.,.E =XwXeX!.B.2.2.2.<.,.d./ Y.R.L.*X>X-.,X=.i.-.=.8.Y.H t.yXT.,X!.!.wX>X:XwXwXqXqXrXqX;XdX2XeXeXwXwXXX} } } } 9.9.+X|.X.X.X.} X.X.9.>X9 x { 9 x 0 v.~.0 v { l x { x x ..x x x x x x x x x x x x x x x x x l { { x { { @.#.gX& 5 5 5 % | s.  V.i 5 5 5 5 4 D K.K.H &X&Xe.* 5 8 : : 8 e e e + z.F.+ 5 5 6 [.[.@ 2 B E ^ i.s @ [.[.6 5 5 ",
"b b N b b b b b b b b b b N N b b b b b b B N b b b m n K K N H H H V H v ` _ H / / G (.=XY.K !.uXU.Y./ / / / ^ ) ) T R R R R R R R d.R R E I R R R R R R R d.R R R R R R R d.R E =X0.R.c.2.1.B.'.y.~.(.0.b.j.2.1.j.0.Y.~.b.y.y.s.Y.:.:.:.:.:.Y.s.t.uXU.Y.Y.U.zX>X:XwXwXrXwXqXrX;X!.2XqXrXwXyXqX9XXXX.7.7.w.+X9XXXX.7.X.7.7...>Xw.v +.{ ..v =XhXU.} +.{ { +.{ { +.{ { { { { { { { { { { { { { { { ..{ +.+.{ +.+.#.#.gX& 5 5 5 % -.s.  V.i 5 5 5 5 4 D K.K.H &X&Xe.* 5 8 : > n &X.Xt.+ z.F.+ w 5 u [.' @ k V d B ^ V @ ' [.u 5 5 ",
"w p b w i u u p p p p p w b p p p p p p p b p p p p e d U.d d d m V d d d ^.I k ^ ^ 3 ).D.T.J FX!.T./ I j j j j j U.j M M M M M M M E Y M Y Y M M M M M M Y R M Y Y Y Y M Y R k 0.=XY / d.;.,./ R.) ~.(.2.8.2.,.;.1.,.J ` `.n >.>.H *.=.=.=.=.K B t.2XK Y.U.J R.k.;XrX2XwXrX:XqX0X!.yX2XyXwXyXrXtX>Xx w.q.} +XrXXX{ { } } X.c w.>Xq { 9 l q XXxXL.c v 9 9 { 9 9 { 9 9 9 9 9 9 9 9 9 9 9 9 9 9 9 9 l 9 v v 0 { { @.#.gX& 5 5 5 % -.s.  V.i 5 5 5 5 4 D K.K.H &X&Xe.* 5 8 8 , %.0X0X;X+ z.F.+ w 5 u [.! @ d V S.B B V @ ! [.u 5 5 ",
"u p b u p p p p p p p p p b a p p p p p p b p p p p e K K s : : f V d f _ _ k j ^ ^ h ).H.S '.FXY.( E ^ j j j G M K K g M M M M Y M E Y M Y Y Y Y Y Y Y Y Y R M Y Y Y Y Y E R k =X0.T ;.2.,.,.,.) R.~.).2.8.2.,.,.2.<.,.<.`.2.>.:.*.=.=.=.=.=.*.N y.qX*.U.U.*.R.K ;X1X>XeXeX:XqXwXB.qX4X!.wX:XrXeXeXw.;X3XJ -XqXXX] w.} } 7.} x >XX.l c 9 q XXiX$.9 { l l { l 9 { l l l l l l l l l l l l l l l l l 9 { v x { { @.#.gX& 5 5 5 % -.a.  V.i 5 5 5 5 4 D K.K.H &X&Xe.* 5 : F Z 9.0X0X;X+ z.F.+ w 5 5 [.[.@ = sXGXm B s @ [.[.5 5 5 ",
"w p b u p p p p p p p p p b p p p p p p p b p p p p a U.d 9.=X=Xy.V d d ^./ j j ^ ^ 3 =X(.3 uX'.I ~ ~ I j j j j j j U.j M M M M M M E Y M Y Y Y Y Y Y Y Y Y R M Y Y Y Y Y E E 8.=XE ,.;.1.,.,.<.2.U.~.).2.8.2.,.;.1.,.;.<.b.`.>.:.=.=.=.=.=.=.=.B w.:XB =.=.*.i.-.8.K 8.>X:X>XqXwXB.4X<XR.wX2XqXrXwXy.:X3XK 0XhX>X:XwX9X9.qX} } =XqX$.C j.+.y.wX=Xq { q 9 { 9 9 { l 9 9 l l l l l l l l l l l l l l 9 v v 0 { { @.#.gX& 5 5 5 % i.a.  V.i 5 5 5 5 4 D K.K.H &X&Xe.* 4 K.T.T.v.0X0X;X+ z.F.+ 5 5 6 ' [.3 @ cXk.s s @ 3 [.' 6 5 5 ",
"w p b u p p p p p p p p p b p p p p p p p b p p p e L K : >XB.k.:X=.> ( _ H j j ^ ^ 3 =Xb.N.uX` ( ~ ~ I j j j j G M K K g M M M M M E Y M Y Y Y Y Y Y Y Y Y R M Y Y Y Y Y E I =X0.T ,.;.1.,.,.<.<.d.b.(.2.8.2.,.;.1.,.;.1.:.`.d.>.=.=.=.=.=.=.=.B w.:XB =.=.=.*.=.=.*.:.i.:.9.H.rXy.Y.Q.Q.yX!.qXrXwX*X,XkX@X2XR.rXwXyX3X=XrX} >XwXwX3XL 7X!.B.wX=Xq ..w.x { l l { l 9 9 9 l l l l l l l l l l l l l 9 v v 0 { { @.#.gX& 5 5 5 % i.a.  C.i 5 5 5 5 4 D K.K.H &X&Xe.* 4 K.T.T.v.0X0X;X+ z.F.+ 5 5 5 5 [.[.3 % . $ @ 3 [.[.5 5 5 5 ",
"w p b u p p p p p p p p p b p p p p p p p b p p p p v.y.y.:Xd , =X:X=X`.~ ^ j j ^ ^ h =XB.uXB.` ( ~ ~ I j j j j j j G U.M M M M M M E Y M Y Y Y Y Y Y Y Y Y R M Y Y Y Y Y M 0.=XT ,.;.;.1.,.,.,.<.d.0.(.2.8.2.,.;.1.,.;.1.:.b.`.=.=.=.=.=.=.=.=.=.8.=X=.=.=.=.=.=.=.>.:.=.=.B k.fXK g.|.k.qXf.m.rXwX;X>X4XiXyXR.rXwXyX!.3XyXqXtXyXyXwXw.9XyX,XwX:Xq ..eX=XP.x 0 { 9 9 9 9 9 9 l l l l l l l l l l l 9 v v 0 { { @.#.gX& 5 5 5 % i.a.  C.i 5 5 5 5 4 D K.K.H &X&Xe.* 4 K.T.T.v.0X0X;X+ z.F.+ 5 5 5 5 3 [.! 6 * * 6 ! [.2 5 5 5 5 ",
"w p b u p p p p p p p p p b p p p p p p p b p p e H :XB.,Xj.d d J U.,X).h / j j ^ ^ > ).5X5XG ` ( ~ ~ I j j j j j G M K K g M M M M E Y M Y Y Y Y Y Y Y Y Y R M Y Y Y Y Y k =Xy.T ,.;.;.1.,.,.,.<.d.0.(.2.8.2.,.;.1.,.;.1.1.;.`.1.} =.=.=.=.=.=.=.=.=.=.=.=.=.=.=.=.=.:.=.=.=.*.R.K +XM.w.qXg.5.rXrXqX>X,XwX3XR.qXwXsXC.yX:XwX3X!.qXrX:XqXwX:XwX9Xq 3.wX>Xv.c K x.*Xq l 9 9 x 9 9 l l l l l l l l l 9 v v 0 { { @.#.gX& 5 5 5 % i.a.  C.i 5 5 5 5 4 D K.K.H &X&Xe.* 4 K.T.T.v.0X0X;X+ z.F.+ 5 5 5 5 6 u = = * * = = s 6 5 5 5 5 ",
"w p b u p p p p p p p p p b p p p p p p p b a p u !.=X> f s d d m : (.=Xh / j j G s.=X:XpXz.G ` ( ~ ~ I j j j j j j j G U.M M M M M E Y M Y Y Y Y Y Y Y Y Y R M Y Y Y Y M ,.=XT ;.;.;.;.1.,.,.,.<.d.0.(.2.8.2.,.;.1.,.;.1.1.=.b.`.} =.=.=.=.=.=.=.=.=.=.=.=.=.=.=.=.=.:.=.=.=.*./ f.|.>.6.y.g.6.qXyXyX:X=XwXyXR.,XwX~.v.yX>XwX!.T.!.rXrXqX=XqXrXqXy.w.yX>X:X>XrX,X:Xq l l y Y.F 9 9 9 9 l l l l l l 9 v v 0 { { @.#.gX& 5 5 5 % i.a.  C.i 5 5 5 5 4 D K.K.H &X&Xe.* 4 K.T.T.v.0X0X;X+ z.F.+ 5 5 5 5 5 = [ OXoXoXOX[ = 5 5 5 5 5 ",
"u p b i p p p p p p p p p b p p p p p p p b s e C V.*Xf V d d d d ( '.=X> G j I 2.:X).4XuXG G ` ( ~ ~ I j j j j j j G M K J M M Y M E Y M Y Y Y Y Y Y Y Y Y R M Y Y Y Y h ).y.E ,.;.;.;.1.,.,.,.<.d.0.(.2.0.2.,.,.1.<.;.1.1.;.1.`.;.=.=.=.=.=.=.=.=.=.=.=.=.=.=.=.=.=.:.=.=.=.>.U +XM.>.4. .g.6.qXfX3X>X=XyX@XQ.,XrX~.$.~.y.wX!.U.~.,X,Xy.6.rXqXrXqX,X,X=XqXwXwXwXqX0 l 0 D R.F 9 l 9 9 9 9 l l l l 9 { v 0 { { @.#.gX& 5 5 5 % i.a.  C.i 5 5 5 5 4 D K.K.H &X&Xe.* 4 K.T.T.v.0X0X;X+ z.F.+ 5 5 5 5 5 OX6X6XoXoX7X6XOX5 5 5 5 5 ",
"w p b w u w w w u p p p w b p u p p p p p a =X>X,X2Xw.f V f d d d ^.0.;X).).> y.2XD.G uXN.G G ` ( ~ ~ I j j j j j j j j G U.M M M M E Y M M M M M M M M M Y R M M M M M T =X<.T ;.;.;.;.1.;.;.,.,.d.0.(.2.8.2.,.;.1.,.;.1.<.;.:.`.b.} =.*.*.=.=.=.=.=.=.*.=.=.=.=.=.=.:.=.=.=.*.4. X3.4.4.4.g.6.2XR.3X,XXX5XQ.#.>X>X+.7.6.h.qX!.+.c.h.=X4.p.qXqX:XrXrXw.>XrXtXXXtXyXL 8 %.!.R.F 7 U.F 0 9 9 9 9 9 9 9 v v 0 ] ] @.#.gX& 5 5 5 % i.a.  C.i 5 5 5 5 4 D K.K.H &X&Xe.* 4 K.T.T.v.0X0X;X+ z.F.+ 5 5 5 * oX8Xq.$ o . $ q.8XoX* 5 5 5 ",
"a b m a b a a a a b b b a N b b b b a p p n ;XU.U.K J V V V V m ( ^.V y.y.:X).:Xb.C 4X5XG / G ` ( ( / ^ ^ ^ ^ ^ ^ ^ ^ ^ E ) / U E E R R E E E E E E E E E R / E E E R j (.(.<.<.<.<.<.<.d.1.1.2.2.d.b.(.2.0.2.2.1.d.1.1.d.2.<.d.d.`.:.>.>.>.:.:.:.:.:.:.:.:.:.:.:.:.:.8.:.:.:.;.+X+X5.6.6.6.g.g.x.Y.<XS.y.qX+XM.>X>X+.g.g.h.aX,X+.w.g.XXXX+.qX=X+.qXrX4.2XrXqXF :XiXR.q XXwX3X+.c R.K } v v v v v v v ..{ { { { #.#.gX& 5 5 5 % i.a.  C.i 5 5 5 5 4 D K.K.H &X&Xe.* 4 K.T.T.v.0X0X;X+ z.F.+ 5 5 = q.6Xq.X * b m u o q.6Xq.= 5 5 ",
"p a b p a a a a a a a a a m a s a s =X2X=X2X=XK J a m V V d V d ^._ j G h c.,XD.G d.pXd./ / G ` ( ( / ^ ^ ^ ^ ^ ^ ^ ^ ^ E / U.Y E Y R E Y E E E E E E E E E R E E E E R =X1.1.,.<.<.<.<.2.<.<.1.2.d.b.(.2.0.2.1.<.d.1.<.2.1.<.d.1.`.b.} >.>.>.>.>.>.>.>.>.>.>.>.>.>.:.5.>.:.:.5. X6.6.6.6.6.g.6.5.7.~.U.y.>X+XM.>X>X+.6.g.h.:X=Xp.g.g.6.=X+.:X6.H qX=X+.aXrX:XH =XyXR.D =XwXwX$.q !.a.l v v v v v v x { { { { { @.#.gX& 5 5 5 % i.a.  C.i 5 5 5 5 4 D K.K.H &X&Xe.* 4 K.T.T.v.0X0X;X+ z.F.+ 5 5 = oX6Xo < B B B V * X $XoX= 5 5 ",
"w p b w i u p p p p p p u n %.&.t &.:XJ J J L K a d f d m f f I ^.H j j j ^ h G h 5X4X3 / G G ` ( ~ ~ I j j j j j j j j j M K G M M E Y M M M M M M M M M Y R M M Y h y.y.E 1.T ;.;.;.;.1.;.;.,.,.d.0.(.2.8.2.,.;.1.,.;.1.<.;.1.1.<.`.=.=.=.=.=.=.=.=.=.=.=.=.=.=.=.=.:.=.=.U M.+X>.4.4.4.3.g.4.4.4.a.h.w.8.+XM.XXXX .4.6.+.:XXX .6.g. .XXy.h.4.v qXXXF qXqX6. .+.=X3XqX:XwXwX!.D 2X!.q l 9 9 9 9 9 9 v v 0 ] ] @.#.gX& 5 5 5 % i.a.  C.i 5 5 5 5 4 D K.K.H &X&Xe.* 4 K.T.T.v.0X0X;X+ z.F.+ w * e 6XOXo b V V f.G.S.; OX6Xe * 5 ",
"u p b w p p u ; ; ; ; ; e :X,X,X,X4Xj.& e r K J a d d V V d f _ _ V j j j / E h b.pXj G / G G ` ( ~ ~ I j j j j j j j j j j G U.Y M E Y M M M Y Y Y Y Y Y Y R M Y Y Y =X,.;.1.;.;.;.;.;.1.,.,.,.<.d.0.(.2.8.2.,.,.1.<.;.1.1.;.1.1.=.`.b.} =.=.=.=.=.=.=.=.=.=.=.=.=.=.:.=.=.=. X7.4.4.4.4.4.g.4.4.4.7.6.6.8.+XM.h.g.6.4.6.+.:XXX .6.g.4.w.=X+. .v :Xy.v XXy.v 3.+.y.rX4XeXrXwXwX$.2X!.q l 9 9 9 9 l 9 v v 0 { { @.#.gX& 5 5 5 % i.k.  Z.i 5 5 5 5 4 D K.K.H &X&Xe.* 4 K.T.T.v.0X0X;X+ z.F.+ w * e 6Xq.o b V m n.nXcXd [ oXe * 5 ",
"u p b u p u t t.t.t.t.t.>X=XZ F F F s p e H U.a d d d m V f j ^.j ^ j j j ^ j h uXB.3 ^ / G G ` ( ~ ~ I j j j j j j j j j G M U.G M E Y M M M Y Y Y Y Y Y Y R M Y h y.).Y ,.1.;.;.;.;.;.1.,.,.,.<.d.0.(.2.8.2.,.;.1.,.;.1.1.;.1.1.;.2.`.*.=.=.=.=.=.=.=.=.=.=.=.=.=.=.:.=.U M.|.>.4.4.4.4.4.g.4.4.4.5.6.6.8.+XM.7.g.7.4.6.7.C.x.3.6.g.5.4.=Xm. .B =Xw.....+. . .h.6.y.k.rXqXrXwX~.yX!.F l 9 9 9 9 9 9 v v 0 ] ] @.#.gX& 5 5 5 % p.k.  Z.i 5 5 5 5 4 D K.K.H &X&Xe.* 4 K.T.T.v.0X0X;X+ z.F.+ 5 5 5 $XoXX p V V m m u X OXOX5 5 5 ",
"e e p e e & *X,XJ.V.V.V.J.H e e e e p p e K J a d d d m V 8 _ _ V ^ j j j / 3 4XuXh j G / G G ` ( ~ ~ I j j j j j j j j j j M J K g E Y M M M M Y Y Y Y Y Y R M Y M =X2.T ,.1.;.;.;.;.;.1.,.,.,.<.d.0.(.2.8.2.,.;.1.,.;.1.1.;.1.1.,.=.`.d.} =.=.=.=.=.=.=.=.=.=.=.=.=.:.=.*.|.g.3.4.4.4.4.4.g.4.4.4.7.6.6.8.+XM.7.g.7.4.g.w.Y.$.9.5.g.5.4.y.XX.. . .h. . .h. . .h. ...4.y.w.rXwX~.yX2Xq 9 9 9 9 9 9 9 v v 0 ] ] @.#.gX& 5 5 5 % p.k.  Z.i 5 5 5 5 4 C S S V r.e.&.5 4 D P.P.J ;X;X&X+ z.F.+ 5 5 = OX6X7 o p m m a o 7 OXq.= 5 5 ",
",X,X4X,X,X,X2Xs = * * ; * a a p p p p e d U.a d d d d V m d ^.j j ^ j j j G b.pX/ G j j / G G ` ( ~ ~ I j j j j j j j j j j j j U.G E Y M M M M Y Y Y Y Y Y R Y k 0.=XY ;.,.1.;.;.;.;.;.1.;.,.,.<.d.0.(.2.8.2.,.;.1.,.;.1.1.;.1.1.;.;.d.`.} =.=.=.=.=.=.=.=.=.=.=.=.=.5.U M.|.>.4.4.4.4.4.4.g.4.4.4.7.6.6.8.+XM.7.7.7.4.g.6.) c.4.5.g.4.4.6.=X3. . .h. . .h. . .h. . . .....:XrXyXrXqXL 9 9 9 9 9 9 9 v v 0 ] ] @.#.gX& 5 5 5 % p.k.  Z.i 5 5 5 5 4 C S S m r.e.&.5 4 D P.P.J ;X;X&X+ z.F.+ 5 5 * e 6X6Xy . $ $ . e oXoXw 5 5 5 ",
"D K K K K K L p p p p p p b p p p p p e K K a f d d d V d _ _ d I ^ j j k / pXB.h ^ j j / G G ` ( ~ ~ I j j j j j j j j j j j M K K U Y M M M M Y Y Y Y Y Y R Y k =X8.T ;.,.1.;.;.;.;.;.1.;.,.,.<.d.0.(.2.8.2.,.;.1.,.;.1.1.;.1.1.;.,.;.`.2.} =.=.=.=.=.=.=.=.=.=.=.=.5.U |.M.>.4.4.4.4.4.4.g.4.4.4.4.6.6.8.+XM.7.g.7.4.6.g.4.4.4.6.g.4.6. .,Xy.N 4.h. . .h. . .h. . . .3.V XXqXwXeXqXR.F 0 9 9 9 9 9 v v 0 ] ] @.#.gX& 5 5 5 % p.k.  Z.i 5 5 5 5 4 C S S m r.e.&.5 4 D P.P.J ;X;X&X+ z.F.+ 5 5 5 * [ 7Xq.= & & = %.oXy 5 5 5 5 ",
"7 e r e e e e p p p p p p b p p p p p a U.V d f d d d m V ^.I k j ^ j j h uX4X3 ^ ^ j j / G G ` ( ~ ~ I j j j j j j j j j j j j j U./ Y M M M M M Y Y Y Y Y R k 8.=XE ;.T ,.1.;.;.;.;.;.1.;.,.,.<.d.0.(.2.8.2.,.;.1.,.;.1.1.;.1.1.;.,.;.b.`.} =.=.=.=.=.=.=.=.=.=.=.=.<.7.|.>.4.4.4.4.4.4.4.g.4.4.4.4.6.6.8.+XM.7.g.7.4.6.g.4.5.4.6.g.4.5.4.m.=X.. .h. . .h. . .h. . . . .B XX:XwX:X0X!.L c 9 9 9 9 9 v v 0 ] ] @.#.gX& 5 5 5 % p.k.  Z.i 5 5 5 5 4 C S S m r.e.&.5 4 D P.P.J ;X;X&X+ z.F.+ 5 5 5 5 * t 6 6 6 6 6 6 y * 5 5 5 5 ",
"u p b u p p p p p p p p p b p p p p e K K m d d d d d d _ _ d j j ^ k h 5X3Xh j ^ ^ j G / G G ` ( ~ ~ I j j j j j j j j j j j G M K ) U M M M M M Y Y Y Y Y R h =X0.E ;.T ,.<.;.;.;.;.;.1.;.,.,.<.d.0.(.2.8.2.,.;.1.,.;.1.1.;.1.1.;.,.,.;.`.<.*.=.=.=.=.=.=.=.=.=.=.=.;.|.M.>.4.4.4.4.4.4.4.g.4.4.4.4.6.6.8.+XM.7.g.7.4.6.g.4.5.4.6.g.4.5.5.g.=X6. .h. . .h. . .h. . . . .v XX:XrXB.:XiXJ 0 9 9 9 9 9 v v 0 ] ] @.#.gX& 5 5 5 % p.k.  S.i 5 5 5 5 4 C S S m r.e.&.5 4 D P.P.J ;X;X&X+ z.F.+ 5 5 5 5 5 % 3 ! /./.' 3 % 5 5 5 5 5 ",
"w p b w i p p p p p p p i b p p p p p U.f V d f d d d d ^.I k j I j k uX3XG j j ^ ^ j j / G G ` ( ~ ~ I j j j j j j j j j j j j j G U.Y M M M M M M Y Y M Y E ,.=XT ;.;.T ;.<.T ;.;.;.;.1.;.;.,.<.d.0.(.2.8.2.,.;.1.,.;.1.1.;.1.1.;.,.,.=.b.`.} =.=.=.=.=.=.=.=.=.=.=.g. X3.4.4.4.4.4.4.4.4.g.4.4.4.4.6.6.8.+XM.7.7.7.4.6.g.4.4.4.5.g.4.4.5.h.y.XX..h. . .h. . .h. . . . ...6.y.qXH >XeX9.q l 9 9 9 9 v v 0 ] ] @.#.gX& 5 5 5 % p.k.  S.i 5 5 5 5 4 C S S m r.e.&.5 4 D P.P.J ;X;X&X+ z.F.+ 5 5 5 5 6 ' /.}././.}./.' 5 5 5 5 5 ",
"b b N b b b b b b b b b b B N b m n J K m H V V V V V ( ^.H ^ j G D.pX3XG / / ^ / / ^ / / / / ` ( ( ( / / / / / / / / / / / / / / R ) ) T R R R R R R R R R / =Xy.<.1.1.1.1.d.1.1.1.1.1.d.1.2.2.d.b.b.(.8.0.j.2.2.j.2.1.d.d.1.j.d.1.2.2.2.2.`.1.:.:.:.:.:.:.:.:.:.5.<.+XM.5.g.g.g.g.g.g.g.g.j.g.g.g.g.g.g.w.+X+XM.M.g.g.g.j.g.g.g.g.j.g.g.g.j.g.=Xh.f.h.h.f.h.h.f.h.h.h.h.h.+.a.G.h.j.:Xy.v { { { { {  ...{ X.X.#.#.gX& 5 5 5 % p.k.  S.i 5 5 5 5 4 C S S m r.e.&.5 4 D P.P.J ;X;X&X+ z.F.+ 5 5 5 6 ' }.' * + + * ' }.' 6 5 5 & ",
"u p b w p p p p p p p p p b p p p e U.G s V f f s s : ^.~ 3 j B.uXuXB.3 j ^ j j ^ ^ j G / G G ` ( ~ ~ I j j j j j j j j j j j j j j / U.M M M M M M Y Y Y M 1.=XT ;.;.;.;.,.<.T ;.;.;.;.1.;.;.,.<.d.0.(.2.8.2.,.,.1.,.;.1.1.;.1.1.;.,.,.,.=.b.b.} =.=.=.=.=.=.=.=.=.>. X4.3.4.4.4.4.4.4.4.4.g.4.4.4.4.6.6.8.+XM.g.g.7.4.6.g.4.4.4.5.g.4.5.4.g. .XXy.+. . .h. . .h. . . . . . .+.Y. .v =Xy.q l 9 9 9 9 v v 0 ] ] @.#.gX& 5 5 5 % p.k.  S.i 5 5 5 5 4 C S S m r.e.&.5 4 D P.P.J ;X;X&X+ z.F.+ 5 5 6 Q /.' @ % a a * @ ' /.Q 6 5 5 ",
"w u a w w w w u u u u u w b p p e J K a d V V V -.:.b.'.4X3XuXuX,X^ 3 j j ^ j j ^ ^ j j / G G ` ( ~ ~ I j j j j j j j j j j j j j j E ) J M M M M M M Y Y h (.y.Y ;.;.;.T ,.<.T ;.;.;.;.1.;.;.,.<.d.0.(.2.8.2.,.;.1.,.;.1.<.;.1.1.;.,.,.,.;.<.`.=.=.=.=.=.=.=.=.=.U M.+X=.4.3.4.4.4.4.4.4.4.g.4.4.4.4.6.6.8.+XM.7.7.7.4.6.g.4.4.4.5.g.4.5.4.g.4.w.=X+. . .h. . .h. . . . . . . . . .v =Xy.q 9 9 9 9 9 v x 0 ] ] @.#.gX& 5 5 5 % p.l.  S.i 5 5 5 5 4 C S S m r.e.&.5 4 D P.P.J ;X;X&X+ z.F.+ 5 5 6 /./.@ * V B / i.2 @ /./.6 5 & ",
"uXuXuXuXuXuXuXuXuXuXuXuXuXuXuXuXuXuXuXuXuXuXuXuXuXuXuX5X4X'.d.h 3 ^ j j j ^ j j ^ ^ j j / G G ` ( ~ ~ I j j j j j j j j j j j j j j ^ / U.M M M M M M Y M Y =X;.T ;.;.;.T ,.<.T ;.;.;.;.1.;.;.,.,.d.0.(.2.8.2.,.;.1.,.;.1.1.;.1.1.;.,.,.,.,.=.`.b.} =.=.=.=.=.=.=.=. Xg.3.4.3.4.4.4.4.4.4.4.g.4.4.4.4.6.6.8.+XM.7.7.7.4.6.g.4.4.4.5.g.4.4.4.g.5.4.=Xg... .h. . .h. . . . . . . . . .v =Xy.q l 9 9 9 9 v x 0 ] ] @.#.gX& 5 5 5 % p.l.  S.i 5 5 5 5 4 C S S m r.e.&.5 4 D P.P.J ;X;X&X+ z.F.+ w 5 u /.' @ d V V V / V @ ' /.w 5 5 ",
"8.8.8.8.8.8.8.8.8.8.8.8.8.8.:.9.f.v.:.:.-.s.B V m I ^.h h 3 h j I ^ j j j ^ j j ^ ^ j j / G G ` ( ~ ~ I j j j j j j j j j j j j j j / E U.G M M M M M Y h y.(.Y ;.;.;.;.T ,.<.T ;.;.;.;.1.;.;.,.,.d.0.(.2.8.2.,.;.1.,.;.1.1.;.1.1.;.,.,.,.,.;.2.`.=.=.=.=.=.=.=.U M.|.5.4.4.3.3.4.4.4.4.4.4.g.4.4.4.4.6.6.8.+XM.7.7.7.4.6.g.4.4.4.5.g.4.4.4.g.5. .y.y.N  .h. . .h. . . . . . . . . .v =Xy.q l 9 9 9 9 v x 0 ] ] @.#.gX& 5 5 5 % p.l.  F.i 5 5 5 5 4 C S S m r.e.&.5 4 D P.P.J ;X;X&X+ z.F.+ w 5 u /.Q @ k V V k.B V + ! /.u 5 5 ",
"* w p * * * * * * * * * * p u w K F u s s d f f 8 _ _ V ^ j j j j ^ j j j ^ j j ^ ^ j j / G G ` ( ~ ~ I j j j j j j j j j j j j j j / E J K M M M M M M Y =X8.T ;.;.;.;.T ,.<.T ;.;.;.;.1.;.;.,.,.d.0.(.2.8.2.,.;.1.,.;.1.1.;.1.1.;.,.,.,.,.,.=.`.d.} =.=.=.=.=.*.|.g.5.3.4.3.3.3.4.4.4.4.4.g.4.4.4.4.6.6.8.+XM.7.7.7.4.6.g.4.4.4.5.g.4.4.4.g.4.4.6.=X . .h. . .h. . . . . . . . . .v =Xy.q l 9 9 9 9 v x 0 ] ] @.#.gX& 5 5 5 % p.l.  F.i 5 5 5 5 4 C S S m r.e.&.5 4 D P.P.J ;X;X&X+ z.F.+ w 5 5 /./.@ s V m GXS.2 @ /./.5 5 5 ",
"p p b w p p p p p p p p p b p f U.a d d f V d f k ^.k j ^ k j j j ^ j j j ^ j j ^ ^ j j / G G ` ( ~ ~ I j j j j j j j j j j j j j j / ^ j U.G M M M Y h 0.=XR ;.;.;.;.;.T ,.<.T ;.;.;.;.1.;.;.,.,.d.0.(.2.8.2.,.;.1.,.;.1.1.;.1.1.;.,.,.,.,.,.;.2.`.} =.=.=.=.U g.|.>.g.3.4.3.3.3.3.4.4.4.4.g.4.4.4.4.6.6.8.+XM.7.7.7.4.5.g.4.4.4.5.g.4.4.4.g.4.4.4.,Xw...h. . .h. . . . . . . . . .v XXXXq l 9 9 9 9 v x 0 ] ] @.#.gX& 5 5 5 % p.x.  F.i 5 5 5 5 4 C S S m r.e.&.5 4 D P.P.J ;X;X&X+ z.F.+ 5 5 6 ' /.* @ a s S.mXX * /.' 6 5 5 ",
"w p b w i i u p p p p p w b e K J a f f f V d 8 _ _ d I ^ k j j j ^ k j j ^ j j ^ ^ j j / G G ` ( ~ ~ I j j j j j j j j j j j j j j / ^ M J K g M M Y k =X8.<.;.;.;.;.;.T ,.<.T ;.;.;.;.1.;.;.,.,.d.0.(.2.8.2.,.;.1.,.;.1.1.;.1.1.;.,.,.,.,.,.,.=.`.2.} =.=.=.U |.M.>.g.3.4.3.3.3.3.3.4.4.4.g.4.4.4.4.6.6.8.+XM.7.7.7.4.5.6.4.4.4.5.g.4.4.4.g.4.4.4.B.XX..h. . .h. . . . . . . . . .v XXXXq 9 9 9 9 9 v x 0 ] ] @.#.gX& 5 5 5 % a.x.  F.i 5 5 5 5 4 C S S m r.e.&.5 4 D P.P.J ;X;X&X+ z.F.+ 5 5 5 2 /./.< . $ $ a 2 /./.2 5 5 5 ",
"w p b w p i i p p p p p u b d U.f f f f f V d d ^.j k j ^ k j j j ^ k j j ^ j j ^ ^ j G / G G ` ( ~ ~ I j j j j j j j j j j j j j j / ^ j j U.j M Y k 0.=XY 1.T ;.;.;.;.T ,.<.T ;.;.;.;.1.;.;.,.,.d.0.(.2.8.2.,.;.1.,.;.1.1.;.1.1.;.,.,.,.,.,.,.;.d.`.} =.=.U 7.|.>.4.6.3.4.4.4.4.4.4.3.4.4.g.4.4.4.4.6.6.8.+XM.7.7.7.4.5.g.4.4.4.5.g.4.4.4.g.4.4.6.g.=X3.h. . .h. . . . . . . . . .v XXXXq 9 9 9 9 9 v x 0 ] ] @.#.gX& 5 5 5 % a.x.  G.i 5 5 5 5 4 C S S m r.e.&.5 4 D P.P.J ;X;X&X+ z.F.+ 5 5 5 6 Q }.! 6 % % + ! }.Q 5 5 5 5 ",
"w p b w w w w w u u u i u r K L p f f f s V s _ _ d k j j k j k j ^ k j j ^ j k j ^ k j / G G ` ( ~ ~ j j j j j j j j j j j j j j j ^ ^ j M K K g M h =X0.T 1.T T T T T T ;.<.T T T T T 1.;.;.,.,.d.0.(.2.8.2.,.;.1.;.;.1.<.;.1.<.;.;.;.;.;.;.;.,.;.`.<.} =.U |.#.=.3.6.3.3.3.3.3.3.3.3.3.3.g.4.3.3.4.6.6.8.+XM.7.7.7.4.5.6.3.4.3.4.g.4.4.4.g.4.4.6.h.XXy.+. ...h. . . . . . . . . .v y.XXq 9 9 9 9 0 x x 0 ] ] o.#.gX& 5 5 5 % a.x.  G.i 5 5 5 5 4 C S S m r.e.&.5 4 D P.P.J ;X;X&X+ z.F.+ 5 5 5 5 6 3 w 5 5 5 5 w h 6 5 5 5 5 ",
"p a b p p p p p p p p a p m U.d d d d d d V d ^.~ j j ^ ^ j j j ^ ^ j j j / j j ^ ^ j ^ / G G ` ( ~ ~ ^ ^ ^ ^ ^ ^ ^ ^ ^ ^ ^ ^ ^ ^ ^ / ^ ^ ^ ^ U.E M 2.=XT ,.1.,.,.,.,.,.,.<.1.,.,.,.,.,.1.,.,.<.2.d.b.(.2.0.2.<.<.2.<.,.1.1.,.2.1.<.<.<.<.<.<.<.1.>.b.`.} ;.4.|.4.4.5.g.4.4.4.4.4.4.4.4.5.4.g.6.5.5.6.6.w.8.+XM.g.g.g.6.6.g.5.6.5.6.g.5.6.6.g.6.6.g.g.w.=X+. . .h. . . . . . . . .4.+.y.=Xq x x x x l { { x { { @.#.gX& 5 5 5 % a.x.  G.i 5 5 5 5 4 C S S m r.e.&.5 4 D P.P.J ;X;X&X+ z.F.+ 5 5 5 5 5 6 5 5 5 5 5 5 6 5 5 5 5 5 ",
"a b m a a a a a a b b b r K K b V V V V V V ( ^.V ^ j ^ ^ j ^ ^ ^ / ^ ^ ^ / ^ ^ / / ^ ^ / / G ` ( ( / ^ ^ ^ ^ ^ ^ ^ ^ ^ ^ ^ ^ ^ ^ ^ / / ^ / E ) ) M =Xy.R <.2.<.<.<.<.<.<.1.2.<.<.<.<.<.2.<.<.2.2.d.b.(.2.0.2.2.1.d.1.<.2.2.<.d.2.1.1.1.1.1.1.1.1.1.1.`.1.;.+X+X:.6.6.g.6.6.6.6.6.6.6.6.6.6.g.6.6.6.6.6.w.w.+X+Xg.g.g.6.g.g.6.6.6.g.g.6.6.6.g.g.g.g.g.5.=Xj.+.p.h.p.p.p.p.p.p.h.h.h.+.y.=Xq v v v v x { { { { { @.#.gX& 5 5 5 % a.z.  G.i 5 5 5 5 4 C S S m r.e.&.5 4 D P.P.J ;X;X&X+ z.F.+ 5 5 5 5 5 5 5 5 5 5 5 5 5 5 5 5 5 5 ",
"w i a w w w w w w w u w w U.f s f f f f f d ^.~ h k h j j k k k j ^ k k j ^ j k j ^ k j / G G ` ( ~ I j j j j j j j j j j j j j j j ^ ^ j j j G U.;.=XT T T <.T T T T T T ;.<.T T T T T 1.T T ,.,.1.0.(.,.2.2.,.;.1.;.T <.<.T 1.<.;.;.;.;.;.;.;.;.,.=.b.b.}  X4.3.3.3.6.3.3.3.3.3.3.3.3.3.3.6.3.3.3.4.6.6.8.+XM.7.7.4.3.5.6.3.4.3.4.g.3.4.3.g.4.4.5.g. .y.XXv  .h................. .v y.=Xq 9 9 9 9 8 x x 0 ] ] o.#.gX& 5 5 5 % a.z.  G.i 5 5 5 5 4 C S S m r.e.&.5 4 D P.P.J ;X;X&X+ z.F.+ i 5 5 5 5 5 5 5 5 5 5 5 5 5 5 5 5 5 ",
"w p b w p i i i i p p e J K a f f f f d s ( ^.d j j k j j k j j j ^ k j j ^ j j ^ ^ j j / G G ` ( ~ ~ I j j j j j j j j j j j j j j / ^ j j G Y K D.y.Y ;.;.<.T ;.;.;.;.;.,.<.T ;.;.;.;.1.;.;.,.,.d.0.(.2.8.2.,.;.1.,.;.1.<.;.1.1.;.,.,.,.,.,.,.,.,.;.<.^.M.|.=.4.3.4.6.3.3.3.3.3.4.4.4.4.3.g.4.3.4.4.6.6.8.+XM.7.7.7.4.5.g.4.4.4.4.g.4.4.4.g.4.4.6.g.3.w.=X.. .h. . . . . . . . . .{ y.*Xq 9 9 9 9 9 v x 0 ] ] @.#.gX& 5 5 5 % a.z.  G.i 5 5 5 5 4 C S S m r.e.&.5 4 D P.P.J ;X;X&X% N hX+ # % $ $ $ $ $ $ $ $ $ $ $ $ $ $ $ $ ",
"w p b w i u u i u i p e K J d f f f f d 8 ^.( h j j k j j k j j j ^ k j j ^ j j ^ ^ j j / G G ` ( ~ I I j j j j j j j j j j j j j j / ^ j j j j / ,X;.T T ;.<.T T ;.;.;.T ,.<.T ;.;.;.T 1.;.;.,.,.d.0.(.2.2.2.,.;.1.,.;.<.<.;.1.1.;.,.,.,.,.,.,.,.,.,.=.b.#XX.3.3.3.4.6.3.3.3.3.3.3.3.3.4.3.g.4.3.3.4.6.6.8.+XM.7.7.7.4.5.6.3.4.4.4.g.4.4.4.g.4.4.5.g.4. .=X6...h. . . . . . . . . ...w.>Xq 9 9 9 9 9 v x 0 ] ] o.#.gX& 5 5 5 % a.z.  G.i 5 5 5 5 4 C S S m r.e.&.5 4 D P.P.J ;X;X&X5 $ Z.hXf.a.f.a.a.a.a.a.a.a.a.a.a.a.a.a.a.a.",
"w p b w p u u u u u e J K m d f f f d f I ^.k k k j k j j k j j j ^ k j j ^ j j ^ ^ j j / G G ` ( ~ I I j j j j j j j j j j j j j j ^ ^ j j I G y.D./ ;.T ;.<.T T ;.;.;.T ,.<.T ;.;.;.T 1.;.;.,.,.d.0.(.2.2.2.,.;.1.,.;.<.<.;.1.1.;.,.,.,.,.,.,.,.,.,.T M.#X=.3.3.3.4.6.3.3.3.3.3.3.3.3.4.3.g.4.3.3.4.6.6.8.+XM.7.7.7.4.5.6.3.4.4.4.g.4.4.4.g.4.4.5.g.4. .B.XXN h. . . . . . . . . ...6.>Xq 9 9 9 9 0 x x 0 ] ] o.#.gX& 5 5 5 % a.z.  G.i 5 5 5 5 4 C S S m r.e.&.5 4 D P.P.J ;X;X&X5 5 @ i.F.G.G.G.G.G.G.G.G.G.G.G.G.G.G.G.F.F.",
"w p b w p u u u i u e K J m d f f f d 8 _ _ d k k j k j j k j k j ^ k j j ^ j j ^ ^ j j / G G ` ( ~ I I j j j j j j j j j j j j j j ^ ^ j j j I =Xc.) T T ;.<.T T T ;.;.T ,.<.T ;.;.;.T 1.;.;.,.,.d.0.(.2.2.2.,.;.1.,.;.<.<.;.1.<.;.,.,.,.,.,.,.,.,.,.T |.'.b.X.3.3.3.6.3.3.3.3.3.3.3.3.4.3.g.4.3.3.4.6.6.8.+XM.7.7.7.4.5.6.3.4.4.4.g.4.4.4.g.4.4.5.g.4.4.g.=X..h. . . . . . . . . ...h.>X7.9 9 0 9 0 x x 0 ] ] o.#.gX& 5 5 5 % a.z.  G.i 5 5 5 5 4 C S S m r.e.&.5 4 D P.P.J ;X;X&X5 a n.f.p.a.a.a.a.a.a.a.a.a.a.a.a.a.a.a.l.l.",
"w p b w i i u u u e f K s V d f f f f k ^.j j k k j k j j k j k j ^ k j j ^ j j ^ ^ j j / G G ` ( ~ I I j j j j j j j j j j j j j j ^ ^ j I h 0.(.Y v./ T ;.<.T T T T ;.T ,.<.T ;.;.;.T 1.;.;.,.,.2.0.(.2.2.2.,.;.1.,.;.<.<.;.1.<.;.,.,.,.,.,.,.,.,.T g.|.d.`.X.3.3.3.6.3.3.3.3.3.3.3.3.3.3.g.4.3.3.4.6.6.8.+XM.7.7.7.4.5.6.3.4.4.4.g.4.4.4.g.4.4.5.g.4.4.h.=Xw.+. . . . . . . . . ...+.:XqXc 0 F 9 0 x x 0 ] ] o.#.gX& 5 5 5 % a.z.  G.i 5 5 5 5 4 C S S m r.e.&.5 4 D P.P.J ;X;X&X% f.PXPXPXPXPXPXPXPXPXPXPXPXPXPXPXPXPXIXF.Z.",
"w p b w u i u u u e K J s V d f f f 8 _ _ V j k k k k j j k j k j ^ k j j ^ j j ^ ^ j j / G G ` ( ~ I I j j j j j j j j j j j j j j ^ ^ j j j =X2.R / ) U ;.<.T T T T ;.T ,.<.T ;.;.;.T 1.;.;.,.,.2.0.(.2.2.2.,.;.1.,.;.<.<.;.1.<.;.;.,.,.,.,.,.,.,.W +XM.>.`.d.X.3.3.6.3.3.3.3.3.3.3.3.3.3.g.4.3.3.4.6.6.8.+XM.7.7.7.4.5.6.3.4.4.4.g.3.4.4.g.4.4.5.g.4.4.h.y.XX+. ..... . . . . . . ...:XeXc 6 Y.F w v x 0 ] ] o.#.gX& 5 5 5 $ f.z.  G.i 5 5 5 5 4 C S S m r.e.&.5 4 D P.P.J ;X;X&X% a.IXKXGXLXLXKXKXHXGXIXKXLXHXLXLXKXIXHX% @ ",
"w p b w u i i p e f U.s f V d f f f d ^.j H j k k k k j j k j k j ^ k j j ^ j j ^ ^ j j / G G ` ( ~ ~ I j j j j j j j j j j j j j j ^ ^ j G 0.=XE ,.R ) R ;.<.T T T T ;.;.,.<.T ;.;.;.;.1.;.;.,.,.2.0.(.2.8.2.,.;.1.;.;.1.<.;.1.<.;.;.,.,.,.,.,.,.T 6.|.<.5.b.`.X.3.3.6.3.3.3.3.3.3.3.3.3.3.6.4.4.4.4.6.6.8.+XM.7.7.7.4.5.g.3.4.4.4.g.4.4.4.g.4.4.5.g.4.4.g.6.=Xh... . . . . . . . . .v :XwXc 6 Y.L 7 v x 0 ] ] o.#.gX& 5 5 5 $ f.z.  G.i 5 5 5 5 4 C S S m r.e.&.5 4 D P.P.J ;X;X&X% a.PXKX@XnXhXnXAXhXhXAXhXmXnXzXUXIXIXHXa 5 ",
"w i a w w w w u e L L u s d d s f 8 _ _ f ^ k h k k h j j h k k j ^ k k j ^ k k j ^ k j ^ G G ` ( ~ I j j j j j j j j j j j j j j j ^ j j j =X8.E R T / ) U <.T T T T T T ;.<.T T T T T <.;.T T T 1.0.(.,.2.2.;.T 1.;.T <.<.T <.<.;.;.;.;.;.;.;.;.W +XM.<.5.:.`.:.X.3.6.3.3.3.3.3.3.3.3.3.3.6.3.3.3.4.7.6.8.+XM.7.7.4.3.4.6.3.4.3.4.g.3.4.3.g.4.3.4.6.3.4.g. .XXB.N ................ .v :XwX} 6 R.K 7 x x 0 ] ] o.#.gX& 5 5 5 $ f.z.  G.i 5 5 5 5 4 C S S m r.e.&.5 4 D P.P.J ;X;X&X% a.PXGXhXfXnXcXfX@XnXfXGXfXcXcXGXIXIXGX5 5 ",
"b b N b b b b b m U.V V V H V V V V ^.~ j / ^ ^ ^ ^ ^ / / ^ ^ ^ ^ / ^ ^ ^ / ^ ^ / / ^ / / / / ` ( ( / / ^ ^ ^ / / / / / / / / / / / / / G j.=X/ d.d.d.d.U.d.2.<.1.<.<.<.<.1.d.<.1.1.1.1.d.1.1.2.2.d.b.(.2.0.8.2.1.d.1.1.d.d.1.d.d.1.1.1.1.1.2.1.2.j. Xj.j.j.g.b.`.7.g.g.6.6.6.6.6.6.6.6.g.6.g.g.6.g.g.g.g.w.+X+Xg.g.g.g.g.g.g.g.g.g.g.g.g.g.g.g.g.g.g.g.g.j.h.B.,X+.h.h.h.h.h.h.h.h.h.+.:XeX3.x R.Y.] { { { { { @.#.gX& 5 5 5 $ f.z.  @Xi 5 5 5 5 4 C S S m r.e.&.5 4 D P.P.J ;X;X&X% a.PXLXPXLXLXLXHXLXHXnXKXHXLXHXKXPXPXC.$ 5 ",
"p p b i p p p e L K a f f V d d f ( _ d j ^ j j j j j ^ ^ j j j j ^ j j j ^ j j ^ ^ j G / G G ` ( ~ ~ ~ j j j j j j j j j j j j j j / ^ G =X0.E <.,.<.;.) v.,.;.;.;.;.;.;.,.1.;.;.;.;.;.1.,.,.,.<.d.0.(.2.8.2.,.;.1.,.;.1.1.;.1.1.,.,.,.,.,.,.<.W +XM.<.5.5.5.5.`.5.3.g.3.4.4.4.4.4.4.4.4.4.g.4.4.4.4.6.6.8.+XM.7.7.7.4.6.g.4.4.4.5.g.4.4.4.g.4.4.6.g.4.4.g.4.5.=X3. . . . . . . . . .v >XtX9.8 Y.Y.i v x 0 ] ] @.#.gX& 5 5 5 $ f.n.  @Xi 5 5 5 5 4 C S S m r.e.&.5 4 D P.P.J ;X;X&X$ f.HXnXnXAXAXAXDXGXmXmXDXDXAXDXnXcXn.% 5 5 ",
"w p a w w w w u U.f s f s d d f s ^.I h h ^ k k k k h j j k k k j ^ k j j ^ j k j ^ k j / G G ` ( ~ I j j j j j j j j j j j j j j j ^ G ;.=XE R R R R R / ) <.T T T T T T ;.<.T ;.;.;.T 1.;.T ,.T 1.0.(.,.2.2.,.;.1.;.T <.<.T <.<.;.;.;.;.;.;.,.;.|.5.:.5.5.5.3.b.b.X.6.3.3.3.3.3.3.3.3.3.3.6.3.3.3.4.7.6.8.+XM.7.7.4.3.4.6.3.3.3.4.g.3.4.4.g.4.3.4.6.3.4.g.4. .=Xw.N  ............. ...y.:X9.= Y.Y.7 x l 0 ] ] o.#.gX& 5 5 5 $ f.V.  sXi 5 5 5 5 4 C S S V r.r.&.* 4 D P.P.J ;X;X&X+ z.S.  % % % % % % & & % $ % $ % # $ 5 5 5 ",
"w p b w w u e J K p f f s d d 8 ~ _ d j h ^ j k k k k j j k j k j ^ k j j ^ j k j ^ j j / G G ` ( ~ ~ I j j j j j j j j j j j j j j / G y.y.E R R R R R T ) c.U T T T T T ;.<.T ;.;.;.;.1.;.;.,.,.2.0.(.<.2.2.,.;.1.;.;.<.<.T <.<.;.;.;.;.;.;.W M.+X;.5.5.5.5.5.:.`.4.6.3.3.3.3.3.3.3.3.3.3.6.3.3.3.4.7.6.8.+XM.7.7.7.3.4.6.3.4.3.4.g.3.4.4.g.4.4.5.g.3.4.g.4. .B.XXN  ..... . . . ... .v =Xq.w.~.I.7 x x 0 ] ] o.#.gX& 5 5 5 $ f.V.  sXi 5 5 5 5 5 Z C A d q.&.&.5 4 C K.K.J &X&Xr.+ z.F.+ u & & & & % 5 & 5 w 5 5 5 5 5 5 5 5 ",
"w p b w w u e U.J s f f s d d 8 ^.( h k h ^ j k k k k j j k j k j ^ k j j ^ j k j ^ k j / G G ` ( ~ ~ I j j j j j j j j j j j j j j ^ R =XR R R R R R R R / ) T T T T T T ;.<.T ;.;.;.T 1.;.;.,.,.2.0.(.<.2.2.;.;.1.;.;.<.<.T <.<.;.;.;.;.;.;.;.|.g.:.5.5.5.5.5.3.b.b.7.3.3.3.3.3.3.3.3.3.3.6.3.3.3.4.7.6.8.+XM.7.7.7.3.4.6.3.4.3.4.6.3.4.4.g.4.4.5.g.3.4.g.4.4.g.=X ............... . .v XX*XeX!.I.i x x 0 ] ] o.#.gX& 5 5 5 $ f.V.  sXi 5 5 5 5 5 Z Z Z s &.&.&.5 4 C S S J r.r.e.+ z.F.+ w N b N N i.i m i % 5 5 5 5 5 5 5 5 ",
"w p b w u e J K p f f f s d f I ^.h k k h ^ j k k k k j j k j k j ^ k j j ^ j k j ^ k j / G G ` ( ~ ~ I j j j j j j j j j j j j j j G y.y.E R R R R R R R T v./ T T T T T ;.<.T ;.;.;.T 1.;.;.,.,.2.0.(.<.2.2.;.;.1.;.;.<.<.T <.<.;.;.;.;.;.W M.+X;.5.5.5.5.5.5.5.d.`.6.3.3.3.3.3.3.3.3.3.3.6.3.3.3.4.7.6.8.+XM.7.7.7.3.4.6.3.4.3.4.g.3.4.3.g.4.4.5.g.3.4.g.4.4.h.XXw.N  ............. .v y.*XeX!.I.i x x 0 ] ] o.#.gX& 5 5 5 $ f.V.  sXi 5 5 5 5 5 Z Z Z s &.&.&.5 4 C S K.J .Xr.e.+ z.F.@ p C.p.V.B C.5 k.f.l.a & 5 5 5 5 5 5 ",
"w p b w u e K J s f f f s V s _ ( d k k h ^ j k k k k j j k j k j ^ k k j ^ j k j ^ k j / G G ` ( ~ ~ I j j j j j j j j j j j j j j / =X;.R R R R R R R R R c.) T T T T T ;.<.T T ;.;.T 1.;.;.,.,.1.0.(.<.2.2.;.T 1.;.;.<.<.T <.<.;.;.;.;.;.T |.g.:.5.5.5.5.5.5.5.3.`.b.X.3.3.3.3.3.3.3.3.3.6.3.3.3.4.7.6.8.+XM.7.7.7.3.4.6.3.4.3.4.g.3.4.3.g.4.3.4.g.3.4.g.4.4.h.w.XXN  ............. .v y.>XwX!.I.0 x x 0 ] ] o.#.gX& 5 5 5 $ f.V.  sXi 5 5 5 5 5 Z Z Z s &.&.&.5 4 C S S J r.r.e.+ z.F.@ a V.| N.i k.% a.n.l.i.% 5 5 5 5 5 5 ",
"w p b w e f K s f f f f s d j ^.h k k k h ^ j k k k k j j k j k j ^ k k j ^ j k j ^ k j / G G ` ( ~ I I j j j j j j j j j j j j j h y.(.I R R R R R R R R R <.) / T T T T ;.<.T T T ;.T 1.;.;.,.,.1.0.(.<.2.2.;.T 1.;.;.<.<.T <.<.;.;.;.;.T g.|.;.5.:.:.5.5.5.5.5.5.d.`.X.3.3.3.3.3.3.3.3.3.6.3.3.3.4.7.6.8.+XM.7.7.4.3.4.6.3.4.3.4.g.3.4.3.g.4.3.4.6.3.4.g.4.4.g.7.=X ............... .N w.:XwX!.I.0 x l 0 ] ] o.#.gX& 5 5 5 $ f.V.  sXi 5 5 5 5 5 Z Z Z s &.&.&.5 4 C S S J r.r.e.+ z.F.+ p b i z 5 | & i.| z z & 5 5 5 5 5 5 ",
"w p b u e K J s f f f f s f _ _ d k k k h ^ j k k k k j j k j k j ^ k j j ^ j k j ^ k j / G G ` ( ~ I j j j j j j j j j j j j j j j =X1.E R R R R R R R R R <./ ) U T T T ;.<.T T T ;.;.1.;.;.,.,.1.0.(.<.2.2.;.T 1.;.T <.<.T <.<.;.;.;.;.W +XM.:.5.:.:.:.5.5.5.5.5.4.`.d.X.3.3.3.3.3.3.3.3.6.3.3.3.4.7.6.8.+XM.7.7.7.3.4.6.3.4.3.4.g.3.4.3.g.4.3.4.6.3.4.g.4.4.g. .=Xw.N  ........... ...8.:XwX!.I.0 x x 0 ] ] o.#.gX& 5 5 5 $ f.V.  sXi 5 5 5 5 5 Z Z Z s &.&.&.5 4 C S S J r.r.e.+ z.F.+ 5 5 5 5 5 & 5 & & & 5 5 5 5 5 5 5 5 ",
"w i a e f U.s s s s s f s j ^.h h k k k h ^ k k k k h j j h k k j ^ k k k ^ j k j ^ k j ^ G G ` ( ~ I j j j j j j j j j j j j j h 0.=XE R R R R R R R R R R d.T ) / T T T ;.<.T T T T T 1.;.T ,.,.1.0.(.,.2.2.;.T 1.;.T <.<.T <.<.T ;.;.T 5.|.:.5.:.:.:.:.:.:.5.5.:.4.b.`.X.3.3.3.3.3.3.3.3.6.3.3.3.3.7.6.8.+XM.7.7.4.3.4.6.3.3.3.4.6.3.3.3.g.3.3.4.6.3.3.g.3.3.g. .y.XXv  ...............6.0XwX2XY.8 x l 0 0 ] o.#.gX& 5 5 5 $ f.V.  sXi 5 5 5 5 5 Z Z Z s &.&.&.5 4 C S K.J r.r.e.+ z.F.+ 5 5 5 5 5 5 5 5 5 5 5 5 5 5 5 5 5 5 ",
"u p b e K L s f f f f d 8 _ _ d j j j j k ^ j j j j k j j k j j j ^ j j j ^ j j ^ ^ j G / G G ` ( ~ ~ I j j j j j j j j j j j j j =X0./ R R R R R R R R R <.d.T c.) *.;.;.,.<.;.;.;.;.;.1.;.;.,.,.d.0.(.2.8.2.,.;.1.,.;.<.<.;.1.1.;.,.;.W +XM.:.5.5.5.5.5.5.5.5.5.5.5.g.`.5. .3.3.3.3.3.4.3.6.4.3.3.4.6.6.8.+XM.7.7.7.4.5.6.3.4.4.4.g.4.4.4.g.4.4.5.g.4.4.g.4.4.g.4.6.=X . . . . . . . ...5.qXeXeXY.q x x 0 ] ] o.#.gX& 5 5 5 $ f.V.  sXi 5 5 5 5 5 Z Z Z s &.&.&.5 4 C S K.J .Xr.e.+ z.F.% p i i i i i i i i i i i i i i i i i ",
"a b b d U.d d d d d V d V ^.~ j j ^ ^ ^ j / ^ ^ ^ ^ j ^ ^ j ^ ^ ^ / ^ ^ ^ / ^ ^ / / ^ ^ / / G ` ( ( / ^ ^ ^ ^ ^ ^ ^ ^ ^ ^ ^ / G 0.=X/ d.d.d.d.d.d.d.d.d.d.d.d.d.d.U.d.,.<.1.2.<.<.<.<.<.2.1.1.2.2.d.b.(.2.0.2.1.<.d.1.<.2.1.<.2.2.1.1.<.j. Xj.j.j.j.j.j.j.j.j.j.j.j.j.j.b.`.7.6.6.6.6.6.6.6.g.6.6.6.6.6.w.w.+XM.g.g.g.6.g.g.6.6.6.g.g.6.6.6.g.g.6.g.g.6.g.g.g.6.g.g.h.=Xw.+.p.p.p.p.p.p.+.6.qX:XrXY.v { { { { { @.#.gX& 5 5 5 $ f.V.  dXi 5 5 5 5 5 Z Z Z s &.&.&.5 4 C S K.J r.r.e.+ z.F.+ i 5 5 5 5 5 5 5 5 5 5 5 5 5 5 5 5 5 ",
"w u r L L u s s s s s 8 ( ^.d h h h h h h ^ k h h k h j j h k h j ^ k k k ^ k k j j k j ^ G G ` ( ~ I j j j j j j j j j j j j h =X0./ R R R R R R R R R R R d.R T ) ) U T ;.<.T T T T T <.T T T T 1.0.(.,.2.2.;.T 1.;.T <.,.T <.<.T ;.W M.M.;.:.:.:.:.:.:.:.:.:.:.:.5.j.:.`.>. .3.3.3.3.3.3.6.3.3.3.3.4.6.8.+XM.7.7.4.3.4.6.3.3.3.4.6.3.3.3.6.3.3.4.6.3.3.g.3.3.g.4. .y.XXv .............. .qX:XeXY.q x 9 0 0 0 o.#.gX& 5 5 5 $ f.V.  dXi 5 5 5 5 5 Z Z Z s &.&.&.5 4 C S S J r.r.e.+ z.F.+ 5 5 5 5 5 5 5 5 5 5 5 5 5 5 5 5 5 5 ",
"w p a U.f s s s s s s s ^.~ k h h h k k k ^ j k k k k j j k k k j ^ k k j ^ k k j ^ k j / G G ` ( ~ ~ j j j j j j j j j j j j <.=XE d.R R R R R R R R R R R d.R R R ) T T ;.<.T T T T T <.T T ,.,.1.0.(.,.2.2.;.;.1.;.T <.<.T <.<.;.T ;. X5.:.:.:.:.:.:.:.:.:.:.:.:.5.j.3.b.b.X.3.3.3.3.3.3.6.3.3.3.4.7.6.8.+XM.7.7.7.3.4.6.3.3.3.4.6.3.3.3.6.3.3.4.6.3.4.g.4.3.g.4.3.w.=X................ .qX:XeX~.q x l 0 ] ] o.#.gX& 5 5 5 $ f.C.  dXi 5 5 5 5 5 Z Z Z s &.&.&.5 4 C S S J r.r.e.+ z.F.+ 5 & & & & % 5 & % & 5 5 & 5 5 5 5 5 ",
"u e J L u f s s s s 8 ~ _ V j k k h k k h ^ j k k k k j j k k k j j j j j ^ k k j ^ k j / G G ` ( ~ I j j j j j j j j j j j h (.y.E d.R R R R R R ,.R R R R d.R R T ) ) U ;.<.T T T T T 1.;.;.,.,.1.0.(.,.2.2.;.;.1.;.T <.<.T <.1.;.W M.+X;.5.:.:.:.:.:.:.:.:.:.:.:.:.j.5.j.`.3.3.3.3.3.3.3.6.3.3.3.3.7.6.8.+XM.7.7.4.3.4.6.3.3.3.4.6.3.3.3.6.3.3.4.g.3.4.g.4.3.g.4.4. .=X4.................qX:XeX~.q x 9 0 0 0 o.#.gX& 5 5 5 $ k.C.  dXi 5 5 5 5 5 Z Z Z s &.&.&.5 4 C S K.J r.r.e.+ z.F.+ i f.| f.i.n.p z l.z 5 5 N w 5 5 5 5 ",
"w w U.f s s s s s s 8 ^.~ j / ^ ^ j h k h ^ j k k k h j j k k k j ^ / j / ^ k k j ^ k j / G G ` ( ~ I j j / ^ / ^ j j j j j R =XR R d.R R R R R d.d.d.d.R R d.R R R / ) T ;.<.T T T T ;.j.1.d.T ,.1.0.(.,.2.2.;.;.1.;.T <.<.T 1.d.1.2.|.6.:.:.:.:.:.:.:.:.:.:.:.:.:.5.j.j.g.`.b.X.3.3.3.3.3.6.3.3.3.3.7.6.8.+XM.M.M.4.3.4.6.3.3.3.4.6.3.3.3.6.3.3.5.j.g.j.g.3.3.g.4.4. .XXy.v ..............qX:XeX~.q x 9 0 0 0 o.#.gX& 5 5 5 $ k.C.  dXi 5 5 5 5 5 Z Z Z s &.&.&.5 4 C S K.J r.r.e.+ z.F.@ a C.p.C.z z.& z.z V.i.p.S.i 5 5 5 5 ",
"e J K u f s s s s 8 I ^.d I / k ^ j h k h ^ j k k k h j j k k k k / ^ j / ^ j k j ^ k j / G G ` ( ~ ~ j j / j / / j j j j h y.y.E R d.R R R R R d.<.d.k.R R d.R R R T ) / ;.<.T T ;.T ,.b.;.d.<.T 1.0.(.,.2.2.;.;.1.;.T <.<.T d.1.2.M.|.;.5.:.:.:.:.:.:.:.:.:.:.:.:.5.j.:.j.j.`.X.3.3.3.3.3.6.3.3.3.3.7.6.8.+XM.M.M.4.3.4.5.3.3.3.4.6.3.3.3.g.4.3.g.g.4.m.g.3.3.g.4.4. .w.=XN  .............qX>XeX~.q x 9 0 0 0 o.#.gX& 5 5 5 $ k.C.  fXi 5 5 5 5 5 Z Z Z s &.&.&.5 4 C S K.J .Xr.e.+ z.F.. z l.N k.w l.% k.a.l.z.V.z.i 5 5 5 5 ",
"e K J u s s s s s 8 _ ( d j j j j j h h h ^ k h h k h j j h h h j j ^ ^ / ^ k k j j h j ^ G G ` ( I I j k ^ ^ ^ j j j j j E =XR R R <.R R R R R R d.R d.R R d.R R R R / ) T ,.T T T T T d.<.1.,.T R 0.(.,.2.2.;.T <.;.T ,.,.T <.d.,.|.g.>.:.:.:.:.:.:.:.>.:.:.:.:.:.:.j.j.j.3.`.d.X.3. . . .6.3. .3.3.4.6.8.+XM.g.g.4. .4.5. .3.3.4.6.3.3.3.6.3.3.4.g.4.6.6.3.3.g.3.3.3.3.=X .............N qX>XwX!.> x 9 0 0 0 o.#.gX& 5 5 5 # k.C.  fXi 5 5 5 5 5 Z Z Z s &.&.&.5 4 C S K.J r.r.e.+ z.F.+ i i 5 i 5 a 5 w | 5 b m z p 5 5 5 5 ",
"J U.m d d f s d f h ^.j h ^ j j j h j j h ^ ^ j j k j ^ j k ^ j j / j j j ^ ^ j j ^ j ^ / G G ` ( ~ ~ j j j ^ j j ^ ^ j G y.(.^ R R d.R R d.R R d.<.d.R R d.d.R d.d.d.;.) c.2.T ,.,.T ,.1.<.,.T 2.d.0.(.2.0.2.;.,.d.;.;.2.<.T 1.<.g.|.;.j.5.:.g.5.j.:.:.j.5.:.j.5.:.j.j.g.5.>.b.`.X.4.5.6.4.6.4.4.3.4.6.6.8.+XM.7.7.7.6.4.6.5.5.5.4.6.5.4.3.g.4.3.6.g.5.4.6.6.5.6.5.6.6. .XXy... .........v aX>XwX2X> c 9 0 0 ] o.#.gX& 5 5 5 # k.C.  fXi 5 5 5 5 5 Z Z Z s &.&.&.5 4 C S S J r.r.e.+ z.F.+ 5 5 5 5 5 & 5 5 % 5 & & & 5 5 5 5 5 ",
"!.Z fXcXnXC.; cXdX! {.lXh J.MXlXMX3 H.vXj J.lXlXlXh J.vX/ / vXJ.h MXjXvXc.^ vXH.h MXlXvXJ.G MX{.I {.lXh H.MXlXjX3 {.lXk J.5XxXhXY '.mX<.b.BXb.d.kXjXmXd.k.bXH.R kXkXmXb./ {.<Xn xXkXn <XkXbX<XU kXkX0.3XxXbXkXU jXbXT D.DXb.b.xXkXSXX.N.ZXN.j.xXxXbXj.j.bXD.>.bXfX=.jXzXbX<X=.xX{.=.<XbXZX<X} zXxX} @XZX6.B.zXzXxX7.A.AXj.j.bXxXZX6.m.DXm.5.ZX<X} zXzXAXA.3.bXjX} zXbXZX@X9.uXAXA.N ......v >X=XwX2XZ c 9 0 0 ] o.#.gX& 5 5 5 # k.C.  fXi 5 5 5 5 5 Z Z Z s &.&.&.5 4 C S S J r.r.e.+ z.F.+ w 5 5 5 5 w 5 5 5 w 5 5 5 5 5 5 5 5 ",
"U.* hXvXGXH.; vXMX' gXvXh J.lXlXlX2 {.CXj J.vXvXlXh H.CX/ c.CXJ.h lXMXCXc.^ CXH.h lXvXNXJ.G lX{.I jXlXh {.lXvXMX3 jXvXG B.5XvXkXM '.BX<.N.BXN.d.xXkXBXd.k.BXH.R mXmXBXb.d.{.H.U bXxXn jXxXBXjXU kXkX0.3XxXBXkXU kXBXU D.DXb.b.BXzX%Xj.N.DXB.j.bXbXDXj.m.DXD.>.bXjX} zXxXZX<X=.xXmXb.<XZXDXfX} xXZX} <XDXw.B.SXzXZXX.@XDXj.m.AXZXAX6.B.JXm.5.DX<X} xXzXDX@X .AXzX} zXZXDX<X} 2XJX@Xv ........} w.wX2XZ c 9 0 0 0 o.#.gX& 5 5 5 # k.C.  fXi 5 5 5 5 5 Z Z Z s &.&.&.5 4 C S K.J r.r.e.+ z.F.% a i i i i 8 8 i u ; u i i i i i i i ",
"!.u hXcXNXH.2 cXlXQ gXvXh J.lXlXlX3 '.BXj J.vXvXlXh H.CX/ c.CXJ.k lXjXBXc.^ CXH.h lXlXvXJ.G lX{.I jXlXh {.lXvXhX3 gXvXj =XxXmXkXY '.BX<.N.BXN.d.xXkXBXd.k.BXH.R cXmXBXb.d.lXv.U mXkXn jXxXBXjXU kXkX0.3XxXBXkXU kXBXT D.DXb.b.BX#XSXj.N.DXB.j.bXxXZXj.m.DXD.:.bXjX=.zXzXbX<X=.xXzX`.hXZXAXfX} xXbX} <XAXw.B.SXzXZXX.@XDXj.m.ZXbXAX6.B.DXm.6.DX<X} zXzXDX@X3.ZXzX} zXZXDX<X..2XDX@X..+. . .3.+.6.wX2XF { { { { { @.#.gX& 5 5 5 # k.C.  fXi 5 5 5 5 5 Z Z Z s &.&.&.5 4 C S K.J .Xr.e.+ z.F.+ 5 5 5 5 = %.oX-X-X.Xt = 5 5 5 5 5 5 ",
"sX- hXvXNXH.; cX`.2 {.vX3 J.lXlXMX2 H.CXk x.vXvXlX3 J.CX/ / CXJ.h lXhXCXc.j CXH.2 lXlXvXJ.G lX{.h jXlX3 G.lXvXhX2 gXlX2.2XmXmXkXg '.BXR b.BXb.<.xXkXBXd.d.BXH.Y cXmXBXb.d.BX!.Y xXkXr <XxXBXjXU kXkX0.3XxXBXkXn kXBXU D.DXj.b.bX%XbX5.N.DXN.5.bXxXZXj.j.DXD.=.bXjXn zXzXZX<X} bXzX2.kXZXDX<Xc zXbX} @XDX6.B.SXzXZXX.A.DXg.g.ZXZXAX4.m.DXm.3.DX<X} zXzXDXA.} ZXzXn zXZXDX<X..3XZX@X.. . . . ...6.eX2XF { v 0 ] ] @.#.gX& 5 5 5 # k.C.  fXi 5 5 5 5 5 Z Z Z s &.&.&.5 4 C S K.J r.r.e.+ z.F.+ 5 5 5 5 oX7X8X.X-X8X6Xq.= 5 5 5 5 5 ",
"jXV MXcXNX!.+.{.'./ jXvX/ H.lXlXlX/ {.nXc.H.vXvXlX/ H.CXx.J.CXH.s.lXjXBXJ.c.CX{./ lXlXvXH./ lX{.( MXlX/ {.lXvXMX/ hXvX=X<XmXmXxXd.gXnXb.H.BXH.b.xXkXBXN.N.BX'.k.mXmXBXH.b.BXMX) bXxX1.kXkXBXkXd.kXxX0.3XxXBXkX2.kXBXj.<XDXB.'.SXzXBXN.D.DXD.N.bXxXZXB.D.DX<Xm.bXzXj.zXzXbX<Xj.bXxXj.'.bXAXzXg.xXZXg.<XAXB.<XSXzXZXM.@XDXB.A.ZXZXAXm.@XDX@Xm.DXzXg.xXzXDX<Xj.AXzXg.xXZXAXfXj.xXuX@Xc ........v w.;X4XF 0 9 0 0 0 o.#.gX& 5 5 5 # k.C.  fXi 5 5 5 5 5 Z Z Z s &.&.&.5 4 C S S J r.r.e.+ z.F.+ 5 5 = .X8Xq.. o . & 6X8X[ = 5 5 & i ",
"vXcXNXcXnXvXvX{.lXcXvXvXlXvXMXlXvXlXvXvXlXvXlXlXvXlXvXvXlXvXvXlXvXvXjXvXlXvXvXvXvXvXlXvXlXlXlX{.lXvXlXlXvXMXlXvXlXvXbX2XvXxXmXmXxXmXmXxXmXmXcXmXmXkXbXxXmXmXmXmXmXxXmXmXmXbXmX!.BXBXbXBXkXBXBXmXBXBX3X3XxXbXBXbXBXBXbXBXBXbXBX#XzXZXxXbXbXxXbXbXxXbXxXbXbXbXbXbXbXbXbXzXbXbXbXbXbXbXkXkXAXZXZXAXZXbXAXZXxXZXzXzXZXxXZXAXbXAXZXbXAXbXAXAXbXZXAXZXZXAXzXAXZXZXAXZXZXAXbXAXZXZXAXuX@Xv ........N 6.>X4XL c 9 0 0 0 o.#.gX& 5 5 5 # k.C.  fXi 5 5 5 5 5 Z Z Z s &.&.&.5 4 C S S J r.r.e.+ z.F.+ w = [ 7Xq.X * m m $ % -X-X* 5 5 & i ",
"nXvXGXvXNXNXlXkXnXvXBXvXlXCXMXlXBXvXCXBXvXnXvXvXBXlXBXCXvXvXCXvXvXvXMXCXvXvXCXvXvXCXvXNXlXlXvX{.lXvXvXlXCXMXvXnXvXCX5XxXBXmXmXBXmXBXBXmXnXBXmXbXmXkXBXmXbXBXmXmXBXmXBXmXmXBXBX{.MXDXbXDXkXBXBXBXBXBX3X5XbXBXBXBXDXDXBXDXDXBXSXzXxXDXbXZXDXbXbXZXbXDXbXZXDXbXbXDXbXbXDXzXZXbXbXDXbXbXBX{.AXAXZXDXAXZXDXDXbXDXSXzXAXZXAXDXZXAXAXZXDXZXAXDXZXAXDXAXZXDXzXDXZXZXDXAXZXDXZXDXAXZXDXFX#Xv ............} 4XL 0 9 0 0 0 o.#.gX& 5 5 5 # k.Z.  jXi 5 5 5 5 5 Z Z Z s &.&.&.5 4 C S S J r.r.e.+ z.F.+ w = e.8X7 = B B E b X .X8Xy * 5 5 i ",
"c.c.x.a.c.c.^.b.c.c.c.c.c.J.c.c.c.c.c.c.c.J.c.c.c.c.c.J.c.c.x.c.c.J.c.x.c.J.x.c.x.J.c.J.J.c.v.` J.J.J.c.x.c.c.x.c.N.=Xb.N.b.b.b.b.N.N.b.b.N.b.N.b.b.N.b.b.N.N.b.N.b.N.b.b.N.N.z.!.N.b.N.b.N.b.b.b.b.(.,XB.B.B.b.N.B.b.N.B.B. Xm.N.B.N.N.B.N.N.N.N.B.N.N.B.N.N.B.N.N.B.N.N.N.N.B.N.N.N.'.D.m.B.m.m.m.B.B.B.B.#X+Xm.m.m.m.m.B.m.N.m.N.A.m.N.m.A.m.N.B.N.m.m.B.B.m.B.B.N.m.m.m.m.#XXXv ............} 4XL 0 9 0 0 0 o.#.gX& 5 5 5 # k.Z.  jXi 5 5 5 5 5 Z Z Z s &.&.&.5 4 C S K.J r.r.e.+ z.F.+ w = .X-X. u V m hXDXH [ 7X[ = 5 5 5 ",
"; u s ; ; h _ 2 3 3 3 3 3 h h 3 3 3 3 h 3 k h h 3 h 3 h h 3 3 3 h k h h h j h h h k h h G h G ` I h h h h h h h 3 y.y.k Y Y Y Y Y Y R E Y Y Y Y Y E Y E Y E R Y Y Y Y Y Y E R U ) / U U ;.U U U W W 0.y.;.2.;.U U ;.U U W M.|.;.:.=.=.=.=.=.=.=.=.=.=.=.=.=.=.=.=.>.>.5.=.=.=.=.=.>.=.d.`.} 3.} } } } 3.3.9.M.#.X.X.X.}  .3.} } } } 3.} } } 3.} } } 3.} } 4.} } 4.} } } } } } 9.XXN ............} 4XL 0 9 0 0 0 o.#.gX& 5 5 5 + l.Z.  jXi 5 5 5 5 5 Z Z Z s &.&.&.5 4 C S K.J .Xr.e.+ z.F.+ w = .X8X7 = V m x.F.s %.-Xy * 5 5 5 ",
"s f d V V _ ~ h h h h k h j ^ ^ / j h k k ^ j k k k k j / ^ / ^ j ^ k j j ^ j k j ^ k j / G G ` ( / / / ^ j j j E =XR R R R R R R R d.d.d.d.d.d.R R R R R R d.d.d.d.d.s.R <.d.R / ) T T <.d.<.d.d.d.0.(.2.2.2.,.;.1.;.;.,.|.7.1.j.j.5.:.:.:.:.:.:.:.:.:.:.:.:.:.:.:.5.j.j.j.5.:.:.:.:.3.`.d.7.5.g.5.4.7.6.8.+XM.7.7.4.3.4.g.g.5.3.4.6.3.3.3.6.3.3.4.6.3.3.6.3.3.6.g.g.j.g.4.4.3.=X3.............} 4XL 0 v { { { o.#.gX& 5 5 5 + l.Z.  jXi 5 5 5 5 5 Z Z Z s &.&.&.5 4 C S K.J r.r.e.+ z.F.+ w = %.8X%.X w d s X X .X.X* 5 5 5 % ",
"s f d f / ^.k h h h h h h j j s./ j h k h j k h h h h j ^ / / ^ j ^ h k k ^ k k j j k j ^ G G ` ( / c.s./ k j h y.y.j R R R R R R R d.R d.d.k.d.s.R R R R R d.d.k.k.k.d.R ,.d.R T ) / U <.d.d.d.j.d.0.(.,.2.2.;.T <.;.W g.|.;.5.j.j.l.5.>.:.:.:.:.:.:.:.:.:.:.:.:.:.:.j.j.z.j.:.:.:.:.>.b.`.X.4.l.l.4.4.7.8.+XM. .7.3. .3.g.g.n.h.3.6.3.3.3.6.3.3.4.5.3.3.6.3.3.6.g.j.j.n.5.3...XXw.v ..........} 4XK 0 9 +...f.#.#.gX& 5 5 5 + l.Z.  jXi 5 5 5 5 5 Z Z Z s &.&.&.5 4 C S S J r.r.e.+ z.F.+ 5 5 * oX8X%.X + + % .X-X[ * 5 5 5 & ",
"s s d N _ ( h h h h h h h j j ^ / j h h h j k h h h h j ^ / / j k j h k k ^ k h j j h j ^ G G ` ( / / / ^ k j j =X;.E R R R R R R E R d.d.d.d.d.R R R R R R d.d.d.d.d.s.R R d.R T / ) U <.<.d.d.d.d.0.(.,.2.2.;.T <.;.W |.g.=.5.5.g.j.5.>.:.>.>.>.:.:.:.:.:.:.:.:.:.:.j.j.j.j.:.:.:.:.:.>.`.j.3.g.j.4.3.7.9.+XM. .7.3. .3.5.g.j.5.3.6. .3.3.6.3.3.4.5. .3.6.3.3.6.4.g.g.j.5.3...y.XXv ..........N 2X$.6 ....{ +.#.#.gX& 5 5 5 + l.Z.  jXi 5 5 5 5 5 Z Z Z s &.&.&.5 4 C S S J r.r.e.+ z.F.+ 5 5 * e 6X.X= 5 5 w oXq.* 5 5 5 5 5 ",
"s d d k ^.h k k k k k k h ^ j k j k k j k ^ j j j j k j ^ j j j j ^ j j j ^ j j ^ ^ j G / G G ` ( ~ ~ I j j h y.(.E R R R R R R R R d.d.R ,.R R R R R R R <.d.R R R R R R d.d.R d.;.v./ 2.,.;.,.,.d.0.(.2.0.2.,.;.2.T g. X1.:.5.8.5.5.5.5.5.5.5.5.5.5.5.5.5.5.5.5.5.5.j.5.5.5.5.5.5.5.5.4.b.`.X.3.3.4.7.6.8.+X+X7.7.7.3.4.6.3.3.3.4.6.3.4.4.g.4.3.7.6.3.4.g.4.4.g.4.3.4.3.4.4.3.w.=X.......... .v qXXXq x 0 ] ] o.|.gX% 5 5 5 + l.C.  jXi 5 5 5 5 5 Z Z Z s &.&.&.5 4 C S S J r.r.e.+ z.F.+ 5 5 5 * e = = w 5 = 5 5 5 5 5 5 5 5 ",
"= * = 3 Q * 2 2 2 2 2 2 2 2 2 2 2 2 2 2 2 2 2 2 2 2 2 2 2 2 2 2 2 2 2 2 2 s 2 2 2 2 2 2 s 2 2 h 3 2 2 2 2 s 2 9.n p g g g g g g g g g g g g g g g g g g g g g g g g g g g g g g g g G G r g g g g g U U g n n g g n g X.X.b b n n b n n n n n n n n n n n n n n n n n n n n n n n n n n n n ( c c c c n n n } } n n n b n n c b b n n b b n N n n n n n n N n n N n n n n n n n b w.b z z z z z 8 *X9.= 8 6 8 8 0 zXz.+ 5 5 5 $ f.sX* hX5 5 5 5 5 5 Z Z Z s &.&.&.5 4 C S K.J r.r.e.+ z.F.+ 5 5 5 5 * q.-X6X6XoX[ = 5 5 5 5 5 5 ",
"dXdXdXsXsXdXdXdXdXdXdXdXdXdXdXdXdXdXdXdXdXdXdXdXdXdXdXdXdXdXdXdXdXdXdXdXdXdXdXdXdXdXdXdXdXdXdXdXdXdXdXdXdXdXdXsXdXdXdXdXdXdXdXdXdXdXdXdXdXdXdXdXdXdXdXdXdXdXdXdXdXdXdXdXdXdXdXdXdXfXdXdXfXfXfXfXfXdXdXdXfXdXdXfXfXfXfXgXgXfXfXfXfXfXfXfXfXfXfXfXfXfXfXfXfXfXfXfXfXfXfXfXfXfXfXfXfXfXfXfXfXfXdXfXfXfXfXfXfXfXgXgXfXfXfXfXfXfXfXfXfXfXfXfXfXfXfXfXfXfXfXfXfXfXfXfXfXfXfXfXfXfXfXfXfXgXfXfXfXfXfXfXfXsXgXfXfXfXfXfXjXV.$ 5 5 5 5 5 5 S.cXl.% 5 5 5 5 5 Z Z Z s &.&.&.5 4 C S S J r.r.e.+ z.F.+ 5 5 5 e -X7X7X.XoX7X7Xq.= 5 5 5 5 5 ",
"u u u u u u u u u u u u u u u u u u u w w u w w w w w w w w w w w w w w w w w w u u u u u u u u u u u u u u u i u u u u w w w w w u u u u u u u u u u u u u u u w w w w w w w w w w w w w w w w w w w w w w u u u u u u u u u u u u u u u u u u u u u w w 5 w w w w w w w w w w w w w w w w w 5 5 5 w w w w 5 5 5 w u u u u u u u u u u u u u u u u u u u u u u u u u u u u u u u i u u u u u u u i i u u u u i 5 + 5 5 5 5 5 & % % % $ % 5 5 5 5 5 Z Z Z s &.&.&.5 4 C S K.J .Xr.e.+ z.F.+ 5 5 * oX8X%.X o o X -X6X[ * 5 5 5 5 ",
"% % % % % % % % % % % % % % % % % % & 5 5 5 5 5 5 5 5 5 5 5 5 5 5 5 5 5 5 5 5 5 & % % % % % % % % % % % % % % % % % % % 5 5 5 5 5 & & & & & & & & % % % % % % & 5 5 5 = = = = = = = = = = = = = = 5 5 5 5 5 & & & & & & & & & & & & % % % % % % % % & 5 5 w 5 5 5 5 5 5 5 5 5 5 5 5 5 5 5 5 5 5 5 5 5 5 5 5 5 5 5 5 % % % % % % % % % % % % % % % % % % % % % % % % % % % % % % % % % % % % % % % % % % % % % $ % 5 5 5 5 5 & B N & i.z i.u 5 5 5 5 > Z Z s &.&.&.5 4 C S S J r.r.e.+ z.F.+ w = [ 7X%.X u m V f.= .X.X* 5 5 5 5 ",
"| | | | | | | | | | | | | | | N | | z & 5 5 5 5 5 5 5 5 5 5 5 5 5 5 5 5 5 5 5 & p | | | | | | | | | | | | | | | N B | | 5 5 5 5 5 z m z m m m m m m m m N N N m 5 5 5 &.&.&.&.&.&.&.&.&.&.&.&.&.&.5 i i 5 i m z z z b m m m m m m m m m m N N N N N N 5 5 i 5 5 5 5 5 5 5 5 5 5 5 5 5 5 5 5 5 5 5 5 5 5 5 5 i i & i f.k.k.k.k.k.k.k.k.k.k.k.l.l.l.l.l.l.l.l.l.l.x.x.x.z.z.z.z.z.z.z.z.z.z.z.z.z.n.n.n.n.V.V.V.V.z.i 5 5 5 5 i l.f.N l.C.l.-.% 5 5 5 5 5 5 5 6 6 5 5 5 5 5 4 5 4 4 w + z.F.+ w = .X8X7 = B B nXcXo q.-Xy * 5 5 5 ",
"KXIXKXKXKXKXKXKXKXKXKXKXKXIXLXnXPXPXLX| % 5 5 & 5 & & 5 5 & 5 & 5 & 5 & % 5 % N HXPXKXKXKXIXKXKXPXPXPXPXKXKXKXPXnXHXPXPXhX% 5 5 5 sXcXcXcXmXmXnXnXnXnXnXGXnXGXfX& 5 % 0XiXiXiXiXrXrXrXrXrXwXwXwX;X% i i % N hXcXcXcXcXcXmXmXnXnXnXnXnXnXnXnXnXGXGXJXfX& 5 i 5 5 5 5 5 5 5 5 5 5 5 5 5 5 5 5 5 5 5 5 5 5 5 5 w i & a hXmXcXmXmXmXmXmXnXnXnXnXnXnXnXnXnXnXnXnXGXGXGXGXGXGXGXGXGXGXGXGXGXGXGXGXJXJXJXJXJXJXJXJXJXHXnXi 5 5 5 5 i k.l.p.f.Z.l.i.% 5 5 5 6 3 h s ! ~ s 6 5 4 8 > : : Z > + z.F.+ w = .X-X. u V B Z.B - y oXt * 5 5 5 ",
"LXGXPXIXIXIXIXIXKXKXKXKXKXIXUXnXHXf.IXF.+ w & | p.N l.u f.z 5 z & z 5 a | z + n.HXGXLXIXIXGXKXKXGXJXAXGXIXKXKXPXnXUX<XjXLX5 5 5 5 dXmXhXcXhXcXcXnXmXnXcXmXnXJXfX% 5 % qXpXyXyXiXiXyXyXyXqXrXqXrX;X% i i & m cXcXhXjXhXhXhXcXhXcXhXnXcXcXcXnXnXcXcXJXhX& 5 i 5 5 5 5 5 5 5 5 5 5 5 5 5 5 5 5 5 5 5 5 5 5 5 5 w i & p hXcXcXcXcXcXcXcXcXcXcXmXmXmXmXmXnXcXhXcXdXfXcXhXhXhXnXnXnXnXnXnXnXnXGXGXGXGXGXGXGXGXGXGXGXJXcXu 5 5 5 5 & B | z p.m p.i 5 5 5 5 u ' ! ~ [.' h 6 5 8 Z C D C D C # z.F.+ w = .X8X7 $ V V m m o q.-Xy * 5 5 5 ",
"cXhXmXcXnXnXcXLXIXKXKXKXKXIXUXnXDXS.HXF.+ u % p.k.n.i % z.z.l.l.l.l.l.z.C.-.% n.cXfXnXcXmXzXnXKXjXcXcXnXPXKXKXPXnXJXfXhXJXw 5 5 * gXcXC.G.F.G.hXcXG.sXdXfXsXJXdX% 5 % qXpX2XyX2XiX2X:X:X>X:X:XrX;X% i i % m cXsXdXsXG.sXF.G.G.fXhXhXjXfXG.jXnXjXfXJXjX& 5 i 5 5 5 5 5 5 5 5 5 5 5 5 5 5 5 5 5 5 5 5 5 5 5 5 w i & p hXcXcXcXcXcXcXcXcXmXmXmXmXmXmXmXnXcXfXmXsXS.G.fXz.mXGXnXnXnXnXnXGXGXGXGXGXGXGXGXGXGXGXGXGXJXcXu 5 5 5 5 5 & % % $ % % 5 5 5 5 5 w h ! h ! ! h 6 5 8 8 : C Z C F + z.F.+ w = %.7Xq.X * a a - $ .X.X* 5 5 5 5 ",
"cXhXdXfXnXnXcXJXIXKXKXKXKXIXHXnXnXf.HXF.+ w 5 a N.N.p.5 l.n.n.k.z.l.a.n.n.| % n.cXHXcXcXnXG.hXKXfXcXnXGXIXKXKXIXnXJXS.sXHX5 5 5 5 gXhXdXhXG.<XhXhXG.@XjXdXdXGXdX% 5 % qXpX2XyX>XyXyX:XqX>XqX:XrX;X% i i % m cXhXG.jXsXfXG.sXdXjXfXcXhXS.cXhXhXhXhXJXfX& 5 i 5 5 5 5 5 5 5 5 5 5 5 5 5 5 5 5 5 5 5 5 5 5 5 5 w i & p hXcXcXcXcXcXcXcXcXcXmXmXmXmXmXmXnXmXG.hXG.hXS.sXsXjXcXhXmXnXnXnXnXGXGXGXGXGXGXGXGXGXGXGXGXJXcXu 5 5 5 5 5 5 & i.a.f.z 5 5 5 5 5 5 6 5 5 5 5 6 5 5 5 5 4 e 4 e e + z.F.+ 5 5 * .X8Xq.o + . % .X-X[ * 5 5 5 5 ",
"GXJXHXJXLXUXHXKXPXIXIXIXIXPXLXnXLX@XPXS.+ w 5 z z 5 N 5 p z 5 m 5 m i z p N $ l.LXPXHXHXHXHXHXKXGXJXUXLXPXIXIXPXnXLXcXnXLX5 5 5 5 dXnXmXnXnXcXmXnXnXnXnXnXGXJXfX% 5 % qXFXpXpXpXiXiXiXiXiXiXrXrX;X% i i % m cXcXcXmXcXcXnXmXcXnXmXGXnXnXGXnXmXnXGXHXjX& 5 i 5 5 5 5 5 5 5 5 5 5 5 5 5 5 5 5 5 5 5 5 5 5 5 5 w i & p hXcXcXcXcXcXcXcXcXmXmXmXmXmXmXnXnXnXcXcXcXnXnXmXnXmXmXmXnXnXnXnXGXGXGXGXGXGXGXGXGXGXGXGXGXJXcXu 5 5 5 5 5 & p.V.N.Z.| % 5 5 5 5 6 ! ! 5 ! ! ~ 6 5 * t %.%.[ q.t + z.F.+ i 5 5 5 -Xt.; w 5 5 .X%.* 5 5 5 5 5 ",
"HXHXHXHXHXHXHXHXHXHXHXHXHXHXGXzXHXLXnXb & 5 5 & & 5 % 5 5 & 5 & 5 & 5 & 5 & & p nXHXHXHXHXHXHXHXHXHXHXHXHXHXHXHXcXAXLXUXG.% 5 5 5 F.hXfXjXhXhXhXhXhXhXcXcXhXcXG.& 5 & 0XiXiXiXrXrXrXrXrXrXrXrXeX;X% i i & m gXjXjXjXhXhXhXhXhXhXhXhXcXcXhXcXcXcXcXcXG.& 5 i 5 5 5 5 5 5 5 5 5 5 5 5 5 5 5 5 5 5 5 5 5 5 5 5 w i & a hXcXcXcXcXcXcXcXcXcXcXcXmXmXmXmXmXmXnXnXnXnXnXnXnXnXnXnXnXnXnXnXnXnXnXnXGXGXGXGXGXGXGXGXGXGXcXi 5 5 5 5 5 5 k.z.n.C.i.% 5 5 5 5 s ! ' h ! ! h 6 * y [ %.&.%.&.&.- N hX% + # # + # + + + # + + + + + + + + + ",
"u i i i i i i i i i i i i i i i i i 5 5 w 5 5 w w 5 w 5 w w 5 w 5 w 5 w w w w 5 & i i i i i i i u i i i i i i i i i i w & 5 5 5 w i u u u u u u i i i i i i i i w 5 w t t t t t t t y y y y y y y 5 i i 5 i i u u u u u i i u i i i i i i i i i i i i w 5 z w 5 5 5 5 5 5 5 5 5 5 5 5 5 5 5 5 5 5 5 5 5 5 5 i p 5 i B B B B B B B B B B | | | | | | | | | | | | | | -.-.-.i.i.i.i.i.i.i.i.i.i.i.i.i.i.i.i.i.i.i.i.i 5 5 5 5 w 5 z | z | i 5 5 5 5 w 5 s h h I ~ s 5 w 5 w r t r t r 8 % C.hXz.l.l.l.l.l.l.l.l.l.l.l.l.l.l.l.l.l.",
"+ + + + + + + + + + + + + + + + + + + + + + + + + + + + + + + + + + + + + + + + + + + + + + + + + + + + + + + + + + + + + + + + + + + + + + + + + + + + + + + + + + + . . . . . . . . . . . . . . + + + + + + + + + + + + + + + + + + + + + + + + + + + + + + + + + + + + + + + + + + + + + + + + + + + + + + + + + @ @ @ @ @ @ @ @ @ @ @ @ @ @ @ @ @ @ @ @ @ @ @ @ @ @ X X X X X X X X X X X X X X X X X X X X X + + + + + + + @ X . X + + + + + + + @ @ @ @ @ @ + + + + + . . . . + +   m C.Z.C.C.Z.Z.C.C.C.C.Z.C.C.C.C.C.C.C.",
"C.Z.S.S.S.S.S.S.S.S.S.S.S.S.S.S.S.S.S.S.S.S.S.S.S.S.S.S.S.S.S.S.S.S.S.S.S.S.S.S.S.S.S.S.S.S.S.S.S.S.S.S.S.S.S.S.S.S.S.S.S.S.S.S.S.S.S.S.S.S.S.S.S.S.S.S.S.S.S.S.S.S.S.S.S.S.S.S.S.S.S.S.S.S.S.S.S.S.Z.Z.S.S.S.S.S.S.S.S.S.S.S.S.S.S.S.S.S.S.S.S.S.S.S.S.S.Z.S.S.S.S.S.S.S.S.S.S.S.S.S.S.S.S.S.S.S.S.S.S.S.S.Z.Z.S.S.S.S.S.S.S.S.S.S.S.S.S.S.S.S.S.S.S.S.S.S.S.S.S.S.S.S.S.S.S.S.S.S.S.S.S.S.S.S.S.S.S.S.S.S.S.S.S.S.S.S.S.S.S.S.S.S.S.S.S.S.S.S.S.S.S.S.S.S.S.S.S.S.S.S.S.S.S.S.S.S.S.S.S.C.N.N.N.N.N.N.N.N.N.N.N.N.N.N.N.N.N.N.",
"PXmXk.V.n.n.n.n.n.n.n.n.n.n.n.n.n.n.n.n.n.n.n.n.n.n.n.n.n.n.n.n.n.n.n.n.n.n.n.n.n.n.n.n.n.n.n.n.n.n.n.n.n.n.n.n.n.n.n.n.n.n.n.n.n.n.n.n.n.n.n.n.n.n.n.n.n.n.n.n.n.n.n.n.n.n.n.n.n.n.n.n.n.n.n.n.n.n.n.n.n.n.n.n.n.n.n.n.n.n.n.n.n.n.n.n.n.n.n.n.n.n.n.n.n.n.n.n.n.n.n.n.n.n.n.n.n.n.n.n.n.n.n.n.n.n.n.n.n.n.n.n.n.n.n.n.n.n.n.n.n.n.n.n.n.n.n.n.n.n.n.n.n.n.n.n.n.n.n.n.n.n.n.n.n.n.n.n.n.n.n.n.n.n.n.n.n.n.n.n.n.n.n.n.n.n.n.n.n.n.n.n.n.n.n.n.n.n.n.n.n.n.n.n.n.n.n.n.n.n.n.n.n.n.n.n.n.N.V.V.V.V.V.V.V.V.V.V.V.V.V.V.V.V.V.V.",
"PX@X  $ + + + + + + + + + + + + + + + + + + + + + + + + + + + + + + + + + + + + + + + + + + + + + + + + + + + + + + + + + + + + + + + + + + + + + + + + + + + + + + + + + + + + + + + + + + + + + + + + + + + + + + + + + + + + + + + + + + + + + + + + + + + + + + + + + + + + + + + + + + + + + + + + + + + + + + + + + + + + + + + + + + + + + + + + + + + + + + + + + + + + + + + + + + + + + + + + + + + + + + + + + + + + + + + + + + + + + + + + + + + + + + + + + + + + + + + + + + + + + + + + + + + + + + + + + + + + ",
"PXdX+ i 5 5 5 5 5 5 5 5 5 5 5 5 5 5 5 5 5 5 5 5 5 5 5 5 5 5 5 5 5 5 5 5 5 5 5 5 5 5 5 5 5 5 5 5 5 5 5 5 5 5 5 5 5 5 5 5 5 5 5 5 5 5 5 5 5 5 5 5 5 5 5 5 5 5 5 5 5 5 5 5 5 5 5 5 5 5 5 5 5 5 5 5 5 5 5 5 5 5 5 5 5 5 5 5 5 5 5 5 5 5 5 5 5 5 5 5 5 5 5 5 5 5 5 5 5 5 5 5 5 5 5 5 5 5 5 5 5 5 5 5 5 5 5 5 5 5 5 5 5 5 5 5 5 5 5 5 5 5 5 5 5 5 5 5 5 5 5 5 5 5 5 5 5 5 5 5 5 5 5 5 5 5 5 5 5 5 5 5 5 5 5 5 5 5 5 5 5 5 5 5 5 5 5 5 5 5 5 5 5 5 5 5 5 5 5 5 5 5 5 5 5 5 5 5 5 5 5 5 5 5 5 5 5 5 5 5 5 5 5 5 5 5 5 5 5 5 5 5 5 5 5 5 ",
"PXC.+ 5 5 5 5 5 5 5 5 5 5 5 5 5 5 5 5 5 5 5 5 5 5 5 5 5 5 5 5 5 5 5 5 5 5 5 5 5 5 5 5 5 5 5 5 5 5 5 5 5 5 5 5 5 5 5 5 5 5 5 5 5 5 5 5 5 5 5 5 5 5 5 5 5 5 5 5 5 5 5 5 5 5 5 5 5 5 5 5 5 5 5 5 5 5 5 5 5 5 5 5 5 5 5 5 5 5 5 5 5 5 5 5 5 5 5 5 5 5 5 5 5 5 5 5 5 5 5 5 5 5 5 5 5 5 5 5 5 5 5 5 5 5 5 5 5 5 5 5 5 5 5 5 5 5 5 5 5 5 5 5 5 5 5 5 5 5 5 5 5 5 5 5 5 5 5 5 5 5 5 5 5 5 5 5 5 5 5 5 5 5 5 5 5 5 5 5 5 5 5 5 5 5 5 5 5 5 5 5 5 5 5 5 5 5 5 5 5 5 5 5 5 5 5 5 5 5 5 5 5 5 5 5 5 5 5 5 5 5 5 5 5 5 5 5 5 5 5 5 5 5 5 5 5 ",
"DXu 5 5 5 5 5 5 5 5 5 5 5 5 5 5 5 5 5 5 5 5 5 5 5 5 5 5 5 5 5 5 5 5 5 5 5 5 5 5 5 5 5 5 5 5 5 5 5 5 5 5 5 5 5 5 5 5 5 5 5 5 5 5 5 5 5 5 5 5 5 5 5 5 5 5 5 5 5 5 5 5 5 5 5 5 5 5 5 5 5 5 5 5 5 5 5 5 5 5 5 5 5 5 5 5 5 5 5 5 5 5 5 5 5 5 5 5 5 5 5 5 5 5 5 5 5 5 5 5 5 5 5 5 5 5 5 5 5 5 5 5 5 5 5 5 5 5 5 5 5 5 5 5 5 5 5 5 5 5 5 5 5 5 5 5 5 5 5 5 5 5 5 5 5 5 5 5 5 5 5 5 5 5 5 5 5 5 5 5 5 5 5 5 5 5 5 5 5 5 5 5 5 5 5 5 5 5 5 5 5 5 5 5 5 5 5 5 5 5 5 5 5 5 5 5 5 5 5 5 5 5 5 5 5 5 5 5 5 5 5 5 5 5 5 5 5 5 5 5 5 5 5 5 5 5 ",
"p & 5 5 5 5 5 5 5 5 5 5 5 5 5 5 5 5 5 5 5 5 5 5 5 5 5 5 5 5 5 5 5 5 5 5 5 5 5 5 5 5 5 5 5 5 5 5 5 5 5 5 5 5 5 5 5 5 5 5 5 5 5 5 5 5 5 5 5 5 5 5 5 5 5 5 5 5 5 5 5 5 5 5 5 5 5 5 5 5 5 5 5 5 5 5 5 5 5 5 5 5 5 5 5 5 5 5 5 5 5 5 5 5 5 5 5 5 5 5 5 5 5 5 5 5 5 5 5 5 5 5 5 5 5 5 5 5 5 5 5 5 5 5 5 5 5 5 5 5 5 5 5 5 5 5 5 5 5 5 5 5 5 5 5 5 5 5 5 5 5 5 5 5 5 5 5 5 5 5 5 5 5 5 5 5 5 5 5 5 5 5 5 5 5 5 5 5 5 5 5 5 5 5 5 5 5 5 5 5 5 5 5 5 5 5 5 5 5 5 5 5 5 5 5 5 5 5 5 5 5 5 5 5 5 5 5 5 5 5 5 5 5 5 5 5 5 5 5 5 5 5 5 5 5 5 ",
"& 5 5 5 5 5 5 5 5 5 5 5 5 5 5 5 5 5 5 5 5 5 5 5 5 5 5 5 5 5 5 5 5 5 5 5 5 5 5 5 5 5 5 5 5 5 5 5 5 5 5 5 5 5 5 5 5 5 5 5 5 5 5 5 5 5 5 5 5 5 5 5 5 5 5 5 5 5 5 5 5 5 5 5 5 5 5 5 5 5 5 5 5 5 5 5 5 5 5 5 5 5 5 5 5 5 5 5 5 5 5 5 5 5 5 5 5 5 5 5 5 5 5 5 5 5 5 5 5 5 5 5 5 5 5 5 5 5 5 5 5 5 5 5 5 5 5 5 5 5 5 5 5 5 5 5 w i 5 5 5 5 5 5 5 5 5 5 5 5 5 5 5 5 5 5 5 5 5 5 5 5 5 5 5 + % 5 5 5 5 5 5 5 5 5 5 5 5 5 5 5 5 5 5 5 5 5 5 5 5 5 5 5 5 5 5 5 5 5 5 * * 5 5 * * * * * * * * * * * * * * * * & * & & & & 5 & & 5 * & & * * ",
"5 5 5 5 5 5 5 5 5 5 5 5 5 5 5 5 5 5 5 5 5 5 5 5 5 5 5 5 5 5 5 5 5 5 5 5 5 5 5 5 5 5 5 5 5 5 5 5 5 5 5 5 5 5 5 5 5 5 5 5 5 5 5 5 5 5 5 5 5 5 5 5 5 5 5 5 5 5 5 5 5 5 5 5 5 5 5 5 5 5 5 5 5 5 5 5 5 5 5 5 5 5 5 5 5 5 5 5 5 5 5 5 5 5 5 5 5 5 5 5 5 5 5 5 5 5 5 5 5 5 5 5 5 5 5 5 5 5 5 5 5 5 5 5 5 5 5 5 5 5 5 5 5 5 5 5 w i 5 5 5 5 5 5 5 5 & & & 5 5 5 5 5 5 5 5 5 5 5 5 5 5 5 % l.fXfXfXfXfXfXfXfXfXfXfXfXfXfXfXfXfXfXfXfXfXfXfXfXfXfXfXfXfXfXfXfXfXfXfXfXfXfXfXfXfXfXfXfXfXfXfXfXfXfXfXfXfXfXfXjXfXjXjXjXjXfXfXjXfXjXjXjXjXfX",
"& 5 5 5 5 5 5 5 5 5 5 5 5 5 5 5 5 5 5 5 5 5 5 5 5 5 5 5 5 5 5 5 5 5 5 5 5 5 5 5 5 5 5 5 5 5 5 5 5 5 5 5 5 5 5 5 5 5 5 5 5 5 5 5 5 5 5 5 5 5 5 5 5 5 5 5 5 5 5 5 5 5 5 5 5 5 5 5 5 5 5 5 5 5 5 5 5 5 5 5 5 5 5 5 5 5 5 5 5 5 5 5 5 5 5 5 5 5 5 5 5 5 5 5 5 5 5 5 5 5 5 5 5 5 5 5 5 5 5 5 5 5 5 5 5 5 5 5 5 5 5 5 5 5 5 5 w i 5 5 5 5 5 5 5 & a.k.p w i i & f.z & 5 5 5 5 5 5 5 # k.fXs * u u u u u u u u u u u u u u u u u u u u s s u s s s s a a a a a a a a a a a a a a a a a a a a a a a a m m m m m m m m } m m } H m m J B ",
"% 5 5 5 5 5 5 5 5 5 5 5 5 5 5 5 5 5 5 5 5 5 5 5 5 5 5 5 5 5 5 5 5 5 5 5 5 5 5 5 5 5 5 5 5 5 5 5 5 5 5 5 5 5 5 5 5 5 5 5 5 5 5 5 5 5 5 5 5 5 5 5 5 5 5 5 5 5 5 5 5 5 5 5 5 5 5 5 5 5 5 5 5 5 5 5 5 5 5 5 5 5 5 5 5 5 5 5 5 5 5 5 5 5 5 5 5 5 5 5 5 5 5 5 5 5 5 5 5 5 5 5 5 5 5 5 5 5 5 5 5 5 5 5 5 5 5 5 5 5 5 5 5 5 5 5 w i 5 5 5 5 5 5 5 & n.C.p.V.V.z.f.C.z & 5 5 5 5 5 5 5 $ fXu X $ $ $ $ $ $ s $ $ = $ = $ * u $ * * * * = u u = * * * * * a * * * * * * * a * * u u u u u a u u u u u u a a u u u u u ; w.n u q.$.f w Q.n.",
"& 5 5 5 5 5 5 5 5 5 5 5 5 5 5 5 5 5 5 5 5 5 5 5 5 5 5 5 5 5 5 5 5 5 5 5 5 5 5 5 5 5 5 5 5 5 5 5 5 5 5 5 5 5 5 5 5 5 5 5 5 5 5 5 5 5 5 5 5 5 5 5 5 5 5 5 5 5 5 5 5 5 5 5 5 5 5 5 5 5 5 5 5 5 5 5 5 5 5 5 5 5 5 5 5 5 5 5 5 5 5 5 5 5 5 5 5 5 5 5 5 5 5 5 5 5 5 5 5 5 5 5 5 5 5 5 5 5 5 5 5 5 5 5 5 5 5 5 5 5 5 5 5 5 5 & 5 i 5 5 5 5 5 5 5 & n.V.C.G.l.a.n.n.z & 5 5 5 5 5 5 5 % fX* . . . . . . . u . . $ . $ . * * . $ $ $ $ $ * * $ $ $ $ $ $ u $ $ = = = = * a = * * * * * * a * * * * * * a u * * * * w = 9.c ; q.J H B Q.x.",
"i i i i i i i i i i i i i i i i i i i i i i i i i i i i i i i i i i i i i i i i i i i i i i i i i i i i i i i i i i i i i i i i i i i i i i i i i i i i i i i i i i i i i i i i i i i i i i i i i i i i i i i i i i i i i i i i i i i i i i i i i i i i i i i i i i i i i i i i i i i i i i i i i i i i i i i i i i i i i i 5 5 5 5 5 5 5 5 z m a z i i a N 5 5 5 5 5 5 5 5 5 % fX* . . . . $ $ $ u $ $ $ $ $ $ * * $ $ $ $ $ $ u * $ $ $ = = = s = = = = * * * a * * * * * * u a * * * * * * a u * * * u u ; 9.c ; q.+.s.-.Q.x.",
"w w w w i w i 5 i i w w w w w w w w w w w w w w w w w w w w w w w w i w i 5 5 i i 5 i i i i i i 5 w w w w w w w 5 i i i i i i i i i i i w w w w w w 5 w i i i i i i 5 w w 5 i i i w w w w w w w w w w w w w w w w w w w 5 w 5 w w w w w w w w w w w w w w w w w w w w w w w w w w w w i 5 5 5 5 w w w w w w w w w w w w i i 5 5 5 5 5 5 5 5 & & & & 5 5 & & 5 5 5 5 5 5 5 5 5 % fX* . . . . . . . u $ $ $ $ . . = * $ $ $ $ $ . * * $ $ $ $ $ $ u = = = * $ $ = a * * * * * = * a * * * * * * a u * * * * w = 9.c ; q.$.H m Q.x.",
"5 & & 5 % & % i & & 5 5 5 5 5 5 5 5 5 5 5 5 5 5 5 5 5 5 5 5 5 5 5 & % 5 % w 5 & % i & & % & & % w 5 5 5 5 5 5 5 5 & % & & & & % % & & % 5 5 5 5 5 5 w 5 % & & & % % 5 & 5 5 % & & 5 5 5 5 5 5 5 5 5 5 5 5 5 5 5 5 5 5 & i 5 i 5 5 5 5 5 5 5 5 5 5 5 5 5 5 5 5 5 5 5 5 5 5 5 5 5 5 5 5 & w 5 u 5 5 5 5 5 5 5 5 5 5 5 5 5 5 i 5 5 5 5 5 5 5 5 5 5 5 5 5 5 5 5 5 5 5 5 5 5 5 5 5 % fX* . $ . $ u * * u $ $ $ $ u = u * $ $ $ u a u u * $ $ $ u u a s = = = $ u a u a * * = u a s u a * * * u a u m u * u * a a d 9.c ; q.L s < Q.x.",
"N l.| l.m i B z.z z 5 5 5 5 5 5 5 5 5 5 5 5 5 5 5 5 5 5 5 5 % N B 5 | w N | p.i z l.-.w N a z z V.w 5 5 5 5 % N C.i.z z z z z N | z b N 5 5 5 5 & z C.i.z a m i | f.B p a | k.p a 5 5 5 5 5 5 5 5 5 5 5 5 5 5 5 & a.i a.f.z.p.5 5 5 5 5 5 5 5 5 5 5 5 5 5 5 5 5 5 5 5 5 5 5 5 5 5 p.m f.k.f.n.i 5 5 5 5 5 5 5 5 5 5 5 5 w i 5 5 4 4 4 4 4 4 4 4 4 4 4 4 4 4 4 4 4 4 4 4 5 5 5 % fX= a m = * V i.u u $ $ $ u B V V * $ $ $ u a s a * $ $ * B V m m $ = = u i.i.V s * * * u B i.a a * * u u V i.B u * u u V a d 9.c ; q.L f < Q.n.",
"N S.n.S.f.V.l.V.F.z.& 5 5 5 5 5 5 5 5 5 5 5 5 5 5 5 5 5 5 5 % i.N -.z.V.k.V.G.N Z.Z.l.C.S.f.F.n.n.i 5 5 5 5 % p.C.k.k.V.C.l.F.V.C.l.z.n.z & 5 5 & b G.z.F.z.V.F.i.n.z.N.z.V.n.z.k.& 5 5 5 5 5 5 5 5 5 5 5 5 5 5 & k.a n.@ C.p.& 5 5 5 5 5 5 5 5 5 5 5 5 5 5 5 5 5 5 5 5 5 5 5 5 5 C.V.@Xw N C.5 5 5 5 5 5 5 5 5 5 5 5 5 w i 5 ; A S S A A A A A A A A Z Z Z Z Z Z Z Z Z , 5 5 % fX= a a * = a m a u $ . $ s m m m * $ $ * u u m u * $ $ u m V m a $ $ * a B B m s * * * a V B m s * * u m V V B u * u s a N V %.c ; q.L s < Q.c.",
"z z.z.f.l.f.l.l.n.| & 5 5 5 5 5 5 5 5 5 5 5 5 5 5 5 5 5 5 5 % B n.p.l.f.l.f.z.z.Z.l.N n.k.n.C.l.n.5 5 5 5 5 % | b z N f.l.V.C.i.-.i.C.z.i 5 5 5 & z f.f.n.k.C.N.p.k.a.l.f.a.i.n.p.% 5 5 5 5 5 5 5 5 5 5 5 5 5 5 % l.f.k.p.f.i 5 5 5 5 5 5 5 5 5 5 5 5 5 5 5 5 5 5 5 5 5 5 5 5 5 5 p.N l.f.p.| & 5 5 5 5 5 5 5 5 5 5 5 5 w i 4 ; P.T.T.I.I.I.I.I.I.I.P.I.L.L.L.L.S S A A , 4 5 % fX* . $ . . $ $ $ u $ $ $ $ = . * * $ $ $ $ = * u u $ = $ * * * s * * * $ = * * a * * * * u * u a * * * u u * a s * u * u u 2 9.c ; q.L f w W.B.",
"5 5 5 5 i & i 5 5 i 5 5 5 5 5 5 5 5 5 5 5 5 5 5 5 5 5 5 5 5 5 5 p 5 i & i 5 5 w 5 5 5 5 i 5 5 5 i 5 5 5 5 5 5 5 5 5 5 5 i 5 5 5 5 5 f.i 5 5 5 5 5 5 5 5 5 w 5 5 i u 5 5 5 5 i k.i 5 5 5 5 5 5 5 5 5 5 5 5 5 5 5 5 w p 5 p 5 5 5 5 5 5 5 5 5 5 5 5 5 5 5 5 5 5 5 5 5 5 5 5 5 5 5 5 5 5 & i i 5 5 5 5 5 5 5 5 5 5 5 5 5 5 w i 4 ; P.T.I.I.I.R.I.P.Y.Y.Y.Y.L.Y.Y.L.A A A A , 4 5 % fXu i.i.i.i.i.i.i.a.s.s.s.s.i.s.a.a.s.s.s.s.s.s.a.a.s.a.a.s.s.s.k.a.a.a.a.a.a.a.k.a.a.a.a.a.a.k.l.a.a.k.a.a.k.l.k.k.k.k.k.k.c.XXz.k.XX!.x.f.Q.9X",
"5 5 5 5 & 5 & 5 5 & 5 5 5 5 5 5 5 5 5 5 5 5 5 5 5 5 5 5 5 5 5 5 & 5 & 5 & 5 5 5 5 5 5 5 & 5 5 5 5 5 5 5 5 5 5 5 5 5 5 5 & 5 5 5 5 5 & 5 5 5 5 5 5 5 5 5 5 5 5 5 & 5 5 5 5 5 5 5 5 5 5 5 5 5 5 5 5 5 5 5 5 5 5 5 5 5 & 5 & 5 5 5 5 5 5 5 5 5 5 5 5 5 5 5 5 5 5 5 5 5 5 5 5 5 5 5 5 5 5 5 & & 5 5 5 5 5 5 5 5 5 5 5 5 5 5 5 i 4 ; P.T.I.I.T.T.T.I.I.I.I.I.L.Y.L.K.S A A A , 4 5 % fX* . $ . $ $ $ $ u $ $ $ $ $ $ * * $ $ $ $ $ $ u u $ = = = = = s * = * * * * * a * * * * * * * a * * * * * * a s * * u u u ; 9.c ; q.L s w %X,X",
"w i w w i w i i i i w w w w w w w w w w w w w w w w w w w w w w i i i w i w w i i w w w i i i i i w w w w w w w w w w w i i i w w w i i w w w w w w w w i i i w i i i w w i w w i w w w w w w w w w w w w w w w w i i w i w w w w w w w w w w w w w w w w w w w w w w w w w w w w w w w i i w w w w w w w w w w w w w w i i 4 ; I.T.T.T.T.I.I.P.P.P.P.L.K.K.K.K.S S A A Z 4 5 % fX* . . . . . . . u $ $ $ $ $ . * * . $ $ $ $ $ * * $ $ $ $ $ $ u = $ = = = = * a = * * * * * * a * * * * * * a u * * * * w = %.c ; q.L : -X%Xv.",
"i i i i i i i i i i i i i i i i i i i i i i i i i i i i i i i i i i i i i i i i i i i i i i i i i i i i i i i i i i i i i i i i i i i i i i i i i i i i i i i i i i i i i i i i i i i i i i i i i i i i i i i i i i i i i i i i i i i i i i i i i i i i i i i i i i i i i i i i i i i i i i i i i i i i i i i i i i i i i i 4 ; A S A A A A A A Z Z Z Z Z Z Z Z Z Z , , , 5 5 % fX* . . . . . . . u $ $ $ $ $ . * * $ $ $ $ $ $ u * $ $ $ $ $ $ u = = = = = = * a = * * * * * * a * * * * * * a u * * * * w = %.c ; q.L XXtX%Xc.",
"+ + + + + + + + + + + + + + + + + + + + + + + $ + + + & 5 5 5 5 5 5 5 5 5 5 5 5 4 5 5 5 5 5 5 5 5 5 5 5 5 5 5 5 5 5 5 5 5 4 4 5 5 5 5 5 5 5 5 5 5 5 5 5 5 5 5 5 5 4 5 5 5 5 5 5 5 5 5 5 5 5 5 5 5 5 5 5 5 5 5 5 5 5 5 5 5 5 5 5 5 5 5 5 5 5 5 5 5 5 5 5 5 5 5 5 5 5 5 5 5 5 5 5 5 5 5 5 5 5 5 5 5 5 5 5 5 5 5 5 5 5 5 & 5 i 5 5 4 4 4 4 4 4 4 4 4 4 4 4 4 4 4 4 4 4 4 4 5 5 5 % fX* . . . . . . . u $ $ $ $ $ . * * $ $ $ $ $ $ u * $ $ $ $ $ $ u = = = = = = * a = * * * * * * a * * * * * * a u * * * * w = %.r ; %.m.9X.X%Xc.",
"cXcXcXcXcXcXcXcXcXcXcXcXcXcXcXcXcXcXcXcXcXcXcX@XcXnXhXz & 5 5 5 5 5 5 5 5 5 4 8 ; 5 4 5 5 5 5 5 5 5 5 5 5 5 5 5 5 5 5 4 4 : 8 4 4 5 5 5 5 5 5 5 5 5 5 5 5 5 5 4 5 : 8 4 5 5 5 5 5 5 5 5 5 5 5 5 5 5 5 5 5 5 5 5 5 5 5 5 5 5 5 5 5 5 5 5 5 5 5 5 5 5 5 5 5 5 5 5 5 5 5 5 5 5 5 5 5 5 5 5 5 5 5 5 5 5 5 5 5 5 5 5 5 5 5 5 w i & 5 5 5 5 5 5 5 5 5 5 5 5 5 5 5 5 5 5 5 5 5 5 5 5 % fX* . . . . . . . u $ $ $ $ $ . * * $ $ $ $ $ $ u * $ $ $ $ $ $ u = = = = = = * a = * * * * * * a * * * * * * a u * * * * w = %.c = t.1Xs .X%Xc.",
"PXPXPXPXPXPXPXPXPXPXPXPXPXPXPXPXPXPXPXPXPXPXPXnXPXDXPXfX+ 5 5 5 5 5 5 5 4 8 D L.S L.C 4 5 5 5 5 5 5 5 5 5 5 5 5 5 5 4 C I.P.I.L.: 4 5 5 5 5 5 5 5 5 5 5 5 5 5 D I.P.I.D 5 5 5 5 5 5 5 5 5 5 * * * * * * * * * * * * * * * * * * * * * * * * & & & * * 5 5 5 5 5 5 5 5 5 5 5 5 5 5 5 5 5 5 5 5 5 5 5 5 5 5 5 5 5 5 5 w 5 w i w i i i i i i i i i i i i i i i i i i i i i i i i % fX* . . . . . . . u $ $ $ $ $ . * * $ $ $ $ $ $ u * $ $ $ $ $ $ u = = = = = = * a = * * * * * * a * * * * * * a u * * * * 5 = 9.r ; =X#X, -X%Xc.",
"KXKXKXKXKXKXKXKXKXKXKXKXKXKXKXKXKXKXKXKXKXKXLXmXJXm nXcX+ 5 5 5 5 5 5 5 5 K.C = - ; K.D 4 5 5 5 5 5 5 5 5 5 5 5 5 7 D I.> $ o C I.; 4 5 5 5 5 5 5 5 5 5 5 4 L.L.; - ; L.P.4 5 5 5 5 5 5 5 * S P.K.K.K.K.K.K.K.K.K.S S S S S A A A A A A A A Z Z Z Z = 5 5 & z.fXsXsXdXgXfXfXfXfXfXjXhXhXhXhXhXhXhXhXhXhXhXhXhXhXcXcXi.% i i w i i i i i i i i i i i i i i i i i i i i i i i i % fX* . . . . . . . u $ $ $ $ $ $ * * $ $ $ $ $ $ u * $ $ $ $ $ $ u = = = = = = * a * * * * * * * a * * * * * * a u * * * * w = %.n G -X#X, 6X%Xc.",
"KXKXKXKXKXKXKXKXKXKXKXKXKXKXKXKXKXKXKXKXKXKXKXnXJXjXGXhX+ 5 5 5 5 5 5 4 D C @ < a # $ K.> 4 5 5 5 5 5 5 5 5 5 5 4 : I.; # 2 N n Z D 4 5 5 5 5 5 5 5 5 5 7 C L.# % s . @ L.D 7 5 5 5 5 5 5 & K.T.T.T.T.I.I.I.P.P.P.P.L.K.K.S K.K.K.K.K.S S S A A A A , 5 5 % C.nXmXmXnXnXnXnXnXnXnXnXcXcXcXhXnXGXGXGXGXGXJXJXJXJXJXJXs.% i i & 5 5 5 5 5 5 5 5 5 5 5 5 5 5 5 5 5 5 5 5 5 5 5 5 % fX* X . . . . . . * . . . . . . = * . $ $ $ $ . * * $ $ $ $ $ $ u $ $ $ $ $ $ = s $ = = = = = * s = * * * * = s u * * * * * = %.5.; -X1X, 6XQ.c.",
"KXKXKXKXKXKXKXKXKXKXKXKXKXKXKXKXKXKXKXKXKXKXLXmXHXz GXcX+ w 5 5 5 5 5 5 K., & d B V # D C 4 5 5 5 5 5 5 5 5 5 5 7 D L.@ s s.JXz.o L.8 5 5 5 5 5 5 5 5 5 7 L.C # k s.jX>.Z L.7 5 5 5 5 5 5 & K.T.T.T.I.I.P.P.P.P.P.P.S S K.A K.K.K.S S S S A A A A A , 5 5 % C.mXcXcXcXcXcXmXmXmXnXcXG.G.cXdXcXnXnXnXnXGXGXGXGXGXGXGXp.% i i 5 5 5 5 % & 5 5 5 5 5 5 5 5 5 % 5 5 & & 5 5 5 5 5 % fX* * * * * * * * a * * * * * * u s * u u u u * a a u u u u u u a u u u u u u s m u s s s s s a m s a a a a s m m a a a a a s y.>.; 9X#Xf 9XQ.x.",
"PXPXPXPXPXPXPXPXPXPXPXPXPXPXPXPXPXPXPXPXPXPXPXnXPXKXPXG.+ 5 5 5 5 5 5 5 S , - G.C.k # C D 4 5 5 5 5 5 5 5 5 5 5 7 D K.+ d B k.2 - S ; 4 5 5 5 5 5 5 5 5 4 L.Z # m s.cXs., D 4 5 5 5 5 5 5 & K.T.T.T.T.I.I.P.P.P.P.P.K.K.K.K.K.K.K.K.S S S A A A A A ; 5 5 % C.mXcXcXcXcXmXmXmXmXnXmXcXcXhXcXnXnXnXnXGXGXGXGXGXGXGXGXp.% i i 5 5 & z l.m 5 5 i & i 5 5 5 5 p.a z z m z & 5 5 5 % fX* . $ $ $ $ $ $ u $ $ $ $ $ $ * * $ $ $ = = $ u u $ = * * * * s * * * * * * * a * * * * * * u a * * * * u * a s * u u u * V w.r , 6X#Xf 7XQ.x.",
"Z.Z.Z.Z.Z.Z.Z.Z.Z.Z.Z.Z.Z.Z.Z.Z.Z.Z.Z.Z.Z.Z.Z.l.Z.F.N.5 5 5 5 5 5 5 5 4 S Z # cXx.= # S C 4 5 5 5 5 5 5 5 5 5 5 4 C I.# $ a s # , K.5 5 5 5 5 5 5 5 5 5 7 S K.@ 2 a =   C D 4 5 5 5 5 5 5 & P.T.T.T.T.I.I.I.P.P.P.P.P.P.P.K.K.K.K.K.S S S A A A A A = 5 5 % C.mXcXcXcXmXmXmXmXnXnXnXnXnXnXnXnXnXNXGXGXGXGXGXGXGXGXGXs.% i i 5 5 % B G.i.f.V.n.f.z.l.C.i.a V.n.n.k.N.p.& 5 5 5 % fX* X . . . . . . u . . . . $ . = * . $ $ $ $ . * * $ $ $ $ $ $ u $ $ $ $ $ $ = a $ = = = = = * s = * * * * = s u * * * = m d %.r o -X+Xz 7XQ.x.",
"@ @ @ @ @ @ @ @ @ @ @ @ @ @ @ @ @ @ @ @ @ @ @ + @   X % 5 5 5 5 5 5 5 4 : L.> & . + C S 5 5 5 5 5 5 5 5 5 5 5 5 5 4 L.L.+ - + = L.Z 4 5 5 5 5 5 5 5 5 5 5 8 I.D + - # Z L.8 5 5 5 5 5 5 5 5 Z Z Z Z Z Z Z Z Z Z Z > , , , , , , , , , , , , , , , , = 5 5 5 N i.i.i.i.i.i.i.i.i.i.i.i.p.p.p.s.s.s.s.s.a.a.a.a.a.a.a.z & w i 5 5 % B C.l.Z.F.| V.f.C.S.B z n.f.k.C.i.f.& 5 5 5 % fX* . . . . . . . u . . $ $ $ . * * . $ $ $ $ $ * * $ $ $ $ $ $ u = $ $ = = = * a = = * * * = * s = * * * * * a u * * * a B = %.r O 6XM.} 6XW.x.",
"GXGXGXGXGXGXGXGXGXGXGXGXGXGXGXGXGXGXGXGXGXGXGXjXGXJXnXB % 5 5 5 5 5 5 5 4 C Z 4 5 5 D ; 4 5 5 5 5 5 5 5 5 5 5 5 5 4 8 L.8 5 4 > C 4 5 5 5 5 5 5 5 5 5 5 5 4 C D 4 5 4 C > 4 5 5 5 5 5 5 5 5 4 4 4 4 4 4 4 4 4 4 4 4 4 4 4 4 4 4 4 4 4 4 4 4 4 4 4 5 5 5 5 5 & % % % % % % % % % % % % % % % % % % % % % % % % % % % 5 5 w i 5 5 5 i u z N z i p C.a.a i i a.5 i B p.N & 5 5 5 % fX= . . . . . . . u . . $ $ $ . * * . $ $ $ $ $ * * $ $ $ $ $ $ u = $ $ = = = = a = = = * * = * s = * * * * * s u * * s B * = %.r = 6X$.3.6XW.x.",
"PXPXPXPXPXPXPXPXPXPXPXPXPXPXPXPXPXPXPXPXPXPXPXnXPXcXPXhX+ w 5 5 5 5 5 5 5 4 4 5 5 5 4 5 5 5 5 5 5 5 5 5 5 5 5 5 5 5 5 7 5 5 5 4 4 5 5 5 5 5 5 5 5 5 5 5 5 5 4 4 5 5 5 4 4 5 5 5 5 5 5 5 5 5 5 5 5 5 5 5 5 5 5 5 5 5 5 5 5 5 5 5 5 5 5 5 5 5 5 5 5 5 5 5 5 5 5 5 5 5 5 5 5 5 5 5 5 5 5 5 5 5 5 5 5 5 5 5 5 5 5 5 5 5 5 5 w i 5 5 5 5 5 & & & & 5 b 5 & 5 5 5 5 5 % & 5 5 5 5 5 % fX= . . . . . . . u . . $ $ $ . * * . $ $ $ $ $ * * $ $ $ $ $ $ u $ $ $ $ = = = s = = = * * = * s = * * * * * s u = u B * * = %.e * 7X$.w.-XE.x.",
"KXKXKXKXKXKXKXKXKXKXKXKXKXKXKXKXKXKXKXKXKXKXLXnXJX| nXcX+ 5 5 5 5 5 5 5 5 5 5 5 5 5 5 5 5 5 5 5 5 5 5 5 5 5 5 5 5 5 5 5 5 5 5 5 5 5 5 5 5 5 5 5 5 5 5 5 5 5 5 5 5 5 5 5 5 5 5 5 5 5 5 5 5 5 5 5 5 5 5 5 5 5 5 5 5 5 5 5 5 5 5 5 5 5 5 5 5 5 5 5 5 5 5 5 5 5 5 5 5 5 5 5 5 5 5 5 5 5 5 5 5 5 5 5 5 5 5 5 5 5 5 5 5 5 5 5 w i 5 5 5 5 5 5 5 5 5 5 & 5 5 5 5 5 5 5 5 5 5 5 5 5 5 % fX= . . . . . . . u . . . $ $ . * * . $ $ $ $ $ * * $ $ $ $ $ $ u $ $ $ $ $ = = s = = = = * = * s = * * * * * a u * B u * * = %.e w 7XL w.-XE.x.",
"KXKXKXKXKXKXKXKXKXKXKXKXKXKXKXKXKXKXKXKXKXKXKXnXJXsXGXhX+ 5 5 5 5 5 5 5 5 5 5 5 5 5 5 5 5 5 5 5 5 5 5 5 5 5 5 5 5 5 5 5 5 5 5 5 5 5 5 5 5 5 5 5 5 5 5 5 5 5 5 5 5 5 5 5 5 5 5 5 5 5 5 5 5 5 5 5 5 5 4 4 4 5 5 5 5 5 5 5 5 5 5 5 & 5 & 5 5 & 5 5 5 5 5 5 5 5 5 5 5 5 5 & & 5 5 5 5 5 5 5 5 5 5 5 5 5 5 5 5 5 5 5 5 5 5 5 w i 5 5 5 5 5 5 5 5 5 5 5 5 5 5 5 5 5 5 5 5 5 5 5 5 5 % fX= X . . . . . . u . . . $ $ . = * . $ $ $ $ $ * * $ $ $ $ $ $ u $ $ $ $ $ $ * s $ = = = = = * s = * * * * * s u B u * * * = %.e e 7XL XX*XE.x.",
"KXKXKXKXKXKXKXKXKXKXKXKXKXKXKXKXKXKXKXKXKXKXKXmXHX| JXcX+ w 5 5 5 5 5 5 5 i & u w u 5 i 5 5 5 5 5 5 5 5 5 5 5 5 5 5 5 i 5 5 i 5 i 5 5 5 5 5 5 5 5 5 5 5 5 5 5 5 u i & i 5 5 5 5 5 5 5 5 5 5 5 5 5 4 ; Z > 5 4 5 5 5 5 5 5 5 5 5 z i a 5 i i 5 5 5 5 5 5 5 5 5 5 5 & u z a 5 & 5 5 5 5 5 5 5 5 5 5 5 i 5 5 i 5 5 5 5 5 5 w i 5 5 5 5 5 5 5 5 5 5 5 5 i 5 5 5 5 5 5 5 5 5 5 5 5 % fX= X . . . . . . u . . . $ $ . = * . $ $ $ $ . * * $ $ $ $ $ $ u $ $ $ $ $ $ = s $ = = = = = * s = * * * * = u i.a = * * * = %.w r 7XL XX.XE.x.",
"PXPXPXPXPXPXPXPXPXPXPXPXPXPXPXPXPXPXPXPXPXPXPXnXPXPXPXC.# 5 5 5 5 5 5 & | V.i f.n.z.l.n.i.& 5 5 5 5 5 5 5 5 5 5 5 5 i V.| b V.l.n.a & 5 5 5 5 5 5 5 5 5 5 % i.k.f.k.i V.-.& 5 5 5 5 5 5 5 5 5 5 5 D L.D K.S > 4 5 5 5 5 5 5 5 5 f.n.k.| p V.a & 5 5 5 5 5 5 5 5 5 N f.p.a.a.z 5 5 5 5 5 5 5 5 & z a.p.N a f.a & 5 5 5 5 w i 5 5 5 5 5 5 5 5 5 5 & | V.z & 5 5 5 5 5 5 5 5 5 5 % fX* * * * * * u u a u u u u u u s a u u u u u u a a u u u u u u m s s s s s s a m s s a a a a a m a a a a a s B B s a a a a s w.b 9.9XL >X.XW.n.",
"k.k.k.k.k.k.k.k.k.k.k.k.k.k.k.k.k.k.k.k.k.k.k.i.k.l.p.5 5 5 5 5 5 5 5 & a.f.p.i.V.l.C.k.f.& 5 5 5 5 5 5 5 5 5 5 5 % N f.a.p.a.S.p.| % 5 5 5 5 5 5 5 5 5 5 & a z.p.f.i.a.f.& 5 5 5 5 5 5 5 5 5 4 D D # + + > L.; 4 5 5 5 5 5 5 % | N | N & V.m & 5 5 5 5 5 5 5 & B a.% . . u l.a 5 5 5 5 5 5 5 5 f.n.B | N | N & 5 5 5 5 w i 5 5 5 5 5 5 5 5 5 5 & p.f.| % 5 5 5 5 5 5 5 5 5 5 % fX= X . . . . . . u . . . . $ . = * . $ $ $ $ . * * $ $ $ $ $ $ u $ $ $ $ $ $ = s $ = = = = = * s = * * * $ a B * * * * * * = %.w %.6XC >Xe.E.x.",
"% % % % % % % % % % % % % % % % % % % % % % % & % % $ & 5 5 5 5 5 5 5 & N n.| f.k.k.f.z.| & 5 5 5 5 5 5 5 5 5 5 5 5 5 z.f.| z.f.n.i 5 5 5 5 5 5 5 5 5 5 5 5 p | a.l.| z.| & 5 5 5 5 5 5 5 5 4 Z K.% * a a # Z D 4 5 5 5 5 5 5 5 p.N C.| | l.z & 5 5 5 5 5 5 5 p f.+   s d . p a.& 5 5 5 5 5 5 5 N p.i.| N a.p 5 5 5 5 5 w i 5 5 5 5 5 5 5 5 5 5 & N V.p 5 5 5 5 5 5 5 5 5 5 5 % fX= X . . . . . . u . . . . $ . = * . $ $ $ $ $ * * $ $ $ $ $ $ u $ $ $ $ $ $ = s $ = = = = = * u = * * $ a m u u = * * * * = %.* q.-XC 9Xq.E.x.",
"HXHXHXHXHXHXHXHXHXHXHXHXHXHXHXHXHXHXHXHXHXHXHXhXHXLXHXp.% 5 5 5 5 5 5 5 5 5 5 5 5 5 5 5 5 5 5 5 5 5 5 5 5 5 5 5 5 5 5 5 5 & & % 5 5 5 5 5 5 5 5 5 5 5 5 5 5 5 5 5 5 5 5 5 5 5 5 5 5 5 5 5 5 7 D S n GXS.V u = K.5 5 5 5 5 5 5 5 5 5 5 5 w 5 & 5 5 5 5 5 5 5 & N | % G.V.B s $ a.u 5 5 5 5 5 5 5 & % 5 5 5 5 5 5 5 5 5 5 w i 5 5 5 5 5 5 5 5 5 5 & & & & & 5 5 5 5 5 5 5 5 5 5 % fX= X . . . . . . u . . . . . . = * . $ $ $ $ $ * * $ $ $ $ $ $ u $ $ $ $ $ $ = s $ = = = = = * s $ * $ u B $ s u = * * * * = %.* q.-XC 9X%.E.x.",
"IXIXIXIXIXIXIXIXIXIXIXIXIXIXIXIXIXIXIXIXIXIXIXnXIX<XKXhX+ w 5 5 5 5 5 5 5 5 % % & & 5 5 5 5 5 5 5 5 5 5 5 5 5 5 5 5 5 5 & m z z 5 5 5 5 5 5 5 5 5 5 5 5 5 5 5 % % & % 5 5 5 5 5 5 5 5 5 5 5 7 D D @ c.a.V < = K.5 5 5 5 5 5 5 5 5 i 5 w % 5 5 5 5 5 5 5 5 5 % | a.u hXC.m u $ a.i 5 5 5 5 5 5 5 5 u 5 w & 5 5 5 5 5 5 5 w i 5 5 5 5 5 5 5 5 5 5 a w z i z & 5 5 5 5 5 5 5 5 5 % fX= X . . . . . . u . . . . . . = * . $ $ $ $ . * * $ $ $ $ $ $ u $ $ $ $ $ $ = s $ = = = = $ * s = $ u B * $ s u = * * * * = %.* OX-XC 9X%.W.x.",
"KXKXKXKXKXKXKXKXKXKXKXKXKXKXKXKXKXKXKXKXKXKXKXnXJXk.nXhX+ 5 5 5 5 5 5 5 5 5 f.k.| -.B & 5 5 5 5 5 5 5 5 5 5 5 5 5 5 5 5 k.V.V.n.5 5 5 5 5 5 5 5 5 5 5 5 5 5 5 f.k.| i.N & 5 5 5 5 5 5 5 5 5 4 C P.# . u 2 @ C D 4 5 5 5 5 5 5 5 5 k.p.k.f.i 5 5 5 5 5 5 5 5 & a C.-   2 u X a a.& 5 5 5 5 5 5 5 & | N -.| i 5 5 5 5 5 5 w i 5 5 5 5 5 5 5 5 5 i V.p.n.N.z.p & 5 5 5 5 5 5 5 5 % fX= X . . . . . . u . . . . . . = * . $ $ $ $ . * * $ $ $ $ $ $ u $ $ $ $ $ $ = s $ $ = = = $ * s $ * B * = = u u = * * * * = %.* .X-XF 9Xt W.x.",
"KXKXKXKXKXKXKXKXKXKXKXKXKXKXKXKXKXKXKXKXKXKXKXnXJXS.GXhX+ 5 5 5 5 5 5 5 5 i V.n.l.l.k.& 5 5 5 5 5 5 5 5 5 5 5 5 5 5 % N n.n.V.V.w 5 5 5 5 5 5 5 5 5 5 5 5 & z V.z.l.z.f.% 5 5 5 5 5 5 5 5 5 5 4 L.P.# - + > L.; 4 5 5 5 5 5 5 5 & N.V.n.k.5 5 5 5 5 5 5 5 5 5 % a.C.% + . u k.p 5 5 5 5 5 5 5 5 & p.f.a.p.5 5 5 5 5 5 5 w i 5 5 5 5 5 5 5 5 5 & f.k.f.Z.a.N & 5 5 5 5 5 5 5 5 % fX= X . . . . . . u . . . . . . = * . $ $ $ $ . * * $ $ $ $ $ $ u $ $ $ $ $ $ $ s $ $ $ = = $ * u $ B u $ * $ s u = * * * * = %.* .X-XF 9Xy W.x.",
"KXKXKXKXKXKXKXKXKXKXKXKXKXKXKXKXKXKXKXKXKXKXKXmXLXk.HXcX+ w 5 5 5 5 5 5 5 i | N N | a.& 5 5 5 5 5 5 5 5 5 5 5 5 5 5 5 i k.p.k.f.5 5 5 5 5 5 5 5 5 5 5 5 5 5 i | N N i.p.& 5 5 5 5 5 5 5 5 5 5 5 8 D 5 5 4 > > 4 5 5 5 5 5 5 5 5 5 B i z.f.5 5 5 5 5 5 5 5 5 5 5 5 | w 5 5 p z & 5 5 5 5 5 5 5 5 5 b w -.i.5 5 5 5 5 5 5 w i 5 5 5 5 5 5 5 5 5 5 B N k.-.k.5 5 5 5 5 5 5 5 5 5 % fX= X . . . . . . * . . . . . . $ * . $ . $ $ . * * . $ $ $ $ $ u $ $ $ $ $ $ $ u $ $ $ $ $ $ * u m s $ = = $ u u $ = = = * $ %.* -X-XF 9Xe W.x.",
"KXKXKXKXKXKXKXKXKXKXKXKXKXKXKXKXKXKXKXKXKXKXKXmXIXPXIXn.% 5 5 5 5 5 5 5 5 5 & & & 5 & 5 5 5 5 5 5 5 5 5 5 5 5 5 5 5 5 5 & & & & 5 5 5 5 5 5 5 5 5 5 5 5 5 5 5 & & & 5 & 5 5 5 5 5 5 5 5 5 5 5 5 5 7 5 5 5 4 4 5 5 5 5 5 5 5 5 5 5 & 5 % & 5 5 5 5 5 5 5 5 5 5 5 5 % 5 5 5 5 5 5 5 5 5 5 5 5 5 5 5 5 5 & 5 5 5 5 5 5 5 5 w i 5 5 5 5 5 5 5 5 5 5 & & & & & 5 5 5 5 5 5 5 5 5 5 % fX= . $ $ $ $ $ $ u $ $ $ $ $ $ * * $ $ $ $ $ $ u * $ $ $ $ = $ u = = = = = * * a = * * * * * = B a = * * * * s u * * * * * = %.w -X-X$.9Xe W.x.",
"| | | | | | | | | | | | | | | | | | | | | | | m | | b % 5 5 5 5 5 5 5 5 5 5 5 5 5 5 5 5 5 5 5 5 5 5 5 5 5 5 5 5 5 5 5 5 5 5 5 5 5 5 5 5 5 5 5 5 5 5 5 5 5 5 5 5 5 5 5 5 5 5 5 5 5 5 5 5 5 5 5 5 5 5 5 5 5 5 5 5 5 5 5 5 5 5 5 5 5 5 5 5 5 5 5 5 5 5 5 5 5 5 5 5 5 5 5 5 5 5 5 5 5 5 5 5 5 5 5 5 5 5 5 5 5 5 5 5 5 5 5 5 w i 5 5 5 5 5 5 5 5 5 5 5 5 5 5 5 5 5 5 5 5 5 5 5 5 5 % fX* = * * * * * * a * * * * * * u u * * * * * * s s * u u u u u a u u u u u u u m u u u u u u V B u u u u s u m a u s s s p 2 9.a 6X.X$.9Xu Q.x.",
"% % % % % % % % % % % % % % % % % % % % % % % & % % & 5 5 5 5 5 5 5 5 5 5 5 5 5 5 5 5 5 5 5 5 5 5 5 5 5 5 5 5 5 5 5 5 5 5 5 5 5 5 5 5 5 5 5 5 5 5 5 5 5 5 5 5 5 5 5 5 5 5 5 5 5 5 5 5 5 5 5 5 5 5 5 5 5 5 5 5 5 5 5 5 5 5 5 5 5 5 5 5 5 5 5 5 5 5 5 5 5 5 5 5 5 5 5 5 5 5 5 5 5 5 5 5 5 5 5 5 5 5 5 5 5 5 5 5 5 5 5 5 5 5 w 5 5 5 5 5 5 5 5 5 5 5 5 5 5 5 5 5 5 5 5 5 5 5 5 5 % fX$ X . . . . . . * . . . . . . $ * . . . . . . * * . $ $ $ $ $ u $ $ $ $ $ $ $ u $ $ $ $ $ u V u $ $ $ $ $ $ u * $ $ $ = & - %.w 6X.X+.9X. W.c.",
"5 5 5 5 5 5 5 5 5 5 5 5 5 5 5 5 5 5 5 5 5 5 5 5 5 5 5 5 5 5 5 5 5 5 5 5 5 5 5 5 5 5 5 5 5 5 5 5 5 5 5 5 5 5 5 5 5 5 5 5 5 5 5 5 5 5 5 5 5 5 5 5 5 5 5 5 5 5 5 5 5 5 5 5 5 5 5 5 5 5 5 5 5 5 5 5 5 5 5 5 5 5 5 5 5 5 5 5 5 5 5 5 5 5 5 5 5 5 5 5 5 5 5 5 5 5 5 5 5 5 5 5 5 5 5 5 5 5 5 5 5 5 5 5 5 5 5 5 5 5 5 5 5 5 5 5 5 5 5 5 5 5 5 5 5 5 5 5 5 5 5 5 5 5 5 5 5 5 5 5 5 5 5 % fX= X . . . . . . u . . . . . . = * . $ $ $ $ . * * . $ $ $ $ $ u $ $ $ $ $ $ $ s $ $ $ $ u V * u $ = = = = $ u u = * * * * $ %.e 9Xe.+.9Xo W.c.",
"5 5 5 5 5 5 5 5 5 5 5 5 5 5 5 5 5 5 5 5 5 5 5 5 5 5 5 5 5 5 5 5 5 5 5 5 5 5 5 5 5 5 5 5 5 5 5 5 5 5 5 5 5 5 5 5 5 5 5 5 5 5 5 5 5 5 5 5 5 5 5 5 5 5 5 5 5 5 5 5 5 5 5 5 5 5 5 5 5 5 5 5 5 5 5 5 5 5 5 5 5 5 5 5 5 5 5 5 5 5 5 5 5 5 5 5 5 5 5 5 5 5 5 5 5 5 5 5 5 5 5 5 5 5 5 5 5 5 5 5 5 5 5 5 5 5 5 5 5 5 5 5 5 5 5 5 5 5 5 5 5 5 5 5 5 5 5 5 5 5 5 5 5 5 5 5 5 5 5 5 5 5 5 % fX$ X . . . . . . * . . . . . . $ * . . $ $ $ . * * . $ $ $ $ $ u $ $ $ $ $ $ $ u $ $ $ * V = = u $ = = = = $ u * $ * = = * - %.y 9Xq.#.-Xo W.c.",
"5 5 5 5 5 5 5 5 5 5 5 5 5 5 5 5 5 5 5 5 5 5 5 5 5 5 5 5 5 5 5 5 5 5 5 5 5 5 5 5 5 5 5 5 5 5 5 5 5 5 5 5 5 5 5 5 5 5 5 5 5 5 5 5 5 5 5 5 5 5 5 5 5 5 5 5 5 5 5 5 5 5 5 5 5 5 5 5 5 5 5 5 5 5 5 5 5 5 5 5 5 5 5 5 5 5 5 5 5 5 5 5 5 5 5 5 5 5 5 5 5 5 5 5 5 5 5 5 5 5 5 5 5 5 5 5 5 5 5 5 5 5 5 5 5 5 5 5 5 5 5 5 5 5 5 5 5 5 5 5 5 5 5 5 5 5 5 5 5 5 5 5 5 5 5 5 5 5 5 5 5 5 5 % fX$ X . . . . . . * . . . . . . $ * . . . $ $ . * * . $ $ $ $ $ u $ $ $ $ $ $ $ u $ $ = V * $ * u $ $ $ $ = $ u * $ = = = * - %.t 9Xq.#.XXo W.c.",
"5 5 5 5 5 5 5 5 5 5 5 5 5 5 5 5 5 5 5 5 5 5 5 5 5 5 5 5 5 5 5 5 5 5 5 5 5 5 5 5 5 5 5 5 5 5 5 5 5 5 5 5 5 5 5 5 5 5 5 5 5 5 5 5 5 5 5 5 5 5 5 5 5 5 5 5 5 5 5 5 5 5 5 5 5 5 5 5 5 5 5 5 5 5 5 5 5 5 5 5 5 5 5 5 5 5 5 5 5 5 5 5 5 5 5 5 5 5 5 5 5 5 5 5 5 5 5 5 5 5 5 5 5 5 5 5 5 5 5 5 5 5 5 5 5 5 5 5 5 5 5 5 5 5 5 5 5 5 5 5 5 5 5 5 5 5 5 5 5 5 5 5 5 5 5 5 5 5 5 5 5 5 5 % fX$ X . . . . . . * . . . . . . $ * . . . . $ . * * . $ $ $ $ $ u $ $ $ $ $ $ $ u $ $ V u $ $ = u $ $ $ $ = $ u * $ = = = * $ %.[ 6X%.M.XXo W.c.",
"5 5 5 5 5 5 5 5 5 5 5 5 5 5 5 5 5 5 5 5 5 5 5 5 5 5 5 5 5 5 5 5 5 5 5 5 5 5 5 5 5 5 5 5 5 5 5 5 5 5 5 5 5 5 5 5 5 5 5 5 5 5 5 5 5 5 5 5 5 5 5 5 5 5 5 5 5 5 5 5 5 5 5 5 5 5 5 5 5 5 5 5 5 5 5 5 5 5 5 5 5 5 5 5 5 5 5 5 5 5 5 5 5 5 5 5 5 5 5 5 5 5 5 5 5 5 5 5 5 5 5 5 5 5 5 5 5 5 5 5 5 5 5 5 5 5 5 5 5 5 5 5 5 5 5 5 5 5 5 5 5 5 5 5 5 5 5 5 5 5 5 5 5 5 5 5 5 5 5 5 5 5 5 % fX$ X . . . . . . * . . . . . . $ * . $ . . $ . * * . $ $ $ $ $ u $ $ $ $ $ $ $ u $ m u $ $ $ = u $ $ $ $ = $ u * $ = = = & $ [ %.6X%.M.OXo W.c.",
"i i i i i i i i i i i i i i i i i i i i i i i i i i i i i i i i i i i i i i i i i i i i i i i i i i i i i i i i i i i i i i i i i i i i i i i i i i i i i i i i i i i i i i i i i i i i i i i i i i i i i i i i i i i i i i i i i i i i i i i i i i i i i i i i i i i i i i i i i i i i i i i i i i i i i i i i i i i i i i i i i i i i i i i i i i i i i i i i i i i i i i i % fX$ X . . . . . . * . . . . . . $ * . . . . . . * * . $ $ $ $ $ u $ $ $ $ $ $ $ u a a . $ $ $ = u $ $ $ $ $ $ u * $ = $ $ % - [ %.6X[ +Xw.o W.c.",
"5 5 5 5 5 5 5 5 5 5 5 5 5 5 5 5 5 5 5 5 5 5 5 5 5 5 5 5 5 5 5 5 5 5 5 5 5 5 5 5 5 5 5 5 5 5 5 5 5 5 5 5 5 5 5 5 5 5 5 5 5 5 5 5 5 5 5 5 5 5 5 5 5 5 5 5 5 5 5 5 5 5 5 5 5 5 5 5 5 5 5 5 5 5 5 5 5 5 5 5 5 w 5 5 w w i w w w w 5 5 5 5 5 5 5 5 5 5 5 5 5 5 5 5 5 5 5 5 5 5 5 5 w 5 5 5 w 5 5 5 5 5 5 5 5 w 5 i 5 5 w 5 5 5 5 5 5 5 5 5 5 5 5 5 5 5 5 5 5 5 5 5 5 5 5 5 5 5 w w % fX$ . . . . . . . u . . . $ $ . = * . $ $ $ $ . * * $ $ $ $ $ $ u $ $ $ $ $ $ $ V a $ = = = $ * u $ = = = * $ u u = * * * * = [ q.-X[ #X9.- W.c.",
"5 5 5 5 5 5 5 5 5 5 5 5 5 5 5 5 5 5 5 5 5 5 5 5 5 5 5 5 5 5 5 5 5 5 5 5 5 5 5 5 5 5 5 5 5 5 5 5 5 5 5 5 5 5 5 5 5 5 5 5 5 5 5 5 5 5 5 5 5 5 5 5 5 5 5 5 5 5 5 5 5 5 5 5 5 5 5 5 5 5 5 5 5 5 5 5 5 5 5 5 5 & i u & & % & & % & 5 5 5 5 5 5 5 5 5 5 5 5 5 5 5 5 5 5 5 5 5 5 5 5 & z i m 5 5 w m 5 5 5 5 5 & i p 5 5 5 5 5 5 5 5 5 5 5 5 5 5 5 5 5 5 5 5 5 5 5 5 5 5 5 5 5 5 5 5 % fX* * * * * * * * a * * * * * * u s * u u u u * a s u u u u u u a u u u u u u m B u u u u u u s m u u u u s u m a u s s s p u 9.XX-X%.#X7.2 Q.x.",
"5 5 5 5 5 5 5 5 5 5 5 5 5 5 5 5 5 5 5 5 5 5 5 5 5 5 5 5 5 5 5 5 5 5 5 5 5 5 5 5 5 5 5 5 5 5 5 5 5 5 5 5 5 5 5 5 5 5 5 5 5 5 5 5 5 5 5 5 5 5 5 5 5 5 5 5 5 5 5 5 5 5 5 5 5 5 5 5 5 5 5 5 5 5 5 5 5 5 5 5 & z z.| p z | m i N N 5 5 5 5 5 5 5 5 5 5 5 5 5 5 5 5 5 5 5 5 5 5 5 5 % f.n.Z.a.z.l.V.l.V.V.p.V.V.k.f.n.z & 5 5 5 5 5 5 5 5 5 5 5 5 5 5 5 5 5 5 5 5 5 5 5 5 5 5 5 5 5 % fX$   X X X . . X * . . . . . . $ = . . . . . . * = . . . . . . u $ . $ $ . * m u $ $ $ $ $ $ $ u $ $ $ $ $ $ u * $ $ $ $ $ - [ .X.X&.#Xc . W.c.",
"5 5 5 5 5 5 5 5 5 5 5 % & 5 5 5 & 5 5 5 & & 5 5 5 5 5 5 5 5 5 5 % 5 % 5 5 5 5 5 5 5 5 5 5 5 5 5 5 5 5 5 5 & & 5 & 5 5 5 5 5 5 5 5 5 5 5 5 5 5 & % 5 5 5 5 5 5 5 5 5 5 5 5 5 5 5 5 5 5 5 5 5 5 5 5 5 5 5 % f.N z f.N.z.f.V.S.C.5 5 5 5 5 5 5 5 5 5 5 5 5 5 5 5 5 5 5 5 5 5 5 5 % p.f.k.Z.p.n.n.n.C.z.N F.a.V.n.l.p.% 5 5 5 5 5 5 5 5 5 5 5 5 5 5 5 & 5 & 5 5 5 5 5 5 5 5 5 5 5 % fX$ X . . . . . . * . . . . . . $ * . . . . $ . * * . $ $ $ $ $ u $ $ $ $ * V $ u $ $ $ $ $ $ = u $ $ $ $ $ $ u * $ $ $ = % $ [ -X.X&.#Xi $ W.c.",
"| a 5 5 5 5 5 5 5 5 5 a.| 5 5 5 a.5 5 5 z b i 5 5 5 5 5 5 5 5 w p.i p.& z B % 5 5 5 5 i 5 5 5 5 5 5 5 5 & z N p m p 5 & z i.5 5 5 5 5 5 5 5 & B f.u & i.w 5 w 5 w 5 5 5 5 5 5 5 5 5 5 5 5 5 5 5 5 5 5 5 & z z.| n.n.m N l.a.f.5 5 5 5 5 5 5 5 5 5 5 5 5 5 5 5 5 5 5 5 5 5 5 5 5 i 5 z z.p N b z m a 5 m z N z N a 5 5 5 5 5 5 5 5 5 5 5 5 5 5 5 5 m i z & b N a i.% 5 5 5 5 5 % fX$ X . . . . . . * . . . . . . $ * . . . . . . * * . $ $ $ $ $ u $ $ . $ m = $ u $ $ $ $ $ $ = u $ $ $ $ $ $ u * $ $ $ $ % $ [ -Xt.q.#X; # W.c.",
"l.n.-.& 5 5 5 5 5 5 5 Z.N.l.V.l.Z.i.i.k.z.V.a.k.f.n.k.5 5 5 5 i F.f.Z.-.V.V.p.C.l.N l.n.N & 5 5 5 5 5 5 % k.Z.l.Z.i.k.z.a.Z.| & 5 5 5 5 5 5 % l.Z.k.V.n.z.z.p.N.l.k.C.i 5 5 5 5 5 5 5 5 5 5 5 5 5 5 5 5 5 & w 5 5 5 5 5 & 5 w 5 5 5 5 5 5 5 5 5 5 5 5 5 5 5 5 5 5 5 5 5 5 5 5 5 5 5 i a & & & & & & 5 & & & % % 5 5 5 5 5 5 5 5 5 5 5 5 5 5 5 5 & n.z.V.f.k.k.n.k.% 5 5 5 5 5 % fX$ X . . . . . . * . . . . . . $ * . . . . . . * * . . $ $ $ . u $ $ $ m * . $ u $ $ $ $ $ $ $ u $ $ $ $ $ $ u * $ $ $ $ % - [ -Xq.e.#X, # W.c.",
"n.f.z.& 5 5 5 5 5 5 5 V.z.Z.C.z.n.z.C.n.| l.V.k.N.f.k.u 5 5 5 i V.Z.n.Z.G.F.n.Z.n.n.C.n.p.% 5 5 5 5 5 5 5 n.n.N.f.k.S.G.B G.p.% 5 5 5 5 5 5 % k.n.C.C.n.Z.n.Z.Z.z.G.N.i 5 5 5 5 5 5 5 & % & 5 5 5 5 5 5 & 5 5 5 5 5 5 5 5 5 5 5 % % 5 5 5 5 5 5 5 5 5 5 5 5 5 5 5 & % & 5 5 5 5 5 5 & & 5 5 5 5 5 5 5 5 5 5 z z % & % % & % 5 5 5 5 5 5 5 5 5 5 & l.a.Z.k.n.n.z.f.% 5 5 5 5 5 % fX$ X . . . . . . * . . . . . . $ * . . . . . . * * . . . $ $ . u $ . m u . $ $ u $ $ $ $ $ $ $ u $ $ $ $ $ $ u * $ $ $ $ % - [ 7X[ .X#X, # W.c.",
"i N m 5 5 5 5 5 5 5 5 i p m z N N m N z B N p N z i a 5 5 5 5 5 z z z B b a z m z N f.k.5 5 5 5 5 5 5 5 i i 5 N N B B z | a z 5 5 5 5 5 5 5 5 i i z N a z m N m N z N 5 5 5 5 5 5 5 & i.k.a.5 5 5 5 & i p.5 5 5 5 5 5 5 5 5 5 5 a.p.5 5 5 5 5 5 5 5 5 5 5 5 5 5 & N l.f.i & 5 5 & 5 p.i & 5 5 5 5 5 5 5 5 & -.C.| N i.| N i.5 5 5 5 5 5 5 5 5 5 5 p 5 a B p p | z & 5 5 5 5 5 % fX$ X . X . . . . * . . . . . . $ * . . . . . . * * . $ . . $ $ u . a s . $ $ $ u $ $ $ $ $ $ = u $ $ $ $ $ $ u * $ $ $ $ % - %.7Xy -X#X, # W.c.",
"5 & & 5 5 5 5 5 5 5 5 5 5 & & & & & % & % & 5 % & 5 & 5 5 5 5 5 & & & % & & & & & % i 5 5 5 5 5 5 5 5 5 5 5 5 % & % % & % & & 5 5 5 5 5 5 5 5 5 5 & & & & & & & & & & 5 5 5 5 5 5 5 % B k.V.l.l.p.n.n.f.C.z.5 5 5 5 5 5 5 5 5 % i.l.k.a.n.f.n.k.& 5 5 5 5 5 5 5 & z l.z.n.k.a.z.V.k.N.V.i & 5 5 5 5 5 5 5 % p.p.k.n.N.z.G.C.5 5 5 5 5 5 5 5 5 5 5 5 5 & % & 5 % & 5 5 5 5 5 5 % fX$   X X X X X X * . . X . . X $ $ X . . . . . * = . . . . . . * u a . $ . . $ u . $ $ $ $ . $ u . $ $ $ $ . u * $ $ $ $ $ o %.8X$ -X#X, # E.c.",
"5 5 5 5 5 5 5 5 5 5 5 5 5 5 5 5 5 5 5 5 5 5 5 5 5 5 5 5 5 5 5 5 5 5 5 5 5 5 5 5 5 5 5 5 5 5 5 5 5 5 5 5 5 5 5 5 5 5 5 5 5 5 5 5 5 5 5 5 5 5 5 5 5 5 5 5 5 5 5 5 5 5 5 5 5 5 5 5 5 5 & b f.p.f.V.N F.f.C.l.f.z & 5 5 5 5 5 5 5 i V.p.l.V.a.z.G.f.& 5 5 5 5 5 5 5 5 i f.p.a.C.N S.k.n.N.f.N % 5 5 5 5 5 5 5 5 V.p.f.p.N B f.i.& 5 5 5 5 5 5 5 5 5 5 5 5 5 5 5 5 5 5 5 5 5 5 5 5 % fX$ . $ $ $ $ $ $ u $ $ $ $ $ $ * * $ $ $ $ $ $ u * $ $ $ $ = $ a m $ = = = = * s = = * * * = * u = * * * * = u u * * * * 5 = q.7Xt 7X$.; & W.c.",
"5 5 5 5 5 5 5 5 5 5 5 5 5 5 5 5 5 5 5 5 5 5 5 5 5 5 5 5 5 5 5 5 5 5 5 5 5 5 5 5 5 5 5 5 5 5 5 5 5 5 5 5 5 5 5 5 5 5 5 5 5 5 5 5 5 5 5 5 5 5 5 5 5 5 5 5 5 5 5 5 5 5 5 5 5 5 5 5 5 5 5 i z a a z 5 N b | z a w 5 5 5 5 5 5 5 5 i p.N | z a p m z 5 5 5 5 5 5 5 5 5 5 z a a b 5 m m B b a i 5 5 5 5 5 5 5 5 5 & 5 & & 5 & & 5 5 5 5 5 5 5 5 5 5 5 5 5 5 5 5 5 5 5 5 5 5 5 5 5 5 % fX= $ $ $ $ $ $ = u = = = = = $ * u = * * * * = u u * * * * = s B * * * * * * * a * * * * * * u a * * * * u * a u * u u c %.%.oX8X9X-XL s < W.c.",
"5 5 5 5 5 5 5 5 5 5 5 5 5 5 5 5 5 5 5 5 5 5 5 5 5 5 5 5 5 5 5 5 5 5 5 5 5 5 5 5 5 5 5 5 5 5 5 5 5 5 5 5 5 5 5 5 5 5 5 5 5 5 5 5 5 5 5 5 5 5 5 5 5 5 5 5 5 5 5 5 5 5 5 5 5 5 5 5 5 5 5 & & & & & 5 % & % & & 5 5 5 5 5 5 5 5 5 & % % % & & & % & 5 5 5 5 5 5 5 5 5 5 & & & % 5 & & % & & & 5 5 5 5 5 5 5 5 5 5 5 5 5 5 5 5 5 5 5 5 5 5 5 5 5 5 5 5 5 5 5 5 5 5 5 5 5 5 5 5 5 5 % fX$   X X X X X X * X X X X X X $ $ X . . . . X = $ . . . X $ m u . . . . . . . u . . . . . . $ * . $ $ $ $ . * * . - e %.t..X-XtX.X&.F ; . E.c.",
"i i i i i i i i i i i i i i i i i i i i i i i i i i i i i i i i i i i i i i i i i i i i i i i i i i i i i i i i i i i i i i i i i i i i i i i i i i i i i i i i i i i i i i i i i i i i i i i i i i i i i i i i i i i i i i i i i i i i i i i i i i i i i i i i i i i i i i i i i i i i i i i i i i i i i i i i i i i i i i i i i i i i i i i i i i i i i i i i i i i i i i i % fX$   X X . . . . * . . . . . . $ = . . . . . . * = . $ . $ m $ * $ . $ $ $ $ $ u $ $ $ $ $ $ $ u $ $ $ $ $ $ u * $ $ [ t..X.X6X7X[ q.F ; # W.c.",
"w w w w w w w w w w w w w w w w 8 w w w w 8 w w w w w w w w w w w w w 5 8 w e w 8 5 w w w w w w w w w w w w w 8 w w w w 8 w w w w w w w w w w w w 5 w w 5 8 5 w w 5 w w w w w w w w w w w w 8 w w w 5 8 w w w w w w w w w w w w w 8 w e w w 8 w w w w w w w w w w w w w 8 w w w w 8 w w w w w w w w w w w w w 8 w e e w 8 w w w w w w w w w w w w w 8 w w w w 8 w w w w w w w % fX$   X X X X X X * . . . . . X $ = . . . . . . * = . . . m * . u $ . . . $ $ $ u . $ $ $ $ $ $ u $ $ $ $ $ . u * $ % [ .X.X8X7X.Xq.q.F ; # E.c.",
"5 5 & 5 & & & 5 5 5 5 5 5 5 5 5 4 5 : > 5 4 5 5 5 5 5 5 5 5 5 5 5 5 5 4 4 : > ; 4 5 5 5 5 5 5 5 5 5 5 5 5 5 5 & 5 F q 5 & 5 5 5 5 5 5 5 5 5 5 5 5 5 * * r P e = 5 5 5 5 5 5 5 5 5 5 5 5 5 5 & 8 F q & & 5 5 5 5 5 5 5 5 5 5 5 5 5 4 ; Z > 4 4 5 5 5 5 5 5 5 5 5 5 5 5 5 & 8 F q 5 & 5 5 5 5 5 5 5 5 5 5 5 5 5 4 5 > > 5 4 5 5 5 5 5 5 5 5 5 5 5 5 5 4 5 : > 5 4 5 5 5 5 5 5 5 % fX$   X X X X X X * . . . . . X $ = X . . . . . * = . . a * . . * . . . . . . $ u . $ $ $ $ $ $ u . $ $ $ $ . u * - $ [ q.-X-X-X.X%.q.F ; # E.c.",
"i 5 i i i i p i 5 5 5 5 5 5 5 4 > K.K.S L.Z 4 5 5 5 5 5 5 5 5 5 5 5 4 8 L.I.K.L.D 8 5 5 5 5 5 5 5 5 5 5 5 5 4 F W.W.W.W.F 4 5 5 5 5 5 5 5 5 5 5 5 * r _._._._.u.5 5 5 5 5 5 5 5 5 5 5 5 5 5 L W.E.W.E.q 4 5 5 5 5 5 5 5 5 5 5 5 4 D I.L.I.P.> 4 5 5 5 5 5 5 5 5 5 5 5 4 L W.E.W.W.F 4 5 5 5 5 5 5 5 5 5 5 5 4 C I.P.I.I.C 4 5 5 5 5 5 5 5 5 5 5 5 4 > K.K.K.K.Z 4 5 5 5 5 5 5 % fX$   X X X X X X * X . . . . X $ = X . . . . . = = X a u X . . * . . . . . . $ u . $ $ $ $ $ $ u . $ $ $ $ . u * $ $ & .X8X.X-Xt.[ &.F ; # E.c.",
"a.& sXcXcXmXmXs.% 5 5 5 5 5 4 > L.> # + ; L.C 4 5 5 5 5 5 5 5 5 5 5 5 P.S $ & $ D K.5 5 5 5 5 5 5 5 5 5 5 & L W.; + X F W.q 4 5 5 5 5 5 5 5 5 5 5 e _.P - - & _._.= 5 5 5 5 5 5 5 5 5 5 & E.E.= . - L W.8 5 5 5 5 5 5 5 5 5 5 7 D P.= + - C T.: 4 5 5 5 5 5 5 5 5 5 & L W.; + + F W.F 4 5 5 5 5 5 5 5 5 5 4 C I.; + + > T.C 4 5 5 5 5 5 5 5 5 5 4 > L.; + + ; L.C 4 5 5 5 5 5 % fX$   X X X X X X * . . . . . X $ = X . . . . . * $ u a . . . . * . . . . $ . $ u . $ $ $ $ $ $ u $ $ $ $ $ . * * $ o [ 8Xq.%..X[ & &.F ; # E.c.",
"a.% hXnXhXcXJXp.% 5 5 5 5 5 5 K.> @ 2 d # = K.8 5 5 5 5 5 5 5 5 5 7 D L.@ a cXa @ D C 4 5 5 5 5 5 5 5 5 4 q W.= # s V.T > E.4 5 5 5 5 5 5 5 5 5 = _.u.X u a X . _.P = 5 5 5 5 5 5 5 5 & F W.+ $ d s . L E.& 5 5 5 5 5 5 5 5 4 Z I.# # a s # C L.7 5 5 5 5 5 5 5 5 4 q W.= # a a . F W.& 5 5 5 5 5 5 5 5 5 8 I.; # s s # > I.5 5 5 5 5 5 5 5 5 5 5 K.> # s a # ; K.8 5 5 5 5 5 % fX$               * X X X X X   $ $ X X X X . X $ s u X . . . . * . . . . . . . * . . . . . . $ * . . . . . . * & X e 8X%.. % %.e o &.F = . E.c.",
"s.% hXcXC.fXGXi.% 5 5 5 5 4 : K.. a z.^ m + D Z 4 5 5 5 5 5 5 5 5 4 L.C # / cXs.# Z D 4 5 5 5 5 5 5 5 5 & F E.. s s.GXs.. E.8 4 5 5 5 5 5 5 5 5 5 _.4 = m n.cXf u.u.= 5 5 5 5 5 5 5 5 & E.L . m B B < q W.5 5 5 5 5 5 5 5 5 7 D K.@ d ^ a.* = I.8 5 5 5 5 5 5 5 5 & L E.. a B B u - W.q 4 5 5 5 5 5 5 5 4 C P.+ s B a.s + P.> 4 5 5 5 5 5 5 5 4 : K.+ u m ^ m + S > 4 5 5 5 5 % fX$ $ $ $ $ $ $ $ u = = $ $ = $ * u $ * = = * $ u B * * * * * * s * * * * * * * a * * * * * * u a * * * * * * a 2 5 7Xt.O w = %.r ; q.L 8 * W.c.",
"s.% jXnXcXmXnXi.% 5 5 5 5 4 : K.$ hXcXV m + D Z 4 5 5 5 5 5 5 5 5 4 L.Z # m m B % > D 4 5 5 5 5 5 5 5 5 & F E.. a V E u $ E.q 4 5 5 5 5 5 5 5 5 w _.4 = m z.fX8 P u.= 5 5 5 5 5 5 5 5 & E.L . s C.cX$ ; W.5 5 5 5 5 5 5 5 5 7 D S + d E GXV.o I.8 4 5 5 5 5 5 5 5 & L E.. s s.nXB . W.q 4 5 5 5 5 5 5 5 4 C L.@ s m mXgX. P.Z 4 5 5 5 5 5 5 5 4 > S . s cXk.s + D Z 4 5 5 5 5 % fX$ . $ $ $ $ $ $ u $ $ $ $ $ $ * * $ $ $ $ $ * B * $ $ $ $ $ $ u $ $ = = = $ = s = = = = = = * u = * * * * % u ; 7X.Xo * * = %.e = &.F 8 % W.c.",
"s.% fXmXmXnXnXi.% 5 5 5 5 5 5 P.> & 2 a $ $ K.; 4 5 5 5 5 5 5 5 5 7 D K.@ ; a ; @ D C 4 5 5 5 5 5 5 5 5 4 q W.$ - s s . q E.5 5 5 5 5 5 5 5 5 5 = _.P X u s . X u.t * 5 5 5 5 5 5 5 5 & F W.. $ B hX# F E.& 5 5 5 5 5 5 5 5 4 C I.# $ s B n Z P.4 5 5 5 5 5 5 5 5 4 q W.$ $ u F.>.> W.4 5 5 5 5 5 5 5 5 4 ; I.= # s V =.; I.8 5 5 5 5 5 5 5 5 5 5 L.- b hXa # = L.; 5 5 5 5 5 % fX$             X * X X X X X   $ $   X X X . a * $ X . . . . . * . . . . . . . * . . . . . . $ * . . . . . . O -X-XX - . - o %.4 o &.F = . E.c.",
"p 5 N N N N B p 5 5 5 5 5 5 4 C T., + . $ K.C 4 5 5 5 5 5 5 5 5 5 5 5 I.D # - + C K.5 5 5 5 5 5 5 5 5 5 5 & $.W.$ . . ; E.F 4 5 5 5 5 5 5 5 5 5 * r _.P . + - u.u.* 5 5 5 5 5 5 5 5 5 5 & W.E.# . . F W.q 4 5 5 5 5 5 5 5 5 5 4 L.P.# - X , L.> 4 5 5 5 5 5 5 5 5 5 & $.W.$ .   ; W.F & 5 5 5 5 5 5 5 5 5 7 D I.= . . o L.C 4 5 5 5 5 5 5 5 5 5 4 C L.; . . $ K.C 4 5 5 5 5 5 % fX$   X X X X X X * X X X . . X $ $ X . . . a $ $ $ X . . . . . * . . . . . . $ u . . . . . . $ * . $ $ $ $ X .X6Xo $ $ $ $ o %.e - &.F ; . E.c.",
"= = = - - - - = 5 5 5 5 5 5 5 4 D > 4 5 8 C 5 5 5 5 5 5 5 5 5 5 5 5 4 Z D 4 5 4 C : 4 5 5 5 5 5 5 5 5 5 5 5 5 L 8 5 4 q F 4 5 5 5 5 5 5 5 5 5 5 5 = P P * 5 5 P w 5 5 5 5 5 5 5 5 5 5 5 4 q L 5 5 4 F F & 5 5 5 5 5 5 5 5 5 5 5 8 D 5 5 4 > Z 4 5 5 5 5 5 5 5 5 5 5 5 5 L 8 5 5 q F 4 5 5 5 5 5 5 5 5 5 5 5 5 D 8 5 5 8 C 4 5 5 5 5 5 5 5 5 5 5 5 4 C : 4 5 8 C 4 5 5 5 5 5 5 % fX$   X X X X X X * X X X X . X $ $ X . X a *   = $ X . . . . . * . . . . . . . u . . . . . . $ * . . . # X e.7X$ . $ $ $ $ o %.4 - &.F ; . E.c.",
"A A A A A A A , 5 5 5 5 5 5 5 5 4 4 5 5 5 4 5 5 5 5 5 5 5 5 5 5 5 5 5 4 4 5 5 5 4 5 5 5 5 5 5 5 5 5 5 5 5 5 5 & 5 5 5 4 4 5 5 5 5 5 5 5 5 5 5 5 5 5 * * 5 5 5 * 5 5 5 5 5 5 5 5 5 5 5 5 5 5 & 5 5 5 & 4 5 5 5 5 5 5 5 5 5 5 5 5 5 7 5 5 5 4 4 5 5 5 5 5 5 5 5 5 5 5 5 5 & 5 5 5 4 4 5 5 5 5 5 5 5 5 5 5 5 5 5 7 5 5 5 5 4 5 5 5 5 5 5 5 5 5 5 5 5 5 4 5 5 5 5 4 5 5 5 5 5 5 5 % fX$   X X X X X X * X X X X X X $ $ X X s u X X = $ X . . . . . * . . . . . . . * . . . . . . $ * . - # X %.8Xr $ + $ $ $ $ o %.4 - &.F ; . E.c.",
"A A S S A A A , 5 5 5 5 5 % 5 % 5 5 & % & 5 5 5 & & 5 5 5 5 5 5 5 % 5 5 % & % 5 5 5 & & 5 5 5 5 5 5 5 5 & & 5 & 5 % 5 5 & 5 5 & 5 5 5 5 5 5 5 5 % & & & & 5 5 5 5 5 5 5 5 5 5 5 5 5 5 5 % 5 & 5 5 % 5 5 5 & & 5 5 5 5 5 5 5 5 & 5 * % & & 5 5 5 & & 5 5 5 5 5 5 5 5 & & 5 & & & 5 5 5 & & 5 5 5 5 5 5 5 5 & 5 5 % & % 5 5 5 & & 5 5 5 5 5 5 5 5 % & 5 % 5 5 & * 5 & 5 5 5 5 5 % fX$   X X X X X X * X X X X X X $ $   u u X . X $ $ X . . . . . * . . . . . . . * . . . . . . $ * . $ X [ 8Xy = & . $ $ $ $ o %.4 - &.F = . E.c.",
"A A A S A A A , 5 5 5 5 % k.N p.z i l.f.k.i 5 a.f.k.a & 5 5 5 5 5 l.b a l.| k.5 5 f.f.k.i 5 5 5 5 5 5 % N | i l.i a.i w a i 5 p 5 5 5 5 5 5 5 i a.N k.i.f.& i a i w i 5 5 5 5 5 5 5 & u k.% p.p.w f.% a k.f.f.5 5 5 5 5 5 & 5 f.i m k.i.f.& i k.f.f.5 5 5 5 5 5 5 $ | N p k.-.z.p 5 f.f.k.i 5 5 5 5 5 5 % a.z i l.| k.5 5 f.f.k.p 5 5 5 5 5 5 5 f.| 5 z.z 5 a p 5 p 5 5 5 5 5 % fX$   X X X X X X * X X X X X X $ $ * a X . . X = $ X . . . . . * . . . . . . . * . . . . . . $ * + X 7 8X%.X w = . $ . . $ o %.4 - &.F ; . E.c.",
"S S S S A A A , 5 5 5 w z k.p.k.B + a.C.f.| p.V.N.Z.B % 5 5 5 % N k.i.| k.Z.a.N f.V.V.Z.b & 5 5 5 5 5 5 C.f.b C.V.Z.i l.C.z.k.k.& 5 5 5 5 5 5 w z.f.k.Z.a.N n.C.k.l.p.& 5 5 5 5 5 5 z p n.& i.l.l.C.i n.V.V.C.i 5 5 5 5 5 i p.Z.z p.l.Z.a.N l.V.V.C.a & 5 5 5 5 i z Z.p.$ V.N k.i k.V.V.C.z & 5 5 5 5 u | S.N | f.S.a.B a.V.N.Z.N % 5 5 5 5 & z k.p.| k.-.-.Z.V.f.n.i 5 5 5 5 % fX$               =       X X   . u s X X X X   $ $   X X X . X * . . . . . . . * . . . . . . - * X # 7Xq.X . * $ . . . . . X [ 4 . &.F = . E.a.",
"S S S A A A A , 5 5 5 i N N l.| i.z f.| V.m f.n.n.C.| % 5 5 5 & z n.k.p.n.V.z.z l.z.n.C.m & 5 5 5 5 & p C.C.z V.n.S.N a.a.f.p.n.i 5 5 5 5 5 5 & a.a.n.N.l.z f.p.f.f.z.& 5 5 5 5 5 & m i a.N z n.C.C.z n.z.V.V.i 5 5 5 5 5 a p.N.k.a.n.N.l.z z.z.N.C.z & 5 5 5 5 p | C.V.z z.k.i.5 z.z.n.C.m & 5 5 5 5 i | n.z.p.z.V.n.m k.n.n.C.N % 5 5 5 5 5 i z.l.p.V.| | f.f.p.n.N & 5 5 5 % fX$ $ $ $ $ $ $ $ u = $ $ $ = $ * V * = * * * = u u = * * * * * u * * * * * * * a * * * * * * w s = 7X.Xo w * s u * * * * w = %.r ; q.L 8 * W.c.",
", , , , , , , = 5 5 5 5 % N p 5 i a i 5 N & p m p N 5 5 5 5 5 5 5 b a i z i m & z z z N 5 5 5 5 5 5 5 5 & p a z % u 5 i i i a z 5 5 5 5 5 5 5 5 i i z i z 5 i i i z z 5 5 5 5 5 5 5 & 5 i i m z % i & b z z z 5 5 5 5 5 5 & & b p p z i z % z z z m 5 5 5 5 5 5 5 % 5 p z b i u & z z z N 5 5 5 5 5 5 5 % z z i b i m & a m a N 5 5 5 5 5 5 5 & z z i m 5 i i i i m 5 5 5 5 5 % fX$   X X X X X X * . . . . X . m $ X . . . . . = $ . . . . . . * . . . . . . $ u . . $ $ $ - $ O -X-XX $ $ . * * . $ $ $ $ o %.e - &.F ; . E.c.",
"4 5 5 5 5 5 5 5 5 5 5 5 5 % & 5 & & 5 5 % 5 & & & % 5 5 5 5 5 5 5 & & & & 5 & 5 & & & % 5 5 5 5 5 5 5 5 5 & & & 5 5 5 5 5 5 & & 5 5 5 5 5 5 5 5 5 5 & 5 & 5 & 5 5 & & 5 5 5 5 5 5 5 5 5 5 & & & 5 5 5 & & & & 5 5 5 5 5 5 5 5 & & & & 5 & 5 & & & & 5 5 5 5 5 5 5 5 5 & & & 5 5 5 & & & % 5 5 5 5 5 5 5 5 & & 5 & 5 & 5 & & & % 5 5 5 5 5 5 5 5 & & 5 & 5 5 5 5 & & 5 5 5 5 5 % fX.               =     X   X s * $   X X X X   $ $ X . . X . X * . . . . . . . * . . . . . . X -X-XX . . . . * $ . . . . . X [ 4 o &.F = . E.a.",
"5 5 5 5 5 5 5 5 5 5 5 5 5 5 5 5 5 5 5 5 5 5 5 5 5 5 5 5 5 5 5 5 5 5 5 5 5 5 5 5 5 5 5 5 5 5 5 5 5 5 5 5 5 5 5 5 5 5 5 5 5 5 5 5 5 5 5 5 5 5 5 5 5 5 5 5 5 5 5 5 5 5 5 5 5 5 5 5 5 5 5 5 5 5 5 5 5 5 5 5 5 5 5 5 5 5 5 5 5 5 5 5 5 5 5 5 5 5 5 5 5 5 5 5 5 5 5 5 5 5 5 5 5 5 5 5 5 5 5 5 5 5 5 5 5 5 5 5 5 5 5 5 5 5 5 5 5 5 5 5 5 5 5 5 5 5 5 5 5 5 5 5 5 5 5 5 5 5 5 5 5 5 5 % fX$               * X X X   s $ . $   X X X X X $ $ X . . . . . * . . . . . . . * . . . . +   e.7X. . . . . . * $ . . . . + X [ 4 o &.F = . E.a.",
"i i i i i i i i i i i i i i i i i i i i i i i i i i i i i i i i i i i i i i i i i i i i i i i i i i i i i i i i i i i i i i i i i i i i i i i i i i i i i i i i i i i i i i i i i i i i i i i i i i i i i i i i i i i i i i i i i i i i i i i i i i i i i i i i i i i i i i i i i i i i i i i i i i i i i i i i i i i i i i i i i i i i i i i i i i i i i i i i i i i i i i i % fX$               * X X   u *   $ $   X X X X   $ $ X . X . . . * . . . . . . . * . . . +   %.8Xe X + . . . . * $ . . . . + X [ 4 o &.F = . E.a.",
"5 5 5 5 5 5 5 5 5 5 5 5 5 5 5 5 5 5 5 5 5 5 5 5 5 5 5 5 5 5 5 5 5 5 5 5 5 5 5 5 5 5 5 5 5 5 5 5 5 5 5 5 5 5 5 5 5 5 5 5 5 5 5 5 5 5 5 5 5 5 5 5 5 5 5 5 5 5 5 5 5 5 5 5 5 5 5 5 5 5 5 5 5 5 5 5 5 5 5 5 5 5 5 5 5 5 5 5 5 5 5 5 5 5 5 5 5 5 5 5 5 5 5 5 5 5 5 5 5 5 5 5 5 5 5 5 5 5 5 5 5 5 5 5 5 5 5 5 5 5 5 5 5 5 5 5 5 5 5 5 5 5 5 5 5 5 5 5 5 5 5 5 5 5 5 5 5 5 5 5 5 5 5 % fX-               = X   * u     . $   X X X X   $ $ X . X X X X * . . . . . . . * . . .   [ 8Xy O . . . . . . * $ . . . . . X [ 4 o &.F = . E.a.",
"5 5 5 5 5 5 5 5 5 5 5 5 5 5 5 5 5 5 5 5 5 5 5 5 5 5 5 5 5 5 5 5 5 5 5 5 5 5 5 5 5 5 5 5 5 5 5 5 5 5 5 5 5 5 5 5 5 5 5 5 5 5 5 5 5 5 5 5 5 5 5 5 5 5 5 5 5 5 5 5 5 5 5 5 5 5 5 5 5 5 5 5 5 5 5 5 5 5 5 5 5 5 5 5 5 5 5 5 5 5 5 5 5 5 5 5 5 5 5 5 5 5 5 5 5 5 5 5 5 5 5 5 5 5 5 5 5 5 5 5 5 5 5 5 5 5 5 5 5 5 5 5 5 5 5 5 5 5 5 5 5 5 5 5 5 5 5 5 5 5 5 5 5 5 5 5 5 5 5 5 5 5 5 % fX.               *   = u   X   . $   X X X X   $ $ X X X X X X * . . . . . . . * . . X 7 8X[ X 5 . . . . . . * $ . . . . . X [ 4 . &.F = . E.a.",
"5 5 5 5 5 5 5 5 5 5 5 5 5 5 5 5 5 5 5 5 5 5 5 5 5 5 5 5 5 5 5 5 5 5 5 5 5 5 5 5 5 5 5 5 5 5 5 5 5 5 5 5 5 5 5 5 5 5 5 5 5 5 5 5 5 5 5 5 5 5 5 5 5 5 5 5 5 5 5 5 5 5 5 5 5 5 5 5 5 5 5 5 5 5 5 5 5 5 5 5 5 5 5 5 5 5 5 5 5 5 5 5 5 5 5 5 5 5 5 5 5 5 5 5 5 5 5 5 5 5 5 5 5 5 5 5 5 5 5 5 5 5 5 5 5 5 5 5 5 5 5 5 5 5 5 5 5 5 5 5 5 5 5 5 5 5 5 5 5 5 5 5 5 5 5 5 5 5 5 5 5 5 5 % fX.             X $ $ a   X X   . $   X X X X X $ $ X X X . . X * . . . . . . . * . X # 7Xq.  # * . . . . . . * $ . . . . + X [ 4 o &.F = . E.a.",
"5 5 5 5 5 5 5 5 5 5 5 5 5 5 5 5 5 5 5 5 5 5 5 5 5 5 5 5 5 5 5 5 5 5 5 5 5 5 5 5 5 5 5 5 5 5 5 5 5 5 5 5 5 5 5 5 5 5 5 5 5 5 5 5 5 5 5 5 5 5 5 5 5 5 5 5 5 5 5 5 5 5 5 5 5 5 5 5 5 5 5 5 5 5 5 5 5 5 5 5 5 5 5 5 5 5 5 5 5 5 5 5 5 5 5 5 5 5 5 5 5 5 5 5 5 5 5 5 5 5 5 5 5 5 5 5 5 5 5 5 5 5 5 5 5 5 5 5 5 5 5 5 5 5 5 5 5 5 5 5 5 5 5 5 5 5 5 5 5 5 5 5 5 5 5 5 5 5 5 5 5 5 5 % fX.               * s           . $             $ $   X   X X X = X X X X X X X * X X 6X.X  . . * X X X . . X = $ X . . . .   [ # X &.F -   E.a.",
"5 5 5 5 5 5 5 5 5 5 5 5 5 5 5 5 5 5 5 5 5 5 5 5 5 5 5 5 5 5 5 5 5 5 5 5 5 5 5 5 5 5 5 5 5 5 5 5 5 5 5 5 5 5 5 5 5 5 5 5 5 5 5 5 5 5 5 5 5 5 5 5 5 5 5 5 5 5 5 5 5 5 5 5 5 5 5 5 5 5 5 5 5 5 5 5 5 5 5 5 5 5 5 5 5 5 5 5 5 5 5 5 5 5 5 5 5 5 5 5 5 5 5 5 5 5 5 5 5 5 5 5 5 5 5 5 5 5 5 5 5 5 5 5 5 5 5 5 5 5 5 5 5 5 5 5 5 5 5 5 5 5 5 5 5 5 5 5 5 5 5 5 5 5 5 5 5 5 5 5 5 5 5 % fX$ $ $ $ $ $ $ $ m * $ $ $ $ $ * * $ = = = = $ u * = * * = * * u * * * * * * * a - -X-Xo * * * u * * * * * * u u * * * * * = %.e * &.L 8 & W.c.",
"5 5 5 5 5 5 5 5 5 5 5 5 5 5 5 5 5 5 5 5 5 5 5 5 5 5 5 5 5 5 5 5 5 5 5 5 5 5 5 5 5 5 5 5 5 5 5 5 5 5 5 5 5 5 5 5 5 5 5 5 5 5 5 5 5 5 5 5 5 5 5 5 5 5 5 5 5 5 5 5 5 5 5 5 5 5 5 5 5 5 5 5 5 5 5 5 5 5 5 5 5 5 5 5 5 5 5 5 5 5 5 5 5 5 5 5 5 5 5 5 5 5 5 5 5 5 5 5 5 5 5 5 5 5 5 5 5 5 5 5 5 5 5 5 5 5 5 5 5 5 5 5 5 5 5 5 5 5 5 5 5 5 5 5 5 5 5 5 5 5 5 5 5 5 5 5 5 5 5 5 5 5 5 % fX.   X X X X . a u X . . . . X $ $ X . . . . . = $ . . . . . . * . . . . . . $ , oX6XX $ - . $ * . $ $ $ $ . * = . $ $ $ $ o %.e - &.F ; . E.a.",
"5 5 5 5 5 5 5 5 5 5 5 5 5 5 5 5 5 5 5 5 5 5 5 5 5 5 5 5 5 5 5 5 5 5 5 5 5 5 5 5 5 5 5 5 5 5 5 5 5 5 5 5 5 5 5 5 5 5 5 5 5 5 5 5 5 5 5 5 5 5 5 5 5 5 5 5 5 5 5 5 5 5 5 5 5 5 5 5 5 5 5 5 5 5 5 5 5 5 5 5 5 5 5 5 5 5 5 5 5 5 5 5 5 5 5 5 5 5 5 5 5 5 5 5 5 5 5 5 5 5 5 5 5 5 5 5 5 5 5 5 5 5 5 5 5 5 5 5 5 5 5 5 5 5 5 5 5 5 5 5 5 5 5 5 5 5 5 5 5 5 5 5 5 5 5 5 5 5 5 5 5 5 5 % fX.           u $ $             . $             $ $   X X X X X = X X X X X .   .X7X. X . X X . = X . . . . X = $ X . . . .   [ # X &.F -   E.s.",
"5 5 5 5 5 5 5 5 5 5 5 5 5 5 5 5 5 5 5 5 5 5 5 5 5 5 5 5 5 5 5 5 5 5 5 5 5 5 5 5 5 5 5 5 5 5 5 5 5 5 5 5 5 5 5 5 5 5 5 5 5 5 5 5 5 5 5 5 5 5 5 5 5 5 5 5 5 5 5 5 5 5 5 5 5 5 5 5 5 5 5 5 5 5 5 5 5 5 5 5 5 5 5 5 5 5 5 5 5 5 5 5 5 5 5 5 5 5 5 5 5 5 5 5 5 5 5 5 5 5 5 5 5 5 5 5 5 5 5 5 5 5 5 5 5 5 5 5 5 5 5 5 5 5 5 5 5 5 5 5 5 5 5 5 5 5 5 5 5 5 5 5 5 5 5 5 5 5 5 5 5 5 5 % fX.         u *   =             . $   X X X X   $ $   X X X X X * X X X X .   &.8X# X . . . . . * X . . . . X * $ . . . . . X [ & . &.F - X E.s.",
"5 5 5 5 5 5 5 5 5 5 5 5 5 5 5 5 5 5 5 5 5 5 5 5 5 5 5 5 5 5 5 5 5 5 5 5 5 5 5 5 5 5 5 5 5 5 5 5 5 5 5 5 5 5 5 5 5 5 5 5 5 5 5 5 5 5 5 5 5 5 5 5 5 5 5 5 5 5 5 5 5 5 5 5 5 5 5 5 5 5 5 5 5 5 5 5 5 5 5 5 5 5 5 5 5 5 5 5 5 5 5 5 5 5 5 5 5 5 5 5 5 5 5 5 5 5 5 5 5 5 5 5 5 5 5 5 5 5 5 5 5 5 5 5 5 5 5 5 5 5 5 5 5 5 5 5 5 5 5 5 5 5 5 5 5 5 5 5 5 5 5 5 5 5 5 5 5 5 5 5 5 5 5 % fX.       * *     $             . $       X X   $ $   X X X X X = X X X .   y 8Xt   . X X X X . * X . . . . X * $ X . . . . X [ % X &.F -   E.s.",
"5 5 5 5 5 5 5 5 5 5 5 5 5 5 5 5 5 5 5 5 5 5 5 5 5 5 5 5 5 5 5 5 5 5 5 5 5 5 5 5 5 5 5 5 5 5 5 5 5 5 5 5 5 5 5 5 5 5 5 5 5 5 5 5 5 5 5 5 5 5 5 5 5 5 5 5 5 5 5 5 5 5 5 5 5 5 5 5 5 5 5 5 5 5 5 5 5 5 5 5 5 5 5 5 5 5 5 5 5 5 5 5 5 5 5 5 5 5 5 5 5 5 5 5 5 5 5 5 5 5 5 5 5 5 5 5 5 5 5 5 5 5 5 5 5 5 5 5 5 5 5 5 5 5 5 5 5 5 5 5 5 5 5 5 5 5 5 5 5 5 5 5 5 5 5 5 5 5 5 5 5 5 5 % fX.     $ u       $             . $         X   $ $   X X X X X = X X .   7 8X[ o . X X X X X . * X . . . . X = $ X . . . . X [ % X &.F -   E.s.",
"5 5 5 5 5 5 5 5 5 5 5 5 5 5 5 5 5 5 5 5 5 5 5 5 5 5 5 5 5 5 5 5 5 5 5 5 5 5 5 5 5 5 5 5 5 5 5 5 5 5 5 5 5 5 5 5 5 5 5 5 5 5 5 5 5 5 5 5 5 5 5 5 5 5 5 5 5 5 5 5 5 5 5 5 5 5 5 5 5 5 5 5 5 5 5 5 5 5 5 5 5 5 5 5 5 5 5 5 5 5 5 5 5 5 5 5 5 5 5 5 5 5 5 5 5 5 5 5 5 5 5 5 5 5 5 5 5 5 5 5 5 5 5 5 5 5 5 5 5 5 5 5 5 5 5 5 5 5 5 5 5 5 5 5 5 5 5 5 5 5 5 5 5 5 5 5 5 5 5 5 5 5 5 % fX.   $ u         $             . $             $ $   X X X X X = X X   # 7Xq.  * X X X X X X . = X . . . . X = $ X . . . .   [ # X &.F - X E.s.",
"5 5 5 5 5 5 5 5 5 5 5 5 5 5 5 5 5 5 5 5 5 5 5 5 5 5 5 5 5 5 5 5 5 5 5 5 5 5 5 5 5 5 5 5 5 5 5 5 5 5 5 5 5 5 5 5 5 5 5 5 5 5 5 5 5 5 5 5 5 5 5 5 5 5 5 5 5 5 5 5 5 5 5 5 5 5 5 5 5 5 5 5 5 5 5 5 5 5 5 5 5 5 5 5 5 5 5 5 5 5 5 5 5 5 5 5 5 5 5 5 5 5 5 5 5 5 5 5 5 5 5 5 5 5 5 5 5 5 5 5 5 5 5 5 5 5 5 5 5 5 5 5 5 5 5 5 5 5 5 5 5 5 5 5 5 5 5 5 5 5 5 5 5 5 5 5 5 5 5 5 5 5 5 & fX. X s           $             . $             $ $   X X X X X = X   X 6X.X  . * X X X X X X . = X . X X . X = $ X . . . .   [ # X &.F -   E.s.",
"5 5 5 5 5 5 5 5 5 5 5 5 5 5 5 5 5 5 5 5 5 5 5 5 5 5 5 5 5 5 5 5 5 5 5 5 5 5 5 5 5 5 5 5 5 5 5 5 5 5 5 5 5 5 5 5 5 5 5 5 5 5 5 5 5 5 5 5 5 5 5 5 5 5 5 5 5 5 5 5 5 5 5 5 5 5 5 5 5 5 5 5 5 5 5 5 5 5 5 5 5 5 5 5 5 5 5 5 5 5 5 5 5 5 5 5 5 5 5 5 5 5 5 5 5 5 5 5 5 5 5 5 5 5 5 5 5 5 5 5 5 5 5 5 5 5 5 5 5 5 5 5 5 5 5 5 5 5 5 5 5 5 5 5 5 5 5 5 5 5 5 5 5 5 5 5 5 5 5 5 5 5 5 % jX$ * .           =             . $   X X X X   $ $   X X X X X * X . -XoX  . . * X . X X X X . * X . . . . X * $ X . . . . X %.7 X &.F -   W.c.",
"5 5 5 5 5 5 5 5 5 5 5 5 5 5 5 5 5 5 5 5 5 5 5 5 5 5 5 5 5 5 5 5 5 5 5 5 5 5 5 5 5 5 5 5 5 5 5 5 5 5 5 5 5 5 5 5 5 5 5 5 5 5 5 5 5 5 5 5 5 5 5 5 5 5 5 5 5 5 5 5 5 5 5 5 5 5 5 5 5 5 5 5 5 5 5 5 5 5 5 5 5 5 5 5 5 5 5 5 5 5 5 5 5 5 5 5 5 5 5 5 5 5 5 5 5 5 5 5 5 5 5 5 5 5 5 5 5 5 5 5 5 5 5 5 5 5 5 5 5 5 5 5 5 5 5 5 5 5 5 5 5 5 5 5 5 5 5 5 5 5 5 5 5 5 5 5 5 5 5 5 5 5 5 + V.sX.                                                           X   [ oX        X               X             . X             # .   # , X   > ; ",
"& & & & & & & & & & & & & & & & & & & & & & & & & & & & & & & & & & & & & & & & & & & & & & & & & & & & & & & & & & & & & & & & & & & & & & & & & & & & & & & & & & & & & & & & & & & & & & & & & & & & & & & & & & & & & & & & & & & & & & & & & & & & & & & & & & & & & & & & & & & & & & & & & & & & & & & & & & & & & & & & & & & & & & & & & & & & & & & & & & & & & & & 5 $ N.dXsXsXsXsXsXsXsXsXsXsXsXsXsXsXsXsXsXsXsXsXsXsXsXsXsXsXsXsXsXsXsXsX!.sXsXsXsXsXsXsXsXsXsXsXsXsXsXsXsXsXsXdXsXsXdXsXsXsXsXdXsXsXdXsXsXsXdX<XsX",
"z z z z z z z z z z z z z z z z z z z z z z z z z z z z z z z z z z z z z z z z z z z z z z z z z z z z z z z z z z z z z z z z z z z z z z z z z z z z z z z z z z z z z z z z z z z z z z z z z z z z z z z z z z z z z z z z z z z z z z z z z z z z z z z z z z z z z z z z z z z z z z z z z z z z z z z z z z z z z z z z z z z z z z z z z z z z z z z z z z z z z z z z z 5 z N N N N N N N N N N N N N N N N N N N N N N N N N N N N N N N N N N N N N N N N N N N N N N N N N N N N N N N N N N N N N N N N N N N N N ",
"fXfXfXfXfXfXfXfXfXfXfXfXfXfXfXfXfXfXfXfXfXfXfXfXfXfXfXfXfXfXfXfXfXfXfXfXfXfXfXfXfXfXfXfXfXfXfXfXfXfXfXfXfXfXfXfXfXfXfXfXfXfXfXfXfXfXfXfXfXfXfXfXfXfXfXfXfXfXfXfXfXfXfXfXfXfXfXfXfXfXfXfXfXfXfXfXfXfXfXfXfXfXfXfXfXfXfXfXfXfXfXfXfXfXfXfXfXfXfXfXfXfXfXfXfXfXfXfXfXfXfXfXfXfXfXfXfXfXfXfXfXfXfXfXfXfXfXfXfXfXfXfXfXfXfXfXfXfXfXfXfXfXfXfXfXfXfXfXfXfXfXfXfXfXfXfXfXfXfXfXfXfXfXfXfXfXfXdXdXdXdXdXdXdXdXdXdXdXdXdXdXdXdXdXdXdXdXdXdXdXdXdXdXdXdXdXdXdXdXdXdXdXdXdXdXdXdXdXdXdXdXdXdXdXdXdXdXdXdXdXdXdXdXdXdXdXdXdXdXdXdXdXdXdXdXdX",
"| | | | | | | | | | | | | | | | | | | | | | | | | | | | | | | | | | | | | | | | | | | | | | | | | | | | | | | | | | | | | | | | | | | | | | | | | | | | | | | | | | | | | | | | | | | | | | | | | | | | | | | | | | | | | | | | | | | | | | | | | | | | | | | | | | | | | | | | | | | | | | | | | | | | | | | | | | | | | | | | | | | | | | | | | | | | | | | | | | | | | | | | | | | | | | | | | | | | | | | | | | | | | | | | | | | | | | | | | | | | | | | | | | | | | | | | | | | | | | | | | | | | | | | | | | | | | | | | ",
"dXdXdXdXdXdXdXdXdXdXdXdXdXdXdXdXdXdXdXdXdXdXdXdXdXdXdXdXdXdXdXdXdXdXdXdXdXdXdXdXdXdXdXdXdXdXdXdXdXdXdXdXdXdXdXdXdXdXdXdXdXdXdXdXdXdXdXdXdXdXdXdXdXdXdXdXdXdXdXdXdXdXdXdXdXdXdXdXdXdXdXdXdXdXdXdXdXdXdXdXdXdXdXdXdXdXdXdXdXdXdXdXdXdXdXdXdXdXdXdXdXdXdXdXdXdXdXdXdXdXdXdXdXdXdXdXdXdXdXdXdXdXdXdXdXdXdXdXdXdXdXdXdXdXdXdXdXdXdXdXdXdXdXdXdXdXdXdXdXdXdXdXdXdXdXdXdXdXdXdXdXdXdXdXdXdXdXdXdXdXdXdXdXdXdXdXdXdXdXdXdXdXdXdXdXdXdXdXdXdXdXdXdXdXdXdXdXdXdXdXdXdXdXdXdXdXdXdXdXdXdXdXdXdXdXdXdXdXdXdXdXdXdXdXdXdXdXdXdXdXdXdXdXdXdXdX",
"+ + @ @ @ + + + + + + + + + + + + + + + + + + + + + + + + + + + + + + + + + + + + + + + + + + + + + + + + + + + + + + + + + + + + + + + + + + + + + + + + + + + + + + + + + + + + + + + + + + + + + + + + + + + + + + + + + + + + + + + + + + + + + + + + + + + + + + + + + + + + + + + + + + + + + + + + + + + + + + + + + + + + + + + + + + + + + + + + + + + + + + + + + + + + + + + + + + + + + + + + + + + + + + + + + + + + + + + + + + + + + + + + + + + + + + + + + + + + + + + + + + + + + + + + + + + + + + + + + + + ",
"5 i i.| -.z 5 5 w 5 5 5 5 w w 5 5 5 5 p z z z p 5 5 w 5 w 5 5 w w 5 5 5 5 5 5 5 5 5 5 5 5 5 5 5 5 5 5 5 5 5 5 5 5 5 5 5 5 5 5 5 5 5 5 5 5 5 5 5 5 5 5 5 5 5 5 5 5 5 5 5 5 5 5 5 5 5 5 5 5 5 5 5 5 5 5 5 5 5 5 5 5 5 5 5 5 5 5 5 5 5 5 5 5 5 5 5 5 5 5 5 5 5 5 5 5 5 5 5 5 5 5 5 5 5 5 5 5 5 5 5 5 5 5 5 5 5 5 5 5 5 5 5 5 5 5 5 5 5 5 5 5 5 5 5 5 5 5 5 5 5 5 5 5 5 5 5 5 5 5 5 5 5 5 5 5 5 5 5 5 5 5 5 5 5 5 5 5 5 5 5 5 5 5 5 5 5 5 5 5 5 5 5 5 5 5 5 5 5 5 5 5 5 5 5 5 5 5 5 5 5 5 5 5 5 5 5 5 5 5 5 5 5 5 5 5 5 u 5 5 5 5 5 ",
"% B Z.k.C.p.% 5 * y 5 5 5 = = 5 5 5 & z N.C.Z.| % 5 * y * 5 * = * 5 5 5 5 5 5 5 5 5 5 5 5 5 5 5 5 5 5 5 5 5 5 5 5 5 5 5 5 5 5 5 5 5 5 5 5 5 5 5 5 5 5 5 5 5 5 5 5 5 5 5 5 5 5 5 5 5 5 5 5 5 5 5 5 5 5 5 5 5 5 5 5 5 5 5 5 5 5 5 5 5 5 5 5 5 5 5 5 5 5 5 5 5 5 5 5 5 5 5 5 5 5 5 5 5 5 5 5 5 5 5 5 5 5 5 5 5 5 5 5 5 5 5 5 5 5 5 5 5 5 5 5 5 5 5 5 5 5 5 5 5 5 5 5 5 5 5 5 5 5 5 5 5 5 5 5 5 5 5 5 5 5 5 5 5 5 5 5 5 5 5 5 5 5 5 5 5 5 5 5 5 5 5 5 5 5 5 5 5 5 5 5 5 5 5 5 5 5 5 5 5 5 5 5 5 5 5 5 5 5 5 5 i m B a B | B N a 5 5 ",
"% B l.n.z.-.& 5 y .X%.* e %.%.e 5 5 & z m n.n.z 5 * [ .X[ * y %.%.5 5 5 5 5 5 5 5 5 5 5 5 5 5 5 5 5 5 5 5 5 5 5 5 5 5 5 5 5 5 5 5 5 5 5 5 5 5 5 5 5 5 5 5 5 5 5 5 5 5 5 5 5 5 5 5 5 5 5 5 5 5 5 5 5 5 5 5 5 5 5 5 5 5 5 5 5 5 5 5 5 5 5 5 5 5 5 5 5 5 5 5 5 5 5 5 5 5 5 5 5 5 5 5 5 5 5 5 5 5 5 5 5 5 5 5 5 5 5 5 5 5 5 5 5 5 5 5 5 5 5 5 5 5 5 5 5 5 5 5 5 5 5 5 5 5 5 5 5 5 5 5 5 5 5 5 5 5 5 5 5 5 5 5 5 5 5 5 5 5 5 5 5 5 5 5 5 5 5 5 5 5 5 5 5 5 5 5 5 5 5 5 5 5 5 5 5 5 5 5 5 5 5 5 5 5 5 5 5 5 5 5 i i.l.f.| $ V.| i 5 < ",
"% B C.z.5 N & 5 5 q.t * w y y 5 5 5 & N 5 z.z.p 5 5 e q.y * w y y 5 5 5 5 5 5 5 5 5 5 5 5 5 5 5 5 5 5 5 5 5 5 5 5 5 5 5 5 5 5 5 5 5 5 5 5 5 5 5 5 5 5 5 5 5 5 5 5 5 5 5 5 5 5 5 5 5 5 5 5 5 5 5 5 5 5 5 5 5 5 5 5 5 5 5 5 5 5 5 5 5 5 5 5 5 5 5 5 5 5 5 5 5 5 5 5 5 5 5 5 5 5 5 5 5 5 5 5 5 5 5 5 5 5 5 5 5 5 5 5 5 5 5 5 5 5 5 5 5 5 5 5 5 5 5 5 5 5 5 5 5 5 5 5 5 5 5 5 5 5 5 5 5 5 5 5 5 5 5 5 5 5 5 5 5 5 5 5 5 5 5 5 5 5 5 5 5 5 5 5 5 5 5 5 5 5 5 5 5 5 5 5 5 5 5 5 5 5 5 5 5 5 5 5 5 5 5 5 5 5 5 5 u k.N i.p.N -.-.m 5 w ",
"5 p i.| N z 5 5 * 5 * 5 5 * * 5 5 5 5 p N | -.i 5 5 * 5 * 5 5 * * 5 5 5 5 5 5 5 5 5 5 5 5 5 5 5 5 5 5 5 5 5 5 5 5 5 5 5 5 5 5 5 5 5 5 5 5 5 5 5 5 5 5 5 5 5 5 5 5 5 5 5 5 5 5 5 5 5 5 5 5 5 5 5 5 5 5 5 5 5 5 5 5 5 5 5 5 5 5 5 5 5 5 5 5 5 5 5 5 5 5 5 5 5 5 5 5 5 5 5 5 5 5 5 5 5 5 5 5 5 5 5 5 5 5 5 5 5 5 5 5 5 5 5 5 5 5 5 5 5 5 5 5 5 5 5 5 5 5 5 5 5 5 5 5 5 5 5 5 5 5 5 5 5 5 5 5 5 5 5 5 5 5 5 5 5 5 5 5 5 5 5 5 5 5 5 5 5 5 5 5 5 5 5 5 5 5 5 5 5 5 5 5 5 5 5 5 5 5 5 5 5 5 5 5 5 5 5 5 5 5 5 & m B % 5 u i 5 5 i 5 5 ",
"5 5 & & 5 5 5 5 5 5 5 5 5 5 5 5 5 5 5 5 5 & & 5 5 5 5 5 5 5 5 5 5 5 5 5 5 5 5 5 5 5 5 5 5 5 5 5 5 5 5 5 5 5 5 5 5 5 5 5 5 5 5 5 5 5 5 5 5 5 5 5 5 5 5 5 5 5 5 5 5 5 5 5 5 5 5 5 5 5 5 5 5 5 5 5 5 5 5 5 5 5 5 5 5 5 5 5 5 5 5 5 5 5 5 5 5 5 5 5 5 5 5 5 5 5 5 5 5 5 5 5 5 5 5 5 5 5 5 5 5 5 5 5 5 5 5 5 5 5 5 5 5 5 5 5 5 5 5 5 5 5 5 5 5 5 5 5 5 5 5 5 5 5 5 5 5 5 5 5 5 5 5 5 5 5 5 5 5 5 5 5 5 5 5 5 5 5 5 5 5 5 5 5 5 5 5 5 5 5 5 5 5 5 5 5 5 5 5 5 5 5 5 5 5 5 5 5 5 5 5 5 5 5 5 5 5 5 5 5 5 5 5 5 5 5 5 5 5 5 5 5 5 5 5 5 ",
"5 5 5 5 5 5 5 5 5 5 5 5 5 5 5 5 5 5 5 5 5 5 5 5 5 5 5 5 5 5 5 5 5 5 5 5 5 5 5 5 5 5 5 5 5 5 5 5 5 5 5 5 5 5 5 5 5 5 5 5 5 5 5 5 5 5 5 5 5 5 5 5 5 5 5 5 5 5 5 5 5 5 5 5 5 5 5 5 5 5 5 5 5 5 5 5 5 5 5 5 5 5 5 5 5 5 5 5 5 5 5 5 5 5 5 5 5 5 5 5 5 5 5 5 5 5 5 5 5 5 5 5 5 5 5 5 5 5 5 5 5 5 5 5 5 5 5 5 5 5 5 5 5 5 5 5 5 5 5 5 5 5 5 5 5 5 5 5 5 5 5 5 5 5 5 5 5 5 5 5 5 5 5 5 5 5 5 5 5 5 5 5 5 5 5 5 5 5 5 5 5 5 5 5 5 5 5 5 5 5 5 5 5 5 5 5 5 5 5 5 5 5 5 5 5 5 5 5 5 5 5 5 5 5 5 5 5 5 5 5 5 5 5 5 5 5 5 5 5 5 5 5 5 5 5 5 "
};
