/* XPM */
static char *mb_gate_lr[] = {
/* columns rows colors chars-per-pixel */
"256 256 256 2 ",
"   c #15161B",
".  c #16181D",
"X  c #1A1A1D",
"o  c #161418",
"O  c #0E1013",
"+  c #2B1C1D",
"@  c #1C231D",
"#  c #2A3119",
"$  c #151C23",
"%  c #1C1E24",
"&  c #191B28",
"*  c #121A27",
"=  c #231E23",
"-  c #261D28",
";  c #2A1E2F",
":  c #1E2026",
">  c #1D222A",
",  c #182627",
"<  c #1D2B34",
"1  c #1A353D",
"2  c #173537",
"3  c #17352C",
"4  c #222226",
"5  c #24262D",
"6  c #2B252C",
"7  c #26282F",
"8  c #282928",
"9  c #362429",
"0  c #2B332A",
"q  c #37382A",
"w  c #242531",
"e  c #262931",
"r  c #2A2C35",
"t  c #2C2D39",
"y  c #292738",
"u  c #372C35",
"i  c #2E313A",
"p  c #283538",
"a  c #31333D",
"s  c #393438",
"d  c #57360B",
"f  c #673D00",
"g  c #6F261A",
"h  c #72271A",
"j  c #432429",
"k  c #482829",
"l  c #5B332D",
"z  c #472B33",
"x  c #483539",
"c  c #583539",
"v  c #552C30",
"b  c #662A2B",
"n  c #753E37",
"m  c #6C3230",
"M  c #581C1F",
"N  c #375010",
"B  c #075635",
"V  c #0A4C30",
"C  c #36452B",
"Z  c #175E26",
"A  c #415C0C",
"S  c #4E500D",
"D  c #6B430B",
"F  c #4B6813",
"G  c #4E7009",
"H  c #504B35",
"J  c #6A503C",
"K  c #5A6436",
"L  c #66643C",
"P  c #696528",
"I  c #7A7C1D",
"U  c #193740",
"Y  c #1C3A44",
"T  c #173A47",
"R  c #1C2D4E",
"E  c #2E2D4A",
"W  c #2C2B44",
"Q  c #332C46",
"!  c #283D47",
"~  c #283643",
"^  c #333542",
"/  c #373944",
"(  c #383A46",
")  c #32324C",
"_  c #3A3D4B",
"`  c #373749",
"'  c #343353",
"]  c #393B55",
"[  c #27335A",
"{  c #3A3A64",
"}  c #35316D",
"|  c #1C2060",
" . c #761B56",
".. c #6B1B4D",
"X. c #483945",
"o. c #593C48",
"O. c #4A3353",
"+. c #613F4B",
"@. c #653948",
"#. c #70354C",
"$. c #413E66",
"%. c #4E366C",
"&. c #63296A",
"*. c #194A58",
"=. c #114953",
"-. c #3E414D",
";. c #384747",
":. c #264856",
">. c #3E4152",
",. c #39455A",
"<. c #2A4B52",
"1. c #0C7048",
"2. c #0C546F",
"3. c #294665",
"4. c #374565",
"5. c #2F5071",
"6. c #026477",
"7. c #17676E",
"8. c #2C6877",
"9. c #246F50",
"0. c #4E4A44",
"q. c #494648",
"w. c #524B45",
"e. c #5B414D",
"r. c #564A48",
"t. c #424554",
"y. c #454B5A",
"u. c #4A4D5D",
"i. c #444857",
"p. c #55455B",
"a. c #4A5656",
"s. c #4A545B",
"d. c #4D595A",
"f. c #4B5955",
"g. c #595758",
"h. c #5C5A5B",
"j. c #545A59",
"k. c #4E554B",
"l. c #614B45",
"z. c #62414C",
"x. c #644E49",
"c. c #69494A",
"v. c #764A49",
"b. c #6A534B",
"n. c #665447",
"m. c #79584D",
"M. c #654451",
"N. c #694A58",
"B. c #744753",
"V. c #695655",
"C. c #775A59",
"Z. c #556356",
"A. c #526A50",
"S. c #72654A",
"D. c #4A4B66",
"F. c #534660",
"G. c #554964",
"H. c #554C69",
"J. c #4E5162",
"K. c #4C5767",
"L. c #515466",
"P. c #51536D",
"I. c #555A6C",
"U. c #585C67",
"Y. c #4B5777",
"T. c #535572",
"R. c #5A5E72",
"E. c #5A5B7B",
"W. c #565976",
"Q. c #4E4879",
"!. c #645A63",
"~. c #71526B",
"^. c #486467",
"/. c #586567",
"(. c #5D6175",
"). c #5C637A",
"_. c #4A7372",
"`. c #486C75",
"'. c #62667B",
"]. c #666366",
"[. c #953427",
"{. c #8C3537",
"}. c #95353A",
"|. c #86312E",
" X c #A63A38",
".X c #AB382C",
"XX c #922F1A",
"oX c #89433A",
"OX c #99423A",
"+X c #925031",
"@X c #A64439",
"#X c #B44633",
"$X c #855512",
"%X c #CC432F",
"&X c #E24124",
"*X c #851A5E",
"=X c #8E3C4B",
"-X c #861B63",
";X c #A43B54",
":X c #854747",
">X c #8C514A",
",X c #944C4C",
"<X c #BD4244",
"1X c #A74646",
"2X c #955269",
"3X c #C64446",
"4X c #D33C28",
"5X c #638A12",
"6X c #339554",
"7X c #949919",
"8X c #102D99",
"9X c #23228F",
"0X c #054C87",
"qX c #065397",
"wX c #384F8F",
"eX c #086C82",
"rX c #06748B",
"tX c #0A7691",
"yX c #29748D",
"uX c #336AB0",
"iX c #205BAB",
"pX c #4A4689",
"aX c #5A5786",
"sX c #515293",
"dX c #635A98",
"fX c #6D588C",
"gX c #576587",
"hX c #4F688E",
"jX c #656885",
"kX c #6A6A96",
"lX c #4556A7",
"zX c #5A55A7",
"xX c #4A59B5",
"cX c #655BAE",
"vX c #5066B0",
"bX c #6E64B0",
"nX c #153BC7",
"mX c #326CC9",
"MX c #3B67D1",
"NX c #4E69CE",
"BX c #6B65C8",
"VX c #4F71EC",
"CX c #5A5DC7",
"ZX c #703787",
"AX c #953AA3",
"SX c #8C5B96",
"DX c #01839C",
"FX c #10828A",
"GX c #2B869A",
"HX c #338FA3",
"JX c #359BB0",
"KX c #2A94AA",
"LX c #1198B3",
"PX c #29A0C6",
"IX c #7B81A1",
"UX c #848AAE",
/* pixels */
"7 7 5 5 5 7 e 7 7 7 7 7 7 7 7 7 7 7 e 5 5 7 5 8 4 4 8 5 7 5 5 5 5 5 5 5 5 5 5 5 5 5 5 5 5 5 5 5 5 5 5 5 5 5 5 5 5 5 5 5 5 5 5 5 5 5 5 5 5 5 5 5 5 5 5 5 5 5 5 5 5 5 5 5 5 5 5 5 5 5 5 5 5 5 5 5 5 5 5 5 5 5 5 5 5 5 5 5 5 5 5 5 5 5 5 5 5 5 5 5 5 5 5 5 5 5 5 5 5 5 5 5 5 5 5 5 5 5 5 5 5 5 5 5 5 5 5 5 5 5 5 5 5 5 5 5 5 5 5 5 5 5 5 5 7 5 5 5 4 5 5 5 5 5 4 4 4 5 5 4 5 5 5 5 5 5 5 4 5 7 5 4 5 7 4 5 4 4 4 4 7 5 5 5 4 5 4 5 4 4 4 4 5 4 5 4 5 5 5 5 5 : 5 5 4 5 5 4 5 7 5 7 5 4 5 5 5 4 5 5 4 5 5 4 5 5 7 5 4 5 7 5 5 7 7 5 ",
"4 5 7 5 7 5 4 4 4 4 4 5 5 5 4 4 4 4 4 7 7 8 w T <.<.T w 5 7 5 5 5 5 5 5 5 5 5 5 5 5 5 5 5 5 5 5 5 5 5 5 5 5 5 5 5 5 5 5 5 5 5 5 5 5 5 5 5 5 5 5 5 5 5 5 5 5 5 5 5 5 5 5 5 5 5 5 5 5 5 5 5 5 5 5 5 5 5 5 5 5 5 5 5 5 5 5 5 5 5 5 5 5 5 5 5 5 5 5 5 5 5 5 5 5 5 5 5 5 5 5 5 5 5 5 5 5 5 5 5 5 5 5 5 5 5 5 5 5 5 5 5 5 5 5 5 5 5 5 5 5 5 7 4 / ^ i _ ^ i ^ / 7 t.u.t.( _ i.e ^ a / a a ( J.a 5 7 t._ 5 _ t y.i.-.i.7 a a e y./ t._ i.y._ i.^ t.e t.( a r a _ J./ t / ^ / t.r 5 e 7 7 :.7 ! ~ :.p e :.p p :.p ~ 5 :.:.7 5 7 5 0 Z Z ",
"KX:.4 e 5 e 8.GXGXGXGXp p GXGXGXGXGX:.5 5 R _.7X5X7X7XA.y 5 7 5 5 5 5 5 5 5 5 5 5 5 5 5 5 5 5 5 5 5 5 5 5 5 5 5 5 5 5 5 5 5 5 5 5 5 5 5 5 5 5 5 5 5 5 5 5 5 5 5 5 5 5 5 5 5 5 5 5 5 5 5 5 5 5 5 5 5 5 5 5 5 5 5 5 5 5 5 5 5 5 5 5 5 5 5 5 5 5 5 5 5 5 5 5 5 5 5 5 5 5 5 5 5 5 5 5 5 5 5 5 5 5 5 5 5 5 5 5 5 5 5 5 5 5 5 5 5 5 5 5 5 5 e : u.I.J.R.i.^ J.u.4 _ J.>.t.J.'.a I.L.y.R.i.J._ K.5 t.u.t.r jX( i.t.J.J.4 t.( r )./ ).-.>.u.i.R.y.y.t.J.-.t.P.I.a I.t 4 R.i.t.jXa 4 r 7 7 8.! 8.:.8.:.:.:.! :.8.! :.4 5.5.p 5 7 w 3 Z Z ",
"PX:.= e = 5.PXKXKXKXKXp p PXKXKXKXPXPXp w A.7XK 5 5 K 6X7.e 5 7 5 5 5 5 5 5 5 5 5 5 5 5 5 5 5 5 5 5 5 5 5 5 5 5 5 5 5 5 5 5 5 5 5 5 5 5 5 5 5 5 5 5 5 5 5 5 5 5 5 5 5 5 5 5 5 5 5 5 5 5 5 5 5 5 5 5 5 5 5 5 5 5 5 5 5 5 5 5 5 5 5 5 5 5 5 5 5 5 5 5 5 5 5 5 5 5 5 5 5 5 5 5 5 5 5 5 5 5 5 5 5 5 5 5 5 5 5 5 5 5 5 5 5 5 5 5 5 5 5 5 5 7 4 >.R.R.y.u.y.t.J.a ^ i._ i.J.I.u.R.R.J.u.(.u.t.K.4 t.y.K.J.).J.-._ J.u.4 >.u.^ R.^ I.e ( >.t.).t.u.t.y.K.u.i.K.t J.7 e R.u.y.).( 4 r 5 e 3.5.3.:.5.:.:.:.3.:.7.:.:.r 5.5.e 5 7 5 3 Z V ",
"PX:.4 e = 8.PX! + 4 = 4 p PX8.= = 7.PX! *.6XC & 5 p R T yX! 5 7 5 5 5 5 5 5 5 5 5 5 5 5 5 5 5 5 5 5 5 5 5 5 5 5 5 5 5 5 5 5 5 5 5 5 5 5 5 5 5 5 5 5 5 5 5 5 5 5 5 5 5 5 5 5 5 5 5 5 5 5 5 5 5 5 5 5 5 5 5 5 5 5 5 5 5 5 5 5 5 5 5 5 5 5 5 5 5 5 5 7 7 7 7 7 7 7 7 7 7 7 7 7 7 7 7 7 7 7 7 7 7 7 7 7 7 7 7 7 7 7 7 7 7 7 7 7 7 7 7 7 7 7 5 i / / i ^ i.e >.t.t a / ( _ t./ i t -.r _ / u.a 5 e t.-.( e ^ ^ t / t.7 i u./ t.( ^ 4 i a i i _ >.e t._ a r a r / 5 a a ^ ( >.r 5 r 7 e ~ ~ p p :.p e :.~ p :.r :.! p p p 5 7 w 7 V Z ",
"PX:.4 e 4 3.PXKXGXGX8.4 p PX8.4 5 8.PX! p yXyXp 5 p p 5 yX3.5 7 5 5 5 5 5 5 5 5 5 5 5 5 5 5 5 5 5 5 5 5 5 5 5 5 5 5 5 5 5 5 5 5 5 5 5 5 5 5 5 5 5 5 5 5 5 5 5 5 5 5 5 5 5 5 5 5 5 5 5 5 5 5 5 5 5 5 5 5 5 5 5 5 5 5 5 5 5 5 5 5 5 5 5 5 5 5 5 5 7 4 4 4 4 4 4 4 4 4 4 4 4 4 4 4 4 4 4 4 4 4 4 4 4 4 4 4 4 4 4 4 4 4 4 4 4 4 4 4 4 4 4 4 4 : % % : % % 4 % % : % % % % % % : : % : % % % % 4 4 % % % 4 % % : : % 5 4 % : % : 4 5 4 4 4 4 : : 4 % % 4 4 4 4 : 5 : : : % % 4 4 4 4 4 4 = 4 = = = 4 = = 4 = 4 = = 4 4 4 4 4 4 4 4 - ",
"PX:.4 e 7 5 8.KXKXKXPX:.p KXKXKXKXPXKXp ~ GXPX! = 5 5 5 yX3.5 7 5 5 5 5 5 5 5 5 5 5 5 5 5 5 5 5 5 5 5 5 5 5 5 5 5 5 5 5 5 5 5 5 5 5 5 5 5 5 5 5 5 5 5 5 5 5 5 5 5 5 5 5 5 5 5 5 5 5 5 5 5 5 5 5 5 5 5 5 5 5 5 5 5 5 5 5 5 5 5 5 5 5 5 5 5 5 5 7 4 % % % X % % % % % % % % % % % % % % % % % % % % % . . % % . % % % . $ % % % % % % % % % $ X % % % % % % % % % % % % % % % % % % % % % % % % % % % % % % % : : - % 4 : 4 > > : : : : % = = % 4 : : : : : : % $ X X % $ . $       . $ . $ $ $ % % X X X % % . $   X .   . X X   ",
"PX:.+ 4 5 5 = 4 = r KX8.r PXKXyXyXyX:.= 5.yXKXGXp e = :.yX! 5 7 5 5 5 5 5 5 5 5 5 5 5 5 5 5 5 5 5 5 5 5 5 5 5 5 5 5 5 5 5 5 5 5 5 5 5 5 5 5 5 5 5 5 5 5 5 5 5 5 5 5 5 5 5 5 5 5 5 5 5 5 5 5 5 5 5 5 5 5 5 5 5 5 5 5 5 5 5 5 5 5 5 5 5 5 5 5 7 4 % % % X > % % % % % % % % % % % % % % % % % % % % $ i a   % ^   . $ e 4 . % . $ $ . . % . % 7 $ % % % % % % % % % % % % % % % % % % % > % % % % % % % % : : : - Z , - : : = = = = : = < 2.=.: : : : : : : % % > 1 1 > 5 t : i ^ a t : t 5 e : % % < 1 < % % t 5 _ 5 e _ 5 5 5 a ",
"PXGXyXGX3.7 yXGXyXGXPX3.r PX8.+ 4 = 4 e = :.KXKXPX8.p yX8.r 5 7 5 5 5 5 5 5 5 5 5 5 5 5 5 5 5 5 5 5 5 5 5 5 5 5 5 5 5 5 5 5 5 5 5 5 5 5 5 5 5 5 5 5 5 5 5 5 5 5 5 5 5 5 5 5 5 5 5 5 5 5 5 5 5 5 5 5 5 5 5 5 5 5 5 5 5 5 5 5 5 5 5 5 5 5 5 7 4 % % % X 1 Y X % % % % % % % % % % % % % % % % % % % $ R.^ i.L.J.J.u.-.(./ r L.>.y.y.L.J./ J.R.J.. % % % % % % % % % % % % % % % % % % X < :.% % % % % % % : : % : Z Z - : : T =.2.1 = = 1 7.2.> % : : : : % % X 1 8.yXT i '._ '.I._ '.t.L.a t.r . > U *.1 $ t '._ '.y.y.^ R./ _ _ ",
"KXKXKXKX7.5 KXKXKXKXyX5 p KX8.4 e e 7 7 4 :.:.8.KX8.yX8.p 5 7 5 5 5 5 5 5 5 5 5 5 5 5 5 5 5 5 5 5 5 5 5 5 5 5 5 5 5 5 5 5 5 5 5 5 5 5 5 5 5 5 5 5 5 5 5 5 5 5 5 5 5 5 5 5 5 5 5 5 5 5 5 5 5 5 5 5 5 5 5 5 5 5 5 5 5 5 5 5 5 5 5 5 5 5 5 7 4 % % % % X Y Y X % % % % % % % % % % % % % % % % % % % $ i R.jXu.'.(.R._ i.e ( u.(.t.R.L.y.(.(.L.-.  % % % % % % % % % % % % % % % % % % X > *.% % % % % % : : : - 3 Z Z : % : T T *.2 = = 2 7.2.> % : : : % % % X 1 8.yXT e (.(.u.I./ i.(.I._ u.e . > 1 *.1 $ J.'.R.L.L.u.r (.-.i.t ",
"e 7 7 7 7 7 7 7 7 7 4 5 7 e 7 5 7 7 7 5 7 4 = 5.:.:.:.e 5 7 5 7 7 7 7 7 7 7 7 7 7 7 7 7 7 7 7 7 7 7 7 7 7 7 7 7 7 7 7 7 7 7 7 7 7 7 7 7 7 7 7 7 7 7 7 7 7 7 7 7 7 7 7 7 7 7 7 7 7 7 7 7 7 7 7 7 7 7 7 7 7 7 7 7 7 7 7 7 7 7 7 7 7 5 7 7 4 % % % % % % X < % % % % % % % % % % % % % % % % % % % % % ( ^ ^ / i _ t _ ( r ( I.t e i / / / ( i ( % % % % % % % % % % % % % % % % % % % % > % % % % % % : : : : % , - , : % : = = = = : % > U < = : : : % % % % X > :.:.< 4 ^ / t -.( e a a _ ( X % % 1 U 1 % a % -.i.r i y.4 _ _ % ",
"5 5 5 5 5 7 5 5 5 5 7 7 5 5 5 7 7 7 7 7 7 7 e 4 5 5 5 5 7 7 7 7 7 7 7 7 7 7 7 7 7 7 7 7 7 7 7 7 7 7 7 7 7 7 7 7 7 7 7 7 7 7 7 7 7 7 7 7 7 7 7 7 7 7 7 7 7 7 7 7 7 7 7 7 7 7 7 7 7 7 7 7 7 7 7 7 7 7 7 7 7 7 7 7 7 7 7 7 7 7 7 7 7 7 7 4 % % % % % % % % X % % % % % % % % % % % % % % % % % % % % % . . . . . . X . .   t 5 o $ . . . . . X . % % % % % % % % % % % % % % % % % % % % % % % % % % : : : : : : - : % % : : : > > : : : : = = : : : % % % % % % % X X X % . . X . . $ . . . . % % % X X X % . %     . .   $ .   % ",
"% % % % % % % % % % % % % % % % % % % % % % % % % % % % % % % % % % % % % % % % % % % % % % % % % % % % % % % % % % % % % % % % % % % % % % % % % % % % % % % % % % % % % % % % % % % % % % % % % % % % % % % % % % % % % % % % % % % $ % % % % % % % % % % % % % % % % % % % % % % % % % % % % % $ % % % % % % % % % % . $ % % % % % % % % % $ % % % % % % % % % % % % % % % % % % $ % % % $ % % % % % % % % % % % % % % % % % % % % % % % % % % % % % % % % % % % % % % % % % % % % % % % $ % % % % % % % % % % % % % % % % % ",
"i i i i i i t t t t i a i i i a a t i t a i i t a a a a a a a a a a a a a a a a a a a a a a a a a a a a a a a a a a a a a a a a a a a a a a a a a a a a a a a a a a a a a a a a a a a a a a a a a a a a a a a a a a a a a a a a a a a a a a a a a a a a a a a a a a a a a a a a a a a a a a a a a a a a a a a a a a a a a a a a a a a a a a a a a a a a a a a a a a a a a a a a a a a a a a a a a a a a a a a a 4 : 5 5 5 5 4 4 5 5 5 5 % % 5 4 4 5 5 5 4 % 5 : 4 5 5 5 5 % i a i a a a a a a a i a a a a a a a a a a a a a a a ",
"t.t.t.t.t.-.y.y.i.t.-._ t._ _ _ ( i.-.i.( _ -.t._ ( _ ( ( ( ( ( ( ( ( ( ( ( ( ( ( ( ( ( ( ( ( ( ( ( ( ( ( ( ( ( ( ( ( ( ( ( ( ( ( ( ( ( ( ( ( ( ( ( ( ( ( ( ( ( ( ( ( ( ( ( ( ( ( ( ( ( ( ( ( ( ( ( ( ( ( ( ( ( ( ( ( ( ( ( ( ( ( ( ( ( ( ( ( ( ( ( ( ( ( ( ( ( ( ( ( ( ( ( ( ( ( ( ( ( ( ( ( ( ( ( ( ( ( ( ( ( ( ( ( ( ( ( ( ( ( ( ( ( ( ( ( ( ( ( ( ( ( ( ( ( ( ( ( ( ( ( ( ( ( ( ( ( ( ( ( ( ( ( ( ( ( ( ( _ 5 4 e 7 7 ^ i.-.a 5 7 e : 4 5 i t : 5 e 4 % 5 / i 4 5 e 5 % ^ ( t.-./ ^ ^ / / _ t./ ( ( ( ( ( ( ( ( ( ( ( ( ( ( ",
"R.I.jX).I.I.t.R.R.jXR.t.'.R.(.u.J.J.I.jXJ.).I.jXR.I.u.a / / / / / / / / / / / / / / / / / / / / / / / / / / / / / / / / / / / / / / / / / / / / / / / / / / / / / / / / / / / / / / / / / / / / / / / / / / / / / / / / / / / / / / / / / / / / / / / / / / / / / / / / / / / / / / / / / / / / / / / / / / / / / / / / / / / / / / / / / / / / / / / / / / / / / / / / / / / / / / / / / / / / / / / / / / / ( 5 : 7 7 5 y._ t.( 5 7 7 : 4 4 -.u.u.i 5 5 X ( u.u._ ( R.e % a t.(.y.J.L.L.J.t.R.J.a ( / / / / / / / / / / / / / ",
"I.jXi.R.I.R.^ J.L.jXR.L.R.jXjXi.L.I.jX'.(.'.jXi.I.).J.a / / / / / / / / / / / / / / / / / / / / / / / / / / / / / / / / / / / / / / / / / / / / / / / / / / / / / / / / / / / / / / / / / / / / / / / / / / / / / / / / / / / / / / / / / / / / / / / / / / / / / / / / / / / / / / / / / / / / / / / / / / / / / / / / / / / / / / / / / / / / / / / / / / / / / / / / / / / / / / / / / / / / / / / / / / / ( 5 : 7 7 5 y.( L.i.4 7 7 : 4 4 _ I.L.-.4 5 . -.i.u.I.I.I.5 % ^ ( I.jX(.).).I.'.kXu.a ( / / / / / / / / / / / / / ",
"J.i./ y.y.y.u.t.t.t.i.J.t.i.y._ -.L.i.t.u.( u./ t._ -./ ( ( ( ( ( ( ( ( ( ( ( ( ( ( ( ( ( ( ( ( ( ( ( ( ( ( ( ( ( ( ( ( ( ( ( ( ( ( ( ( ( ( ( ( ( ( ( ( ( ( ( ( ( ( ( ( ( ( ( ( ( ( ( ( ( ( ( ( ( ( ( ( ( ( ( ( ( ( ( ( ( ( ( ( ( ( ( ( ( ( ( ( ( ( ( ( ( ( ( ( ( ( ( ( ( ( ( ( ( ( ( ( ( ( ( ( ( ( ( ( ( ( ( ( ( / ( ( ( ( ( ( ( ( ( ( ( ( ( ( ( ( ( ( ( ( ( ( ( ( ( ( ( ( ( ( ( ( ( ( ( ( ( ( ( ( ( ( ( ( ( ( 5 : 7 5 7 / -.I.y.4 7 7 : 4 5 ^ _ i t 5 4 % 5 t.^ ^ -./ r % ^ _ J.t.J.jXt.t.J.u.-./ ( ( ( ( ( ( ( ( ( ( ( ( ( ( ",
"i i a t t t t i i i t t i t t a i r t i t a t a i i i a a a a a a a a a a a a a a a a a a a a a a a a a a a a a a a a a a a a a a a a a a a a a a a a a a a a a a a a a a a a a a a a a a a a a a a a a a a a a a a i a a a a a a a a a a a a a a a a a a a a a a a a a a a a a a a a a a a a a a a a a a a a i a ^ a a a a a a a a a a a a a a a a a a a a a a a a a a a a a a a a a a a a a a a a a a a a a / 5 : 7 5 5 7 5 4 5 7 5 7 : : e 5 4 5 5 7 4 % 7 4 5 5 4 5 5 % i a i i ( _ i a i i a a a a a a a a a a a a a a a a ",
"u 9 4 % % % % % % % % : % % % : 5 % % % % % % % % % 5 4 % % % % % : 5 % % % % 4 4 % % % 5 : % % 5 % % 4 4 % 6 u j H H 0 0 4 % % % % % % % % % % % % % 4 4 % % % % % % % % : 5 % % % % % % 5 : % % % % 5 % : 8 0 q 7.=.1 1 > % 5 : % 5 : % 5 % % % % % % % % % % % % % % % % % 5 % % % % % % % % % 4 4 % % > < 2 :.W.^ W e % 4 4 % % % 5 : % % 5 : % 4 5 % : 5 % 4 4 % % % % % % % % % % % % % % % % 4 5 e W ^ aXt % e 5 7 5 % % 5 7 5 7 : : 7 7 7 7 7 7 4 % 7 7 7 7 7 7 5 % 5 5 5 7 5 5 7 7 7 5 5 5 5 5 5 5 5 5 5 5 5 5 5 5 5 5 ",
"X.X.6 : : : : : : : : : : : : 4 5 : : : : : : : : % 5 4 : : : : : 4 5 % : : % 5 5 % 4 % 5 4 : : 5 4 : 4 5 % 6 s z J K 0 0 8 4 : : : : : : : : : : : % 5 4 : : : : : : : : 4 5 : : : : : % 5 4 : : : : 5 : 4 8 0 q 7.=.Y 1 > % 5 4 % 5 4 : e : : : : : : : : : : : : : : : : 4 5 : : : : : : : : % 5 4 : 4 > 2 2 3.aX` ^ r 4 4 5 % 4 % 5 4 : : 5 4 : 4 5 % 4 5 % 5 5 % : : : : : : : : : : : : : : % 5 5 y ^ ` aXt % e 5 7 5 X % 5 7 5 7 : : 9 9 9 9 9 9 4 % 6 9 9 9 9 9 6 % 5 7 7 7 4 4 4 = 4 7 7 7 7 7 7 7 7 7 7 7 7 7 7 e 7 7 ",
"q.q.6 % : : : : : : : : : : : 4 5 % : : : : : : : % 5 4 % : : : : 4 5 % : : % 4 5 % : % 5 4 : : 5 : % 4 5 % 6 s z H K 0 0 8 : : : : : : : : : : : : % 5 4 % : : : : : : : 4 5 % : : : : % 5 4 : : : : 5 : 4 8 0 q 7.=.U 1 > % 5 4 % 5 4 : 7 : : : : : : : : : : : : : : : : 4 5 % : : : : : : : % 5 4 % : > 2 2 3.aX^ ^ r 4 4 5 % : % 5 4 : % 5 4 % 4 5 % 4 5 % 5 5 % : : : : : : : : : : : : : : % 5 5 y ^ ` aXt % e 5 7 5 > > 5 7 5 7 : : 9 9 9 9 9 9 4 % 6 9 9 9 9 9 6 % 5 7 5 5 3.yXGXyX<.4 7 7 5 5 5 7 5 5 4 5 4 5 5 4 5 7 ",
"X.( 5 % : : : : : : : : : : : 4 5 % : : : : : : : % 5 4 % : : : : 4 5 % : : % 4 5 % : % 5 4 : : 5 : % 4 5 % 6 s z H K 0 0 8 : : : : : : : : : : : : % 5 4 % : : : : : : : 4 5 % : : : : % 5 4 : : : : 5 : 4 8 0 q 7.=.U 1 > % 5 4 % 5 4 : e : : : : : : : : : : : : : : : : 4 5 % : : : : : : : % 5 4 % : > 2 2 3.aX` ^ r 4 4 5 % : % 5 4 : % 5 4 % 4 5 % 4 5 % 5 5 % : : : : : : : : : : : : : : % 5 5 y ^ ` aXt % e 7 4 ! HXGXr 5 7 7 : : 9 9 9 9 9 9 4 % 6 9 9 9 9 9 6 % 5 5 e yXHX5.:.8.HX8.4 7 7 5 7 4 t._ a i / r r t.i 5 ",
"u 9 4 : : : : : : : : : : : : 4 5 % : : : : : : : % 5 4 % : : : : 4 5 % : : % 4 5 % : % 5 4 : : 5 : % 4 5 % 6 s z H K 0 0 8 : : : : : : : 4 4 4 : : % 5 4 % : : : : : : : 4 5 % : : : : % 5 4 : : : : 5 : 4 8 0 q 7.=.U 1 > % 5 4 % 5 4 : e : : : : : : : : : : : : : : : : 4 5 % : : : : : : : % 5 4 % : > 2 2 3.aX` ^ r 4 4 5 % : % 5 4 : % 5 4 % 4 5 % 4 5 % 5 5 % : : : : : : : : : : : : : : % 5 5 y ^ ` aXt % e 7 4 ! JXHXr 5 7 7 : : 9 9 9 9 9 9 4 % 6 9 9 9 9 9 6 % 5 4 yXGX% o o o < HX5.= e 5 7 4 -.I.I.I.I.I.i.'.t 5 ",
"u 9 4 : : : : : : : : : : : : 4 5 % : : : : : : : % 5 4 % : : : : 4 5 % : : % 5 5 : 4 : 5 4 : : 5 : % 4 5 % 6 s z H K 0 0 8 : : : : 4 : 4 % $ $ : : % > > % : : : : : : : 4 5 % : : : : % 5 4 : : : : 5 : 4 8 0 q 7.=.U 1 > % 5 4 % 5 4 : e : : : : : : : : : : : : : : : : 4 5 % : : : : : : : % 5 4 % : > 2 2 3.aX` ^ r 4 4 5 % : % 5 4 : % 5 4 % 4 5 % 4 5 % 5 5 % : : : : : : : : : : : : : : % 5 5 y ^ ` aXt % e 7 4 ! JXHXr 5 7 7 : : 9 9 9 9 9 9 4 % 6 9 9 9 9 9 6 % 4 p HX< o % %   O :.HX5 5 7 7 4 t.u./ R.L.y.L.u.a 5 ",
"x 9 4 : : : : : : : : : : : : 4 5 % : : : : : : : % 5 4 : : : : : 4 5 % : : % : 4 % % % 5 4 : % 5 4 : 4 5 % 6 s z H K 0 0 8 : : : : % % % 6 n b % 4 % j 9 % 4 : : : : : : 4 5 % : : : : % 5 4 : : : : 5 : 4 8 0 q 7.=.U 1 > % 5 4 % 5 4 : e : : : : : : : : : : : : : : : : 4 5 % : : : : : : : % 5 4 % : > 2 2 3.aX` ^ r 4 4 5 % : % 5 4 : % 5 4 % 4 5 % 4 5 % 5 5 % : : : : : : : : : : : : : : % 5 5 y ^ ` aXt % e 7 4 ! JXHXr 5 7 7 : : 9 9 9 9 9 9 4 % 6 9 9 9 9 9 6 % = <.GX% % % % ).jX~ GXp 5 7 7 5 4 7 % / e 4 5 4 4 5 ",
"x 9 4 : : : : : : : : : : : : 4 5 : : : : : : : : % 5 4 : : : : : 4 5 : 4 : e s s r e 6 7 4 4 4 7 % % 4 5 % 6 s z H K 0 0 8 4 : : 4 i e 6  Xv.}.9 $ 6  X X9 : 4 4 4 4 4 : 4 5 % 4 4 4 4 % 5 4 : 4 4 4 5 4 4 8 0 q 7.=.U 1 > % 5 4 % 5 4 : e : 4 : : : : : : : : : : : : : : 4 7 : 4 4 4 4 : : : : 5 4 : : > 2 2 3.aX` ^ r 4 4 5 % 4 % 5 4 : : 5 4 : 4 5 % 4 5 % 5 5 % : : : : : : : : : : : : : : % 5 5 y ^ ` aXt % e 7 4 ! JXHXr 5 7 7 : : 9 9 9 9 9 9 4 % 6 9 9 9 9 9 6 % = <.GX% % % % i.J.e *.e 5 7 5 a ( 5 -.a _ 5 e _ _ a ",
"u 9 4 % % % % % % % % % % % % % 4 X % % % % % % % X 4 4 X % % % X X 4 X X o u 0.X.x X.X.t $ e ( _ e 5 4 5 % 6 u z H K 0 0 8 : : % 5 o.o.|.#.! z.[.* M v.z.b * % % % % % % : 5 % % % % % % 5 : % % & % 5 : : 8 0 q 7.=.U 1 , % 5 : $ 4 % % e : % X X X X X X X X X X X X X X X = o X o o o X X X X 4 4 % : > < 2 3.aX^ Q e : 4 4 % % % 5 4 % % 5 : % 4 5 % 4 5 % 5 5 % % % % % % % % % % % % % % % % 4 5 e ^ ` aXt % e 7 4 ! JXHXr 5 7 7 : : 9 9 9 9 9 9 4 % 6 9 9 9 9 9 6 % 5 r HX! o % % o O Y *.5 7 7 5 u.u.( L.(.J.^ J.R.(.J.",
"xXxXxXxXxXxXxXxXxXxXxXxXxXxXxXxXxXxXxXxXxXxXxXxXxXxXxXxXxXxXxXxXxXxXxXxXxXlXxXzXzXdX~.2X#.b n B.B.N.e.e < > u x x J K q q 0 w w > l @X+X@XJ J oX#X|.%X#X@X.X[.[..X.X.X.X.X.X.X.X[.[..X.X.X.X.X.X.X@X.X.X[.[..X.X.X@XOX X X.X[..X XOXOX X X[.XX.X,X2XfXdXzXzXxXxXxXxXxXxXxXxXxXxXlXlXwXwXwXwX3.=.T ! p 4 4 e ~ Y 5.aX_ ` a e e r 5 7 5 r e 7 7 r 7 7 e r 5 e r 5 r r 5 7 7 7 7 7 7 7 7 7 7 7 7 7 7 5 r r t ` _ aXt % e 7 4 ! JXHXr 5 7 7 : : 9 9 9 9 9 9 4 % 6 9 9 9 9 9 6 % 5 4 5.HX1 X % % 1 7.p 5 7 7 5 y.L.i.L.R.J.( I.I.(.J.",
"O.O.` ) ) ) ) ) ) ) ) ) ) ) ) ` ] ) ) ) ) ) ) ) ) ) ] ` ) ) ) ) ' ' ] H.T.aXCXaXsXNXVXVXBXbX~.n v.:X,X=Xn k 6 u z H K 0 0 5 0 N N D +X+X#X#X@XOX@X.XOXc.v.[.k k k 9 j k k k k 9 m |.9 k k k k k S S S F S k j x l ,.<.s z 9 >.8.8.8.4.;.s Y.zXBXCXlXwXwX5.5.3.3.3.3.3.3.3.3.3.5.5.5.wXwXlXmXMXVXmXeX7.7.*.< < 1 3.aX` ^ t 4 5 5 4 4 4 7 5 4 4 7 4 4 5 7 4 5 7 4 7 7 4 4 4 4 4 4 4 4 4 4 4 4 4 4 4 4 5 7 r ^ ` aXt % e 7 4 ! JXHXr 5 7 7 : : 9 9 9 9 9 9 4 % 6 9 9 9 9 9 6 % 5 7 4 8.<.= 5 4 :.! 5 7 5 7 5 i / t ^ i ^ 4 / a / i ",
"k j 9 + + + + + + + + + + + + 9 9 + + + + + + + + + 9 9 + + + + + + 9 c c o.sXc c e.p.Q.vXsXNXxXp.x X.e.B.=X=Xc z J K s q N N # q .X.X{.z.q.q.q.q.OXJ -.q.{.@ , 9 [.9 , , , 8 , [.[., , , 8 , , , , , 0 N N N 0 q 7.=.2 *.6.2.=.T 2 2 3.mXmXwXT 2 2 3 2 2 2 2 2 2 2 2 2 2 2 2 1 2 2 2 3 3 2 1 [ wXNXwX=.2.eX*.2 3.aX^ ^ r 4 4 5 % : % 5 4 % % 5 : % 4 5 % 4 5 % 5 5 % : % % % % % % % % % % % % : % 4 5 e ^ ` aXt % e 7 4 ! JXHXr 5 7 7 : : 9 9 9 9 9 9 4 % 6 9 9 9 9 9 6 % 5 7 7 4 5 e e e 5 5 7 5 5 5 7 5 4 5 4 5 4 7 4 5 4 5 ",
"v z 9 9 9 9 9 9 9 9 9 9 9 9 9 9 u 9 9 9 9 9 9 9 9 9 9 9 9 9 9 9 9 9 u p.p.H.zXo.e.o.c p.zXc o.sXNXT.c e.e.X.M.,X:XV.V.n.K C , b .X.Xr.;.q.q.0.0.q.q.q.r.q.oXl , |.:X|., 8 8 0 8 {.OX9 4 8 0 8 8 8 8 8 0 4 8 N F S 7.*.6.eX=.< ~ Y 2 wXNX5.1 2 1 U U Y U U U U U U U U U U U U Y U U U U Y U U 2 3 T xXNX~ 1 eX6.3.aX` ^ r 4 4 5 % : % 5 4 : : 5 4 % 4 5 % 4 5 % 5 5 % : : : : : : : : : : : : : : % 5 5 y ^ ` aXt % e 7 4 ! JXHXr 5 7 7 : : 9 9 9 9 9 9 4 % 6 9 9 9 9 9 6 % 5 7 7 e 5 = = = 5 e 5 5 5 7 5 7 e 7 7 7 7 7 7 7 e 7 ",
"v z 9 9 9 9 9 9 9 9 9 9 9 9 9 9 9 9 9 9 9 9 9 9 9 9 9 9 9 9 9 9 9 9 ] vXsXzXQ.o.e.o.o.p.zXc o.c H.NXaXc e.o.e.M.,X,XS.L r.q.[..X@ m c.q.0.q.q.q.q.q.q.w.q.J l , |.r.|.@ 8 8 8 k oXJ k , 8 8 , 8 8 8 8 0 8 8 8 C G 9.tX7.=.T U Y 2 lXNXU 2 ! U U U U U U U U U U U U U U U U U Y U U U U U U U U U Y 3 wXNX*.1 2.tXE.` ^ r 4 4 5 % : % 5 4 : % 5 4 % 4 5 % 4 5 % 5 5 % : : : : : : : : : : : : : : % 5 5 y ^ ` aXt % e 7 4 ! JXHXr 5 7 7 : : 9 9 9 9 9 9 4 % 6 9 9 9 9 9 6 % 5 7 7 = p 5.8.3.e 4 7 5 5 5 7 5 : 5 7 5 5 5 5 7 5 5 ",
"v k 9 9 9 9 9 9 9 9 9 9 9 9 9 9 9 9 9 9 9 9 9 9 9 9 9 9 9 9 9 9 9 + Q.aXc o.o.e.e.o.o.e.vXsXG.o.c p.NXQ.o.o.e.M.M.>XS.r.k.@X#Xs 0 OXe.q.q.q.q.q.q.q.q.w.q.J l 9 OXq.OXk , 8 3 m v.J l , 4 q l , 8 8 8 0 8 8 0 q C FX7.=.*.T U 2 lXNX1 1 Y ! U U U U U U U U U U U U U U U U U Y U U U U U U U U 1 Y Y 3 5.NX*.=.7.yX` ^ r 4 4 5 % : % 5 4 : % 5 4 % 4 5 % 4 5 % 5 5 % : : : : : : : : : : : : : : % 5 5 y ^ ` aXt % e 7 4 ! JXHXr 5 7 7 : : q q q q q q 5 % 0 q q q q q 8 % 5 7 4 8.HXyX8.yXHX<.4 e 5 7 5 i u.r 5 r i e 5 5 r i ",
"x x 6 4 4 4 4 4 4 4 4 4 4 4 4 4 6 4 4 4 4 4 4 4 4 4 6 6 4 4 4 x X.x aXQ.x X.X.q.q.X.X.X.H.Q.xXD.G.o.p.VXH.o.e.M.b.S.,Xb.oX#Xq.q.q.oXr.q.q.q.q.q.q.q.q.q.q.v.m l oX;.v.b , 8 , m l.v.b , , v %Xj 4 8 8 0 8 8 0 q 7.FX9.*.*.T 3 wXNX2 Y Y U ! U U U U U U U U U U U U U U U U U Y U U U U U U U U 1 Y Y Y 3 5.NX=.5.uX7.u r 4 4 5 % : % 5 4 : % 5 4 % 4 5 % 4 5 % 5 5 % : : : : : : : : : : : : : : % 5 5 y ^ ` aXt % e 7 4 ! JXHXr 5 7 7 : : r 0 0 e 0 0 4 % 0 q q q q q 8 % 7 4 5.HX~ o o X :.JX<.4 7 7 5 J.( R.( I.I.J.L.( R.y.",
"=X#.n m m m m m m m m m m m m m m m m m m m m m m m m m m m m #.:X:XfX~.:X:X:X:X:XB.B.B.v.n ~.dXcXE.l Q.NXe.e.c.L m.S.1X#X0.q.q.J  Xq.q.q.0.0.0.0.w.0.w.w.w.OX.Xl.q.l.[.# # 0 n l.J m # @ m OXn , 4 4 8 8 8 # *.7.7.7.9.*.1 3.NXT 2 Y U U ! U U U U U U U U U U U U U U U U U Y U U U U U U U U 1 Y Y 1 Y 2 wXMX7.hXeX3.6 > 4 5 % : % 5 4 : % 5 4 % 4 5 % 4 5 % 5 5 % : : : : : : : : : : : : : : % 5 5 y ^ ` aXt % e 7 4 ! JXHXr 5 7 7 : % I 7XI I 7XI 8 & 0 q q q q q 8 % 5 e HX:.o % %   O 5.GX4 7 7 4 i.u.J.I.I.L.R.L.I.I.-.",
"#.v.m b b b b b b b b b b b b b m b b b b b b b b b m b b b b #.B.v.fX~.v.B.B.B.B.B.B.B.:X:X:X{.2XcXcX:XbXvXc S.b.C.>X%X,X0.q.q.@XJ K K K K K K K K K K K K oX+XK K K +XS N N $XL K +XN A +XL +XD N N q 8 = p rXC 7.2.9.9.T NX5.2 U Y U U ! U U U U U U U U U U U U U U U U U Y 1 U U U U U U U 1 Y Y 1 U T =.uXNXhX3.tXt 4 4 5 % 4 : 5 4 4 : 7 4 : 4 5 % 4 5 % 5 5 % 4 4 4 4 4 4 4 4 4 4 4 4 4 4 : 5 5 y ^ ` aXt % e 7 4 ! JXHXr 5 7 7 : % I 7X7X7X7X7X0 & 0 q q q q q 8 % 4 <.GX% % % % t.y.~ HXp 5 7 5 7 ^ 5 i e ( u.5 i e t ",
"v v j 9 9 9 9 9 9 9 9 9 9 9 9 9 j 9 9 9 9 9 9 9 9 9 u 9 9 9 9 c o.c dXH.o.e.o.e.e.o.e.o.e.e.e.e.M.+.zX~.:XNX'.L M.m.%Xv.V.m.K +X@Xk.w.w.w.w.0.0.0.0.0.w.0.0.q.q.0.0.q.l.[.0 k [.w.q.oX# [.#Xq.OX%XS N N N N 7.<.C 7.7.=.Z uXzXp Y 1 Y Y U ! U U U U U U U U U U U U U U U U U Y U U U U U U U U U Y Y U U T =.=.VXlX<.7.2.= 5 5 X X X 4 X X X 4 X X X 4 X X 4 X 4 4 X X X X X X X X X X X X X X X X 4 4 5 a ^ aXt % e 7 4 ! JXHXr 5 7 7 : : e 0 7 7 0 r 4 % 0 q q 0 q q 7 % = <.GX% % % % ).kXi 7.p 5 7 5 r e 5 r 7 r 4 5 t t e ",
"c v z z z z z z z z z z z z z z z z z z z z z z z z z z z z z dXzXdXvXN.z.M.z.M.M.z.z.z.M.M.z.z.N.z.aXE.c H.NX,Xm.#X+Xb.OX#X@XoXr.w.w.w.w.w.w.w.w.w.w.r.w.w.w.w.w.w.w.k.c.@XOXx.w.k.OXk oXv.k.OX#Xn m .Xd 9.9.C ;.7.d.J 7.BX.X@XT T :.Y Y :.Y Y Y Y Y Y Y Y Y Y Y Y Y Y Y Y Y :.Y Y Y Y Y Y Y Y Y :.Y Y Y =.*.=.8.VX5.<.eXU = e W ] { Q.pXpXpXpXpXpXpXpXpXpXpXpXpXpXpXpXpXpXpXpXpXpXpXpXpXpXpXpXpXpXpXpXsXsXsXcXy % e 7 4 ! JXHXr 5 7 7 : : q C q q C q 5 % 0 q q H P P q $ 4 p HX< o % % o O < *.5 7 7 5 u.J.a I.I.L.r i.R.R.y.",
"l v k j j j j j j j j j j j j j z j j j j j j j j j k j j j X.zXM.G.N.+.z.z.+.z.z.+.z.+.z.z.z.z.M.@.E.zXM.P vXcX%X%XS.#XoXv.:Xq.0.0.0.0.0.0.0.0.0.0.0.w.w.0.0.0.0.0.0.w.q.l.r.q.w.q.c.[.oXk.0.J J @X%XOXl 6.Z K K 7.>X@XMX~.&X@Xm i T U U ( 1 U U U U U U U U U U U U U U 1 U Y 1 U U U U U U U 1 Y Y 1 U T =.=.7.NXNX! *.yX%.sXpX$.{ { ' ) E ' E W E ) W E ) W ) ) W W W W W W W W W W W W W W W W E E ' ] { dXt % e 7 4 ! JXHXr 5 7 7 : : q q q q q q 5 % 0 C 0 I 7X7XH * 7 4 yXyX% % % % > *.! 5 7 7 5 u.J.i.J.'.u.-.I.I.(.J.",
"l v k j j j j j j j j j j j j j z j j j j j j j j j z c z v O.sXc z.z.z.z.z.z.z.z.z.z.z.z.z.z.z.M.+.p.zXvXS.z.NX1X1X#Xv.k.w.>Xc.0.w.0.0.0.0.0.0.0.0.0.w.w.0.0.0.0.0.0.0.w.0.w.w.0.0.0.J r.w.w.0.q.oXr.J /.7.V @X+X9.>XfXuXJ %Xv.&Xn T T c %Xa U U U U U U U U U U U U U U U U Y U U U U U U U U 1 Y Y 1 U T =.=.8.hXuXlXpXxX5.W W ' { $.$.Q.pXpXpXpXpXpXpXpXpXpXpXpXpXpXpXpXpXpXpXpXpXpXpXpXpXpXpXpXpXpXpXsXsXcXy % e 7 4 ! JXHXr 5 7 7 : : q q q q q q 5 % 0 q q q q q 8 % 5 5 7 GX3.X : = :.:.5 7 7 7 5 ( i.^ t._ t.5 t.-.i.( ",
"l v k j j j j j j j j j j j j j z j j j j j j j j j c M.z.@.T.sX@.z.z.z.z.z.z.z.z.+.z.z.z.z.z.z.z.z.z.c kXH.oX2XNX#X,Xb.n.r.r.>X0.0.0.0.0.0.0.0.0.0.0.w.w.0.0.0.0.0.0.0.0.w.w.0.0.0.0.q.0.w.w.0.w.q.q.v.V.V C @XJ P ,XVX<.oX,XV.%Xn T U }.SX` 1 U U U U U U U U U U U U U U U Y U U U U U U U U 1 Y Y 1 U T =.=.8.hX5.VXlX3.uXsXsXpXpXQ.{ { { { { { { { ] { { ' { { ] { { { { { { { { { { { { { { ] { { { Q.Q.dXt % e 7 4 ! JXHXr 5 7 7 : : u u u r t t 5 % 6 u 9 t W W e % 5 7 5 7 e 7 7 7 e 5 5 7 5 5 7 5 4 5 4 4 4 5 4 4 4 4 ",
"l v k j j j j j j j j j j j j j z j j j j j j j j j c M.z.@.W.aXc z.z.z.z.z.z.z.z.+.z.z.z.z.z.z.z.z.+.J hX~.%XoXbX2X>X,Xn.r.w.v.v.q.w.0.0.0.0.0.0.0.0.w.w.0.0.0.0.0.0.0.0.w.w.0.0.0.0.w.0.w.w.0.0.w.0./.OXC H >X>X4XSXkXJ :X,.A.b.n T 2 zXVX:.2 U U U U U U U U U U U U U U U Y U U U U U U U U 1 Y Y 1 U T =.=.7.vXlXwXVXxXwX5.y W y E W W W ) W W E ) W E ) W ) ) W W W W W W W W W W W W W W W W E ) ' ] { dXt % e 7 4 ! JXHXr 5 7 7 : : v.>X:XT.gXaXe % 6 6 6 r W W e % 5 7 7 5 5 w w w 5 7 7 5 5 5 5 7 7 7 e 7 7 7 7 7 7 7 ",
"l v k j j j j j j j j j j j j j z j j j j j j j j j c z.+.c E.aXc z.z.z.z.z.z.z.z.z.z.z.z.z.e.e.e.e.e.K ~.%XOX@X2XNXS.m.>Xr.r.r.>Xw.0.0.0.0.0.0.0.0.0.w.w.0.0.0.0.0.0.0.0.w.w.0.0.0.0.0.0.w.w.0.0.0.a.yX@X+XoX>X+X<XVXm.oXb.y.d.S.n T p NXVX4.2 U U U U U U U U U U U U U U U Y U U U U U U U U 1 Y Y 1 U T =.=.wXvXwXzXsXNXwXeXE E E ' ) E E ' E E E ' E E ' E ' ' E E E E E E E E E E E E E E E E ) ' ' { $.dXt % e 7 4 ! JXHXr 5 7 7 : : :X,X>X).kXgXr $ m .X[.x W W e % 5 7 5 w 8 q S q 7 w 7 5 5 5 5 5 7 5 4 5 e 7 7 7 5 5 ",
"o.c z j j j j j j j j j j j j j z j j j j j j j j j Q.zXsXsXvXT.@.z.z.z.z.z.o.e.e.o.e.e.M.z.v.oX:X=XJ +X3X~.,X+XJ cXkXJ >Xv.w.w.v.v.q.w.0.0.0.0.0.0.0.w.w.0.0.0.0.0.0.0.0.w.w.0.0.0.0.0.0.w.w.0.0.H `.^.k.@X#X^.+XbXuXb.#Xs.a.a.Z.J T ! sXzX5.2 U T U U U U U U U U U U U U U Y U U U U U U U U 1 Y Y 1 U T =.*.vXvXxX5.:.wXNXmX:.y E ' ) E E ' E E E ' E E ' E ) ) E E E E E E E E E E E E E E E E ) ' ' { $.dXt % e 7 4 ! JXHXr 5 7 7 : : :X,X>XE.kXgXr $ z b b u W W e % 5 7 w q S S d S S q w 7 5 5 5 7 5 7 ( r : 5 5 5 7 5 ",
"o.e.x j j j j j j j j j j j j j z j j j j j j j j j zXH.G.G.N.z.z.z.z.z.z.z.oX@XOXOXOX@X:Xe.OX:X:X X%X4X1XzXbXV.v.C.NXV.n.,Xl.r.r.>Xw.0.0.0.0.0.0.0.0.w.w.0.0.0.0.0.0.0.0.w.w.0.0.0.0.0.0.w.w.0.0.a.`.f.,.v.@Xf.'.NX8.V.%XZ.Y.hXvXfX[.<XsXaX~.2 U s U U U U U U U U U U U U U Y U U U U U U U U 1 Y Y U U T =.lXlXCX5.5.5.[ 3.NXNX' y W W E E ' E E ) ' E ) ' E ' ' E E E E E E E E E E E E E E E E ' ' ' { $.dXt % e 7 4 ! JXHXr 5 7 7 : : :X,X>XE.kXgXe % 7 6 6 r W W e % 5 w q S # $ $ $ # S 0 w 7 5 5 7 4 ^ L.u.u.t._ r 5 7 ",
"o.x u 9 9 9 9 9 9 9 9 9 9 9 9 9 u 9 9 9 9 9 9 9 9 u lXe.o.o.o.e.e.e.e.o.e.e.@Xz.M.z.z.v.@X:X#XOX X#XoXc.v.J kX~.v.m.kXvXJ v.>Xw.w.v.v.q.w.0.0.0.0.0.0.w.w.0.0.0.0.0.0.0.0.0.w.0.0.0.0.0.0.w.0.0.H `.K.f.a.g.g.f.NXhX^.h.@X_.VXNXVXSX4X1XsXaXbX2 ! 2Xn 1 1 1 1 1 1 1 1 1 1 1 U Y 1 1 1 1 1 1 1 1 1 Y U 1 U 2 wXlXvXzX5.5.3.3.:.[ uXNXxXwX{ ' E ) t y t Q y t Q y W W y y y y y y y y y y y y y y y y W W Q ] $.dXt % e 7 4 ! JXHXr 5 7 7 : : :X,X>XE.kXgXe % 6 9 9 t W W e % 5 7 S # * % % % * # S w 7 5 5 7 4 / u.I.J.t.R.4 7 5 ",
"[.[.[.[.[.[.[.[.[.[.[.[.[.[.[.[.[.[.[.[.[.[.[.[.[.[.2X@X@X@X@X@X@X@X@X@X@X#X%X@X@X@X#X#X%X%X#XOX:XL r.z.M.P dX'.v.m.S.NX!.l.>Xc.r.r.>Xr.w.w.w.w.w.w.w.r.w.w.w.w.w.w.w.w.w.w.r.w.w.w.w.w.w.r.w.w.d.`.a.d.d.d.k.hXvX_.`.^.j.hXVXhXVXSX,XMXsXK.CXs :.VXbX! Y Y Y Y Y Y Y Y Y Y Y ! Y Y Y Y Y Y Y Y Y ! Y Y Y :.lXlXlXhX5.5.5.3.3.4.5.yX5.xXNXNXNXNXxXxXxXxXlXlXlXlXlXlXlXlXlXlXlXlXlXlXlXlXlXlXlXlXlXlXlXlXlXxXxXvXr % e 7 4 ! JXHXr 5 7 7 : : :X,X>XE.kXgXe % 6 9 9 r y t w % 5 0 S % % . . % $ @ S 8 5 7 5 7 5 e y./ e t.t.: e 7 ",
"{.|.|.|.|.|.|.|.|.|.|.|.|.|.|.|.|.|.|.|.|.{.{.{.{.=X2XOXOXOXoXoXoX:X@X%X#X#XOX:X:X:Xv.v.M.M.e.+.n.n.z.c.n.L !.vXfXm.S.jXNXJ b.>Xr.r.v.v.0.w.w.w.w.w.w.r.w.w.w.w.w.w.w.w.w.w.r.w.w.w.w.w.w.r.w.w.`.^.a.d.d.f.K.NX/._.`.^.d.hXVXK.Y.dX'.VXaXa.zXbXpXlXvX:.Y Y Y Y 1 Y Y Y Y Y Y :.Y Y Y Y Y Y Y Y Y ! Y Y 1 sXxXwXwXvX5.5.5.3.3.3.3.yX' Q ) ' { 4.5.5.wXwXwXwXpXwXwXwXwXwXwXwXwXpXwXwXwXwXwXwXwXwXwXwXwXwXsXlXlXcXr % e 7 4 ! JXHXr 5 7 7 : : :X,X>XE.kXgXe % 6 u 9 ) { { t X w q S %   a t . % @ S 8 5 7 5 7 e 5 % 4 e i 5 7 5 5 ",
"v z 9 + + + + + + + + + + + 9 9 9 + 9 + wXwXwXwXwXwXaXe.e.e.e.e.e.e.:X:Xe.e.o.e.e.o.e.o.z.z.+.+.L l.z.l.L l.J !.dXm.S.J NXaXH >Xv.w.r.>Xw.0.0.0.0.0.0.w.w.0.0.0.0.0.0.0.0.0.w.0.0.0.0.0.0.w.w.a.8.a.a.d.a.k.vXvXZ._.^.^.f.hXNXA.s.vXvXvXD.y.Y.vXCXy.sX3.2 U 2 ! 4.2 U U 1 1 1 Y 1 1 1 1 1 1 1 U 1 Y Y 2 [ lXlX5.wXvX5.5.3.[ 3.3.[ 5.wXQ E W W Q W y W Q y t ) Q ) Q y y y y y |.u y y y y y y y y y W Q ) ] $.dXt % e 7 4 ! JXHXr 5 7 7 : : :X,X>XE.kXgXe % 6 u 9 wXNXNX[ X w 8 S @ > UX(   & # S 5 5 5 7 4 r / a u.i.4 J.J.L.r ",
"l v O.pXQ.Q.Q.Q.Q.Q.Q.Q.pX$.O.O.O.O.O.$.sXj j j j j c z.+.z.z.z.z.e.,X:Xe.z.z.z.z.z.z.z.z.z.+.n.n.z.z.L L l.c.V.cXm.S.n.!.NXr.c.>Xr.w.v.v.q.w.0.0.0.0.w.w.0.0.0.0.0.0.0.0.w.w.0.0.0.0.0.0.w.w.`.^.a.a.d.k.Y.NXj.Z._.^.^.d.vXY.A.k.NXvXK s.J.t.D.NXt.sX5.2 1 3 wXxX2 1 2 U U U Y T U U U U U U 1 2 Y Y 1 sXxXwX3.wXvX5.5.4.3.3.3.3.3.yX' E E E ' E E ) ' E W lXpX` ] E E E E E ~.' E E E E E E E E E ' ' ' { $.dXt % e 7 4 ! JXHXr 5 7 7 : : :X,X>XE.kXgXe % 6 u 9 5.NXNX[ X 5 w S d ^ I.o % @ S q w 7 7 5 i i.R.L.(.a i.R.R.(.a ",
"sXsXlX$.O.O.O.O.O.O.O.O.O.pXpXpXpXpXpXpXO.j j j j j o.z.+.z.z.z.z.e.,Xv.e.z.z.z.z.+.z.z.z.z.+.L x.z.l.L x.l.c.b.cXbXS.n.J zXvXH >Xv.w.r.>Xw.0.0.0.0.0.w.w.0.0.0.0.0.0.0.0.w.w.0.0.0.0.0.0.w.a.8.a.a.a.d.a.NXgXf.Z._.`.^.K.vXa.d.A.Y.aXk.Z.D.y.u.Y.t.sXwX2 wX2 lXbXq i.D.2 U U Y x p U U 1 1 1 T 3.Y 2 3.xXlX3.5.wXvX5.5.4.3.3.3.3.[ 5.5.Q E E ' E E E ) E a xXNXQ.Q.wXt E E W MX{ W E E E E E E E E ) ' ' { $.dXt % e 7 4 ! JXHXr 5 7 7 : : :X,X>XE.kXgXe % 6 u 9 5.NXNX[ X 5 7 5 S S * 4 & S S w 7 5 7 5 e ( y.( u.r -.L.u.L.t ",
"c c k j j j j j j j j j j j j j j j j j j v k k k k o.z.+.z.z.z.z.e.OXv.e.z.z.z.z.+.z.z.z.+.l.L z.z.L n.x.l.c.b.v.kXvX!.n.l.NXW.J >Xr.w.v.v.q.w.0.0.0.w.w.0.0.0.0.0.0.0.0.w.w.0.0.0.0.0.0.w.`.^.a.a.s.k.vXvXk.Z.Z._.hXNX`.vXk.s.A.f.s.s.A.s.y.y.i.i.Y.VXlXNXx dXvXvXxXVX5.2 U ! SX5.1 2 z.] k 2XmX1 Y sXxX5.5.5.hXlX5.5.4.4.3.3.[ 4.D.yXE ) ) ' E E ) ' ) D.vXVXVXVXxX{ { W E NX{ W E E E E E E E E ) ' ' { $.dXt % e 7 4 ! JXHXr 5 7 7 : : :X,X>XE.kXgXr $ m .X.XQ.NXNX[ X 5 7 5 8 r e e e 7 5 5 7 5 5 7 5 5 5 5 5 5 5 5 5 7 5 ",
"l v k j j j j j j j j j j j j j z j j j c z.+.+.+.+.z.z.z.e.z.@XOXOX@Xz.e.z.z.z.z.+.z.z.z.+.L l.z.l.L l.x.l.c.b.v.m.'.vXn.J U.NXr.:Xv.w.r.>X0.0.0.0.0.w.w.0.0.0.0.0.0.0.0.w.w.0.0.0.0.0.0.a.`.a.a.s.k.Y.NXa.f.j.Z._.vXNXhXhXk.d.f.A.s.y.f.Z.i.y.y.y.y.aXSXfXSXzXy.VXNXlXNXY 1 :.NXlX2 Y zXbX{.bXuX:.5.xXpX4.~.H.hXhX5.5.4.D.3.3.[ 4.H.yX3.O.O.) E E E ] X.xXxXF.VXVXpXlXwXt ' NX} W E E E E E E E E ) ' ' { $.dXt % e 7 4 ! JXHXr 5 7 7 : : :X,X>XE.kXgXr $ m .X.XE.NXNX[ X 5 7 7 w 4 = = 4 5 e 5 5 5 5 5 7 7 7 7 7 7 7 7 7 5 7 ",
"e.e.z j j j j j j j j j j j j j z j j j c z.z.z.z.z.z.z.z.e.v.OXe.z.z.e.z.z.z.z.z.+.z.z.M.x.L z.z.L J l.x.l.c.b.v.m.L dXdXx.J dXNXJ >Xr.w.v.c.q.w.0.0.w.w.0.0.0.0.0.0.0.0.w.w.0.0.0.0.0.H `.^.a.s.a.s.VXY.k.d.j.Z._.vXvXvXgXk.d.s.A.Z.u.s.A.y.y.y.y.y.i.#XdXVXD.y.NXNXq.lX[ 3 5.sXlXwXMXfXBXVXfXQ.NXCXxX5.lXdXvXNXhX5.5.5.aXD.4.[ D.P.5.yXo.Q.' W { 5.$.sXNXH.p.sXsXsXlXxXs [ BX4.W E E E E E E E E ) ' ' { $.dXt % e 7 4 ! JXHXr 5 7 7 : : :X,X>XE.kXgXr $ m .X.XQ.NXNX[ X 5 7 7 4 ~ 5.wX5.e 4 e 5 5 5 5 5 7 5 5 5 5 e 7 7 7 5 ",
"e.e.x j j j j j j j j j j j j j z j j j c z.z.z.z.+.z.z.z.e.v.OXe.z.z.z.z.z.z.z.z.z.z.z.M.L l.z.x.L l.l.x.l.c.b.v.m.S.n.vXV.l.J vXvXC.V.H J >XH 0.0.0.w.w.0.0.0.0.0.0.0.0.w.w.0.0.0.0.w.k.hXa.s.a.a.NXhXk.d.f.j.Z._.vXhXNXK.a.d.a.f.A.s.y.Z.Z.i.y.y.y.y.r.sXsXq.y.sXsXt.sX3.! lXY.CXVXNXdXvXBX:X2XBXSXsX5.VXVXVXbXdX5.5.xXvXzXpX,.P.P.pXyXT.NX{ u wXxXlXCXNXp.F.p.p.lXxXcXlX{ bXQ.W E E E E E E E E ) ' ' { $.dXt % e 7 4 ! JXHXr 5 7 7 : : :X,X>XE.kXgXr $ m .X.XQ.NXNX[ X 5 7 4 5.PXuXyXuXPX:.4 e 5 5 5 7 5 r r r e : 5 7 5 5 ",
"c v k j j j j j j j j j j j j j z j j j c z.+.z.z.+.z.z.+.e.v.OXo.z.z.+.z.z.+.z.z.+.z.+.x.L z.z.L J l.l.x.l.c.b.v.m.S.J dXaXl.l.J CXVXcXL.sXbXaX0.0.0.H H 0.0.0.0.0.0.0.0.0.w.0.0.0.0.H ^.`.a.k.a.NXlXk.a.a.f.j.Z._.vXhXNXd.a.d.a.a.A.f.y.s.A.y.y.y.y.y.y.y.y.y.y.t.i.t.sXbXBXvX-.~.VXNXzXD.v.p.1X<XbXzXxXbXVXBXBXNXsXxXVXNXNXVXvXG.u.CXlXNXVXQ.$.xXNXxXNXNXp.F.H.p.fXNXbXVXwXSXpXQ E E E E E E E E ) ) ' { $.dXt % e 7 4 ! JXHXr 5 7 7 : : :X,X>XE.kXgXr $ m .X.XQ.NXNX[ X e 4 5.PX~ o o X 3.PX! 4 e 5 5 7 5 t.R.L.i.y.R.t 5 7 ",
"c v z z z z z z z z z z z z z z z z z k o.M.z.z.z.z.M.z.z.e.:X:Xe.z.M.z.z.z.z.M.M.z.z.M.n.n.z.x.L x.x.x.x.x.b.b.m.m.S.b.!.vXaXl.J aXCXVXNXW.x.bXs.w.w.sXL.w.w.w.w.w.w.w.w.w.r.w.w.w.w.k.hXf.k.Y.NXhXk.d.d.d.d.Z.Z.hXvXhXVXd.d.d.d.d.j.A.s.J.Z.Z.u.s.u.u.u.u.u.u.u.s.s.u.J.NXNXvXy.u.,XSXvXq.D.y.#X2XvXVXSX%X2XfXNXVXNXNXVXbXVXCXNXvXvXvXNXNXSXzXxXVXNXNXVXvXN.G.,X,X<XBX2XVXNXSXaXD.' ' ' ' ' ' ' ) ' ' ] $.D.dXt % e 7 4 ! JXHXr 5 7 7 : : :X,X>XE.kXgXr $ m .X.XQ.NXNX[ X 5 e JX[ o % %   O 5.uX4 7 7 5 7 4 -.'.R.L.'.R.r 5 7 ",
"l v k k k k k k k k k k k j j j k j j j o.z.z.z.z.z.e.e.e.e.:XoXe.z.z.z.z.z.z.z.z.z.+.l.L z.z.L n.l.l.x.x.l.c.b.v.m.S.b.J V.dXJ l.dXg.aXVXaXH ~.cXH u.vXvXu.w.w.w.w.w.w.0.w.w.0.w.0.H ^.^.K.vXNXgXk.s.d.a.a.d.j.Z.NXvX`.NXf.a.d.a.a.s.A.f.s.a.A.y.y.y.y.y.y.y.y.y.y.y.y.t.~.fXpXi.4.OXSXuXq.u.y.2XkXsXCX#XB.C.U.dXSXBXVXVXSXbX@XsXVXvXNXVX(.%XdXNXVXVXvXVX2X%X,X%X%X%X2X<XbXNX2XdXxX' E E E E E E E ) ' ' { $.dXt % e 7 4 ! JXHXr 5 7 7 : : :X,X>XE.kXgXr $ m .X.XQ.MXNX[ X 4 :.uX% % % % >.i.~ JXp 5 7 5 7 5 r ^ ^ i ( ( t 5 7 ",
"l v k c c c c c c c c c c c x x o.x x x o.z.z.z.z.e.:XOXOXOX@X:Xe.z.z.+.z.z.+.z.z.z.+.L n.z.l.L x.l.l.l.x.l.c.b.v.m.S.b.n.x.vXE.J dXh.H C.bXNXcXBXK.vXE.P.sXH H H H H H H H w.0.w.s.P.vXNXNXvXs.k.s.a.d.a.a.k.hXhXVXhX^.hXa.a.d.a.a.d.f.A.s.y.A.f.i.y.y.y.y.y.y.y.y.y.y.,.:Xc.y.y.,.oXSXwXq.i.T.bXaXY.CX%X!.Y.Y.2X3XBXNXvX2XbX1XaXdXzXVXCX1X&XSXVXNXNXlXbX&X#X#X&X%X%XOXoX2XCX%XBXVX' W E E E E E E ) ' ' { $.dXt % e 7 4 ! JXHXr 5 7 7 : : :X,X>XE.kXgXr $ m .X.XE.NXNX[ X 4 3.uX% % % % jXkXi 5.t 5 7 5 5 5 5 4 : 4 4 : 5 5 5 ",
"n c c z.z.z.z.z.z.z.z.z.z.z.z.z.M.z.z.z.z.z.z.z.z.z.@Xv.v.v.v.z.z.z.z.z.z.z.z.z.z.+.l.L c.z.L L x.l.l.l.x.l.c.b.v.m.S.b.b.x.x.vXE.dXg.r.c.oXr.E.NXNXVXNXNXNXvXvXvXvXvXvXvXNXNXNXNXvXNXvXaXd.k.a.a.a.a.d.a.a.f.vXNXvX^.^.d.d.a.d.a.a.d.s.A.j.y.a.A.y.y.y.y.y.y.y.y.y.y.y.y.y.y.s.y.,.oXSXwXq.y.dXbXT.P.Y.#X!.Y.Y.C.&X2XcX1X%XNX,X,X,X,XSXbX%X&X2XVXbXbXsX:X&XN.@X&X@X1X1Xv.2XcX.XBXVX{ E E E E E E E ) ' ' { $.dXt % e 7 4 ! JXHXr 5 7 7 : : :X,X>XW.gXgXr $ m .X.XQ.MXMX[ X 4 ~ PX< o % %   O 1 5.5 5 7 4 t.y.r L.y.J.5 ( L.L.t.",
"B.M.z.z.z.z.z.z.z.z.z.z.z.z.+.z.z.+.z.z.z.z.z.z.z.z.OXz.e.e.e.z.z.z.z.z.z.z.z.z.z.+.n.n.z.l.L l.x.l.l.l.x.l.c.b.v.m.S.b.n.x.J x.vXvXl.l.r.>Xc.H U.NXsXw.L.vXJ.P.P.L.P.P.P.L.L.k.sXsX8.f.k.d.d.a.a.a.a.d.a.a.K.hXvXvX^.^.K.d.a.d.a.a.d.a.f.A.y.y.A.f.y.y.y.y.y.y.y.y.y.y.y.y.y.s.y.y.l.dXsXq.P.bXdXP.T.P.N.P.Y.Y.R.%X&X1X%X&XdX,X%X%X&X%X2X&X%X1XB.bXbX~. X1XD.B.:X1X,X1Xp.2XfXoXNXVXNX{ W E E E E E ) ' ' { $.dXt % e 7 4 ! JXHXr 5 7 7 : : n oXn D.Y.Y.e $ b [.XX} nXnX[ X w 4 yXuX% % % % > 5.[ 4 7 7 7 u.u.t.u.'.y.-.L.R.(.J.",
"B.M.z.z.z.z.z.z.z.z.z.z.z.z.z.z.z.z.z.z.z.z.z.z.z.z.@Xz.z.z.z.z.z.z.z.z.z.z.z.z.z.z.L z.z.n.L l.x.l.l.l.x.l.c.b.v.m.S.b.n.x.l.l.l.l.l.l.r.c.>Xr.H ~.G.H w.lX0.H k.vXw.H H H w.H sXNX`.a.s.d.a.a.a.a.a.f.a.a.Y.hXhXvX^.^.K.d.a.d.a.a.d.a.a.A.f.y.f.A.y.y.y.y.y.y.y.y.y.y.y.y.y.s.y.y.y.D.D.t.dXbXT.P.T.P.P.T.Y.Y.gX2X<X1X#X#XB.>X%X#X%X#X%X%X>XC.@X2XB.%X%XN.G.F.G.N.,X:X4.:X:X:X2XNXVX4.W E E E E E ) ' ' { $.dXt % e 7 4 ! JXHXr 5 7 7 : : n oXn D.Y.Y.e $ b [.XX} nXnX[ X 5 5 e uX5.X > = :.3.5 7 7 7 4 t.J.-.J.u.u.t J.u.L.i.",
"N.N.M.z.z.z.z.z.z.z.z.z.z.z.z.z.z.z.z.z.z.z.z.z.z.z.@Xz.z.z.z.z.z.z.z.z.z.z.z.z.+.n.n.z.x.L l.l.x.l.l.l.x.l.c.b.v.m.S.b.n.x.l.l.l.l.l.l.l.r.>Xc.0.v.v.q.H sXY.H lXlXsXH 0.w.w.w.sXvXY.a.a.d.K.a.s.a.a.K.s.k.gXhX/.hX^.^.K.d.a.d.a.a.d.a.a.Z.A.y.y.A.a.y.y.y.y.y.y.y.y.y.y.y.y.s.y.y.y.y.i.L.bXdXP.T.P.P.P.T.Y.Y.gXkX<X%X%XH.Y.>X@X,XP.C.%X#XP.>X&X:Xp.1X@XN.G.p.G.D.B.N.D.:X#XB.OX~.VX5.W E E E E E ) ' ' { $.dXt % e 7 4 ! JXHXr 5 7 7 : : n oXn D.Y.Y.e $ b [.XX} nXnX[ X 5 7 5 e r 7 7 7 e 5 5 7 5 5 5 5 5 5 5 5 5 5 7 5 7 5 ",
"!.!.M.+.z.z.z.z.z.z.z.z.z.z.z.z.z.z.z.z.z.z.z.z.z.z.@Xz.z.z.z.z.z.z.z.z.z.z.z.z.z.L l.z.n.L l.l.x.l.l.l.x.l.c.b.v.m.S.b.n.x.l.l.l.l.l.l.l.r.v.>Xw.r.>Xr.H Y.Y.H lXw.lX0.0.w.H P.vXvXY.a.a.Y.NXs.k.a.a.NXY.k.vX).Z._.^.^.K.d.a.d.a.a.d.a.a.d.A.f.y.f.A.y.y.y.y.y.y.y.y.y.y.y.y.s.y.y.y.y.i.aXbXT.P.T.P.P.P.T.Y.Y.gXkX1X%X1XP.T.~.>X,XY.!.%X@XY.>X%XF.F.G.@XN.G.p.G.G.F.F.D.:X&XB.N.OXsXpXW E E E E E ) ' ' { $.dXt % e 7 4 ! JXHXr 5 7 7 : : n oXn D.Y.Y.e $ b [.XX} nXnX[ X 5 7 7 7 5 w > w 5 7 7 5 5 5 7 7 7 7 7 7 7 7 7 7 5 7 ",
"N.N.M.+.z.z.z.z.z.z.z.z.z.z.z.z.z.+.z.z.z.z.z.z.e.@.@Xz.z.z.z.z.z.z.z.+.z.z.z.+.n.n.z.l.L l.l.l.x.l.l.l.x.l.c.b.v.m.S.b.n.x.l.l.l.l.l.l.l.l.r.>Xc.w.v.m.H T.Y.u.vXH vXJ.H w.H sXhXhXgXk.k.hXNXhXY.s.hXNXgXk.vXj.Z._.^.^.K.a.a.d.a.a.d.a.a.d.Z.A.y.y.A.a.y.y.y.y.y.y.y.y.y.y.y.u.y.y.y.i.J.bXdXP.P.T.P.P.P.T.Y.Y.gXkXR.1XC.Y.P.T.P.!.P.!.%XB.Y.B.2XY.p.G.v.p.G.p.G.G.p.p.D.:X%XN.p.:XP.lX) E E E E E ) ' ' { $.dXt % e 7 4 ! JXHXr 5 7 7 : : n oXn D.Y.Y.e $ b [.XX} nXnX[ X 5 7 7 w 0 A F C 7 w 7 5 5 7 5 4 e 7 7 7 5 5 5 5 e 7 ",
"B.M.z.z.z.z.z.z.z.z.z.z.z.z.z.z.M.z.z.z.z.z.z.z.z.z.@Xe.z.z.z.z.z.z.M.z.z.z.z.z.L l.z.n.S.l.l.l.x.l.l.x.x.l.c.b.v.m.S.b.b.x.l.l.l.l.l.l.l.l.r.v.>Xw.r.>XH P.aXaXY.H Y.aXH w.H hXhXY.hXk.k.vXY.vXNXvXVXhXhXK.vXj.Z._.^.^.K.d.a.d.a.a.d.a.a.d.a.A.a.y.f.A.y.y.y.y.y.y.y.y.y.y.y.s.y.y.u.i.aXbXE.P.P.T.T.P.P.T.Y.Y.gXkXaX2X~.Y.T.T.P.P.P.!.#XP.P.H.R.hXp.G.F.G.G.F.G.G.F.F.D.:X1XD.p.@Xp.lX] E E E E E ' ' ' { $.dXt % e 7 4 ! JXHXr 5 7 7 : : n oXn D.Y.Y.e $ b [.XX} nXnX[ X 5 7 5 A 5XG F G 5XC 5 7 7 5 a ^ 4 4 5 5 i r r e : 5 ",
"B.B.M.M.M.M.M.M.M.M.M.M.M.M.M.M.M.M.M.M.M.M.M.M.M.c.@XM.M.M.M.M.M.M.M.M.M.M.M.n.n.M.c.L n.x.x.x.b.x.x.x.x.x.b.b.m.m.S.b.b.b.x.x.x.x.x.x.x.x.x.x.>Xb.r.m.m.0.vXNXk.H P.zXH k.w.vXY.K.vXf.hXNXf.NXvXvXhXI.VXVXvXZ.Z._.`.^.^.d.d.d.d.d.d.d.d.d.d.Z.A.s.s.A.s.u.s.s.s.s.s.s.s.s.s.J.s.s.s.J.bXdXP.T.T.W.T.T.T.T.W.Y.gXkXE.E.W.T.T.W.T.T.T.!.1XT.T.W.T.hXP.H.G.H.H.G.H.H.G.G.D.:X,XD.H.#XB.xXD.' ' ' ' ' ] ] ] D.D.dXt % e 7 4 ! JXHXr 5 7 7 : : n oXn D.Y.Y.e $ b [.XX} nXnX[ X 7 w A 5X# $ * $ N 5Xq 5 7 5 J.u.u.i.( -.R.I.I.t.y.R.",
"B.M.z.z.+.+.+.+.+.+.+.+.+.+.+.z.z.+.z.+.+.+.+.+.e.@.OXe.+.z.+.z.+.z.z.+.z.z.+.L x.z.n.L x.l.l.l.x.l.l.l.x.l.c.b.v.m.S.n.n.x.l.l.l.l.l.l.l.l.l.r.v.>Xw.r.>XH aXY.H 0.H vXJ.H f.NXK.k.vXs.NXvXH vXvXk.a.d.Y.gXY.f.Z._.^.K.K.a.a.d.a.a.d.a.a.d.a.a.A.a.y.f.Z.i.y.y.y.y.y.y.y.y.y.u.y.y.t.aXbXE.P.P.P.T.P.P.P.P.Y.Y.gXkXE.E.T.P.P.T.P.P.P.H.1XP.P.T.H.gXY.p.F.F.G.p.G.G.p.p.F.p.p.p.D.:Xv.lXsXW E E E E ) ) ' { $.dXt % e 7 4 ! JXHXr 5 7 7 : : n oXn D.Y.Y.e $ b [.XX} nXnX[ X 5 7 5XC * % % %   A G 5 7 5 u.i.'./ (.u.i.'.R.L.'.R.",
"B.M.z.z.z.z.z.z.z.z.z.z.z.z.z.z.z.z.z.z.z.z.z.z.e.c.OXe.z.z.z.z.z.z.z.z.z.+.l.n.z.z.L n.x.l.l.l.x.l.l.l.x.l.c.b.v.m.S.b.n.x.l.l.l.l.l.l.l.l.l.l.l.>Xl.w.v.v.H H 0.0.H s.vXr.hXNXa.k.vXY.vXd.a.s.s.a.a.d.k.k.f.j.Z._.^.^.K.d.a.d.a.a.d.a.a.d.a.a.A.Z.y.s.A.y.y.y.y.y.y.y.y.y.y.s.y.y.u.bXdXP.P.P.P.T.P.P.P.T.Y.Y.gXkXE.E.T.P.P.T.P.P.P.U.1XP.P.T.P.T.hXG.p.F.G.p.G.G.p.F.F.F.F.p.D.B.:XlXVX) E E E E ) ' ' { $.dXt % e 7 4 ! JXHXr 5 7 7 : : n oXn D.Y.Y.e $ b [.XX} nXnX[ X w C 5X% % % . X $ # 5X0 5 5 -.t.i i L.i t / ^ i ( ( ",
"B.M.z.z.z.z.z.z.z.z.z.z.z.z.z.z.z.z.z.z.e.e.e.e.e.@.OXe.z.z.z.z.z.z.z.+.z.+.L x.z.l.L l.x.l.l.l.x.l.l.l.x.l.c.b.v.m.S.b.n.x.l.l.l.l.l.l.l.l.l.l.r.v.v.w.x.>X0.0.0.0.0.H u.vXvXs.a.a.Y.NXhXf.d.a.a.a.a.d.a.a.d.j.Z._.^.^.K.d.a.d.a.a.d.a.a.d.a.a.f.A.s.y.Z.Z.i.y.y.y.y.y.y.y.y.s.y.t.W.bXaXP.P.P.P.T.P.P.P.T.Y.Y.gXkXE.E.T.P.P.T.P.P.P.P.B.P.P.T.P.H.hXT.p.F.G.p.G.G.p.F.F.F.F.F.D.B.:XQ.vX} W E E E ) ' ' { $.dXt % e 7 4 ! JXHXr 5 7 7 : : n oXn D.Y.Y.e $ b [.XX} nXnX[ X w C G % % . ^ e   8 5X0 5 7 4 4 : r r : 5 4 4 4 4 4 ",
"B.M.z.z.z.z.z.z.z.z.z.z.z.z.z.z.z.z.z.e.c.v.v.v.v.oX@Xe.z.z.z.z.z.z.z.z.+.l.L z.z.L n.l.x.l.l.l.x.l.l.l.x.l.c.b.v.m.S.b.n.x.l.l.l.l.l.l.l.l.l.l.l.l.>Xx.w.:Xc.0.w.0.0.w.H `.^.k.a.a.a.Y.s.d.a.a.a.a.a.d.a.a.f.j.Z._.^.^.K.d.a.d.a.a.d.a.a.d.a.a.a.A.Z.y.a.A.y.y.y.y.y.y.y.y.y.s.y.y.dXdXP.P.P.P.P.T.P.P.P.T.Y.Y.gXkXE.E.T.P.P.T.P.P.P.T.P.P.P.T.P.P.Y.hXp.F.G.p.G.G.p.F.F.F.F.F.F.N.,Xi.aXwXt E E E ) ' ' { $.dXt % e 7 4 ! JXHXr 5 7 7 : : n oXn D.Y.Y.e $ b [.XX} nXnX[ X 5 0 5X8 & o L.IXO C 5X5 5 5 e 5 ( t.t.u.J.i i.i.t 5 ",
"B.M.z.z.z.z.z.z.z.z.z.z.z.z.z.z.z.z.z.e.@XOXOXOXOXOXv.e.z.z.z.z.z.z.z.z.+.L l.z.x.L l.l.x.l.l.l.x.l.l.l.x.l.c.b.v.m.S.b.n.x.l.l.l.l.l.l.l.l.l.l.l.r.v.m.w.l.>X0.w.0.0.0.k.8.d.a.a.a.a.k.a.d.a.a.a.a.a.d.a.a.f.j.Z._.^.^.K.d.a.d.a.a.d.a.a.d.a.a.a.f.A.s.y.A.f.i.y.y.y.y.y.y.y.s.t.T.bXaXP.P.P.P.P.T.P.P.P.T.Y.Y.gXkXE.E.T.P.P.T.P.P.P.T.P.P.P.T.P.P.P.hXG.F.G.p.G.G.p.F.F.F.F.F.F.N.1Xp.sXwXW E E E ) ' ' { $.dXt % e 7 4 ! JXHXr 5 7 7 : : n oXn D.Y.Y.e $ b [.XX} nXnX[ X 5 w F G % $ % E.0 5XF w 7 5 7 5 i I.i.'.L._ J.kXi.4 ",
"N.N.M.+.z.z.z.z.z.z.z.z.z.z.z.z.z.z.z.z.OXe.e.e.e.o.M.z.z.z.z.z.z.z.z.+.l.L z.z.S.J l.l.x.l.l.l.x.l.l.l.x.l.c.b.v.m.S.b.n.x.l.l.l.l.l.l.l.l.l.l.l.l.l.>Xr.w.>Xx.0.w.0.H ^.`.a.a.a.a.a.a.a.d.a.a.a.a.a.d.a.a.f.j.Z._.^.^.K.d.a.d.a.a.d.a.a.d.a.a.a.a.A.f.y.a.A.y.y.y.y.y.y.y.y.s.i.dXbXP.P.P.P.P.P.T.P.P.P.T.Y.Y.gXkXE.E.T.P.P.T.P.P.P.T.P.P.P.T.P.P.P.hXY.p.G.p.G.G.p.F.F.F.F.F.F.F.%X:XsXpXt E E E ) ' ' { $.dXt % e 7 4 ! JXHXr 5 7 7 : : n oXn D.Y.Y.e $ b [.XX} nXnX[ X 5 5 7 5XA & :   F F 5 7 7 5 7 5 r -.y.u.L.i a u.i.4 ",
"!.N.M.o.e.e.e.e.e.e.e.e.e.e.e.e.e.e.e.z.OXz.z.z.z.z.z.z.z.z.z.z.z.z.z.+.L n.z.x.L l.l.l.x.l.l.l.x.l.l.l.x.l.c.b.v.m.S.b.n.x.l.l.l.l.l.l.l.l.l.l.l.l.r.:Xv.w.c.>X0.w.0.0.8.a.d.a.a.a.a.a.a.d.a.a.a.a.a.d.a.a.d.j.Z._.^.^.K.d.a.d.a.a.d.a.a.d.a.a.a.a.f.A.y.y.A.f.y.y.y.y.y.y.y.y.P.bXaXP.P.P.P.P.P.T.P.P.P.T.Y.Y.gXkXE.E.T.P.P.T.P.P.P.T.P.P.P.T.P.P.P.W.hXp.G.p.G.G.p.F.F.F.F.F.F.F.#X#XpXlX' E E E ) ' ' { $.dXt % e 7 4 ! JXHXr 5 7 7 : : n oXn D.Y.Y.e $ b [.XX} nXnX[ X 5 7 5 7 7 7 7 e 0 5 5 7 5 5 5 7 5 5 5 5 5 5 5 5 5 5 ",
"N.N.c.{.oXoXoXoXoXoXoXoXoXoXoXoX:XoXoXOXOXo.+.+.z.+.z.z.+.z.+.z.+.z.z.l.L z.z.L J l.l.l.x.l.l.l.x.l.l.l.x.l.c.b.v.m.S.n.n.x.l.l.l.l.l.l.l.l.l.l.l.l.r.c.>Xr.w.>Xl.0.H K.`.a.d.a.a.a.a.a.a.d.a.a.a.a.a.d.a.a.f.j.Z._.^.^.K.a.a.d.a.a.d.a.a.d.a.a.a.a.a.A.f.y.a.A.y.y.y.y.y.y.y.y.dXbXT.P.P.P.P.P.P.T.P.P.P.P.Y.Y.gXkXE.E.T.P.P.T.P.P.P.T.P.P.P.T.P.P.P.P.hXP.F.p.G.G.p.F.p.p.p.p.p.F.p.&X,XVXwXy E E ) ) ' { $.dXt % e 7 4 ! JXHXr 5 7 7 : : n oXn D.Y.Y.e $ b [.XX} nXnX[ X 5 7 7 5 5 5 5 5 5 5 7 5 5 5 5 5 5 7 5 7 5 7 5 7 7 5 ",
"B.M.:XOX:X:X:X:X:X:X:X:X:X:X:X:X:X:X:X:Xc.z.z.z.z.z.M.z.z.z.z.z.z.z.M.n.n.z.x.L x.x.x.x.x.x.x.x.x.x.x.x.x.x.b.b.b.m.S.b.b.x.x.x.x.x.x.x.x.x.x.x.x.x.x.r.>Xv.w.b.>X0.w.hXd.d.d.d.d.d.d.d.d.d.d.d.d.d.d.d.d.d.d.Z.Z._.`.^.^.d.d.d.d.d.d.d.d.d.d.d.d.d.s.f.A.s.s.A.f.u.u.u.u.u.y.P.bXdXP.T.T.T.T.T.T.T.T.T.T.T.Y.Y.gXkXE.E.W.T.T.T.T.T.T.T.T.T.T.T.T.T.T.P.gXgXG.G.G.G.G.G.G.G.G.G.G.G.D.1X<XVXlXW ' ) ' ' ] $.D.dXt % e 7 4 ! JXHXr 5 7 7 : : n oXn D.Y.Y.e $ b [.XX} nXnX[ X w e 7 7 7 7 7 7 7 7 7 7 7 7 7 7 7 7 7 7 7 7 7 7 7 7 ",
":XB.@Xc.e.e.e.e.e.e.e.e.e.e.e.e.e.e.e.e.z.z.z.z.z.z.M.z.z.z.z.z.z.z.c.L x.z.n.n.x.l.x.l.x.x.l.l.x.x.l.x.x.l.b.b.v.m.S.b.b.x.x.l.x.l.l.l.l.l.l.l.l.x.l.x.b.>Xr.r.>Xr.K.`.a.d.d.a.d.d.d.d.a.d.d.a.d.d.a.d.d.d.d.Z.Z._.`.^.K.d.a.d.d.a.d.d.a.d.a.d.d.d.d.s.A.f.u.f.A.y.u.u.u.u.y.dXbXW.P.T.T.T.T.T.P.T.T.P.T.T.Y.Y.gXkXE.E.W.T.T.T.P.T.P.T.T.P.P.T.T.P.T.T.T.hXG.F.G.G.F.G.G.G.G.G.G.G.G.F.,XVXlXW ' ) ' ' ] $.$.dXt % e 7 4 ! JXHXr 5 7 7 : : n oXn D.Y.Y.e $ b [.XX} nXnX[ X > 4 4 4 4 4 4 4 4 4 4 4 4 4 4 4 4 4 4 4 4 4 4 4 4 4 ",
"@X@XOXz.z.z.z.z.z.z.z.z.z.z.+.z.z.+.z.z.z.z.z.z.z.+.z.z.+.z.z.z.z.+.n.n.z.l.L x.x.l.l.l.x.l.l.l.x.l.l.l.x.l.c.b.v.m.S.n.n.x.l.l.l.l.l.l.l.l.l.l.l.l.l.x.r.>Xc.0.v.:X8.d.a.a.d.a.a.a.a.a.a.d.a.a.a.a.a.d.a.a.f.j.Z._.^.^.K.a.a.d.a.a.d.a.a.d.a.a.a.a.a.a.f.A.y.y.A.a.y.y.y.i.J.bXdXP.P.P.P.P.P.P.P.T.P.P.P.P.Y.Y.gXkXE.E.T.P.P.T.P.P.P.T.P.P.P.T.P.P.P.T.H.hXT.p.G.G.p.F.p.p.p.p.p.F.p.F.:XVXxXy E E ) ) ' { $.dXt % e 7 4 ! JXHXr 5 7 7 : : n oXn D.Y.Y.e $ b [.XX} nXnX[ X 5 5 5 5 5 5 5 5 5 5 5 4 5 5 5 5 5 5 5 5 5 5 5 5 5 5 ",
"N.M.e.z.z.z.z.z.z.z.z.z.z.z.z.z.z.z.z.z.z.z.z.z.z.z.z.z.z.z.z.z.z.z.L l.z.n.L l.x.l.l.l.x.l.l.l.x.l.l.l.x.l.c.b.v.m.S.b.n.x.l.l.l.l.l.l.l.l.l.l.l.l.l.x.r.c.>Xw.r.C.8.a.a.a.d.a.a.a.a.a.a.d.a.a.a.a.a.d.a.a.d.j.Z._.^.^.K.d.a.d.a.a.d.a.a.d.a.a.a.a.a.a.a.A.a.y.f.A.i.y.y.t.aXbXW.P.P.P.P.P.P.P.P.T.P.P.P.T.Y.Y.gXkXE.E.T.P.P.T.P.P.P.T.P.P.P.T.P.P.P.T.P.Y.hXp.G.G.p.F.F.F.F.F.F.F.F.F.B.BXxXW E E ) ' ' { $.dXt % e 7 4 ! JXHXr 5 7 7 : : n oXn D.Y.Y.e $ b [.XX} nXnX[ X / ( / / / ( / ( ( / / ( / ( ( ( ( ( ( ( ( ( ( ( ( ( ",
"B.M.z.z.z.z.z.z.z.z.z.z.z.z.z.z.z.z.z.z.z.z.z.z.z.+.z.z.z.z.z.z.+.n.n.z.z.L l.x.x.l.l.l.x.l.l.l.x.l.l.l.x.l.c.b.v.m.S.b.n.x.l.l.l.l.l.l.l.l.l.l.l.l.l.x.l.r.>Xx.w.`./.a.a.a.d.a.a.a.a.a.a.d.a.a.a.a.a.d.a.a.f.j.Z._.^.^.K.d.a.d.a.a.d.a.a.d.a.a.a.a.a.a.a.Z.A.y.s.A.s.y.y.u.bXdXP.P.P.P.P.P.P.P.P.T.P.P.P.T.Y.Y.gXkXE.E.T.P.P.T.P.P.P.T.P.P.P.T.P.P.P.T.P.P.hXF.G.G.p.F.F.F.F.F.F.F.F.D.B.bXxXW E E ) ' ' { $.dXt % e 7 4 ! JXHXr 5 7 7 : : n oXn D.Y.Y.e $ b [.XX} nXnX[ X ^ ^ J.-.t.( _ L._ _ t.t.-.( / / / / / / / / / / / / ",
"B.M.z.z.z.z.z.z.z.z.z.z.z.z.z.z.z.z.z.z.z.z.z.z.z.+.z.z.z.z.z.z.+.L x.z.n.L l.x.x.l.l.l.x.l.l.l.x.l.l.l.x.l.c.b.v.m.S.b.n.x.l.l.l.l.l.l.l.l.l.l.l.l.l.x.l.r.v.:Xa.`.>Xa.a.a.d.a.a.a.a.a.a.d.a.a.a.a.a.d.a.a.f.j.Z._.^.^.K.d.a.d.a.a.d.a.a.d.a.a.a.a.a.a.a.a.A.a.y.f.Z.y.t.E.bXE.P.P.P.P.P.P.P.P.P.T.P.P.P.T.Y.Y.gXkXE.E.T.P.P.T.P.P.P.T.P.P.P.T.P.P.P.T.P.P.hXY.p.G.p.F.F.F.F.F.F.F.F.F.M.2XdXE E E ) ' ' { $.dXt % e 7 4 ! JXHXr 5 7 7 : : n oXn D.Y.Y.e $ b [.XX} nXnX[ X ^ _ kX(.).L.).jXR.R.(.R.).t.^ / / / / / / / / / / / ",
"N.N.z.z.z.z.z.z.z.z.z.z.z.z.z.z.z.z.z.z.z.z.z.z.z.+.z.z.z.z.z.+.n.n.z.z.L l.l.x.x.l.l.l.x.l.l.l.x.l.l.l.x.l.c.b.v.m.S.b.n.x.l.l.l.l.l.l.l.l.l.l.l.l.l.x.l.l.r.,X`.^.V.V.a.a.d.a.a.a.a.a.a.d.a.a.a.a.a.d.a.a.f.j.Z._.^.^.K.d.a.d.a.a.d.a.a.d.a.a.a.a.a.a.a.a.Z.Z.y.s.A.y.y.bXdXP.P.P.P.P.P.P.P.P.P.T.P.P.P.T.Y.Y.gXkXE.E.T.P.P.T.P.P.P.T.P.P.P.T.P.P.P.T.P.P.W.hXp.G.p.F.F.F.F.F.F.F.F.F.p.%XfX[ E E ) ' ' { $.dXt % e 7 4 ! JXHXr 5 7 7 : : n oXn D.Y.Y.e $ b [.XX} nXnX[ X a i.J.R.u.R.jXI.R.J.R.R.I.y.a / / / / / / / / / / / ",
"N.N.M.+.z.z.z.z.z.z.z.z.z.z.z.z.z.z.z.z.z.z.z.z.z.+.z.z.z.z.z.+.L x.z.n.L l.l.x.x.l.l.l.x.l.l.l.x.l.l.l.x.l.c.b.v.m.S.b.n.x.l.l.l.l.l.l.l.l.l.l.l.l.l.x.l.l.l.V.gXf.g.C.a.a.d.a.a.a.a.a.a.d.a.a.a.a.a.d.a.a.f.j.Z._.^.^.K.d.a.d.a.a.d.a.a.d.a.a.a.a.a.a.a.a.a.A.a.y.Z.k.T.bXaXP.P.P.P.P.P.P.P.P.P.T.P.P.P.T.Y.Y.gXkXE.E.T.P.P.T.P.P.P.T.P.P.P.T.P.P.P.T.P.P.P.hXH.G.p.F.F.F.F.F.F.F.F.F.p.%XfX[ Q E ) ' ' { $.dXt % e 7 4 ! JXHXr 5 7 7 : : n oXn D.Y.Y.e $ b [.XX} nXnX[ X ^ ( ^ / ( / ( ( L._ ( / _ / ( ( ( ( ( ( ( ( ( ( ( ( ",
"N.N.M.+.z.z.z.z.z.z.z.z.z.z.z.z.z.z.z.z.z.z.z.z.z.z.z.z.z.z.+.l.L z.z.L n.l.l.x.x.l.l.l.x.l.l.l.x.l.l.l.x.l.c.b.v.m.S.b.n.x.l.l.l.l.l.l.l.l.l.l.l.l.l.x.l.l.J `.].g.a.C.V.a.d.a.a.a.a.a.a.d.a.a.a.a.a.d.a.a.d.j.Z._.^.^.K.d.a.d.a.a.d.a.a.d.a.a.a.a.a.a.a.a.a.A.Z.y.a.A.dXdXP.T.P.P.P.P.P.P.P.P.P.T.P.P.P.T.Y.Y.gXkXE.E.T.P.P.T.P.P.P.T.P.P.P.T.P.P.P.T.P.T.P.gXW.p.F.F.F.F.F.F.F.F.F.F.p.%XfX[ Q E ) ' ' { $.dXt % e 7 4 ! JXHXr 5 7 7 : : n oXn D.Y.Y.e $ b [.XX} nXnX[ X e r r r r r r r e e r r e r r e < e < < e e 8 8 8 8 ",
"B.N.z.z.z.z.z.z.z.z.z.z.z.z.z.z.z.+.z.z.z.z.z.z.z.+.z.z.+.z.+.L l.z.n.L l.l.l.l.x.l.l.l.x.l.l.l.x.l.l.l.x.l.c.b.v.m.S.b.n.x.l.l.l.l.l.l.l.l.l.l.l.l.l.x.l.l.x.`.C.C.a.g.C.a.d.a.a.a.a.a.a.d.a.a.a.a.a.d.a.a.f.j.Z._.^.^.K.a.a.d.a.a.d.a.a.d.a.a.a.a.a.a.a.a.a.f.A.s.y.(.bXaXP.T.P.P.P.P.P.P.P.P.P.T.P.P.P.T.Y.Y.gXkXE.E.T.P.P.T.P.P.P.T.P.P.P.T.P.P.P.T.P.P.P.Y.hXF.F.F.F.F.F.F.F.F.F.F.F.%XdX[ W E ) ' ' { $.dXt % e 7 4 ! JXHXr 5 7 7 : : n oXn D.Y.Y.e $ b [.XX} nXnX[ X 5 5 4 5 4 4 5 5 5 7 5 5 5 7 > m 1X1X1X1X{.~ vXuXuXuX",
"B.B.M.M.M.M.M.M.M.M.M.M.M.M.M.M.M.M.M.M.M.M.M.M.M.M.M.M.M.M.x.L c.M.S.n.x.x.x.x.x.x.x.x.b.x.x.x.b.x.x.x.x.x.b.b.m.m.S.b.b.b.x.x.x.x.x.x.x.x.x.x.x.x.x.x.x.c./.`.V.C.h.d.C.V.d.d.d.d.d.d.d.d.d.d.d.d.d.d.d.d.j.Z.Z._.`.^.^.d.d.d.d.d.d.d.d.d.d.d.d.d.d.d.d.d.d.d.A.Z.s.kXbXW.T.W.T.T.T.T.T.T.T.T.T.W.T.T.T.W.W.Y.gXkXaXE.W.T.T.W.T.T.T.W.T.T.T.W.T.T.T.W.T.T.W.T.hXP.G.G.G.G.G.G.G.G.G.G.H.#XdX{ ) ' ] ] ] D.D.dXt % e 7 4 ! JXHXr 5 7 7 : : n oXn D.Y.Y.e $ b [.XX} nXnX[ X 5 r a t a ^ r t 7 : 5 7 7 7 , =X<X X X X X[ MXiXmXiX",
"B.M.z.z.z.z.z.z.z.z.z.z.z.z.z.z.z.z.z.z.z.z.z.z.z.z.z.z.z.+.L n.z.l.L l.l.l.l.x.x.l.l.l.x.l.l.l.x.l.l.l.x.l.c.b.v.m.S.b.n.x.l.l.l.l.l.l.l.l.l.l.l.l.l.x.l.r.hXg.j.C.V.a.h.C.d.a.a.a.a.a.a.d.a.a.a.a.a.d.a.a.d.j.Z._.^.^.K.d.a.d.a.a.d.a.a.d.a.a.a.a.a.a.a.a.a.a.f.A.P.bXjXU.T.T.P.P.P.P.P.P.P.P.P.T.T.P.P.T.Y.Y.gXkXE.E.T.P.T.T.P.P.P.T.P.P.P.T.P.P.P.T.P.P.T.H.gXY.p.F.F.F.F.F.F.F.F.F.F.#XdX[ W E ) ' ' { $.dXt % e 7 4 ! JXHXr 5 7 7 : : n oXJ D.Y.Y.e $ b [.XX} nXnX[ X : t.J.I.t.R.a i.i.i.e 5 7 7 , {. X X}.}. X[ mXiXmXqX",
"B.M.z.z.z.z.z.z.z.z.z.z.z.z.z.z.z.z.z.z.z.z.z.z.z.+.z.z.+.l.L z.z.L n.l.l.l.l.x.x.l.l.l.x.l.l.l.x.l.l.l.x.l.c.b.v.m.S.b.n.x.l.l.l.l.l.l.l.l.l.l.l.l.l.x.l./.`.g.g.h.C.j.f.C.h.a.a.a.a.a.a.d.a.a.a.a.a.d.a.a.f.j.Z._.^.^.K.d.a.d.a.a.d.a.a.d.a.a.a.a.a.a.a.a.a.a.s.A.jXbXI./.P.T.P.P.P.P.P.P.P.P.P.T.P.P.P.T.Y.Y.gXkXE.E.T.P.P.T.P.P.P.T.P.P.P.T.P.P.P.T.P.P.T.P.W.hXp.F.F.F.F.F.F.F.F.F.F.@XfX} W E ) ' ' { $.dXt % e 7 4 ! JXHXr 5 7 7 : : l n m ,.4.4.w $ v h h } 8X8XR X % y.y.I.a y.7 t.I.I.^ 4 7 7 , {. X}.}.}. X[ mXqXiXqX",
"B.M.z.z.z.z.z.z.z.z.z.z.z.z.z.z.z.z.z.z.z.z.z.z.z.+.z.z.+.L n.z.l.L x.l.l.l.l.x.x.l.l.l.x.l.l.l.x.l.l.l.x.l.c.b.v.m.S.b.n.x.l.l.l.l.l.l.l.l.l.l.l.l.l.x.l.`.h.g.g.j.C.V.a.V.C.a.a.a.a.a.a.d.a.a.a.a.a.d.a.a.f.j.Z._.^.^.K.d.a.d.a.a.d.a.a.d.a.a.a.a.a.a.a.a.a.a.a.U.bXdXL./.I.T.P.P.P.P.P.P.P.P.P.T.P.P.P.T.Y.Y.gXkXE.E.T.P.P.T.P.P.P.T.P.P.P.T.P.P.P.T.P.P.T.P.P.hXH.p.F.F.F.F.F.F.F.F.F.:XdX} W E ) ' ' { $.dXt % e 7 4 ! JXHXr 5 7 7 : : l m l ] ,.] 5 $ k g g [ 8X8XR X 5 a r ^ 5 ( 7 -._ a t 5 7 7 , =X3X X X<X#X[ MXiXiXiX",
"B.M.z.z.z.z.z.z.z.z.z.z.z.z.z.z.z.z.z.z.z.z.z.z.z.+.z.z.z.L z.z.L n.x.l.l.l.l.x.x.l.l.l.x.l.l.l.x.l.l.l.x.l.c.b.v.m.S.b.n.x.l.l.l.l.l.l.l.l.l.l.l.l.l.l.U.`.g.g.g.g.V.C.j.j.C.j.a.a.a.a.a.d.a.a.a.a.a.d.a.a.f.j.Z._.^.^.K.d.a.d.a.a.d.a.a.d.a.a.a.a.a.a.a.a.a.a.a.aXbXW.P.I./.T.P.P.P.P.P.P.P.P.P.T.P.P.P.T.Y.Y.gXkXE.E.T.P.P.T.P.P.P.T.P.P.P.T.P.P.P.T.P.P.T.P.P.gXY.p.F.F.F.F.F.F.F.F.F.p.dX} W E ) ' ' { $.dXt % e 7 4 ! JXHXr 5 7 7 : : l m l ] 4.,.5 $ k g g [ 8X8XR X 7 5 7 5 e 5 7 5 5 5 5 7 7 7 > c 1X=X,X1Xn ~ lXwXwXwX",
"B.M.z.z.z.z.z.z.z.z.z.z.z.z.z.z.z.z.z.z.z.z.z.z.z.+.z.+.n.n.z.l.L l.x.l.l.l.l.x.x.l.l.l.x.l.l.l.x.l.l.l.x.l.c.b.v.m.S.b.n.x.l.l.l.l.l.l.l.l.l.l.l.l.l.l.`.j.g.g.g.g.j.C.V.a.V.C.a.a.a.a.a.d.a.a.a.a.a.d.a.a.f.j.Z._.^.^.K.d.a.d.a.a.d.a.a.d.a.a.a.a.a.a.a.a.a.a.J.bXkX/.P.P./.I.P.P.P.P.P.P.P.P.P.T.P.P.P.T.Y.Y.gXkXE.E.T.P.P.T.P.P.P.T.P.P.P.T.P.P.P.T.P.P.T.P.P.W.hXp.F.F.F.F.F.F.F.F.F.p.dX} W E ) ' ' { $.dXt % e 7 4 ! JXHXr 5 7 7 : : l m l ] 4.,.5 $ k g g [ 8X8XR X 4 4 4 4 4 4 4 5 5 4 4 4 4 4 4 > , , , , , 4 X X X X ",
"N.N.M.+.z.z.z.z.z.z.z.z.z.z.z.z.z.z.z.z.z.z.z.z.z.z.z.z.L l.z.n.L l.x.l.l.l.l.x.x.l.l.l.x.l.l.l.x.l.l.l.x.l.c.b.v.m.S.b.n.x.l.l.l.l.l.l.l.l.l.l.l.l.l.h.`.g.g.g.g.g.g.V.C.d.j.C.j.a.a.a.a.d.a.a.a.a.a.d.a.a.f.j.Z._.^.^.K.d.a.d.a.a.d.a.a.d.a.a.a.a.a.a.a.a.a.a.aXbXE./.I.P././.P.P.P.P.P.P.P.P.P.T.P.P.P.T.Y.Y.gXkXE.E.T.P.P.T.P.P.P.T.P.P.P.T.P.P.P.T.P.P.T.P.T.P.hXH.p.F.F.F.F.F.F.F.F.p.fX} W E ) ' ' { $.dXt % e 7 4 ! JXHXr 5 7 7 : : l m l ] 4.,.5 $ k g g [ 8X8XR X % % % % % % % % % % % % % % % % $ $ $ $ % % X X X X ",
"!.!.N.+.z.z.z.z.z.z.z.z.z.z.z.z.z.z.z.z.z.z.z.z.z.z.+.n.n.z.l.L l.l.x.l.l.l.l.x.x.l.l.l.x.l.l.l.x.l.l.l.x.l.c.b.v.m.S.b.n.x.l.l.l.l.l.l.l.l.l.l.l.l.l.`.U.g.g.g.g.g.g.j.C.V.d.V.V.a.a.a.a.d.a.a.a.a.a.d.a.a.f.j.Z._.^.^.K.d.a.d.a.a.d.a.a.d.a.a.a.a.a.a.a.a.a.d.bXkXI././.P.P./.P.P.P.P.P.P.P.P.P.T.P.P.P.T.Y.Y.gXkXE.E.T.P.P.T.P.P.P.T.P.P.P.T.P.P.P.T.P.P.T.P.T.P.gXY.p.F.F.F.F.F.F.F.F.p.fX} W E ) ' ' { $.dXt % e 7 4 ! JXHXr 5 7 7 : : l m l ] 4.,.5 $ k g g [ 8X8XR X 5 e e e e e 7 7 e 7 7 7 7 7 5 u x x x x z e ] ] ] ] ",
"N.N.M.+.z.z.z.z.z.z.z.z.z.z.z.z.z.+.z.z.z.z.z.z.z.+.z.L l.z.n.L l.l.x.l.l.l.l.l.x.l.l.l.x.l.l.l.x.l.l.l.x.l.c.b.v.m.S.b.n.x.l.l.l.l.l.l.l.l.l.l.l.l.g.hXg.g.g.g.g.g.g.g.V.C.d.j.C.a.a.a.a.d.a.a.a.a.a.d.a.a.f.j.Z._.^.^.K.a.a.d.a.a.d.a.a.d.a.a.a.a.a.a.a.a.a.E.bXE.I.I./.I.P././.P.P.P.P.P.P.P.P.T.P.P.P.T.Y.Y.gXkXE.E.T.P.P.T.P.P.P.T.P.P.P.T.P.P.P.T.P.P.T.P.T.P.Y.hXp.F.F.F.F.F.F.F.F.p.fX5.y E ) ' ' { $.dXt % e 7 4 ! JXHXr 5 7 7 : : l m l ] 4.,.5 $ k g g [ 8X8XR X 5 5 4 4 5 : 5 5 4 5 7 5 5 7 , =X3X<X<X3X#X[ VXmXmXmX",
"B.c.z.z.z.z.z.z.z.z.z.z.z.z.z.z.M.z.z.z.z.z.z.z.z.+.n.n.z.z.L n.l.x.x.l.l.l.l.x.x.l.l.l.x.x.l.l.x.l.l.x.x.l.b.b.v.m.S.b.b.x.l.l.l.l.l.l.l.l.l.l.l.l.`./.g.g.g.g.g.g.g.g.g.C.V.a.V.V.a.a.a.d.d.a.a.a.a.d.a.f.d.Z.Z._.^.^.K.d.a.d.d.a.d.d.a.d.a.a.a.a.a.a.a.a.d.kXkXI.I.I././.P.I./.P.P.P.P.P.P.P.P.T.T.P.P.T.Y.Y.gXkXE.E.W.T.T.T.P.P.P.T.T.P.P.T.P.P.T.T.P.T.T.P.T.T.P.hXH.F.F.F.F.F.F.F.G.p.fXwXW E ' ' ] { $.dXt % e 7 4 ! JXHXr 5 7 7 : : l m l ] 4.,.5 $ k g g [ 8X8XR X 4 / t.t.-.J.a i u.i 5 i a 5 , {. X}.{.}. X[ mXqXuXqX",
"B.B.M.z.z.z.z.z.z.z.z.z.z.z.z.z.M.z.z.z.z.z.z.z.z.z.L x.z.n.L x.x.x.x.x.x.x.x.x.x.x.x.x.x.x.x.x.x.x.x.x.x.x.b.b.m.m.S.b.b.n.x.x.x.x.x.x.x.x.x.x.l.g.`.h.h.h.h.h.h.h.h.h.j.V.C.d.g.C.d.d.d.d.d.d.d.d.d.d.d.d.d.Z.Z._.`.^.^.d.d.d.d.d.d.d.d.d.d.d.d.d.d.d.d.f.E.bXgXI.I.I.I./.I.T././.T.T.T.T.T.T.T.T.T.T.T.T.Y.Y.gXkXE.E.W.T.T.T.T.T.T.T.T.T.T.T.T.T.T.T.T.T.T.T.T.T.P.hXY.p.G.G.G.G.G.G.G.p.~.pXW ' ' ' ] $.D.dXt % e 7 4 ! JXHXr 5 7 7 : : l m l ] 4.,.5 $ k g g [ 8X8XR X % y.L.R._ J.r J./ R._ R.u.4 , {. X X X}. X[ mXiXmXiX",
"B.M.z.z.+.+.+.+.+.z.z.z.z.+.+.z.z.+.z.+.+.+.+.z.+.l.S.z.z.L n.l.l.l.x.l.l.l.l.l.x.l.l.l.x.l.l.l.x.l.l.l.x.l.c.b.v.m.S.n.n.x.l.l.l.l.l.l.l.l.l.l.J `.^.g.g.g.g.g.g.g.g.g.g.g.C.g.a.C.V.a.a.d.a.a.a.a.a.d.a.a.f.j.Z._.^.^.K.a.a.d.a.a.d.a.a.d.a.a.a.a.a.a.a.a.kXkXI.I.I.I.I././.T.I./.P.P.P.P.P.P.P.T.P.P.P.P.Y.Y.gXkXE.E.T.P.P.T.P.P.P.T.P.P.P.T.P.P.P.T.P.P.T.P.T.T.P.Y.hXp.F.p.p.p.p.p.F.p.~.pXy E ) ) ' { $.dXt % e 7 4 ! JXHXr 5 7 7 : : l m l ] 4.,.5 $ k g g [ 8X8XR X : t._ y.r i.7 t.u.u.I.I.t.5 , {. X{.}.}. X[ mXqXiXqX",
"B.M.z.z.z.z.z.z.z.z.+.+.+.z.z.z.z.z.z.z.z.z.z.z.+.L n.z.l.L l.l.l.l.x.l.l.l.l.x.x.l.l.l.x.l.l.l.x.l.l.l.x.l.c.b.v.m.S.b.n.x.l.l.l.l.l.l.l.l.l.l.x.hXg.h.g.g.g.g.g.g.g.g.g.j.C.C.a.g.C.a.a.d.a.a.a.a.a.d.a.a.d.j.Z._.^.^.K.d.a.d.a.a.d.a.a.d.a.a.a.a.a.a.a.I.bXaXL.I.I.I.I.I./.I.P./.U.P.P.P.P.P.P.T.P.P.P.T.Y.Y.gXkXE.E.T.P.P.T.P.P.P.T.P.P.P.T.P.P.P.T.P.P.T.P.T.T.P.P.hXG.p.F.F.F.F.F.F.p.~.sXW E ) ' ' { $.dXt % e 7 4 ! JXHXr 5 7 7 : : l m l ] 4.,.5 $ k g g [ 8X8XR X 5 e 5 7 5 e 5 5 a 5 i e r 7 , {.3X<X<X3X#X[ VXmXmXmX",
"B.M.z.z.z.z.z.z.z.z.M.M.z.+.z.z.z.z.z.z.z.z.z.+.l.L z.z.L n.l.l.l.l.x.l.l.l.l.x.x.l.l.l.x.x.x.x.x.l.l.l.x.l.c.b.v.m.S.b.n.x.l.x.x.x.x.l.l.l.l.J ^.^.g.h.g.g.g.g.g.h.h.h.g.g.h.C.g.a.C.V.a.d.a.a.a.a.a.d.d.d.d.j.Z._.^.^.K.d.a.d.a.a.d.a.a.d.d.d.a.a.a.a.a.kXbXI.I.I.I.I.I.I./.(.T.(./.P.P.P.P.P.P.T.P.P.P.T.Y.Y.gXkXaXE.T.P.P.T.P.P.P.T.P.P.P.T.P.P.P.W.T.T.T.P.T.T.P.H.hXY.p.F.F.F.F.F.F.u.~.sXW E ) ' ' { $.dXt % e 7 4 ! JXHXr 5 7 7 : : l m l ] 4.,.5 $ k g g [ 8X8XR X 5 7 7 5 7 5 7 7 5 7 5 5 5 7 5 u x z z x u e ) ' ' ' ",
"B.M.z.z.z.z.z.z.+.N.M.N.N.z.z.z.z.z.z.z.z.z.z.+.L n.z.b.L b.x.l.l.l.x.l.l.l.l.x.x.l.l.l.x.b.x.x.b.l.l.l.x.l.c.b.v.m.S.b.n.x.l.b.x.b.b.l.l.l.l.r.hXg.g.h.g.g.g.g.g.!.h.].h.g.j.C.V.a.h.C.a.d.a.a.a.a.a.U.d./.d.j.Z._.^.^.K.d.a.d.a.a.d.a.a.U.d./.a.a.a.a.I.bXjXL.I.I.I.I.I.I.U./.P.W./.I.P.P.P.P.P.T.P.P.P.T.Y.Y.gXkXaXjXT.P.P.T.P.P.P.T.P.P.P.T.P.P.T.W.W.E.T.P.T.T.P.P.Y.hXp.F.F.F.F.F.F.D.:XdXE E ) ' ' { $.dXt % e 7 4 ! JXHXr 5 7 7 : : l m l ] 4.,.5 $ k g g [ 8X8XR X % % % % % % % % % % % % % % % % $ $ $ $ $ % X X X X ",
"B.M.z.z.z.z.z.z.+.M.N.N.N.+.z.z.z.z.z.z.z.z.+.l.L z.z.S.n.x.x.l.l.l.x.l.l.l.l.x.x.l.l.l.x.b.b.V.b.l.l.l.x.l.c.b.v.m.S.b.n.x.l.b.b.b.x.l.l.l.J /.`.g.g.h.g.g.g.g.g.h.h.!.h.g.h.g.C.j.f.C.g.a.a.a.a.a.a.U.d.j.d.j.Z._.^.^.K.d.a.d.a.a.d.a.a.U.d./.d.a.a.a.jXbXR.I.I.I.I.I.I.I.I././.T.I./.P.P.P.P.P.T.P.P.P.T.Y.Y.gXkXaXgXW.P.P.T.P.P.P.T.P.P.P.T.P.P.T.E.T.E.T.P.T.T.P.P.T.hXF.F.F.F.F.F.p.D.B.fX[ E ) ' ' { $.dXt % e 7 4 ! JXHXr 5 7 7 : : l m l ] 4.,.5 $ k g g [ 8X8XR X 4 4 4 5 4 = = = 5 5 4 4 4 5 5 4 5 5 5 5 5 4 5 5 5 5 ",
"N.N.z.z.z.z.z.z.z.z.z.z.z.z.+.z.z.+.+.z.z.z.+.L n.z.x.L l.l.l.l.l.l.x.l.l.l.l.l.x.l.l.l.x.l.l.l.x.l.l.l.x.l.c.b.v.m.S.b.n.x.l.l.l.l.l.l.l.l.l.hXg.g.g.h.g.g.g.g.g.g.g.g.g.g.h.j.C.V.a.V.C.a.a.a.a.a.a.d.a.a.f.j.Z._.^.^.K.d.a.d.a.a.d.a.a.d.a.a.a.a.a.L.bXjXL.I.I.I.I.I.I.I.I././.P.P./.I.P.P.P.P.T.P.P.P.P.Y.Y.gXkXE.E.T.P.P.T.P.P.P.T.P.P.P.T.P.P.P.T.P.P.T.P.T.T.P.P.H.hXP.p.F.F.F.F.F.D.v.fX[ W ) ' ' { $.dXt % e 7 4 ! JXHXr 5 7 7 : : l m l ] 4.,.5 $ k g g [ 8X8XR X 5 7 e 4 e <.<.<.5 5 e 7 7 5 4 7 e 7 e 7 5 7 e 7 5 7 ",
"!.!.M.+.z.z.z.z.z.+.N.N.o.M.N.o.N.N.N.z.z.N.c.L V.z.L n.x.b.l.b.b.l.b.b.V.x.l.V.x.l.V.l.x.b.b.b.l.b.b.l.b.b.V.b.b.>XS.b.V.x.x.b.b.b.l.b.b.J /.`.V.g.h.].g.h.!.g.h.h.U.h.g.!.h.g.!.2XU.a.C.U.a.d.U.a.d.d.U.d.f./.Z._.`.^./.a.d.U.a.d.U.a.d.d.U.d.a./.a.aXbX).R.I.R.(.L.R.(.I.R.R./.I.T.(./.T.W.W.W.P.W.W.P.W.E.Y.gXkXjXE.W.E.P.T.W.E.W.P.E.W.P.E.W.P.W.T.E.P.T.E.P.T.W.E.T.Y.gXH.G.F.F.F.F.D.v.SX} W ) ' ' { $.dXt % e 7 4 ! JXHXr 5 7 7 : : l m l ] 4.,.5 $ k g g [ 8X8XR X 5 e 4 <.HXHXGXHXGX~ 4 e 5 a ( 5 4 5 4 7 r r 4 e r 5 ",
"N.N.z.+.+.+.+.+.z.o.N.N.o.N.N.o.N.N.~.M.e.~.n.n.N.x.L V.V.V.l.V.V.l.V.V.V.x.x.V.x.x.V.x.x.V.V.V.r.V.V.l.V.V.C.b.m.>XS.b.C.x.x.b.V.V.l.V.b.l.hX/.].g.h.].g.h.].g.h.U.].h.g.].h.g./.C.].a.V.C.a.j./.a.j.d./.d.f./.Z._._.^./.a.j./.a.j./.a.U.d./.d.a./.L.bXkX(.(.L.(.(.L.(.(.L.(.R.'./.T.)./.T.E.E.E.P.E.E.P.E.gXY.gXkXjXE.W.gXP.T.E.E.E.P.E.W.P.E.W.P.E.W.E.P.T.).P.T.E.E.W.P.hXH.F.p.p.p.p.D.c.SX} y ) ) ' { $.dXt % e 7 4 ! JXHXr 5 7 7 : : l m l ] 4.,.5 $ k g g [ 8X8XR X w 4 <.JX:.% X : 8.HXp 5 : J.'.u.u.t.y.y.I.u.-.i.I.J.",
"B.B.M.M.z.z.z.z.M.z.N.N.o.N.N.o.N.N.N.M.+.V.L l.N.n.n.V.b.V.l.V.V.l.V.V.V.x.x.V.x.x.V.x.x.b.V.V.l.V.V.l.V.V.C.b.m.>XS.b.C.x.x.b.V.b.l.V.b.j.hXV.].g.h.].g.h.].g.h.h.].h.g.].h.g.U.!.C.a.j.C.a.d./.a.d.d./.d.f./.Z._._.^./.a.d./.a.j./.a.j.d./.d.s./.jXbXjX(.(.L.(.(.L.(.(.L.(.R.)./.I.E././.E.E.E.P.E.E.P.E.gXY.gXkXjXE.W.).P.T.E.E.W.P.E.W.P.E.W.P.E.W.E.P.T.E.P.T.E.E.W.P.hXW.G.G.G.G.G.H.M.2XwXQ ] ] ] $.D.dXt % e 7 4 ! JXHXr 5 7 7 : : l m l ] 4.,.5 $ k g g [ 8X8XR X 5 7 HX:.o % % X o 8.yX4 4 u.R.(.R.(.jXt.L.L.(.L.I.u.",
"B.M.z.z.z.z.z.z.z.z.N.N.o.N.N.o.N.N.N.z.o.S.J z.V.L x.V.b.V.r.V.V.r.b.V.V.x.l.V.x.l.V.l.x.b.V.V.r.V.V.r.V.V.C.b.m.>XS.b.C.x.x.b.V.b.r.V.b.`./.!.].g.h.].g.h.].g.h.h.].h.g.].h.g.!.U.2Xg.d.].V.d./.a.d.d./.d.f./.Z._._.^./.a.d./.a.d./.a.j.d./.d.a./.bXkX(.(.(.L.(.(.L.(.(.L.R.R.)././.E.I./.E.E.E.D.E.E.D.E.gXY.gXkXjXE.W.gXP.T.E.E.W.D.E.W.D.E.W.P.E.W.E.P.T.E.P.T.E.E.W.D.hXaXF.G.G.G.G.G.p.2XaXW ' ' ] $.$.dXt % e 7 4 ! JXHXr 5 7 7 : : l m l ] 4.,.5 $ k g g [ 8X8XR X 4 <.HX% % % % 4 . 1 HXr 5 t t ^ ^ ( a ( ( i a i i y.",
"B.M.z.z.z.z.z.z.z.o.N.N.z.N.N.z.N.N.N.M.M.S.x.M.S.L x.b.b.V.x.V.V.x.V.V.V.x.x.V.x.x.V.x.b.b.V.V.x.V.V.x.V.V.C.b.m.>XS.b.C.b.b.b.V.V.x.b.!.`.V.U.].h.U.].h.U.].h.!.h.!.!.h.].U.h.!.U.].C.U./.C.U./.d.U.d./.j.j./.Z._._.^./.d.U./.d.U./.d.U.d./.d.f.jXbXjX(.(.(.I.(.(.I.(.(.I.(.R.).R./.).W./.(.E.E.T.E.E.T.E.gXY.gXkXjXE.E.E.T.W.E.E.E.T.E.E.T.E.E.T.E.W.E.T.W.E.T.W.E.E.W.T.gXhXp.F.F.p.p.F.p.Q.fXt ) ) ' { $.dXt % e 7 4 ! JXHXr 5 7 7 : : l m l ] 4.,.5 $ k g g [ 8X8XR X = <.GX% % % % kXIX~ GXp 5 5 5 4 5 5 4 4 4 5 4 : % r ",
"B.M.z.z.z.z.z.z.z.+.N.N.N.~.N.N.~.N.N.N.V.S.N.V.S.V.V.V.b.V.V.V.V.V.V.V.V.V.V.V.V.V.V.V.V.b.V.V.V.V.V.V.V.V.C.C.C.>XS.C.C.V.V.b.V.V.V.V.`.(.].!.].!.].].!.].].!.].h.].].].].!.].].!.].2X]./.C.]./.U./.d./././././._._.^./././././././.U./.d./././.bXkX(.(.(.).(.).).(.).(.(.).R.).R./.'.E.)./.E.E.E.).E.E.gXgXgXgXkXjXgXgXE.E.E.E.E.E.E.).E.E.).E.E.E.W.E.E.E.E.E.E.E.E.E.E.gXhXG.p.F.F.F.F.p.4.fXu [ ' ' { $.dXt % e 7 4 ! JXHXr 5 7 7 : : l m l ] 4.,.5 $ k g g [ 8X8XR X 4 ! HX> X % % 5 t p *.e 5 5 u.y.e J.L.J.L._ t t.( a ",
"B.M.z.z.z.z.z.z.z.+.N.N.N.N.N.N.N.N.N.N.S.V.N.b.S.V.V.b.b.V.b.V.V.b.V.b.V.b.V.V.b.V.V.b.V.b.b.V.b.V.V.b.V.b.V.m.C.>XS.V.V.b.V.b.b.V.b.!.hXV.!.h.!.h.!.].U.!.!.h.!.h.!.!.U.].!.!.!.U.U.C.C.U.h.C./.d./.d.U.U././.Z._.`.^./.K././.d././.d./.d./.d.).bXjX(.(.(.(.R.(.(.R.(.(.R.(.R.(.R.(.].R.E./.(.E.W.E.E.W.E.).).gXkXjXaXE.E.W.E.W.E.E.W.E.E.W.E.E.W.E.T.E.W.E.E.W.E.W.E.E.W.E.hXP.p.F.F.F.F.p.{ fXc xXsX) { $.dXt % e 7 4 ! JXHXr 5 7 7 : : l m l ] 4.,.5 $ k g g [ 8X8XR X 5 4 yX8.o % % X   *.:.5 5 e u.J.r u.L.I.R.t.i.(.I.L.",
"B.M.z.z.z.z.z.z.z.z.z.z.z.z.z.z.z.+.+.l.L z.z.L n.l.x.l.l.l.l.l.l.l.x.l.l.l.l.x.l.l.l.l.x.l.l.l.x.l.l.l.x.l.c.b.v.m.S.n.n.x.l.l.l.l.J `./.g.g.g.g.g.g.h.g.g.g.g.g.g.g.g.g.g.h.g.g.g.g.g.C.h.f.C.V.a.a.d.a.a.f.j.Z._.^.^.K.a.a.d.a.a.d.a.a.d.a.a.kXbXI.I.I.I.I.I.I.I.I.I.I.I.I.I.I.I.I././.P.I./.P.T.P.P.P.P.Y.Y.gXkXE.E.T.P.P.T.P.P.P.T.P.P.P.T.P.P.P.T.P.P.T.P.T.T.P.P.P.P.H.Y.Y.p.F.F.F.F.p.{ fX2XwXlX{ ] $.dXt % e 7 4 ! JXHXr 5 7 7 : : l m l ] 4.,.5 $ k g g [ 8X8XR X 5 5 p HX3.X % % :.*.7 5 7 5 t.y.t.L.t.u.u.( ^ _ _ -.",
"B.M.z.z.z.z.z.z.z.z.z.z.z.z.z.z.M.M.M.S.l.z.n.L l.l.x.x.x.x.l.l.l.l.x.l.l.l.l.l.x.x.x.l.x.l.l.l.x.l.l.l.x.l.c.b.v.m.S.b.b.x.x.l.l.l.g.`.g.g.g.g.g.g.g.h.h.h.h.h.g.g.g.g.g.g.h.h.h.h.h.j.V.C.d.g.C.a.a.d.d.d.d.Z.Z._.^.^.K.d.a.d.a.a.d.a.a.d.a.I.bXaXL.I.I.I.I.I.I.I.I.I.I.I.I.I.I.I.I.U./.P.P./.I.T.T.P.P.T.Y.Y.gXkXE.E.T.P.P.T.P.P.P.T.P.P.P.T.P.P.P.T.P.P.T.P.T.T.P.T.P.P.P.Y.hXp.F.F.F.F.F.] sXfX} 5.pX$.$.dXt % e 7 4 ! JXHXr 5 7 7 : : l m l ] 4.,.5 $ k g g [ 8X8XR X 5 e 4 p p 5 7 5 r e 5 7 5 5 5 5 5 5 5 4 4 5 5 5 5 5 ",
"N.N.M.+.z.z.z.z.z.z.z.z.z.z.z.z.z.N.V.n.z.z.L n.l.l.x.x.V.V.x.l.l.l.x.l.l.l.l.l.V.V.V.x.x.l.l.l.x.l.l.l.x.l.c.b.v.m.S.V.V.V.x.l.l.J `.^.g.g.g.g.g.g.g.h.h.U.U.U.h.g.g.g.g.g.h.U.U.U.U.g.g.C.g.a.C.V.a.d.U.U.U./.Z._.^.^.K.d.a.d.a.a.d.a.a.d.L.jXkXI.I.I.I.I.I.I.I.I.I.I.I.I.I.I.I.(.I.I./.U.P.I./.T.T.R.W.T.Y.Y.gXkXE.E.T.P.P.T.W.W.P.T.P.P.P.T.P.P.P.T.P.P.T.P.T.T.W.W.R.P.P.P.hXG.p.F.F.F.G.O.wXzXO.{ sXD.P.dXt % e 7 4 ! JXHXr 5 7 7 : : l m l ] 4.,.5 $ k g g [ 8X8XR X 5 7 7 5 5 e e e 5 5 7 5 5 5 7 7 7 7 7 7 7 7 7 7 7 7 ",
"N.N.z.+.z.z.z.z.z.z.z.z.z.z.z.z.M.N.S.n.e.l.L l.l.l.x.x.V.V.x.l.l.l.x.l.l.l.l.l.x.V.V.x.x.l.l.l.x.l.l.l.x.l.x.b.b.m.S.V.V.V.x.l.l.r.hXg.g.g.g.g.g.g.g.g.U.U.U.U.h.g.g.g.g.g.h.U.U.U.U.g.j.C.V.a.g.C.a.d.d.U.U./.Z._.^.K.d.a.a.d.a.a.d.a.a.f.I.bXjXL.I.I.I.I.I.I.I.I.I.I.I.I.I.I.R.R.I.I././.P.P./.I.T.W.W.P.Y.Y.gXkXE.W.T.P.P.T.T.R.P.T.P.P.P.T.P.P.P.T.P.P.T.P.T.T.T.T.R.P.P.H.hXP.p.F.p.p.G.O.lXcX#.{ zXD.P.cXy % e 7 4 ! JXHXr 5 7 7 : : l m l ] 4.,.5 $ k g g [ 8X8XR X 5 7 5 e 5 = = = 5 e 5 5 5 5 5 5 5 7 7 7 5 7 7 7 5 5 ",
"B.B.M.z.z.z.z.z.z.z.z.z.z.z.z.z.M.x.S.z.z.L n.x.x.x.b.x.x.x.x.x.x.x.b.x.x.x.x.x.b.x.x.x.b.x.x.x.b.x.x.x.x.x.b.m.m.>XS.b.b.b.x.x.l./.`.g.h.h.h.h.h.h.h.h.h.h.h.h.h.h.h.h.h.h.h.h.h.h.h.h.h.V.2Xh.d.C.V.d.d.d.j.Z.Z._.`.^.^.d.d.d.d.d.d.d.d.d.kXbXR.I.R.R.R.R.R.R.R.R.R.R.R.R.R.(.R.R.R.R.R././.T././.T.T.T.W.W.Y.gXkXaXaXW.T.T.W.T.T.T.W.T.T.T.W.T.T.T.W.T.T.W.T.W.W.T.T.T.T.T.P.gXgXp.G.G.G.H.O.lXcX{.' lX:X2XNXr % e 7 4 ! JXHXr 5 7 7 : : l m l ] 4.,.5 $ k g g [ 8X8XR X 5 7 7 = p 5.8.3.e 4 7 5 5 5 5 5 7 4 4 5 7 5 4 5 7 5 ",
"o.X.X.X.X.X.X.X.X.X.X.X.X.X.X.X.X.H H X.X.H X.q.q.H q.H x H q.q.H q.q.H q.q.H q.q.x H H q.q.q.q.q.q.H q.q.X.0.0.0.r.w.0.0.0.H q.x 4.q.q.q.q.q.q.q.q.q.q.q.q.q.q.q.q.q.q.q.q.q.q.q.q.q.q.q.q.r.w.-.w.r.;.-.-.t.t.q.,.>.-.-.-.-.-.-.-.t.-.;.t.Q.P.i.i.i.i.i.i.i.i.i.i.i.i.i.i.i.y.i.i.i.i.i.y.a.i.i.a.i.i.i.i.i.i.D.D.y.y.i.i.i.i.i.i.i.i.i.i.i.i.i.i.i.i.i.i.i.i.i.i.i.i.i.i.i.i.y.4.X.O.O.O.O./ wXpXl a Q.@.H.4.5 : 7 7 4 ! HXGXr 5 7 7 : : l m l ] 4.,.5 $ k g g [ 8X8XR X 5 7 4 5.HXyXyXGXHX<.4 7 5 5 5 7 5 ( -._ 5 / u.t 5 7 ",
"$ $ $ $ $ $ $ $ $ $ $ $ $ $ $ $ $ $ $ $ $ $ $ $ $ $ $ $ $ $ $ $ $ $ $ $ $ $ $ $ $ $ $ $ $ $ $ $ $ $ $ $ $ $ $ $ $ $ $ $ $ $ $ $ $ X $ $ $ $ $ $ $ $ $ $ $ $ $ $ $ $ $ $ $ $ $ $ $ $ $ $ $ $ $ $ % $ $ % % % % % $ . $ $ $ $ % $ X X X X $ $ . X $ $ $ $ $ $ $ $ $ $ $ $ $ $ $ $ $ $ $ $ $ $ $ $ $ $ $ $ $ X X X X . X X X X X X X X X X X X X X X X X X X X X X X X X X X X X X X X $ $ $ $ X % X X $ % X $ . X $ 4 7 5 5 5 5 5 5 5 5 7 : : v l l ] ,.] 5 $ k g g [ 8X8XR X w 4 5.JX~ o o O :.yXp 5 7 5 5 7 5 J.u.(.y.L.'.u.4 7 ",
"7 7 5 5 5 7 5 5 5 5 5 5 5 5 5 5 5 5 5 5 5 5 5 5 5 5 5 5 5 5 5 7 5 5 5 5 5 5 7 7 7 5 7 5 5 5 5 5 5 5 5 5 5 5 5 5 5 7 5 5 5 5 5 5 5 5 5 5 5 5 7 5 5 5 5 5 7 7 e e e e e 7 7 e e 7 e 7 5 5 7 7 7 7 5 5 5 5 5 5 5 5 7 r r r r 6 5 e r r r r r 7 7 7 5 5 5 5 5 5 5 5 5 5 5 5 5 5 5 5 5 5 7 e e e e e e e e e e e e 7 4 % 7 e r r r r r r r r r r r r r r r r r r r r r r r r r r r r r r r r r r r r r r r r r r e 7 % 4 7 7 L./ ( J.s.t.4 e : : 7 5 5 w e w 4 % 7 5 5 w e w 5 % 5 e HX:.o % . L.H.2 *.5 7 7 5 7 5 ( (.i.L.L.i.i.4 7 ",
"5 5 5 7 7 5 7 7 7 4 % % % % % % % % % % % % % % % % % % % : % $ % % 5 7 7 5 4 5 4 5 5 e 7 7 7 7 7 5 7 5 % $ % % % % % % $ % $ % % % % % : % X % % 5 7 5 i i t i t i i i i i t i i a e 7 5 4 5 5 5 7 7 7 7 7 5 7 <X<X<X<X<X3Xk uXmXmXmXmXNX4.4 e 7 7 7 7 7 7 7 7 7 7 7 7 7 7 7 7 5 r a i i i t i i i i i i i a i 4 % 5 i i t t t t t t t t t t t t t t t r r r r r r r r t t t t t t t t t t t t t t t t t i a 7 % 4 5 a J.i.t.I.R.y.7 7 : 4 w H H H H H > % 5 9 z k 5 k 6 % 4 <.GX% % . i IXi , 3.e 5 7 7 5 5 a r e e r r t 5 5 ",
"r a e 5 4 ( 5 4 7 4 % % %   . X 5     .   . % % % % % % % % . t w . 5 7 5 i / i _ r / : 5 4 5 4 5 r 7 5 % 5 % $ o 5 $ % 5 4 e : $ % % % % . t 4 $ 5 7 5 i 5 r e e e e 7 5 e r 7 5 t e 5 t _ i _ e 5 4 5 5 7 5 r <X}.}.}.{.3Xv uXiXiXiXqXmX5.= e 5 5 5 5 5 5 5 5 5 5 5 5 5 5 5 7 5 r r 5 5 7 r 7 7 e e 5 5 7 e i : % 5 i 7 5 5 5 5 5 5 5 5 5 5 5 5 5 5 5 r r ^ r e r t e 5 5 5 5 5 5 5 5 5 5 5 5 5 5 5 5 5 7 i 7 % 4 7 7 J.i.t.J.J.t.4 e : : q H H P P P & % 6 z l m u m 6 % = <.GX% % % % $   > *.e 5 7 5 e r 4 r 7 r 4 4 r t e ",
"L.(.J.i.i.R.J.J.i $ L.( L./ t _ u.a ( ^ -.r X % % % % % % : . T.y.  5 e 4 i.J.J.a i (.t.u.t.u.i.u.R.( 4 i (.-.^ ( i.a 5 R.i.I.e X % % % % % E._ . 7 7 5 i e D.y.y.D.a _ i.y.t.y.r t r : -.I.t.R.I.u.L.y.J.i 5 r <X}. X}.{.3Xv uXiXiXmXqXmX5.4 e 5 5 5 5 5 5 5 5 5 5 5 5 5 5 5 7 5 r e / r _ D./ ^ ^ P.>.D._ 7 i : % 5 i e 5 7 7 7 7 7 7 7 7 7 7 7 7 5 r _ i D.P._ K.i.4 5 5 7 7 7 7 7 7 7 7 7 7 7 7 7 7 5 e i 7 % 4 7 5 5 5 4 : 4 5 5 7 : : 7 0 7 q H q > % 7 5 6 9 9 9 5 % 4 p HX< o % % % X 2 *.5 5 7 5 y.u.a L.I.L.r t.R.R.y.",
"'.R.I.I.I.I.'.L.i % J.R.(.u.I.J.I.'.R._ J.t.. % % % % % % % $ P.i.. 5 7 5 i I.I.i i I.R.L.I.L.J.I.I.^ : / u._ I.i.jXu.4 '.i.>.% % % % % % % W._ . 7 7 5 i r i._ D.y./ >.P.y.t.D.r t r : -.i.u.I.L.(.)._ J.-.: r <X}.<X X{.3Xv uXiXiXmXqXmX5.4 e 5 5 5 5 5 5 5 5 5 5 5 5 5 5 5 7 5 r e _ >.( J./ >._ y.P.P._ 7 i : % 5 i e 5 7 7 7 7 7 7 7 7 7 7 7 7 5 r i.( i.t.P.D.y.i ^ t 5 7 7 7 7 7 7 7 7 7 7 7 7 7 5 e i 7 % 4 7 7 5 7 -.-./ 5 7 7 : 4 w C q 7 q 0 > % w 0 q C 5 q 7 % 5 4 yXyX% % % % > *.:.5 7 7 5 u.J.i.J.'.u.-.I.I.(.J.",
"a t a a a / i ^ t : t ( i _ i _ / / a 5 t r $ % % % % % % : . _ ^ . 5 7 5 a ^ i _ 5 _ t / r / i / ^ ^ 4 e 4 5 ^ r / a 4 t.a t % % % % % : . t.r X 7 7 5 i 7 e 5 r i r e t r a r e t r 5 r e t i a a a e / t 5 r <X{.}.}.|.<Xv uXiXqXiXqXmX5.4 e 5 5 5 5 5 5 5 5 5 5 5 5 5 5 5 7 5 r r r ^ 7 r e i ^ r r r r e i : % 5 i 7 5 5 5 5 5 5 5 5 5 5 5 5 5 5 5 ^ ^ i e i e r a i r 5 5 5 5 5 5 5 5 5 5 5 5 5 5 5 7 i 7 % 4 7 5 7 u.R.(.I.5 7 7 : : 0 K H P 7XP & % e H H P H I 0 $ 5 5 e GX3.X : = :.:.5 7 7 7 4 ( i./ i._ i.7 i.-.y._ ",
"5 5 4 5 5 4 5 4 5 4 .   . . . . . . . $ . X % % % % % % % % %   . % 5 7 7 5 4 5 4 5 4 5 4 5 4 5 4 4 4 5 $ $ $ . X . . $ . . . % % % % % % %   . % 5 7 5 a t r t r r r r r r r r r a e 5 5 5 5 5 5 5 5 5 4 5 5 7 3X3X<X<X<X3Xv uXmXmXmXmXMX5.4 e 5 5 5 5 5 5 5 5 5 5 5 5 5 5 5 7 5 r a r r t r r r r r r r r i i : % 5 i r e r r r r r r r r r r r r r r 7 7 e e e e e 7 e e r r r r r r r r r r r r r r r r i 5 % 4 7 5 r L.L.R.L.5 5 7 : : 0 H 0 H P H 4 % 8 q q H H P 8 % 5 7 5 e r 5 7 7 e 5 5 7 5 5 7 5 4 5 4 4 4 5 4 4 4 4 ",
"e e e e e e e e 7 7 5 7 5 7 5 7 7 5 5 5 5 5 5 5 5 5 5 5 5 5 5 7 5 5 7 7 7 e e e e 7 e e e 7 e e e e e 7 5 5 5 7 5 7 5 5 7 5 5 5 5 5 5 5 5 5 7 5 5 7 7 7 e r r r r r r r r r r r r r 7 7 7 7 e e e e e 7 e 7 7 7 z c c c c x 6 ~ ] ] ] ] ] t 5 e 7 7 7 7 7 7 7 7 7 7 7 7 7 7 7 7 7 e r r r r r r r r r r r r r e 4 % 7 r i t i i i i i i i i i i i i i i i i i i i i i i i i i i i i i i i i i i i i i i t i r 7 % 4 e 7 5 a a ^ a 5 7 e : 4 w w 7 > > w 5 % w w 5 w w > 5 % 5 7 e 7 5 7 7 7 7 7 7 7 7 7 7 e e e e e e 7 e e e e ",
"% % % % % % % % % % % % % % % % % % % % % % % % % % % % % % % % % % % % % % % % % % % % % % % % % % % % % % % % % % % % % % % % % % % % % % % % % % % % % % % % % % % % % % % % % % % % % % % % % % % % % % % % $ $ $ $ $ $ % X . . . . . % % % % % % % % % % % % % % % % % % % % % % % % % % % % % % % % % % % % $ % % % % % % % % % % % % % % % % % % % % % % % % % % % % % % % % % % % % % % % % % % % % % % $ % % % % X X X $ % % % % % % % % % % % % $ % % % % % % % $ % % % % % % % % % % % % % % % % % % % % % % % % % % ",
"e t t t r t t r t t t r t t i r t t t t t t t t t t t t t t t t t t t t t t t t t t t t t t t t t t t t t t t t t t t t t t t t t t t t t t t t t t t t t t t t t t t t t t t t t t t t t t t t t t t t t t t t t t t t t t t t t t t t t t t t t t t t t t t t t t t t t t t t t t t t t t t t t t t t t t t t t t t t t t t t t t t t t t t t t t t t t t t t t t t t t t t t t t t t t t t t t t t t t t t t t t t t t t t t t t t t t t t t t t t t t t t t t t t t t t t t t t t t t t t t t t t t t t t t t t t t t t t t ",
"L._ ( ( t./ ^ t._ / ( t._ ( a -.( / ( ( ( ( ( ( ( ( ( ( ( ( ( ( ( ( ( ( ( ( ( ( ( ( ( ( ( ( ( ( ( ( ( ( ( ( ( ( ( ( ( ( ( ( ( ( ( ( ( ( ( ( ( ( ( ( ( ( ( ( ( ( ( ( ( ( ( ( ( ( ( ( ( ( ( ( ( ( ( ( ( ( ( ( ( ( ( ( ( ( ( ( ( ( ( ( ( ( ( ( ( ( ( ( ( ( ( ( ( ( ( ( ( ( ( ( ( ( ( ( ( ( ( ( ( ( ( ( ( ( ( ( ( ( ( ( ( ( ( ( ( ( ( ( ( ( ( ( ( ( ( ( ( ( ( ( ( ( ( ( ( ( ( ( ( ( ( ( ( ( ( ( ( ( ( ( ( ( ( ( ( ( ( ( ( ( ( ( ( ( ( ( ( ( ( ( ( ( ( ( ( ( ( ( ( ( ( ( ( ( ( ( ( ( ( ( ( ( ( ( ( ( ( ( ( ( ( ( ( ( ( ( ( ( ( ( ( ( ",
"IXy.a J.I.y.J.I.L.L.-.jXL.i.J.R.L.I.i.^ / / / / / / / / / / / / / / / / / / / / / / / / / / / / / / / / / / / / / / / / / / / / / / / / / / / / / / / / / / / / / / / / / / / / / / / / / / / / / / / / / / / / / / / / / / / / / / / / / / / / / / / / / / / / / / / / / / / / / / / / / / / / / / / / / / / / / / / / / / / / / / / / / / / / / / / / / / / / / / / / / / / / / / / / / / / / / / / / / / / / / / / / / / / / / / / / / / / / / / / / / / / / / / / / / / / / / / / / / / / / / / / / / / / / / / / / / / / / ",
"kXy.a -.R.'.(.).'.L.-.jXR.'.R.'.I.jX-.^ / / / / / / / / / / / / / / / / / / / / / / / / / / / / / / / / / / / / / / / / / / / / / / / / / / / / / / / / / / / / / / / / / / / / / / / / / / / / / / / / / / / / / / / / / / / / / / / / / / / / / / / / / / / / / / / / / / / / / / / / / / / / / / / / / / / / / / / / / / / / / / / / / / / / / / / / / / / / / / / / / / / / / / / / / / / / / / / / / / / / / / / / / / / / / / / / / / / / / / / / / / / / / / / / / / / / / / / / / / / / / / / / / / / / / / / / / / / / ",
")._ ^ t.J.'.J.y.y.u.-.i.u.u.jXJ.-.J.t./ ( ( ( ( ( ( ( ( ( ( ( ( ( ( ( ( ( ( ( ( ( ( ( ( ( ( ( ( ( ( ( ( ( ( ( ( ( ( ( ( ( ( ( ( ( ( ( ( ( ( ( ( ( ( ( ( ( ( ( ( ( ( ( ( ( ( ( ( ( ( ( ( ( ( ( ( ( ( ( ( ( ( ( ( ( ( ( ( ( ( ( ( ( ( ( ( ( ( ( ( ( ( ( ( ( ( ( ( ( ( ( ( ( ( ( ( ( ( ( ( ( ( ( ( ( ( ( ( ( ( ( ( ( ( ( ( ( ( ( ( ( ( ( ( ( ( ( ( ( ( ( ( ( ( ( ( ( ( ( ( ( ( ( ( ( ( ( ( ( ( ( ( ( ( ( ( ( ( ( ( ( ( ( ( ( ( ( ( ( ( ( ( ( ( ( ( ( ( ( ( ( ( ( ( ( ( ( ( ( ( ( ( ( ( ( ( ( ( ( ( ( ( ( ( ( ( ( ( ( ( ( ( ( ( ( ( ",
"t a ^ a a _ a a a a a a a ( i.a a a a ^ ^ ^ ^ ^ ^ ^ ^ ^ ^ ^ ^ ^ ^ ^ ^ ^ ^ ^ ^ ^ ^ ^ ^ ^ ^ ^ ^ ^ ^ a a a a a a a a a a a a a a a a a a a a a a a a a a a a a a a ^ ^ ^ ^ ^ ^ ^ ^ ^ ^ ^ ^ ^ ^ ^ ^ ^ ^ ^ ^ ^ ^ ^ ^ ^ ^ ^ ^ ^ a a a a a a a a a a a a a a a a a a a a a a a a a a a a a a a ^ ^ ^ ^ ^ ^ ^ ^ ^ ^ ^ ^ ^ ^ ^ ^ ^ ^ ^ ^ ^ ^ ^ ^ ^ ^ ^ ^ ^ a a a a a a a a a a a a a a a a a a a a a a a a a a a a a a a ^ ^ / ^ ^ ^ ^ ^ ^ ^ ^ ^ ^ ^ ^ ^ ^ ^ ^ ^ ^ ^ ^ ^ ^ ^ / ^ ^ a a a a a a a a a a a a a a a a a a a a a a a a a a a ",
"7 5 5 7 7 5 7 7 7 7 7 7 7 5 4 5 7 7 % 5 5 > , > > > > > > > > > > > > > > > > > > > > > > , > 7 4 % % % % % % % % % % % % % % % % % % % % % % % % % % % % % % % 7 5 w w w w w w w w w w w w w w w w w w w w w w w w w 5 5 % % % % % % % % % % % % % % % % % % % % % % % % % % % % % % % 5 5 = = = = = = = = = = = = = = = = = = = = = = = = = 5 5 % % % % % % % % % % % % % % % % % % % % % % % % % % % % % % % 5 5 : : : : : : : : : : : : : : : : : : : : : : : : : 5 5 % % % % % % % % % % % % % % % % % % % % % % % % % % % ",
"5 5 5 7 5 5 7 7 7 7 7 5 7 7 7 7 7 7 % 5 r c c c c c c c c c c c c c c c c c c c c c c c c c c e 4 % % : 5 4 4 4 4 4 4 4 4 4 5 4 4 4 4 4 4 4 4 4 4 4 4 4 4 : % % 5 0 C C C C C C C C C C C C C C C C C C C C C C C C C 7 5 % % : 4 4 4 4 4 4 4 4 4 4 5 5 4 4 4 4 4 4 4 4 4 4 4 4 4 : % % 5 p *.*.*.*.*.*.*.*.*.*.*.*.*.*.*.*.*.*.*.*.*.*.*.*.*.r 5 % % : 4 4 4 4 4 4 4 4 4 4 5 5 4 4 4 4 4 4 4 4 4 4 4 4 4 : % % 5 t $.$.$.$.$.$.$.$.$.$.$.$.$.$.$.$.$.$.$.$.$.$.$.$.$.t 5 % % : 4 4 4 4 4 4 4 4 4 4 5 4 4 4 4 4 4 4 4 4 4 4 4 4 ",
"7 7 7 5 e e 4 5 4 5 5 r 5 7 7 5 7 7 % > x 3X<X3X<X<X<X<X<X<X3X<X<X<X<X3X<X3X<X<X<X<X<X<X3X<X3Xz > % % 5 5 5 5 5 5 5 5 5 5 5 4 5 5 5 5 5 5 5 5 5 5 5 5 5 e 4 % : w F 5XG G G G G G G G G G G G G G G G G G G G G G G 5Xq - % % 5 5 5 5 5 5 5 5 5 5 5 4 4 5 5 5 5 5 5 5 5 5 5 5 5 e 4 % % = 7.LXtXDXDXDXDXDXDXDXDXDXDXDXDXDXDXDXDXDXDXDXDXDXtXLX*.= % % 5 7 5 5 5 5 5 5 5 5 5 4 4 5 5 5 5 5 5 5 5 5 5 5 5 w 5 % % @ Q.BXcXBXbXbXbXbXbXbXbXbXBXBXbXbXbXbXbXbXbXbXbXBXcXBXQ.@ % % 5 w 5 5 5 5 5 5 5 5 5 4 4 5 5 5 5 5 5 5 5 5 5 5 5 ",
"5 5 7 5 L.J.a ^ -.r u.t.: 7 5 5 7 7 % > x <X|.{.{.{.{.{.{.{.{.}. X X}. X{.{.{.{.{.{.{.{.{.{.<Xz > % % 5 : % % % % % % % % % ^ t e ) 5 % % % % % % % % % 5 4 % : w F G N N N N N N N N N G G A G A N N N N N N N N N G C & % % 5 : % % % % % % % % % W t e ^ w % % % % % % % % % 5 4 % % = 7.rX2.6.6.6.6.6.6.6.6.rXrX6.rX6.6.6.6.6.6.6.6.6.2.tX*.= % % 5 4 % % % % % % % % % t ^ w ^ e % % % % % % % % % 4 5 % % @ Q.cXpXpXpXpXpXpXpXpXpXzXzXzXcXzXpXpXpXpXpXpXpXpXpXcXQ.@ % % 5 4 % % % % % % % % % t ) t ^ y % % % % % % % % % ",
"5 5 7 5 R.R.I.jXL.R.R.t.: e 5 5 7 7 % > x 3X}.}.}.}.}.}.}.}.}. X3X X X<X}.}.}.}.}.}.}.}.}.}.3Xz > % % 5 > % % % % % % % % > ] ^ y ` w % : % % % % % : % 5 4 % : w F G A A A A A A A A A G G G G F A A A A A A A A A G C & % % 5 4 % % % % % % % % : ] ` W ^ e % : % % % % % : % 5 4 % % = 7.tX6.6.6.6.6.6.6.6.6.DXtXrXtXrX6.6.6.6.6.6.6.6.6.DX*.= % % 5 4 % % % % % % % : % ` ] t ^ y % : % % % % % : % 5 5 % % @ Q.cXpXsXsXsXsXsXsXsXsXBXcXzXcXzXsXsXsXsXsXsXsXsXpXbXQ.@ % % 5 5 % : % % % % % : % ` ] ^ ^ t % : % % % % % % % ",
"5 5 7 5 y.u.J.J./ t.J./ 4 7 5 5 7 7 % > x 3X{.}.}.}.}.}.}.}.}.}.}.}.}.}.}.}.}.}.}.}.}.}.}.{.3Xz > % % 5 : % % % % % % % % % % 5 > % % % % % % % % % % % 5 4 % : w F G N A A A A A A A A A A A A A A A A A A A A A N G C & % % 5 > % % % % % % % % % % % : % : % % % % % % % % % 5 4 % % = 7.rX6.6.6.6.6.6.6.6.6.6.6.6.6.6.6.6.6.6.6.6.6.6.6.DX*.= % % 5 4 % % % % % % % % % % % > % : % % % % % % % % % 4 5 % % @ Q.cXpXsXpXpXpXpXpXpXpXsXsXsXsXsXpXpXpXpXpXpXpXsXpXcXQ.@ % % 5 4 % % % % % % % % % % : > % : % % % % % % % % % ",
"5 5 5 5 5 5 4 4 5 4 5 5 7 5 5 5 7 7 % > z 3X<X3X3X3X3X3X3X3X3X3X3X3X3X3X3X3X3X3X3X3X3X3X3X<X3Xu > % % 5 7 5 5 5 5 5 5 5 5 5 5 5 5 5 5 5 5 5 5 5 5 5 5 5 e > % : w F 5XG G G G G G G G G G G G G G G G G G G G G G G 5Xq 4 % % 5 w 5 5 5 5 5 5 5 5 5 5 5 5 5 5 5 5 5 5 5 5 5 5 5 e 4 % % = 7.LXDXDXDXDXDXDXDXDXDXDXDXDXDXDXDXDXDXDXDXDXDXDXDXLX*.= % % 5 e 5 5 5 5 5 5 5 5 5 5 5 5 5 5 5 5 5 5 5 5 5 5 5 e 4 % % : Q.BXbXBXBXBXBXBXBXBXBXBXBXBXBXBXBXBXBXBXBXBXBXBXbXBXD.: % % 4 e 5 5 5 5 5 5 5 5 5 5 5 5 5 5 5 5 5 5 5 5 5 5 5 ",
"5 5 5 5 7 7 7 7 7 7 7 7 5 5 5 5 7 7 % 5 7 u u u u u u u u u u u u u u u u u u u u u u u u u u 7 5 % % : : : : : : : : : : : > > > > : : : : : : : : : : : % % % 5 7 0 0 0 0 0 0 0 0 0 0 0 0 0 0 0 0 0 0 0 0 0 0 0 0 0 7 5 % % % : : : : : : : : : : > : : > : : : : : : : : : : : % % % 5 e ~ ~ ~ ~ ~ ~ ~ ~ ~ ~ ~ ~ ~ ~ ~ ~ ~ ~ ~ ~ ~ ~ ~ ~ p e 5 % % % : : : : : : : : : : > > > : : : : : : : : : : : : % % % 5 e ^ ^ ^ ^ ^ ^ ^ ^ ^ ^ ^ ^ ^ ^ ^ ^ ^ ^ ^ ^ ^ ^ ^ ^ ^ e 5 % % % : : : : : : : : : : : > > : : : : : : : : : : : ",
"5 5 5 7 7 5 5 5 5 5 5 5 5 5 5 5 7 7 % 5 7 5 > > > > > > > > > > > 5 5 > > > > > > > > > > > 5 7 5 % % % % % % % % % % % % % % % % % % % % % % % % % % % % % % % 7 5 5 5 5 5 5 5 5 5 5 5 5 5 5 5 5 5 5 5 w w w 5 5 5 5 7 5 % % % % % % % % % % % % % % % % % % % % % % % % % % % % % % % 5 5 5 5 5 5 5 5 5 5 5 5 5 5 5 5 5 5 5 5 5 5 5 5 5 5 5 7 5 % % % % % % % % % % % % % % % % % % % % % % % % % % % % % % % 5 5 4 4 4 5 5 4 4 4 4 4 4 4 4 4 4 4 5 4 4 5 4 4 4 4 4 5 5 % % % % % % % % % % % % % % % % % % % % % % % % % % % ",
"5 5 7 5 5 7 7 7 7 7 7 7 7 5 5 5 7 7 % 5 7 7 7 7 7 7 7 7 7 7 7 7 7 5 5 7 7 7 7 7 7 7 7 7 7 7 7 7 5 % % % % % % % % % % % % % % % % % % % % % % : % % % % % % % % 7 7 7 7 7 5 w 7 7 7 7 7 7 7 7 7 7 7 5 5 5 5 5 5 7 7 7 7 5 % % % % % : % % % % % % % % % % % % % % % % % % % % % % % % % 5 7 7 e e 5 4 5 e 7 7 7 7 7 7 7 7 7 7 5 5 5 5 5 7 7 7 7 5 % % % % % : % % % : % % % % % % % % % % % % % % % % % % % % % 5 7 7 e e 5 4 5 e 7 7 7 7 7 7 7 7 5 5 5 5 5 5 5 5 7 7 7 5 % % % % % : % % % : % % % % % % % % % % % % % % % % % ",
"5 7 5 e e 5 4 4 5 4 5 4 5 7 5 5 7 7 % 5 7 5 5 5 5 5 5 5 5 5 5 7 5 a t 5 7 5 5 5 5 5 5 5 5 5 5 7 5 % % % % % % 4 4 % % % % % % % % % % % 4 5 e % e 4 % % % % % % 7 5 7 5 w 8 0 7 w 7 5 5 5 5 5 5 7 5 r r a t ^ 7 5 7 5 7 5 % % % : % % 4 4 : % % % % % % % % % % 5 e e w r : % % % % % % 5 5 7 5 4 ~ Y e 6 7 5 5 5 5 5 5 7 5 7 i a i ^ e 5 7 5 7 5 % % % % % % 5 e > % % % % % % % % % : 5 5 e 5 e t 5 % % % % % 5 7 7 5 4 W ' t 4 7 7 5 5 5 5 7 5 e ^ t i i r r r 5 7 7 5 % % % % % $ 5 r 4 $ % % % % % % % % 5 4 e 5 5 e 5 e % ",
"5 7 4 y.I.a ^ -.a _ ^ ( r 5 7 5 7 7 % 5 7 5 5 5 5 5 5 5 5 5 7 5 e L.y.5 7 5 5 5 5 5 5 5 5 5 5 7 5 % % % % 4 0 9 8 q 8 % % % % % % % % % >.t._ e >.^ % : % % % % 7 7 w 8 N N N N # w 7 5 5 5 5 5 7 4 ( L.y.R.I.( 4 7 5 7 5 % % : % 5 ;.8 8 0 5 % % % % % % % % % 5 _ u.t ` t % : % % % % 5 7 5 p rXtX6.2.T 5 7 5 5 5 5 5 7 4 i.L.t.J.i.-.4 7 5 7 5 % % % % > >.,.>.,.^ % % % % % % % % 5 _ _ _ i.` _ t % : % % % 5 7 5 r zXzXzXCXpX4 7 7 5 5 5 7 5 e L.R.L.'.y.I.^ 4 7 7 5 % % % % : X.e.X.e.X.% % % % % % : % _ ` >.t.>.>.t.>.e ",
"5 e : L.).u.jXI.R.L.(.jX_ 4 7 5 7 7 % 5 7 5 5 5 5 5 5 5 5 5 7 5 r J.u.5 7 5 5 5 5 5 5 5 5 5 5 7 5 % % % 4 q 4 .   X 9 8 % % % % % % % e J.y._ / _ / % : % % % % 7 5 8 N @ o % @ N # w 7 5 5 5 5 7 5 r J.y.(.L._ 4 7 5 7 5 % % % : ;.r t . . 0 5 % % % % % % % % r _ t >._ 5 % % % % % % 5 5 e tX*.o t.r =.T 6 7 5 5 5 5 e 4 u.R.i.L.J.a 5 7 5 7 5 % % % % ,.i   O . ;.r % % % % % % : % ` e >.D.` ^ : % % % % % 5 7 5 cXpXX . % zXpX: e 5 5 5 7 5 7 J.L.(.(.(.jX( 4 7 7 5 % % % % q.s     $ X.X.$ : % % % : % i _ _ i.t.>.i._ r ",
"5 7 5 ( _ J.J.( _ I.L.i.t 5 7 5 7 7 % 5 7 5 5 5 5 5 5 5 5 5 5 7 5 _ ^ 5 7 5 5 5 5 5 5 5 5 5 5 7 5 % % % 8 4 O o .   X 9 % % % % % % % % 5 t i e i w % % % % % % 7 w N N E.i.. & @ N 7 5 5 5 5 5 7 5 r i _ / -.r 5 7 5 7 5 % : % a a O gXW O $ 0 % % % % % % % % t ^ t i / 5 % % % % % % e = 2.6.o : UXt $ =.e 5 7 5 5 5 7 5 t -._ -.y.t 5 7 5 7 5 % : % ~ ;.O   w W.> e > % % % % % % % w r t t t w % % % % % % 7 4 { zXO % % o % CXt 5 7 5 5 7 5 t -.^ / _ ^ a t 5 7 7 5 % % $ u X.O .   O . e.5 % % % % % % 5 w i r t i r i % ",
"5 5 7 5 5 : % 5 4 t.t 4 7 5 5 5 7 7 % 5 7 5 5 5 5 5 5 5 5 5 7 5 5 : 4 5 5 7 5 5 5 5 5 5 5 5 5 7 5 % % % 9 4 P.] o . . 9 4 % % % % % % % % . $ $ . % % % % % % % 7 w F # i.).. % % N 8 5 5 5 5 5 5 7 5 4 : : % 5 7 5 5 7 5 % : % ;.7 O 5 >     7 > % % % % % % : % . % . . % % % % % % % e = eX=.o : i % X =.1 5 7 5 5 5 7 5 4 : : : : 5 5 7 5 7 5 % : $ ;.t o o t _ o e 5 % % % % % % % % . $ $ . % % % % % % % e @ sX} o $ e UXJ.9X[ 4 e 5 5 5 7 4 4 4 : : : 4 4 7 5 7 5 % % $ X.s     % w O X.u $ : % % % % % % . $ $ . % % % ",
"5 5 5 7 5 i -.r ^ r a 5 7 5 5 5 7 7 % 5 7 5 5 5 5 5 5 5 5 7 5 r t a i / e 5 7 5 5 5 5 5 5 5 5 7 5 % : $ x 0 ) r   . . 9 : % % % % % % % > i 4 i ^ > % % % % % % 7 w F N O o % % % N 8 5 5 5 5 5 7 5 e a ^ a ( e 5 7 5 7 5 % : % C r o     .   0 : % % % % % % % : i 4 i ^ 4 % % % % % % e = 7.2.o % . % % =.e 5 7 5 5 7 5 r ^ a a a r i e 5 5 7 5 % : $ ( ~ O . o O   r 4 % % % % % % % % i 5 t ^ 5 % % % % % % e @ pXpXO % % ^ 4 9XW 8 7 5 7 5 7 ( r t ^ a ^ i / 5 7 7 5 % % $ s x O   5 jXy X.r $ % % % % % % % t 5 t ^ 5 % % ",
"5 5 5 7 4 t.R.I.L.L.u.5 7 5 5 5 7 7 % 5 7 5 5 5 5 5 5 5 5 7 4 / I.y.R.I._ 4 7 5 5 5 5 5 5 5 5 7 5 % : $ u H O o .   8 8 % % % % % % : % / ^ >.u.i.% % % % % % % 7 w C G : % % $ # N w 7 5 5 5 5 7 4 u.J.i.u.y.( 4 7 5 7 5 % : % e ;.$   .   > 7 % % % % % % : % ^ ^ _ y.y.> % % % % % % 7 4 Y DX, X % X T =.6 7 5 5 5 7 5 e I.R.I.'.i.R.i 5 7 7 5 % % % e ,.%   .   > p % % % % % % : $ ^ / _ y.D.5 % % % % % % 5 5 W CXy X % o | 9X8 7 7 5 7 7 5 t.y.R.L.I.L.R.L.a 5 7 5 % % % 5 e.4   o % 6 X.: % % % % % : % i / _ y.D.w % % ",
"5 5 5 7 4 t.L.-.R.u.u.7 7 5 5 5 7 7 % 5 7 5 5 5 5 5 5 5 5 7 5 r J.y.(.L._ 4 7 5 5 5 5 5 5 5 5 7 5 % % : $ x s . $ = 0 % % % % % % % : % ` i >.( / % : % % % % % 7 7 w N N & % 4 N 7 5 5 5 5 5 5 7 4 u.I.y.I.J.t 5 7 5 7 5 % % : % a p . $ % e : % % % % % % : $ / a _ ( / % % % % % % % 5 e = 2.2.X % > =.e 5 7 5 5 5 7 5 e L.L.(.(.(.jX^ 4 7 7 5 % % : % ^ ( . $ % r > % % % % % % : $ ^ ^ _ ( ( : % % % % % % 5 e 4 Q.sXX : 5 9XW 8 7 5 5 7 5 7 J.J.jXI.R.L.(.L.^ 4 7 5 % % : $ s X.. $ $ 9 4 % % % % % % : $ ^ ^ _ _ ( > % % ",
"5 5 5 7 5 a ^ 4 t / / 5 7 5 5 5 7 7 % 5 7 5 5 5 5 5 5 5 5 7 5 e t / ^ _ r 5 7 5 5 5 5 5 5 5 5 7 5 % % % % % : % % : % % % % % % % % % % 4 ^ 5 w 5 % % % % % % % 7 5 7 w 7 7 7 7 5 5 7 5 5 5 5 5 7 5 t _ ( _ t.r 5 7 5 7 5 % % % % % : % % : % % % % % % % % % % > ^ 5 5 w % % % % % % % 5 7 7 4 e 7 7 e 5 5 7 5 5 5 5 7 5 t _ a a ( i i r 5 7 7 5 % % % % % : : % : % % % % % % % % % % : ^ w 5 w % % % % % % % 5 7 7 4 e 7 7 e 5 5 7 5 5 5 7 5 r i.i t ( ^ ( a _ 5 5 7 5 % % % % % % : % : % % % % % % % % % % % ^ e 5 e : % % ",
"5 5 5 5 7 5 5 7 5 4 5 7 5 5 5 5 7 7 % 5 7 7 7 7 7 7 7 7 7 7 7 7 5 5 5 4 5 7 7 7 7 7 7 7 7 7 7 7 5 % % % : : % % % % : : : : : : : : : : % % % % % : : : : % % % 7 7 7 7 7 7 7 7 7 7 7 7 7 7 7 7 7 7 5 4 4 4 4 5 7 7 7 7 5 % % : : : : : : : : : : : : : : : : : % $ % % % : : : : % % % 5 7 e e 7 7 7 7 7 e 7 e e e e 7 e 5 5 5 5 5 5 5 5 e e 7 5 % % : : > : : : : : : : : : : : : : : : $ % % % : : : : % % % 5 7 e e 7 e e e e e e e e e e e 7 4 5 5 5 5 5 5 5 e e 7 5 % % % % % % % % % % % % % % % % % % % % % % % % % % % ",
"5 5 5 5 5 7 7 5 7 7 7 5 5 5 5 5 7 7 % 5 5 > > > > > > > > > > > > > > > > > > > > > > > > > > 5 5 % % & & & & & & & & & & & & & & & & & & & & & & & & & & % % % 7 5 w w w w w w w w w w w w w w w w w w w w w w w w w 5 5 % % % % % % % % % % % % % % % % % % % % = % % % % % % % % % % 7 5 4 4 4 4 4 4 4 4 4 4 4 4 4 4 4 4 6 6 6 6 6 4 4 4 4 5 5 % % % X X X X X X X X X X X X X X X X X X X X X X X X X % % % 5 5 4 4 4 4 4 4 4 4 4 4 4 4 4 4 4 4 4 4 4 4 4 4 4 4 4 5 5 % % % $ $ $ $ $ $ $ $ $ $ $ $ $ $ $ $ $ , , , , $ $ $ ",
"5 5 5 5 5 5 5 5 5 5 5 5 5 5 5 5 7 7 % > u 1X1X1X1X1X1X1X1X1X1X1X1X1X1X1X1X1X1X1X1X1X1X1X1X1X1Xu > % & d D D D D D D D D D D D D D D D D D D D D D D D D D 8 & % w N G F G G G G G G G G F F F F G G G G G G G G G F G 0 5 % % 3 B B B B B B B B B B B B B B B B B B B B B B B B B 3 % % 4 *.tXtXtXtXtXtXtXtXtXtXtXtXtXtXtXtXtXtXtXtXtXtXtXtXtX! 4 % X R qXqXqXqXqXqXqXqXqXqXqXqXqXqXqXqXqXqXqXqXqXqXqXqXqXR X % 4 ] cXzXcXcXcXcXcXcXcXcXcXzXcXcXcXcXcXcXcXcXcXcXcXzXcX] 4 % $ u -X*X-X-X-X-X-X-X-X-X-X*X*X-X-X-X-X-X-X-X-X-X-X*X",
"5 5 5 5 5 5 5 5 5 5 5 5 5 5 5 5 7 7 % , c 3X}. X X X X X X X X}. X X X X X X X X X X X X X}.3Xz > % * D D f f f f f f f f f f D D f f f f f f f f f f f $X9 & : w F G A F A A A A A F A G G G G A A A A A A A A F A 5XC & % % V B V B B B B B B B B B B B B B B B B B B B B B V 1.3 % : = 7.DX6.eXeXeXeXeXeXeXeXeXrXrXrXeXeXeXeXeXeXeXeXeX6.DX*.= % X 2.qX0X0X0X0X0X0X0X0X0XqXqXqXqX0X0X0X0X0X0X0X0XqX0XqX*.X % @ Q.BXsXzXzXzXzXzXzXzXzXzXcXzXzXzXzXzXzXzXzXzXzXzXsXBXQ.@ % . ..-X .*X . . . . . . .*X-X*X*X . . . . . . . . . .",
"5 5 7 7 5 7 5 7 7 5 5 7 7 5 5 5 7 7 % > x <X|.{.{.{.{.{.{.{.{.{. X X3X X{.{.{.{.{.{.{.{.{.|.<Xz > % * d f d d d d d d d d d f D D D d d d d d d d d d d D 9 & : w F G N A A A A A A A A F G G G N A A A A A A A A N G C & % % V B V V V V V V V V V B B B B V V V V V V V V V V B 3 % : = 7.rX6.6.6.6.6.6.6.6.6.eXrXDXDX6.6.6.6.6.6.6.6.6.6.DX*.= % X 2.qX2.0X0X0X0X0X0X0X2.0XqXqXqX2.0X0X0X0X0X0X0X0X2.qX[ X % @ Q.cXpXsXsXsXsXsXsXsXpXzXcXbXBXsXsXsXsXsXsXsXsXsXpXcXQ.@ % . z -X.. . . . . . . ... .-X-X-X . . . . . . . . ...",
"5 7 4 4 7 7 7 5 5 7 7 7 5 7 5 5 5 7 % > x <X|.{.{.{.{.{.{.{.{.{. X X X}.|.{.{.{.{.{.{.{.{.|.<Xz > % * d f d d d d d d d d d f f f f d d d d d d d d d d D 9 & : w F G N A A A A A A A N A G F G N A A A A A A A A N G C & % % V B V V V V V V V V V V B B B V V V V V V V V V V B 3 % : = 7.rX6.6.6.6.6.6.6.6.6.6.rXeXrX6.6.6.6.6.6.6.6.6.6.tX*.= % X 2.qX2.2.2.2.2.2.2.2.2.0XqX0XqX2.2.2.2.2.2.2.2.0X2.qX[ X % @ Q.cXpXsXpXpXpXpXpXpXpXsXzXzXzXsXpXpXpXpXpXpXpXsXpXcXQ.@ % . z -X.................. .*X .*X ...................",
"7 5 / ( 5 5 5 e r 5 5 5 ( 5 7 5 7 7 % , x 3X X X X X X X X X X X X X X X X X X X X X X X X X3Xz > % * D D f f f f f f f f f f f f f f f f f f f f f f f $X9 & : w F G F G G G G G G G G G G G G G G G G G G G G G F 5XC & % % V B B B B B B B B B B B B B B B B B B B B B B B B 1.3 % : = 7.DXeXrXrXrXrXrXrXrXrXrXrXrXrXrXrXrXrXrXrXrXrXrXeXDX*.= % X 2.iXqXqXqXqXqXqXqXqXqXqXqXqXqXqXqXqXqXqXqXqXqXqX0XiX*.X % @ Q.BXzXzXzXzXzXzXzXzXzXzXzXzXzXzXzXzXzXzXzXzXzXzXzXBXQ.@ % . ..-X .*X*X*X*X*X*X*X*X*X*X*X*X*X*X*X*X*X*X*X*X*X .",
"5 i J.a u.i.J.L.I.y.i.u.L.J.r 5 7 7 % > u =X}.}.=X=X=X}.=X}.}.}.=X=X=X}.}.}.}.}.}.=X=X}.}.}.=Xu > % & k D d d d d d d d d d d d d d d d d d d d d d d d d 4 % % w C F F F F F F F F F F F F F F F F F F F F F F F F F 0 5 % % 3 B V B B B B B B B B B B B B B B B B B B B B B B B , % % 4 *.rX6.eXeXeXeXeXeXeXeXeXeXeXeXeXeXeXeXeXeXeXeXeX6.eX~ 4 % X R qX0X0X0X0X0X0X0X0X0X0X0X0X0X0X0X0X0X0X0X0X0X0X0X0XU X % 4 ] dXsXsXsXsXsXsXsXsXsXsXsXdXsXsXsXsXsXsXsXsXsXsXsXdX' 4 % $ u  . . . . . . . . . . . . . . . . . . . . . . . .",
"5 i J.( L.I.y.L.I.t.u.I.J.I.( 4 7 7 % 5 7 < < < < < < < < < < < < , < < < < < < < < < < < < < 7 5 % % & > > > & & > > & > > > & & > > > > > > & & & > > & % % % 5 w y y y y y y y y y y y w w y y y y y y y y y y y y e 5 % % = - - - - - - - - - - - - = - - - - - - - - - - - - % % % 5 6 6 6 6 6 6 6 6 6 6 6 6 6 - 6 6 6 6 6 6 6 6 6 6 6 6 7 5 % % % = = = = = = = = = = = = X = = = = = = = = = = = = % % % 5 5 8 8 8 8 8 8 8 8 8 8 8 4 : 8 8 8 8 8 8 8 4 8 8 8 8 5 5 % % : , , , , , , , , , , , , , , , , , , , , , , , , ",
"7 5 ^ ^ ^ i r t / e i ^ r / r 5 7 7 % 4 r a r r t a a r a t r r a r a r r t r t t a a t r r a r 4 % % 5 5 4 5 5 7 5 5 7 4 4 5 5 5 7 4 5 5 5 5 5 e 5 5 4 7 4 % % 5 i i r r i i t r a r r t i r a r r r r r i a i r r a r 4 % % 5 5 4 5 5 w 5 5 w 5 5 5 7 4 e > 5 5 5 5 5 e 5 5 > e 4 % % 5 i i r t i i i r i r r t i r i r t t t t i i i t r i r 5 % % 5 w 5 5 w w w 5 w 5 5 5 e > e > 5 5 5 5 w e w 5 > e 5 % % 5 t a r t i i i r a t t t a r a r t t t t i ^ i t r a t 5 % % 5 w 4 5 5 w 5 5 w 5 5 5 e 4 e 5 5 5 5 5 5 e w 5 4 ",
"5 7 4 4 4 5 5 5 4 5 5 4 5 4 5 7 5 7 % 4 r t 5 5 _ >.>.^ _ / 5 5 t r t 5 4 i y.i.^ >.y.i 4 5 t r 4 % % 5 : % 5 ^ i W e ^ 5 % : 5 4 4 % : ^ ` y t ` t % % 5 4 % % 5 t e 4 r >._ >.^ >.t 4 7 t r r 5 e t.y.( _ y._ 5 5 r r 4 % % 5 > % 4 ^ i W e ^ w % % 5 4 5 % % ^ ` t t ` W % % 5 4 % % 5 t e 4 e >._ >.^ >.i 4 7 t r r 5 5 >.y.( ( i.>.5 5 r r 5 % % 5 4 % : ^ i W e W w % % 5 4 5 % % ^ ` t t ) ^ % % 4 5 % % 5 r r 5 e >._ >.^ >.a 4 5 t r t 5 5 >.y._ ( i.>.5 5 r r 5 % % 5 4 % % W i ^ e W e % % 5 4 5 % % W ` t t ^ ^ % % ",
"5 5 7 7 7 7 7 7 7 7 7 7 7 7 7 5 7 7 % 4 r t 5 5 _ i.>.>.>.( 5 5 i r i 7 5 t D.t.>.a t.^ 5 5 t r 4 % % 5 > % > ^ ^ ^ W ^ 5 % > 5 4 5 % : ` ` ^ y i i % % 5 4 % % 5 t r 5 e i.>.t.>.>.i 5 e t r r 5 7 i.y.>.^ _ >.5 5 t r 4 % % 5 4 % : ^ ^ ^ W ^ w % : 5 4 5 % % ^ ` ^ y t ^ % % 5 4 % % 5 t r 5 7 t.t.>.>.>.a 5 e t r t 5 5 t.u.>./ _ >.5 5 r r 5 % % 5 4 % % ^ ^ ^ W ^ e % : 5 4 5 % % ^ ` ^ t t ^ % % 5 5 % % 5 r r 5 5 >.t.>.>.>.^ 5 7 i r t 5 5 >.D.>.( ( t.7 5 r r 5 % % 5 5 % % ^ ^ ^ ^ ^ e % % 5 4 5 % % W ` ^ t y ^ : % ",
"5 5 5 5 5 5 5 5 5 5 5 5 5 5 5 5 7 7 % 4 r t 5 5 e e e e r 7 5 5 t r i 5 5 5 7 7 e 5 e e 5 5 t r 4 % % 5 : % : : > : > > % % : 5 5 5 % % % % > % : > % % 5 4 % % 5 i e 5 7 e e e e r 5 5 e t r r 5 5 7 5 e 7 7 e 5 5 t r 4 % % 5 > % : : > : > > % % : 5 4 5 % % % % > % % > % % 5 4 % % 5 t r 5 7 e e e e r 5 5 7 i r t 5 5 7 5 e 7 7 e 5 5 r r 5 % % 5 4 % % : > : > > % % % 5 4 5 % % % % > : % > % % 5 5 % % 5 t r 5 7 e e e e r 5 5 5 i r t 5 5 7 5 e e 7 e 7 5 r t 5 % % 5 5 % % > > > > 4 % % % 5 4 5 % % % % : : % > % % ",
"5 5 5 5 5 5 5 5 5 5 5 5 5 5 5 5 7 7 % 4 e a i i i i i i t i i i a e a i i i i i t i i i i i a e 4 % % 5 w 5 5 5 5 5 5 5 5 5 w 5 4 e 5 5 5 5 5 5 5 5 5 5 e > % % 5 t a i i i i i t t i i a t e a i i i i t i i t i i a e 5 % % 5 e 5 5 5 5 5 5 5 5 5 7 5 > e 5 5 5 5 5 5 5 5 5 5 e 4 % % 5 r a i i i i i t t i i i i e a i i i i i i i t i i a r 5 % % 5 e 5 5 5 5 5 5 5 5 5 5 5 : e 5 5 5 5 5 5 5 5 5 5 e 4 % % 5 r a i i i i i t t i i i i e a i i i i i i i t i i a r 5 % % 4 e 5 5 5 5 5 5 5 5 5 5 7 : e 5 5 5 5 5 5 5 5 5 5 ",
"5 5 5 5 5 5 5 5 5 5 5 5 5 5 5 5 7 7 % 5 7 7 e e e e e e e e e e 7 5 7 e e e e e e e e e e e 7 7 5 % % % : : : : : : : : : : : % % : : : : : : : : : : : : % % % 7 7 7 e e e e e e e e e e 7 5 7 e e e e e e e e e e 7 7 5 % % % : : : : : : : : : : : % % : : : : : : : : : : : : % % % 5 7 7 e e e e e e e e e e 7 5 7 e e e e e e e e e e 7 7 5 % % % : : : : : : : : : : : % % : : : : : : : : : : : : % % % 5 7 7 e e e e e e e e e e 7 5 7 e e e e e e e e e e 7 7 5 % % % : : : : : : : : : : : % % : : : : : : : : : : : ",
"5 7 7 5 7 7 5 5 7 7 5 7 7 5 5 5 7 7 % 5 7 5 5 5 5 5 5 5 5 5 5 5 7 7 5 5 5 5 5 5 5 5 5 5 7 5 5 7 5 % % % % % % % % % % % % % % % % % % % % % % % % % % % % % % % 7 5 5 5 5 5 5 5 5 5 5 5 5 7 5 5 5 5 5 5 5 5 5 5 7 5 5 7 5 % % % % % % % % % % % % % % % % % % % % % % % % % % % % % % % 5 5 5 5 5 5 5 5 5 5 5 5 5 7 5 5 5 5 5 5 5 5 5 5 7 7 5 7 5 % % % % % % % % % % % % % % % % % % % % % % % % % % % % % % % 5 7 5 5 5 5 5 5 5 5 5 5 5 7 5 5 5 5 5 5 5 5 5 5 5 7 5 7 5 % % % % % % % % % % % % % % % % % % % % % % % % % % % ",
"7 4 5 7 5 5 7 7 5 5 7 7 7 7 7 5 7 7 % 5 5 % % % % % % % % % % % % % % % % % % % % % : % X % % 5 5 % : %   . $ . . . . . . . .   . . . . . . . . $ .     . % % % 7 4 $ % % % % % % % % % % % % % % % % % % % : % $ % % 5 5 % : %   . $ . . . . . . . .   . . . . . . . . $ .     . % % % 7 4 % % % % % % % % % % % % % % % % % % % % : % $ $ % 5 5 % % %   . $ . . . . . . . .   . . . . . . . . $ .     . % % % 5 5 % % % % % % % % % % % % % % % % % % % % : % % $ % 5 5 % % % . . $ . . . . . . . .   . . . . . . . . $ .     ",
"5 / / 5 a a : 4 / t 5 5 r 5 5 5 5 7 % 5 5 % 4   . .     .   .   4 : $ % % % % % % % % . t 5 X 5 5 % : $ % . O     o o o o     %   . . . . . .   $   5 %   % % % 7 : 4 %   . .     .   $ . 5 % % % % % % % % % . r e . 5 5 % : $ $ . O     o o o o   o % .   . . . . .   $   > >   % % % 7 4 4 %   . .     .   $   5 % % % % % % % % % X e r . 5 5 % : % $ $ O     o o o o   o % .   . . . . .   $   % 5 o % % % 7 4 : : o . .     .   $   5 % % % % % % % % % X w t . 5 5 % % % $ $ O     o o o o   o % .   . . . . .   .   % 5 ",
"5 I.t.t.I.L.L.i.L.R./ J.i.L.t.4 7 7 % 5 4 r y.( _ t.^ ( ^ -.t t y.r . % % % % % % % % X W.t.  7 5 % : . i i r ^ t r r r i % t ^   . . . . . . . $   ,.) o % % % e % _ t./ t._ / / ^ -.7 / i.% % % % % % % % : . P.D.  5 5 % : . t ^ r ^ t r t r i % r / . . . . . . . . $ o ] ] o % % % e % ( t./ t._ / ( ^ -.e ^ y.% % % % % % % % : . D.P.. 5 5 % : . r ^ r ^ i r t e i : e ` $   . . . . . . $ o ` ] o % % % 7 % ^ t./ t.-.^ ( ^ -.e a y.4 $ % % % % % % : . y.T.. 5 5 % : . e ^ r i i r t e i 4 w ` %   . . . . . . $ o ^ ,.",
"5 -.(.R.L.'.'.I.i.u.R.jX).u.u.5 7 7 % 5 4 7 J.u.L.J.(.(.-.u.u.R.'.7 . % % % % % % % % % P.t.. 7 5 % : . t _ ` >.>.D._ i _ ` D._   . . . . . . . $   ] ) o % % % e % / L.u.L.L.'.L._ J.u.'.L.. % % % % % % % % X J.y.. 5 5 % : . r _ ` >._ D.>.t _ ` D.>.  . . . . . . . $   ] `   % % % e % a L.u.L.L.'.I._ J.u.'.I.$ % % % % % % % : . D.D.. 5 5 % : . e _ ` >._ u.t.t _ ` u.i.. . . . . . . . $   ) ]   % % % 7 % i L.u.L.L.'.R._ J.u.(.R.% % % % % % % % : . i.P.$ 5 5 % : $ 5 _ ` >._ u.i.t _ ` y.y.$   . . . . .   $ o ^ ,.",
"5 / a t ( i a a ( r ^ / i t t 5 7 7 % 5 4 5 -.e i / ( a 5 r a t._ 4 $ % % % % % % % : . >.i . 7 5 % : . e r : r r t 5 % 4 t ^ e   . . . . . . . $ o W e o % % % e % a ( e ^ / ( t e r _ t.a $ % % % % % % % : . _ ^ . 5 5 % : . e t : e r t 5 % 4 t ^ e   . . . . . . . $ o t y o % % % 7 % i ( e ^ / ( t 7 r ( t.^ % % % % % % % % : . ` `   5 5 % : $ 5 t % e r t 5 % 4 t ^ r . . . . . . . . $ o y t o % % % 7 : t _ e a / ( i 7 r / t./ % % % % % % % % % . ^ _   5 5 % : $ 5 t : e r t w % 4 r ^ t .   . . . . .   $   w W ",
"7 4 5 5 4 5 5 5 4 5 4 4 5 5 5 5 5 7 % 5 5 $   X . . . . $ X .     % % % % % % % % % % %   . % 5 5 % : $ o       o         o o   . . . . . . . . . . o o . % % % 7 4 . . X . . . X $ X     . % % % % % % % % % %   . % 5 5 % : %         o         o o   . . . . . . . . . . o o . % % % 7 4 . . X . . . X $ X     . % % % % % % % % % % . . % 5 5 % % %   o     o         o o o . . . . . . .   . . o o . % % % 5 5 . . X . . . . $ X .   . % % % % % % % % % % .   % 5 5 % % %   o     o         o o o . . . . . . .   . .   o ",
"5 7 7 7 7 7 7 7 7 7 7 7 7 7 7 5 7 7 % 5 7 5 5 5 5 5 5 5 5 5 5 5 5 5 5 5 5 5 5 5 5 5 5 5 5 5 5 7 5 % % % % % % % % % % % % % % % % % % % % % % % % % % % % % % % 7 5 5 5 5 5 5 5 5 5 5 5 5 5 5 5 5 5 5 5 5 5 5 5 5 5 5 7 5 % % % % % % % % % % % % % % % % % % % % % % % % % % % % % % % 5 5 5 5 5 5 5 5 5 5 5 5 5 5 5 5 5 5 5 5 5 5 5 5 5 5 5 5 5 % % % % % % % % % % % % % % % % % % % % % % % % % % % % % % % 5 5 5 5 5 5 5 5 5 5 5 5 5 5 5 5 5 5 5 5 5 5 5 5 5 5 5 5 5 % % % % % % % % % % % % % % % % % % % % % % % % % % % ",
"5 5 5 5 5 5 5 5 5 5 5 5 5 5 5 5 7 7 % 5 7 7 7 7 7 7 7 7 7 7 7 7 7 7 7 7 7 7 7 7 7 7 7 7 7 7 7 7 5 % % % % % % : : : % % % % % % % % % % % : : % % % % % % % % % 7 7 7 7 7 7 7 7 7 7 7 7 7 7 7 7 7 7 7 7 7 7 7 7 7 7 7 7 5 % % % % % % : : : % % % % % % % % % % % : : : % % % % % % % % 5 7 7 7 7 e e 7 7 7 7 7 7 7 7 7 7 7 7 7 e 7 7 7 7 7 7 7 5 % % % % % % : : : % % % % % % % % % % % : : : % % % % % % % % 5 7 7 7 7 e e e 7 7 7 7 7 7 7 7 7 7 7 7 e e 7 7 7 7 7 7 5 % % % % % % : : : % % % % % % % % % % % % : : % % % % ",
"7 7 7 7 7 7 5 5 5 5 5 5 5 5 5 5 7 7 % 5 7 5 5 7 7 > , > 5 7 5 5 5 5 5 5 5 5 7 5 > > 5 7 5 5 5 7 5 % % % % % % $ $ % : % % % % % % % % % : % $ % % % % % % % % % 7 5 5 7 5 w w 5 5 5 5 5 5 5 5 5 5 5 7 5 w w 5 5 5 5 5 7 5 % % % % : % % % % : % % % % % % % % % : % % % % % % % % % % % 5 7 5 7 5 4 = 5 7 7 5 5 5 5 5 5 5 5 e 5 4 6 5 7 5 5 5 7 5 % % % % % % % $ % : % % % % % % % % % : % % % % % % % % % % % 5 7 5 7 7 4 : 4 7 5 5 5 5 5 5 5 5 5 e 5 4 8 5 7 5 5 5 7 5 % % % % % % % $ % % % % % % % % % % % : % $ % % % % % ",
"4 5 4 5 5 5 7 7 7 7 7 7 7 7 7 7 5 7 % 5 7 5 7 5 > z b v 5 > 7 5 5 5 5 5 5 7 > 5 v v 9 < 5 7 5 7 5 % % % : % : r u 5 $ % % % % % % % % % $ 5 u 8 % % % % % % % % 7 5 7 w 7 C C 0 w 7 5 5 5 5 5 5 7 7 w 0 C 0 5 w 7 5 5 7 5 % % % : % % r p 5 % % % % % % % % % % % 5 p 5 : % % % % % % % 5 5 7 4 5 *.*.~ 4 5 7 5 5 5 5 5 5 7 4 p *.Y e 5 7 5 5 7 5 % % % : % % r i e % % % % % % % % % % % 5 i w : % % % % % % % 5 7 e 4 5 ] $.) 4 5 7 5 5 5 5 5 5 e 4 t { [ w 8 7 5 5 7 5 % % % % % % r s e % % % % % % % % % % $ 4 u 6 : % % % ",
"/ r _ e a a 4 5 4 5 4 4 4 5 5 5 7 5 % 5 7 7 5 5 }..X{. X.Xz > 7 5 5 5 5 7 > z  X}.g h M 5 5 5 7 5 % % : % r H x x H s % % % % % % % % % x H q 8 q 4 % % % % % % 7 7 w q G A N N # w 7 5 5 5 5 5 7 w N G N # N 0 w 7 5 7 5 % % : % 7 ;.C C ;.a % % % % % % % % % a ;.p 8 0 4 % % % % % % 5 7 4 Y tXeX6.tX7.5 5 7 5 5 5 5 7 4 2.tX2.=.2.U 5 7 5 7 5 % % : % 5 ,.>._ ,.;.% % % % % % % : % ~ ,.~ w p 5 % % % % % % 5 e 4 W cXzXsX9X| 7 5 7 5 5 5 5 e 4 $.CXpX| 9X| 8 7 5 7 5 % % % % 5 e.X.X.e.X.: % % % % % % : $ s e.x 6 u 6 % % ",
"L.y.t.5 R.R.y.t.u._ y.J.J._ J./ 4 7 % 5 7 7 , }.[.$     b XX5 7 7 5 5 7 5 6 .XM < K.. g M < 7 7 5 % : % 8 H 4   O % x 8 % % % % % : $ s H o ] w X q : % % % % % 7 5 0 G #   ) ` # # w 7 5 5 5 7 w N F   D.^ @ N 8 5 5 7 5 % % % 4 ;.5 o O $ a 7 % % % % % : % p ;.o ` y . 0 > % % % % % 7 5 e tXT o O = 6.=.6 7 5 5 5 e 4 *.tX. p.( $ 2.< 5 7 7 5 % % % > ,.e o O . / r % % % % % : % i ,.  ^ t   p 5 % % % % % 5 5 e cX{ O ( ( | } 8 w 5 5 5 e 4 { CX& -.q.* 9XE 8 7 7 5 % % % % e.u   O   x u % % % % % : $ r e.. W ^ o u 5 % ",
"J.(./ 5 I.( u.J.'.R.jXL.J.L.R.u.5 7 % 5 7 > u .X$ $ = kX4.M k < 7 5 5 7 , |.|.O X.kX  = h 6 5 7 5 % : $ x q O o ` E.X 9 % % % % % % 4 H % O W.^ O 8 8 % % % % % 7 w N N * . IXi.o N 7 5 5 5 7 5 7 G 4 O kXi.O # # w 5 7 5 % : % a p o o ^ gX% 8 : % % % % % : ;.: O P.` O > 7 % % % % % e = 2.2.o . _ IX5 =.e 5 7 5 7 5 5 tX1 O jXK.O U =.6 7 7 5 % : $ ~ / O   y gX% e > % % % % % % ,.5 O D.>.O > r % % % % % w 4 Q.sXO   kXi.o 9Xy 5 7 5 7 7 4 zX' O jXW.O R 9X8 7 7 5 % % $ s X.O   w gX5 6 4 % % % % % $ q.6 O y.y.O = u % ",
"_ i t.r i 7 i r ( _ ( i t _ L.( ^ 5 % 5 7 > v }.$ % 5 y.$ j M < 7 5 5 7 , }.v $ % 4 % $ g 9 5 7 5 % : % H 4   o i e o 9 4 % % % % % 8 H   . % .   = 8 % % % % % 7 w F # $ % r % % N 8 5 5 5 7 5 0 F % % 4 % $ @ N w 5 7 5 % : % ;.5   o t t o 7 > % % % % % 5 ;.. . $ $   % e % % % % % e = eX=.X . ( _ o =.1 5 7 5 7 5 p tX% % 4 : X , =.5 7 7 5 % : $ ;.r o   y t o e 5 % % % % % > ,.$   $ $   $ p % % % % % e @ sX} o % e % X | R 8 7 5 7 5 e cXw $ : : X & 9X5 5 7 5 % % $ X.s     w ^ o 6 6 % % % % % % e.%   $ $   X u % ",
"4 5 % 5 4 5 5 5 : % 4 4 % 5 7 5 7 7 % 5 7 > z .X$ % % o * M M < 7 5 5 7 , {.m * % $ % % h 6 5 7 5 % : $ H 0 O . o o X 9 : % % % % % 4 H .     .   4 8 % % % % % 7 w A N * % . % % N 7 5 5 5 7 5 8 G : & $ % & # N w 5 7 5 % : % C p O . o o . 0 : % % % % % : ;.$     .   : 7 % % % % % e = 7.2.o %     % =.e 5 7 5 7 5 7 tX< X $ % X 2 =.6 7 7 5 % : $ / ~ O . o o   r > % % % % % % ,.: o       % r % % % % % e @ pXpXO % . % X 9XW 8 7 5 7 7 4 cXW o % % X y 9X8 7 7 5 % % $ s X.O .   o   u 5 % % % % % % q.6   .     % u % ",
"e 4 L.( L.t t._ i / t i _ t 5 7 5 7 % 5 7 7 >  X|.$ % $ + h 6 5 7 5 5 7 > u %X9 $ % $ M M < 7 7 5 % : % 6 H %   .   8 8 % % % % % : $ x x   .   X 9 4 % % % % % 7 w 0 G @ $ % % # # w 7 5 5 5 7 w N A $ % % @ N 8 w 5 7 5 % % % 5 ;.:   .   5 7 % % % % % : % a C   .   . 0 4 % % % % % 7 5 p DX1 X % % T =.6 7 5 5 5 e = 2.rX% % % % =.1 5 7 7 5 % % % 5 ,.5   .   > r % % % % % : % ~ ,.  .   . r 5 % % % % % 5 5 t CX' . % X | 9X8 7 5 5 5 e 4 Q.cX% % % % 9X| 8 7 7 5 % % % 4 e.6   .   4 u % % % % % : $ s e..   . . u 6 % ",
"7 4 I.(.(.L.jX(.R.jXu.I.R.u.4 7 7 7 % 5 7 7 5 9 }.6 : > M j < 7 5 5 5 5 7 , b m , : 6 M 7 5 5 7 5 % % : $ s s $ $ 4 8 % % % % % % % % : H 4 $ $ 8 8 % % % % % % 7 7 w N N & : 8 N 5 5 5 5 5 5 7 5 7 F 0 % % # # w 7 5 7 5 % % : % p p . $ : 7 % % % % % % % % % ;.5 . $ 5 5 % % % % % % 5 e 4 *.2.= 4 < =.e 5 7 5 5 5 7 5 5 6.Y = = T T 6 7 5 7 5 % % : % i / . $ % r : % % % % % % % % ;.e . $ 5 e % % % % % % 5 e 4 { pX% 4 w } y 5 7 5 5 5 7 7 4 sX] X 4 R | 8 7 5 7 5 % % : $ r X.$ $ % u 4 % % % % % % % $ X.u . $ 4 6 % % ",
"7 5 -.J.i.I.L.y.u.i.u.L.(._ 5 7 7 7 % 5 7 5 7 5 > 7 7 7 5 5 7 5 5 5 5 5 5 7 > 5 7 7 7 5 5 7 5 7 5 % % % % % % : : % % % % % % % % % % % % % : : % % % % % % % % 7 5 7 w 5 7 7 7 w 5 5 5 5 5 5 5 7 5 w 7 7 7 7 w 7 5 5 7 5 % % % % % % : : % % % % % % % % % % % % % : : % % % % % % % % 5 5 7 4 5 7 7 7 5 5 7 5 5 5 5 5 7 5 4 5 7 7 5 5 7 5 5 7 5 % % % % % % : : % % % % % % % % % % % % % : : % % % % % % % % 5 7 e 4 4 7 7 7 8 5 7 5 5 5 5 5 7 7 4 5 7 7 5 8 7 5 5 7 5 % % % % % % : : : % % % % % % % % % % % % : : % % % % ",
"5 7 4 4 4 : % 4 5 5 : 7 a : 7 5 7 7 % 5 7 5 5 7 7 7 7 7 7 7 5 5 5 5 5 5 5 5 7 7 5 7 7 7 7 5 5 7 5 % % % % : : % : : : % % % % % % % % % : % % : : : % % % % % % 7 5 5 7 7 7 7 7 7 7 5 5 5 5 5 5 5 7 7 7 7 7 7 7 5 5 5 7 5 % % % % : : % : : : % % % % % % % % % : % % : : : % % % % % % 5 7 5 e e 5 7 7 e 7 5 5 5 5 5 5 5 7 e 7 7 7 7 7 5 5 5 7 5 % % % % : : % : : : % % % % % % % % % : % % : : : % % % % % % 5 7 5 e e 7 7 7 e e 7 5 5 5 5 5 5 7 e 7 7 7 7 e 5 5 5 7 5 % % % % : : % : : : % % % % % % % % % : % % : : : % % ",
"7 5 i r _ t.-.e 5 t t.-.( r 5 7 7 7 % 5 7 5 7 5 4 5 4 4 4 5 7 5 5 5 5 5 5 7 5 4 5 4 4 4 5 7 5 7 5 % % % % % % % % % % % % % % % % % % % % % % % % % % % % % % % 7 5 7 5 4 5 4 5 4 5 7 5 5 5 5 5 7 5 4 5 5 4 4 5 7 5 5 7 5 % % % % % % % % % % % % % % % % % % % % % % % % % % % % % % % 5 5 7 5 4 5 4 4 4 5 7 5 5 5 5 5 7 5 4 5 5 4 4 5 7 5 5 7 5 % % % % % % % % % % % % % % % % % % % % % % % % % % % % % % % 5 7 7 4 5 4 5 4 5 4 5 7 5 5 5 5 7 5 4 5 5 4 4 5 7 5 5 7 5 % % % % % % % % % % % % % % % % % % % % % % % % % % % ",
"7 4 t.J.I.R.(.e r I.R.(.I.t.4 7 7 7 % 5 7 7 5 r u.e -.t.y.a 5 7 5 5 5 5 7 4 _ t.e u.-.i.5 5 5 7 5 % % % % ^ i 4 ` i ^ % % % % % % % % > _ 5 t ^ / r % % % % % % 7 7 5 e u.r t._ i.^ 5 7 5 5 5 7 5 e u.i ( i.i./ 5 7 5 7 5 % % % % i ^ : ` i ^ % % % % % % % % : ` w r ^ ^ t % % % % % % 5 7 4 _ t.e u.-.i.5 5 7 5 5 5 7 5 5 u.a ^ i.i._ 4 7 5 7 5 % % : % t ^ : ` i / : % % % % % % % % ` e e / ^ t % % % % % % 5 7 : -./ i.i t._ i.^ 5 7 5 5 7 7 5 y.^ a y.t.-.4 7 5 7 5 % % : % r ` % / i ` > % % % % % % % % / r w / ^ i % % ",
"7 4 i.I.L.I.R.^ a I.L.R.I.i.4 7 7 7 % 5 7 7 4 _ L.t.t.(.I.t.4 7 5 5 5 7 7 5 u.u.-.u.'.u.^ 4 7 7 5 % % % > _ / i _ y.` 5 % % % % % : % r _ ^ ^ i.>.^ % : % % % % 7 5 r -.(.t._ (.J.i.4 7 5 5 5 7 4 / L.t.t.R.I.i.5 7 5 7 5 % % % % _ ` i _ u._ e % % % % % % % e _ ^ ^ i.t./ % % % % % % 5 7 5 u.u.-.u.'.u.^ 4 7 5 5 5 7 4 a L.t.t.R.R.y.5 7 5 7 5 % % % % ` _ i ` u._ r % % % % % % % e _ ^ a t.i./ : % % % % % 5 e i i._ -./ _ R.J.i.4 7 5 5 7 5 i L.i.t.I.R.y.e 5 5 7 5 % % : % / _ i ` u._ t % : % % % % % 5 _ ^ i >.i.` > % ",
"7 5 ^ ( a i ^ _ 5 ^ i a ( ^ 5 7 7 7 % 5 7 7 5 a I.i.u.L.I._ 4 7 5 5 5 5 7 5 i.L.t.L.L.L.r 5 7 7 5 % % % % ` _ ^ >.>._ : % % % % % % % 5 >./ / >.>.a % : % % % % 7 5 r i L.i./ L.I.-.4 7 5 5 5 7 5 t L.y.y.L.I.t.4 7 5 7 5 % % % % ^ >.^ _ >._ 4 % % % % % % % 5 >.` / >.>.^ % : % % % % 5 7 5 t.L.t.L.L.L.r 5 7 5 5 5 7 5 r L.u.i.L.L.i.5 7 5 7 5 % % : % ^ >.^ _ >.>.5 % % % % % % % > _ ` ^ >.>./ % % % % % % 5 e i ^ t.I._ ( L.I.-.4 7 5 5 7 5 e L.u.i.L.L.y.5 7 5 7 5 % % : % i >.^ _ >.>.w % % % % % % % : _ _ ^ >.>.` % % ",
"5 7 5 5 5 5 4 5 7 4 5 4 5 5 7 5 7 7 % 5 7 5 7 5 r e r e r 7 5 5 5 5 5 5 7 5 e r 7 r 7 r 5 7 5 7 5 % % % % > 4 : 4 : 4 % % % % % % % % % 4 : 4 : 4 : % % % % % % 7 7 5 5 r 7 i 7 r 7 5 7 5 5 5 5 7 5 r e r e e e 5 7 5 7 5 % % % % : 4 : 4 % 4 % % % % % % % % % 4 : > : > : % % % % % % 5 7 5 e r 7 r 7 r 5 7 5 5 5 5 5 7 5 r e e e e e 5 7 5 7 5 % % % % : 4 : 4 % 4 % % % % % % % % % 4 > > > : : % % % % % % 5 5 5 7 e i r i e r 7 5 7 5 5 5 7 5 r e e e e e 5 7 5 7 5 % % % % : 5 : 4 % 4 % % % % % % % % % 4 4 : 4 : > % % ",
"5 5 7 7 7 7 7 7 5 7 7 7 7 7 5 5 7 7 % 5 7 5 5 7 5 5 5 5 5 5 7 5 5 5 5 5 5 7 5 5 5 5 5 5 7 5 5 7 5 % % % % % % % % % % % % % % % % % % % % % % % % % % % % % % % 7 5 7 7 5 5 5 5 5 5 7 5 5 5 5 5 5 7 5 5 5 5 5 5 7 5 5 7 5 % % % % % % % % % % % % % % % % % % % % % % % % % % % % % % % 5 7 7 5 5 5 5 5 5 7 5 5 5 5 5 5 5 7 5 5 5 5 5 5 7 5 5 7 5 % % % % % % % % % % % % % % % % % % % % % % % % % % % % % % % 5 7 7 5 5 5 5 5 5 5 5 7 5 5 5 5 5 7 5 5 5 5 5 5 7 5 5 7 5 % % % % % % % % % % % % % % % % % % % % % % % % % % % ",
"5 5 5 5 5 5 5 5 5 5 5 5 5 5 5 5 7 7 % 5 7 5 5 5 7 7 7 7 7 7 5 5 5 5 5 5 5 5 7 7 7 7 7 7 5 5 5 7 5 % % % % % % % % % % % % % % % % % % % % % % % % % % % % % % % 7 5 5 7 7 7 7 7 7 7 5 5 5 5 5 5 5 5 7 7 7 7 7 7 5 5 5 7 5 % % % % % % % % % % % % % % % % % % % % % % % % % % % % % % % 5 7 5 7 7 7 7 7 7 5 5 5 5 5 5 5 5 5 7 7 7 7 7 7 5 5 5 7 5 % % % % % % % % % % % % % % % % % % % % % % % % % % % % % % % 5 7 5 7 7 7 7 7 7 7 7 5 5 5 5 5 5 5 7 7 7 7 7 7 5 5 5 7 5 % % % % % % % % % % % % % % % % % % % % % % % % % % % ",
"5 5 5 5 5 5 5 5 5 5 5 5 5 5 5 5 7 7 % 5 7 5 5 5 7 7 7 7 7 5 5 5 5 5 5 5 5 5 5 7 7 7 7 7 5 5 5 7 5 % % % % % % % % % % % % % % % % % % % % : : : % % % % % % % % 7 5 5 5 7 7 7 7 7 5 5 5 5 5 5 5 5 5 7 7 7 7 7 5 5 5 5 7 5 % % % % % % % % % % % % % % % % % % % % : : : % % % % % % % % 5 7 5 5 7 7 7 7 7 5 5 5 5 5 5 5 5 5 7 7 7 7 7 5 5 5 5 7 5 % % % % % % % % % % % % % % % % % % % % % : : % % % % % % % % 5 7 5 5 7 7 7 7 7 5 5 5 5 5 5 5 5 5 7 7 7 7 7 5 5 5 5 7 5 % % % % % % % % % % % % % % % % % % % % % : : % % % % ",
"5 5 5 7 7 7 7 7 7 7 7 7 5 5 5 5 7 7 % 5 7 5 5 7 5 , , , > 7 5 5 5 5 5 5 5 5 7 5 - - - 5 7 5 5 7 5 % % % % % % $ $ % % % % % % % % % % % % % % % % : % % % % % % 7 5 5 7 > , , , 5 7 5 5 5 5 5 5 5 7 5 - - - 5 7 5 5 5 7 5 % % % % % % $ $ % % % % % % % % % % % % % % % % : % % % % % % 5 7 5 7 > , , , 5 7 5 5 5 5 5 5 5 7 7 6 - - 6 7 7 5 5 7 5 % % % % % % $ $ % % % % % % % % % % % % % % % % % % % % % % % 5 7 5 7 5 , , > 5 7 5 5 5 5 5 5 5 7 7 6 - - 6 7 7 5 5 7 5 % % % % % % $ $ % % % % % % % % % % % % % % % % % % % ",
"5 5 7 5 5 5 4 5 7 5 5 5 5 5 5 5 7 7 % 5 7 5 7 5 e @.=X#.u > 7 5 5 5 5 5 5 7 6 2 1.1.B 7 5 7 5 7 5 % % % % % 6 u u 6 % % % % % % % % % % % 7 p p 5 % % % % % % % 7 5 7 > x #.=X@.5 5 7 5 5 5 5 5 7 5 5 V 1.1.2 6 7 5 5 7 5 % % % % % 5 u u u % % % % % % % % % % % 7 p p 5 % % % % % % % 5 7 7 > s #.=X@.7 5 7 5 5 5 5 5 7 5 5 V 1.1.V 6 7 7 5 7 5 % % % % % 5 u u u : % % % % % % % % % % 7 p p 7 % % % % % % % 5 7 7 > u #.=XX.5 5 7 5 5 5 5 5 7 5 5 V 1.1.V 6 5 7 5 7 5 % % % % % 4 u u u : % % % % % % % % % % 7 p p 7 % % % ",
"5 7 5 ^ ^ a ^ r 5 r t.e 7 5 5 5 7 7 % 5 7 7 5 u 2X#.o.#.2Xo.> 7 5 5 5 5 7 6 B 1.V V 1.1.e 5 7 7 5 % % % % u x 6 6 u x : % % % % % % % : p 0 4 7 C 0 % : % % % % 7 7 > #.;X@.o.=X2Xe 5 7 5 5 5 7 5 7 1.1.V B 1.=.6 7 5 7 5 % % % % u x 6 6 u x 4 % % % % % % % : p p 5 8 C p % % % % % % 5 7 > @.;X@.o.=X2Xu 5 7 5 5 5 7 5 7 1.1.V V 1.1.6 7 5 7 5 % % % % 6 x 6 6 u x 4 % % % % % % % % p p 5 8 p p % % % % % % 5 7 > o.2X#.c v ..r 5 7 5 5 5 7 5 5 1.1.V V 1.1.5 7 5 7 5 % % % % 6 x 6 6 u x 5 % % % % % % % % p p 5 8 p p % % ",
"5 7 : R.(.I.I.t.(.i.).t.: 7 5 5 7 7 % 5 7 7 > 2Xo.O   O - ;Xu 5 7 5 5 7 5 2 1., X X O V 1.6 7 7 5 % % % 6 x     O O u u % % % % % % % p 8 o   O O C 5 % % % % % 7 > X.;X%   . O #.=X, 7 5 5 5 7 - 1.B o % o O 1.V 6 7 7 5 % % % 6 x .   O O 9 u % % % % % : % p 0 o   O O p 7 % % % % % 7 > x ;X-     O #.=X> 7 7 5 5 7 - 1.1.o % o O 1.V 6 7 7 5 % % % 5 x $   o O 6 s % % % % % : % p 0 o   O O p 7 % : % % % 5 5 u 2X6 O gX~ 9 @.5 7 7 5 5 7 - 1.1.o X o O 1.B - 7 7 5 % % % 4 x %     O 6 x % % % % % : % 0 p     O O 0 r % ",
"7 5 t J.L.L.u.I.jXy.I.J.r 5 7 5 7 7 % 5 7 > x ;X. % X jX).j c > 7 5 5 7 - 1.V X $ 5 J.^ 1.p 5 7 5 % : % s 6     y E.e = : % % % % % 4 p . .   t ` 8 0 % : % % % 7 , =Xo.  = . $ % 2Xr 5 7 5 7 5 e 1.% % X ( p.V 1.; 7 7 5 % % % u 6     5 E.t = 4 % % % % % : p . .   r ` 5 p % : % % % 7 , #.@.  % r IX-.b u 5 7 5 7 5 7 1., % X ^ F.V 1.6 7 7 5 % % $ u 6     : E.^ = 4 % % % % % % p $     e _ 5 p % % % % % 7 , #.#.O = jXr   c u 5 7 5 7 5 5 1., % X i G.2 1.6 7 7 5 % % % u u   . % W.` + 4 % % % % % % p :     5 ] 5 p % ",
"7 5 e 4 5 i r a e a e a / 5 7 5 7 7 % 5 7 > X.=X  % % u.t 9 c > 7 5 5 7 - 1.V % . r kXX.V 2 5 7 5 % % % x =   o e ^ . 4 4 % % % % % 5 p   . o ,.D.% 4 % % % % % 7 , 2Xz . % _ 4 . ;Xu 5 7 5 7 5 p 1.% %   P.jX3 V 6 7 7 5 % % % s 4     5 ` . = 4 % % % % % 4 p . . o ] P.: , % % % % % 7 , =Xc . X r u.: v u 5 7 5 7 5 e 1.% %   J.kX< V 7 5 7 5 % % $ u 6     > ` $ = 4 % % % % % : p . . o ` T.> , % % % % % 7 , #.@.  % . % $ v u 5 7 5 7 5 7 1., %   i.kXp V 7 5 7 5 % % $ u 6     % ` % = 4 % % % % % % p $ . o ^ W.5 , : ",
"7 5 r a 5 : i % 4 : 4 4 % 5 7 5 7 7 % 5 7 5 u 2X= . % o O v z > 7 5 5 7 - =.1.o % $ O . V 7 5 7 5 % : % u 9   .   O X 6 % % % % % % : C $   . o O : > % % % % % 7 , #.#.O o kXK.= 2X7 5 7 5 7 5 7 1., X %   O 3 V 6 7 7 5 % % % u u   .   O . 6 % % % % % % % p :   . o O @ 4 % % % % % 7 , #.=XO % X O = ..7 5 7 5 7 7 5 1.3 X %   O 3 V 6 7 7 5 % % % u u   .   O   6 % % % % % % % p :   . o O X 4 % % % % % 7 , o.=XO % % $ % ..r 5 7 5 7 7 6 1.V o % . O 3 V 5 7 7 5 % % % 6 u   .   O   6 4 % % % % % % p 4 o .   O X 4 % ",
"e 4 t.'.-.y.J.t.( t.i._ y.r 5 7 7 7 % 5 7 7 , #.;X$ % $ j ..5 5 7 5 5 7 5 7 1.V X % % V 3 6 5 7 5 % % % 4 x 4   . X 6 4 % % % % % : % 0 p .   . % 8 : % % % % % 7 5 r 2Xz   5 / ;Xo., 7 5 5 5 7 6 B 1.: % % 3 V 7 5 5 7 5 % % % : x 6   . . 4 4 % % % % % : % 7 C .   . % 8 : % % % % % 5 5 7 2Xo.. % % c z > 7 5 5 5 7 6 V 1., % % , V 7 5 5 7 5 % % % % x 6   . . = 4 % % % % % % % 7 C $   . $ 4 : % % % % % 5 7 5 2X#.. % $ v z > 7 5 5 5 7 5 V 1., % % , V < 5 7 7 5 % % % % x 9   . . = 6 % % % % % % % 5 C %   . $ 4 : % ",
"e : i.).(.'.R.jXI.jXI.'.jXi 5 7 7 7 % 5 7 5 5 5 @.r 4 5 z 6 5 7 5 5 5 5 7 5 2 V 4 5 5 3 5 7 5 7 5 % % % % 6 6 $ % % 4 % % % % % % % % % 7 : % % : : % % % % % % 7 7 > x o.> : 9 o.> 7 5 5 5 5 5 7 5 V p 4 5 3 < 5 7 5 7 5 % % % % 5 6 % % % 4 % % % % % % % % % 7 4 % % : : % % % % % % 5 7 > u o.> 4 6 z 5 7 5 5 5 5 5 7 6 V 2 4 5 3 3 5 7 5 7 5 % % % % 4 6 % % % 4 % % % % % % % % % 7 5 % % : : % % % % % % 5 7 > u o.> 4 7 z 5 5 7 5 5 5 5 7 6 V 2 4 5 3 3 5 7 5 7 5 % % % % 4 6 % % % 4 % % % % % % % % % 7 5 % % : : % % ",
"7 5 a ^ _ _ / _ -.t._ -._ e 5 7 7 7 % 5 7 5 7 7 > 5 7 7 5 5 7 5 5 5 5 5 5 7 5 6 7 7 7 5 7 5 5 7 5 % % % % % % : % % % % % % % % % % % % % % : % % % % % % % % % 7 5 7 5 > 7 e 5 > 7 5 5 5 5 5 5 5 7 6 5 7 7 5 5 7 5 5 7 5 % % % % % % : : % % % % % % % % % % % % % : % % % % % % % % % 5 5 7 5 > 7 7 5 5 7 5 5 5 5 5 5 5 7 6 5 7 7 5 5 7 5 5 7 5 % % % % % % : : % % % % % % % % % % % % % : : % % % % % % % % 5 7 7 5 > 7 7 7 5 7 7 5 5 5 5 5 5 7 6 5 7 7 5 5 7 5 5 7 5 % % % % % % % : % % % % % % % % % % % % % : : % % % % ",
"7 5 4 4 % 4 : 4 4 % : : : 5 5 7 5 7 % 5 7 5 5 5 7 7 5 7 5 7 5 5 5 5 5 5 5 5 7 7 5 5 7 5 7 5 5 7 5 % % % % % % % % % % % % % % % % % % % : % % % % % % % % % % % 7 5 5 5 7 5 5 7 7 7 7 5 5 5 5 5 5 5 7 7 5 7 5 7 5 5 5 7 5 % % % % % % % % % % % % % % % % % % % : % % % % % % % % % % % 5 7 5 7 7 7 5 7 5 7 5 5 5 5 5 5 5 5 7 7 5 7 5 7 5 5 5 7 5 % % % % % % % % % % % % % % % % % % % : % % % % % % % % % % % 5 7 7 7 7 5 5 5 5 5 5 5 5 5 5 5 5 5 7 7 5 7 5 7 5 5 5 7 5 % % % % % % % % % % % % % % % % % % % : % % % % % % % ",
"5 e -.a ^ r a e e ^ ^ r a -.e 5 7 7 % 5 7 5 5 7 e 5 e 5 e 5 7 5 5 5 5 5 5 7 5 5 5 7 5 7 5 7 5 7 5 % % % % : : % % % : % % % % % % % % % % % : % : % % % % % % % 7 5 5 r 5 7 5 5 7 5 5 5 5 5 5 5 5 5 5 5 7 5 7 5 7 5 5 7 5 % % % % : : % : % : % % % % % % % % % % % : % : % % % % % % % 5 7 5 e e 5 7 5 e 5 7 5 5 5 5 5 5 7 5 5 e 5 7 5 7 5 5 7 5 % % % % : : % : % : % % % % % % % % % % % : % : % % % % % % % 5 7 5 7 5 5 7 e e r 5 5 5 5 5 5 5 7 5 5 7 5 7 5 7 5 5 7 5 % % % % : > % : % : % % % % % % % % % % % : % : % % % ",
"5 a I.R.R.u.I.5 a (.R.J.L.J.a 5 7 7 % 5 7 7 5 r u.L.u.r I./ 4 7 5 5 5 5 7 7 5 J.t.L.J.i.5 7 5 7 5 % % % % w _ >.^ e >.5 % % % % % % : % / ^ _ _ _ : % % % % % % 7 5 5 t.L.J.J.J.L._ 4 7 5 5 5 5 7 4 i.t.J.J.J.e 5 7 5 7 5 % % % % 5 _ _ ^ 5 >.w % % % % % % : % ^ ^ _ _ _ 4 % % % % % % 5 7 5 t J.L.i.i I.a 5 7 5 5 5 5 7 4 t.i.u.J.L.r 5 7 5 7 5 % % % % 5 _ _ / 5 >.e % % % % % % : $ ^ / ` _ _ 5 % % % % % % 5 5 r I.^ t.J.i.y.L.( 4 7 5 5 5 7 4 -.y.u.J.L.t 5 7 5 7 5 % % % % 4 _ _ ` 5 >.t % : % % % % : % i / ` _ >.5 % % ",
"5 i L.-.t.-.L.t.t t.-.t.u.I.t 5 7 7 % 5 7 5 7 5 y.I.u.t.J.i.4 7 5 5 5 5 5 7 4 y.J.L.(.u.e 5 5 7 5 % % % % > _ _ / ^ _ t $ : % % % % : % i >.` u.` e % % % % % % 7 7 5 _ I.J.(.I.I.i.4 7 5 5 5 5 7 4 _ L.y.'.u.^ 4 7 5 7 5 % % % % : _ _ ` ^ _ i $ : % % % % : % t >./ D._ r % % % % % % 5 7 5 7 J.L.u.t.J.-.4 7 5 5 5 5 7 4 / I.i.'.u./ 4 7 5 7 5 % % % % % ` >.` ^ _ ^ $ : % % % % % % r >.^ D._ t % : % % % % 5 4 / L.t.t.(.i._ y.r 5 7 5 5 5 7 4 a I.i.'.J._ 4 7 5 7 5 % % % % % / >.` ^ _ ^ % : % % % % % % e >.^ D._ i $ : ",
"5 7 a 5 5 7 e a 5 5 5 7 e a 7 5 5 7 % 5 7 7 4 ^ I.t.u.( J.^ 5 7 5 5 5 5 5 7 5 / _ u.y.t.5 7 5 7 5 % % : $ ^ _ ^ / i _ 5 % % % % % % % % e t ` ^ ` % % % % % % % 7 5 e I.t.u.i.y.u.( 4 7 5 5 5 5 7 5 a ( u.i.u.7 5 7 5 7 5 % % : % i _ ^ ` t _ 5 % % % % % % % % w t ` ^ _ : % % % % % % 5 7 4 _ L.t.u._ J.a 5 7 5 5 5 5 7 5 i ( u.i.u.e 5 7 5 7 5 % % : % t >.^ _ t _ e % % % % % % % % 5 t / ^ _ 4 % % % % % % 5 5 e J.t._ i.L.-._ 5 7 5 5 5 5 7 5 t ( y.i.J.r 5 7 5 7 5 % % : % e >.a _ t _ r % % % % % % % % 5 t / ^ _ 5 % % ",
"7 5 5 7 7 5 5 5 7 7 7 5 5 5 5 5 7 7 % 5 7 5 7 5 5 5 5 5 5 5 7 5 5 5 5 5 5 5 7 5 5 5 4 5 5 5 5 7 5 % % % % % % % % % % % % % % % % % % % % % % % % % % % % % % % 7 5 5 5 5 5 4 5 4 5 7 5 5 5 5 5 5 7 5 5 5 4 5 5 7 5 5 7 5 % % % % % % % % % % % % % % % % % % % % % % % % % % % % % % % 5 7 7 5 5 5 5 5 5 5 7 5 5 5 5 5 5 7 5 5 5 4 5 5 7 5 5 7 5 % % % % % % % % % % % % % % % % % % % % % % % % % % % % % % % 5 7 5 5 5 5 5 5 5 5 7 5 5 5 5 5 5 7 5 5 5 4 5 5 7 5 5 7 5 % % % % % % % % % % % % % % % % % % % % % % % % % % % ",
"5 7 7 7 7 7 7 7 5 7 7 7 7 7 7 5 7 7 % 5 7 5 5 7 7 7 7 7 7 7 5 5 5 5 5 5 5 5 5 7 7 7 7 7 5 5 5 7 5 % % % % % % % % % % % % % % % % % % % % % % : % % % % % % % % 7 5 7 7 7 7 7 7 7 7 5 5 5 5 5 5 5 5 7 7 7 7 7 7 5 5 5 7 5 % % % % % % % % % % % % % % % % % % % % % % : % % % % % % % % 5 7 5 7 7 7 7 7 7 7 5 5 5 5 5 5 5 5 7 7 7 7 7 7 5 5 5 7 5 % % % % % % % % % % % % % % % % % % % % % % : % % % % % % % % 5 7 7 7 7 7 7 7 7 7 5 5 5 5 5 5 5 5 7 7 7 7 7 7 5 5 5 7 5 % % % % % % % % % % % % % % % % % % % % % % : % % % % ",
"5 5 5 5 5 5 5 5 5 5 5 5 5 5 5 5 7 7 % 5 7 5 5 5 5 7 7 7 5 5 5 5 5 5 5 5 5 5 5 5 7 7 5 5 5 5 5 7 5 % % % % % % % % % % % % % % % % % % % % % % % % % % % % % % % 7 5 5 5 5 7 7 7 5 5 5 5 5 5 5 5 5 5 5 5 7 7 5 5 5 5 5 7 5 % % % % % % % % % % % % % % % % % % % % % % % % % % % % % % % 5 7 5 5 5 7 7 7 5 5 5 5 5 5 5 5 5 5 5 5 7 7 5 5 5 5 5 7 5 % % % % % % % % % % % % % % % % % % % % % % % % % % % % % % % 5 7 5 5 5 7 7 7 5 5 5 5 5 5 5 5 5 5 5 5 7 7 5 5 5 5 5 7 5 % % % % % % % % % % % % % % % % % % % % % % % % % % % ",
"5 5 5 7 7 5 5 5 5 5 7 7 5 5 5 5 7 7 % 5 7 5 5 5 e e 5 7 e 7 5 5 5 5 5 5 5 5 7 7 7 5 7 7 5 5 5 7 5 % % % % % % % % % % % % % % % % % % % % : % % : % % % % % % % 7 5 5 7 e 7 5 e 7 5 5 5 5 5 5 5 5 5 7 7 5 7 7 7 5 5 5 7 5 % % % % % % % % % % % % % % % % % % % % : % % : % % % % % % % 5 7 5 7 e 7 5 e 7 5 5 5 5 5 5 5 5 5 7 e 5 7 e 7 5 5 5 7 5 % % % % % % % % % % % % % % % % % % % % : % % : % % % % % % % 5 7 5 7 e 7 5 e e 5 5 5 5 5 5 5 5 5 7 e 7 7 e 7 5 5 5 7 5 % % % % % % % % % % % % % % % % % % % % : % % : % % % ",
"5 5 5 5 5 7 7 7 7 7 5 7 7 5 5 5 7 7 % 5 7 5 5 e > , 7 > , 7 7 5 5 5 5 5 5 7 7 , > 7 , > 7 5 5 7 5 % % % % % % % % % % % % % % % % % % : % $ % % $ % % % % % % % 7 5 7 5 , 4 5 , 4 e 5 5 5 5 5 5 5 7 5 w 5 5 w 5 7 5 5 7 5 % % % % % % % % % % % % % % % % % % : % % % % % % % % % % % % 5 5 7 7 , > 7 , > e 5 5 5 5 5 5 5 7 5 = 5 5 = 5 7 5 5 7 5 % % % % % % % % % % % % % % % % % % : % $ % % $ % % % % % % % 5 7 7 7 , > 7 , > e 5 5 5 5 5 5 5 e 5 @ 5 5 @ 5 7 5 5 7 5 % % % % % % % % % % % % % % % % % % % % $ % % $ % % % ",
"7 5 7 e e 4 5 5 5 4 7 5 5 7 5 5 7 7 % 5 7 5 e , O.AXAXAX&.> 7 7 5 5 5 5 7 5 > m  X X Xz > 7 5 7 5 % % % % % u / X.s 4 % % % % % % % : % 8 H H H s % % % % % % % 7 7 5 5 &.AXAXAXQ > e 5 5 5 5 5 7 w 0 F G G N 5 5 7 5 7 5 % % % % % u / X./ 5 % % % % % % % : % 5 ;.;.;.a % % % % % % % 5 7 5 4 &.AXAXAXO., e 5 5 5 5 5 7 4 p 6.tXtX7.7 5 7 5 7 5 % % % % % t / X./ 5 % % % % % % % : % 5 ;.,.,._ : % % % % % % 5 7 7 > &.AXAXAXO., e 5 5 5 5 5 e 4 t sXzXcXsXe 5 7 5 7 5 % % % % % r / X./ 7 % % % % % % % % % 4 X.q.e.X.4 % % ",
"7 4 _ I.L.a a i a i u.t.5 7 5 5 7 7 % 5 7 e , O.AXO.y Q AXZX, e 7 5 5 7 7 > }. X9 9 b <Xv > 7 7 5 % % % % / u % % 6 X.5 % % % % % % % 6 H 0 % 4 x H % % % % % % 7 7 5 AXAXu y &.AXO.> 7 5 5 5 7 w 0 G N @ # A F 5 7 5 7 5 % % % % s s % % 6 X.5 % % % % % % % 5 ;.p % : C ;.% % % % % % 5 7 > AXAXQ y &.AXO.> e 5 5 5 7 5 p tX2.< 2 6.tX5 5 7 7 5 % % % % s s % % 6 X.e % % % % % % % 5 ,.i % : / ,.: % % % % % 5 e , ZXAXQ y O.AX%., e 5 5 5 7 5 t CXpXy y pXcXe 5 7 7 5 % % % % u / = % 5 X.r % % % % % % % 4 e.s = = s e.4 % ",
"7 5 i u.L.R.I.L.jXI.I.R.a 4 7 5 7 7 % 5 7 5 e AXQ O $ .   AXO.> 7 5 5 7 > b .X* $ $ * k  X5 7 7 5 % : % t s O   o O 6 / % % % % % % % H 8 O       H u $ : % % % e , &.AXO . . O O.AX, 7 7 5 7 7 w F # * % $ * A C w 7 7 5 % % % r s o     O 5 X.% % % % % : % ;.7 O     o C p % : % % % 7 , %.AXO . . O O.AX5 7 7 5 7 7 4 eX=.o % X o 6.2.= e 7 5 % % % e /       O 4 X.% % % % % : % >.i O     O ( / $ : % % % 7 > O.AX    $ O u AXe 5 7 5 5 e : sX%.O X . O pXpX@ e 7 5 % % % 5 X.      O % X.: % % % % : $ X.s O     O s X.$ ",
"7 5 t t.( i.-._ u.i.J.( y.e 5 7 7 7 % 5 e , O.AX  % X   O &.ZX, e 5 5 7 , }.b * =   . $  Xz > 7 5 % : % / 4   o t gXt 6 4 % % % % % 8 H   . . $ O 8 x $ : % % % e , AXO.  % e y.5 AXQ 5 7 5 7 5 0 G % % % :   # F w 7 7 5 % : % s 6     w gX^ 4 4 % % % % % 5 ;.. . . $ O 5 ;.% : % % % e , AX&.  % t UXi.&.Q 5 7 5 7 5 e tX> % % > o U rX4 7 7 5 % % $ s 6     4 gX` - 5 % % % % % > ,.$   . $ O > ,.% % % % % e , ZX&.O = . .   AXO., 7 5 7 5 e cXw X % 4 o y zX5 7 7 5 % % $ u r     % gX>.= 5 % % % % % % e.=   . $ O % e.% ",
"5 7 5 5 4 % 5 5 5 e 5 5 i e 5 7 7 7 % 5 e , O.AX  . ^ R.O &.ZX@ e 5 5 7 , }.b * o L.u.O  Xz > 7 5 % : % / 4     > y . 6 : % % % % % 8 H   .   T.,.8 H $ : % % % e , AXO.  . a IX-.ZXQ 5 7 5 7 5 0 G % % . kXE.# F w 7 7 5 % % % s 6     % t . 6 4 % % % % % 5 ;.. . o P.D.> ;.% : % % % e , AX&.O % 5 ( : &.Q 5 7 5 7 5 e tX: %   jX'.U tX4 7 7 5 % % $ s 6     % t $ 4 4 % % % % % > ,.$ . O D.D.> ,.% % % % % e , ZX&.O   u.I.O AXO., e 5 7 5 e cXw % o E.jXy cX5 7 7 5 % % $ u r   . % t $ - 4 % % % % % % e.%   O ,.T.= e.% ",
"5 5 7 5 ^ i.e 5 5 5 5 5 5 5 7 5 7 7 % 5 7 5 e AXQ   5 kXr AXO., e 5 5 7 , b .X$   _ jXj  X5 5 7 5 % : % u s   .   O % 6 % % % % % % % H 8     4 W q u $ : % % % e , &.AXO % X O u &.5 7 5 5 7 7 w G # * X e ] N N w 7 7 5 % % % r s   .   O % 6 % % % % % % % ;.7 o   % W p p % : % % % e , %.AX  % % O ; &.5 5 7 5 7 7 4 rX=.o $ 5 X.2.2.4 e 7 5 % % % e /   .   O X 6 % % % % % : % >.i o . % i i ~ % : % % % 7 > O.AXX   ^ kXQ AXr 5 7 5 7 e 4 zXpXO % 5 -.} pX4 e 7 5 % % % 7 X..     O . 6 : % % % % : $ X.s O . % W u X.$ ",
"5 5 7 5 t I.u.y.L.u.I.t.4 7 5 5 7 7 % 5 7 e , %.AX4 $   &.AX, e 7 5 5 7 7 >  X|.$ . X .Xv > 7 7 5 % % % % X.6   . % 6 4 % % % % % : % 6 H % .   = 0 % % % % % % 7 7 5 AX&.  % w &.Q 5 7 5 5 5 7 w 0 G 4 % $ # N 5 7 5 7 5 % % % % / r   . % 6 4 % % % % % : % 7 ;.:     X e % % % % % % 5 7 > AX&.  % 4 &.Q 5 7 5 5 5 7 5 ~ DX1 X X 2 =.5 5 5 7 5 % % % % / u   . $ 6 4 % % % % % % % 5 ,.5     $ p % % % % % % 5 e , AXZX. X   AX&., e 5 5 5 7 5 t CX) X X & 9Xw 5 7 7 5 % % % % s s   . $ 6 4 % % % % % % % 4 e.6     X u % % ",
"5 5 7 : u.J.J.I.u.L.jX-.4 7 5 5 7 7 % 5 7 5 7 > Q r 5 5 Q 5 5 7 5 5 5 5 7 5 7 z 5 5 6 9 > 7 5 7 5 % % % % : 5 % % : : % % % % % % % % % 5 4 % % 4 % % % % % % % 7 7 5 r Q 5 5 y y 5 7 5 5 5 5 5 7 w 0 8 5 7 0 7 7 5 5 7 5 % % % % : 5 % % : 4 % % % % % % % : % 5 4 % % 4 : % % % % % % 5 7 5 e Q 5 5 e t 5 7 5 5 5 5 5 7 4 p p 5 5 p e 5 7 5 7 5 % % % % % 5 % % : 4 % % % % % % % : % 5 5 % % 5 : % % % % % % 5 7 5 5 Q 5 5 e u 4 7 5 5 5 5 5 e 4 t W 5 5 W y 8 7 5 7 5 % % % % % 5 % % % 4 % % % % % % % % % 5 5 % % 4 4 % % ",
"5 7 7 5 a ^ a i r r i e 5 7 5 5 7 7 % 5 7 5 5 7 4 5 7 e 5 7 7 5 5 5 5 5 5 7 5 > 7 7 7 5 7 5 5 7 5 % % % % % % % % % % % % % % % % % % % % % % : % % % % % % % % 7 5 7 5 4 7 7 5 5 e 7 5 5 5 5 5 5 7 5 7 7 7 w 7 7 5 5 7 5 % % % % % % % % % % % % % % % % % % : % % % : % % % % % % % % 5 5 7 5 4 7 7 5 5 7 7 5 5 5 5 5 5 7 5 5 7 7 5 7 7 5 5 7 5 % % % % % % % % % % % % % % % % % % : % % % : % % % % % % % % 5 7 7 5 4 7 7 7 5 e 5 5 5 5 5 5 5 e 5 5 7 7 5 5 7 5 5 7 5 % % % % % % % % % % % % % % % % % % % % % % % % % % % ",
"5 5 7 5 7 e e 5 5 4 r r e 5 5 5 7 7 % 5 7 5 5 7 5 5 5 4 5 5 7 5 5 5 5 5 5 5 7 5 5 5 4 5 5 7 5 7 5 % % % % % % % % % % % % % % % % % % % % % % % % % % % % % % % 7 5 7 5 5 5 5 5 5 4 5 7 5 5 5 5 5 7 5 5 7 5 5 5 7 5 5 7 5 % % % % % % % % % % % % % % % % % % % % % % % % % % % % % % % 5 7 7 5 5 5 5 5 5 5 5 7 5 5 5 5 5 7 7 5 7 5 5 5 7 5 5 7 5 % % % % % % % % % % % % % % % % % % % % % % % % % % % % % % % 5 7 5 7 5 5 5 4 5 5 7 5 5 5 5 5 5 5 7 5 7 5 5 5 5 7 5 7 5 % % % % % % % % % % % % % % % % % % % % % % % % % % % ",
"7 4 _ t.L.I.I.r 5 i.I.I.L.( 4 7 7 7 % 5 7 5 7 5 r r r / a a 5 7 5 5 5 5 5 7 5 t e r ( r i 5 7 7 5 % % % % e 5 > 4 5 5 w 4 % % % % % % % : 5 % e 5 e % % % % % % 7 7 5 r r t r t a / a 5 7 5 5 5 7 5 7 i 5 a r a 5 7 5 7 5 % % % % e 5 : 4 4 w 5 5 % % % % % % % % w % e 5 e % % % % % % 5 7 5 i i 7 r e a i t 5 7 5 5 5 7 5 5 a 5 a r a 5 7 5 7 5 % % % % 5 w : 5 > e 5 5 % % % % % % % % w % e 5 e % % % % % % 5 7 7 5 a t e ^ i i 5 7 5 5 5 5 7 5 5 i 5 a r a 7 5 5 7 5 % % % % 5 e % 5 : e 5 5 % % % % % % % % w % w 5 e : % ",
"7 4 y.I.I.R.(.r a I.I.(.I.i.4 7 7 7 % 5 7 5 7 4 t.i.% J.(.J.r 5 7 5 5 5 5 e 4 u.-.4 L.'.i.5 7 7 5 % % % % r ` _ t a t.t.^ % : % % % : % _ ` 5 >.t._ 5 % % % % % 7 7 4 t.u.I.a a I.t.J.4 7 5 5 7 7 4 u.J.r L.I.L.a 5 7 7 5 % % % % e _ _ i t t.t.^ % % % % % : % / _ 4 _ t.>.e % % % % % 5 7 7 a u.J.t.( I.I.y.5 7 5 5 7 7 4 t.L.r L.I.L.^ 4 7 7 5 % % % % e _ _ ^ t t.t.` % % % % % : % ^ >.> _ t.>.r % : % % % 5 7 7 5 -.L.4 u.u.L.e 5 7 5 5 7 7 5 -.I.e J.I.I./ 4 7 7 5 % % % : 5 _ ` / e t.t._ : % % % % % % i t.> _ t.>.t % ",
"7 4 -.u.i.t.u.t.e y.t.y.u.-.4 7 7 7 % 5 7 5 7 ( / i.e y.u.L.i 5 7 5 5 7 5 e / ( t.r y.L.I.e 5 7 5 % % : t ^ _ J._ ^ i.t.^ % : % % % % r >.>.^ _ y._ e % % % % % 5 7 ( ^ J.R.u.a I.i.^ 4 7 5 5 7 5 / I.I.t.u.(.J./ 4 7 7 5 % % % t i _ D._ ^ t.i./ % % % % % % r >.t.^ ` y._ r % : % % % 5 7 ( -.J.'.L.t.I.R.u.7 7 5 5 7 5 ^ L.I.t.u.(.L.( 4 7 7 5 % % % r i _ u.>.^ t.i.` : % % % % % e _ t.^ ` y._ t % : % % % 5 5 7 ( ( R.a J./ I.r 5 7 5 5 7 5 a J.R.i.u.(.L._ 4 7 7 5 % % % r i _ y.t.^ >.i.` 4 % % % % % e _ i.^ / y.>.i % ",
"7 5 e 7 4 4 5 r 5 4 4 4 7 e 5 7 7 7 % 5 7 5 7 5 r ^ ^ a a -.5 7 5 5 5 5 7 7 5 r ^ / i a _ 5 7 7 5 % % % % ^ t 5 t t t i e % % % % % % % w i e i r i % % % % % % 7 7 5 r i ( ( _ _ ^ e 5 5 5 5 5 7 4 i -.a -./ t.7 5 5 7 5 % % % % ^ i 5 t r t t r % % % % % % % 5 i e i r a : % % % % % 5 7 4 t.t.t _ / _ _ / 5 7 5 5 5 7 5 t t.a -./ t.e 5 7 7 5 % % : % i ^ 5 t r i t t % % % % % % % 5 a e i r a > % % % % % 5 7 7 5 ( _ _ i._ _ 5 5 7 5 5 5 7 5 r t.^ -./ t.r 5 7 7 5 % % : % t ^ 5 t r i t t % % % % % % % 4 i e i r a 4 % ",
"5 7 5 5 7 7 7 5 7 7 7 7 5 5 7 5 7 7 % 5 7 5 5 7 5 5 5 5 5 4 7 5 5 5 5 5 5 5 7 5 5 5 5 5 4 7 5 7 4 % % % % $ % % % % % % % % % % % % % % % % % % % % % % % % % % 5 5 7 5 5 4 4 4 4 4 5 5 5 5 5 5 5 7 5 4 5 4 4 4 5 5 5 7 5 % % % : $ % % % % % % % % % % % % % % % % % % % $ % % % % % % 5 5 7 4 4 5 4 4 4 4 4 7 5 5 5 5 5 7 5 4 5 4 4 4 5 5 5 7 5 % % % : % % % % % % % % % % % % % % % % $ % % % $ % % % % % % 5 7 5 7 5 4 4 : 4 4 5 5 5 5 5 5 5 7 5 4 5 4 4 4 5 5 5 7 5 % % % : % $ % % % % % % % % % % % % % % % % % % $ % % ",
"5 5 7 7 5 5 7 7 5 5 5 5 7 7 5 5 7 7 % 5 e 7 7 7 7 e e e e e 7 7 7 7 7 7 7 7 7 7 e e e e e 7 7 e 5 % : % % : : : : : : : : % % % % % % % : : : : : : % % % : % % 7 7 7 7 e e e e e e 7 7 7 7 7 7 7 7 e e e e e e 7 7 7 e 5 % % % % : : : : : : : : % % % % % % % : : : : : : % % % : % % 7 7 7 e e 7 e e e e e 7 7 7 7 7 7 7 e e e e e e 7 7 7 e 5 % % % % : : : : : : : : % % % % % % % : : : : : : : % % : % % 7 7 7 7 e e e e e e 7 7 7 7 7 7 7 7 7 e e e e e 7 7 7 7 5 % % : % : : : : : : : : % % % % % % % : : : : : : : % ",
"5 5 5 5 5 5 5 5 5 5 5 5 5 5 5 5 5 5 % % : : : : : : : : : : : : : : : : : : : : : : : : : : : : % % % % % % % % % % % % % % % % % % % % % % % % % % % % % % % % : : : : : : : : : : : : : : : : : : : : : : : : : : : : % % % % % % % % % % % % % % % % % % % % % % % % % % % % % % % % % : : : : : : : : : : : : : : : : : : : : : : : : : : : % % % % % % % % % % % % % % % % % % % % % % % % % % % % % % % % % : : : : : : : : : : : : : : : : : : : : : : : : : : : % % % % % % % % % % % % % % % % % % % % % % % % % % % % ",
"5 5 5 5 5 5 5 5 5 5 5 5 5 5 5 5 5 7 % % 4 : : : : : : : : : : : : : : : : : : : : : : : : : : : : 4 4 4 4 4 4 4 4 4 4 4 4 4 4 4 4 4 4 4 4 4 4 4 4 4 4 4 4 4 4 4 : : : : : : : : : : : : : : : : : : : : : : : : : : : : : 4 4 4 4 4 4 4 4 4 4 4 4 4 4 4 4 4 4 4 4 4 4 4 4 4 4 4 4 4 4 4 : : : : : : : : : : : : : : : : : : : : : : : : : : : : : 4 4 4 4 4 4 4 4 4 4 4 4 4 4 4 4 4 4 4 4 4 4 4 4 4 4 4 4 4 4 4 : : : : : : : : : : : : : : : : : : : : : : : : : : : : : 4 4 4 4 4 4 4 4 4 4 4 4 4 4 4 4 4 4 4 4 4 4 4 4 4 4 4 ",
"5 5 5 5 5 5 5 5 5 5 5 5 5 5 5 5 7 7 % 5 e 7 7 7 7 7 7 7 7 7 7 7 7 7 7 7 7 7 7 7 7 7 7 7 7 7 7 7 7 7 7 7 7 7 7 7 7 7 7 7 7 7 7 7 7 7 7 7 7 7 7 7 7 7 7 7 7 7 7 7 7 7 7 7 7 7 7 7 7 7 7 7 7 7 7 7 7 7 7 7 7 7 7 7 7 7 7 7 7 7 7 7 7 7 7 7 7 7 7 7 7 7 7 7 7 7 7 7 7 7 7 7 7 7 7 7 7 7 7 7 7 7 7 7 7 7 7 7 7 7 7 7 7 7 7 7 7 7 7 7 7 7 7 7 7 7 7 7 7 7 7 7 7 7 7 7 7 7 7 7 7 7 7 7 7 7 7 7 7 7 7 7 7 7 7 7 7 7 7 7 7 7 7 7 7 7 7 7 7 7 7 7 7 7 7 7 7 7 7 7 7 7 7 7 7 7 7 7 7 7 7 7 7 7 7 7 7 7 7 7 7 7 7 7 7 7 7 7 7 7 7 7 7 7 7 7 ",
"5 5 5 5 5 5 5 5 5 5 5 5 5 5 5 5 7 7 % 5 7 5 5 5 5 5 5 5 5 5 5 5 5 5 5 5 5 5 5 5 5 5 5 5 5 5 5 5 5 5 5 5 5 5 5 5 5 5 5 5 5 5 5 5 5 5 5 5 5 5 5 5 5 5 5 5 5 5 5 5 5 5 5 5 5 5 5 5 5 5 5 5 5 5 5 5 5 5 5 5 5 5 5 5 5 5 5 5 5 5 5 5 5 5 5 5 5 5 5 5 5 5 5 5 5 5 5 5 5 5 5 5 5 5 5 5 5 5 5 5 5 5 5 5 5 5 5 5 5 5 5 5 5 5 5 5 5 5 5 5 5 5 5 5 5 5 5 5 5 5 5 5 5 5 5 5 5 5 5 5 5 5 5 5 5 5 5 5 5 5 5 5 5 5 5 5 5 5 5 5 5 5 5 5 5 5 5 5 5 5 5 5 5 5 5 5 5 5 5 5 5 5 5 5 5 5 5 5 5 5 5 5 5 5 5 5 5 5 5 5 5 5 5 5 5 5 5 5 5 5 5 5 5 5 5 5 ",
"5 5 5 5 5 5 5 5 5 5 5 5 5 5 5 5 7 7 % 5 7 5 5 5 5 5 5 5 5 5 5 5 5 5 5 5 5 5 5 5 5 5 5 5 5 5 5 5 5 5 5 5 5 5 5 5 5 5 5 5 5 5 5 5 5 5 5 5 5 5 5 5 5 5 5 5 5 5 5 5 5 5 5 5 5 5 5 5 5 5 5 5 5 5 5 5 5 5 5 5 5 5 5 5 5 5 5 5 5 5 5 5 5 5 5 5 5 5 5 5 5 5 5 5 5 5 5 5 5 5 5 5 5 5 5 5 5 5 5 5 5 5 5 5 5 5 5 5 5 5 5 5 5 5 5 5 5 5 5 5 5 5 5 5 5 5 5 5 5 5 5 5 5 5 5 5 5 5 5 5 5 5 5 5 5 5 5 5 5 5 5 5 5 5 5 5 5 5 5 5 5 5 5 5 5 5 5 5 5 5 5 5 5 5 5 5 5 5 5 5 5 5 5 5 5 5 5 5 5 5 5 5 5 5 5 5 5 5 5 5 5 5 5 5 5 5 5 5 5 5 5 5 5 5 5 5 ",
"5 5 5 5 5 5 5 5 5 5 5 5 5 5 5 5 7 7 % 5 7 5 5 5 5 5 5 5 5 5 5 5 5 5 5 5 5 5 5 5 5 5 5 5 5 5 5 5 5 5 5 5 5 5 5 5 5 5 5 5 5 5 5 5 5 5 5 5 5 5 5 5 5 5 5 5 5 5 5 5 5 5 5 5 5 5 5 5 5 5 5 5 5 5 5 5 5 5 5 5 5 5 5 5 5 5 5 5 5 5 5 5 5 5 5 5 5 5 5 5 5 5 5 5 5 5 5 5 5 5 5 5 5 5 5 5 5 5 5 5 5 5 5 5 5 5 5 5 5 5 5 5 5 5 5 5 5 5 5 5 5 5 5 5 5 5 5 5 5 5 5 5 5 5 5 5 5 5 5 5 5 5 5 5 5 5 5 5 5 5 5 5 5 5 5 5 5 5 5 5 5 5 5 5 5 5 5 5 5 5 5 5 5 5 5 5 5 5 5 5 5 5 5 5 5 5 5 5 5 5 5 5 5 5 5 5 5 5 5 5 5 5 5 5 5 5 5 5 5 5 5 5 5 5 5 5 ",
"5 5 5 5 5 5 5 5 5 5 5 5 5 5 5 5 7 7 % 5 7 5 5 5 5 5 5 5 5 5 5 5 5 5 5 5 5 5 5 5 5 5 5 5 5 5 5 5 5 5 5 5 5 5 5 5 5 5 5 5 5 5 5 5 5 5 5 5 5 5 5 5 5 5 5 5 5 5 5 5 5 5 5 5 5 5 5 5 5 5 5 5 5 5 5 5 5 5 5 5 5 5 5 5 5 5 5 5 5 5 5 5 5 5 5 5 5 5 5 5 5 5 5 5 5 5 5 5 5 5 5 5 5 5 5 5 5 5 5 5 5 5 5 5 5 5 5 5 5 5 5 5 5 5 5 5 5 5 5 5 5 5 5 5 5 5 5 5 5 5 5 5 5 5 5 5 5 5 5 5 5 5 5 5 5 5 5 5 5 5 5 5 5 5 5 5 5 5 5 5 5 5 5 5 5 5 5 5 5 5 5 5 5 5 5 5 5 5 5 5 5 5 5 5 5 5 5 5 5 5 5 5 5 5 5 5 5 5 5 5 5 5 5 5 5 5 5 5 5 5 5 5 5 5 5 5 ",
"5 5 5 5 5 5 5 5 5 5 5 5 5 5 5 5 7 7 % 5 7 5 5 5 5 5 5 5 5 5 5 5 5 5 5 5 5 5 5 5 5 5 5 5 5 5 5 5 5 5 5 5 5 5 5 5 5 5 5 5 5 5 5 5 5 5 5 5 5 5 5 5 5 5 5 5 5 5 5 5 5 5 5 5 5 5 5 5 5 5 5 5 5 5 5 5 5 5 5 5 5 5 5 5 5 5 5 5 5 5 5 5 5 5 5 5 5 5 5 5 5 5 5 5 5 5 5 5 5 5 5 5 5 5 5 5 5 5 5 5 5 5 5 5 5 5 5 5 5 5 5 5 5 5 5 5 5 5 5 5 5 5 5 5 5 5 5 5 5 5 5 5 5 5 5 5 5 5 5 5 5 5 5 5 5 5 5 5 5 5 5 5 5 5 5 5 5 5 5 5 5 5 5 5 5 5 5 5 5 5 5 5 5 5 5 5 5 5 5 5 5 5 5 5 5 5 5 5 5 5 5 5 5 5 5 5 5 5 5 5 5 5 5 5 5 5 5 5 5 5 5 5 5 5 5 5 ",
"5 5 5 5 5 5 5 5 5 5 5 5 5 5 5 5 7 7 % 5 7 5 5 5 5 5 5 5 5 5 5 5 5 5 5 5 5 5 5 5 5 5 5 5 5 5 5 5 5 5 5 5 5 5 5 5 5 5 5 5 5 5 5 5 5 5 5 5 5 5 5 5 5 5 5 5 5 5 5 5 5 5 5 5 5 5 5 5 5 5 5 5 5 5 5 5 5 5 5 5 5 5 5 5 5 5 5 5 5 5 5 5 5 5 5 5 5 5 5 5 5 5 5 5 5 5 5 5 5 5 5 5 5 5 5 5 5 5 5 5 5 5 5 5 5 5 5 5 5 5 5 5 5 5 5 5 5 5 5 5 5 5 5 5 5 5 5 5 5 5 5 5 5 5 5 5 5 5 5 5 5 5 5 5 5 5 5 5 5 5 5 5 5 5 5 5 5 5 5 5 5 5 5 5 5 5 5 5 5 5 5 5 5 5 5 5 5 5 5 5 5 5 5 5 5 5 5 5 5 5 5 5 5 5 5 5 5 5 5 5 5 5 5 5 5 5 5 5 5 5 5 5 5 5 5 5 ",
"5 5 5 5 5 5 5 5 5 5 5 5 5 5 5 5 7 7 % 5 7 5 5 5 5 5 5 5 5 5 5 5 5 5 5 5 5 5 5 5 5 5 5 5 5 5 5 5 5 5 5 5 5 5 5 5 5 5 5 5 5 5 5 5 5 5 5 5 5 5 5 5 5 5 5 5 5 5 5 5 5 5 5 5 5 5 5 5 5 5 5 5 5 5 5 5 5 5 5 5 5 5 5 5 5 5 5 5 5 5 5 5 5 5 5 5 5 5 5 5 5 5 5 5 5 5 5 5 5 5 5 5 5 5 5 5 5 5 5 5 5 5 5 5 5 5 5 5 5 5 5 5 5 5 5 5 5 5 5 5 5 5 5 5 5 5 5 5 5 5 5 5 5 5 5 5 5 5 5 5 5 5 5 5 5 5 5 5 5 5 5 5 5 5 5 5 5 5 5 5 5 5 5 5 5 5 5 5 5 5 5 5 5 5 5 5 5 5 5 5 5 5 5 5 5 5 5 5 5 5 5 5 5 5 5 5 5 5 5 5 5 5 5 5 5 5 5 5 5 5 5 5 5 5 5 5 ",
"5 5 5 5 5 5 5 5 5 5 5 5 5 5 5 5 7 7 % 5 7 5 5 5 5 5 5 5 5 5 5 5 5 5 5 5 5 5 5 5 5 5 5 5 5 5 5 5 5 5 5 5 5 5 5 5 5 5 5 5 5 5 5 5 5 5 5 5 5 5 5 5 5 5 5 5 5 5 5 5 5 5 5 5 5 5 5 5 5 5 5 5 5 5 5 5 5 5 5 5 5 5 5 5 5 5 5 5 5 5 5 5 5 5 5 5 5 5 5 5 5 5 5 5 5 5 5 5 5 5 5 5 5 5 5 5 5 5 5 5 5 5 5 5 5 5 5 5 5 5 5 5 5 5 5 5 5 5 5 5 5 5 5 5 5 5 5 5 5 5 5 5 5 5 5 5 5 5 5 5 5 5 5 5 5 5 5 5 5 5 5 5 5 5 5 5 5 5 5 5 5 5 5 5 5 5 5 5 5 5 5 5 5 5 5 5 5 5 5 5 5 5 5 5 5 5 5 5 5 5 5 5 5 5 5 5 5 5 5 5 5 5 5 5 5 5 5 5 5 5 5 5 5 5 5 5 ",
"5 5 5 5 5 5 5 5 5 5 5 5 5 5 5 5 7 7 % 5 7 5 5 5 5 5 5 5 5 5 5 5 5 5 5 5 5 5 5 5 5 5 5 5 5 5 5 5 5 5 5 5 5 5 5 5 5 5 5 5 5 5 5 5 5 5 5 5 5 5 5 5 5 5 5 5 5 5 5 5 5 5 5 5 5 5 5 5 5 5 5 5 5 5 5 5 5 5 5 5 5 5 5 5 5 5 5 5 5 5 5 5 5 5 5 5 5 5 5 5 5 5 5 5 5 5 5 5 5 5 5 5 5 5 5 5 5 5 5 5 5 5 5 5 5 5 5 5 5 5 5 5 5 5 5 5 5 5 5 5 5 5 5 5 5 5 5 5 5 5 5 5 5 5 5 5 5 5 5 5 5 5 5 5 5 5 5 5 5 5 5 5 5 5 5 5 5 5 5 5 5 5 5 5 5 5 5 5 5 5 5 5 5 5 5 5 5 5 5 5 5 5 5 5 5 5 5 5 5 5 5 5 5 5 5 5 5 5 5 5 5 5 5 5 5 5 5 5 5 5 5 5 5 5 5 5 ",
"5 5 5 5 5 5 5 5 5 5 5 5 5 5 5 5 7 7 % 5 7 5 5 5 5 5 5 5 5 5 5 5 5 5 5 5 5 5 5 5 5 5 5 5 5 5 5 5 5 5 5 5 5 5 5 5 5 5 5 5 5 5 5 5 5 5 5 5 5 5 5 5 5 5 5 5 5 5 5 5 5 5 5 5 5 5 5 5 5 5 5 5 5 5 5 5 5 5 5 5 5 5 5 5 5 5 5 5 5 5 5 5 5 5 5 5 5 5 5 5 5 5 5 5 5 5 5 5 5 5 5 5 5 5 5 5 5 5 5 5 5 5 5 5 5 5 5 5 5 5 5 5 5 5 5 5 5 5 5 5 5 5 5 5 5 5 5 5 5 5 5 5 5 5 5 5 5 5 5 5 5 5 5 5 5 5 5 5 5 5 5 5 5 5 5 5 5 5 5 5 5 5 5 5 5 5 5 5 5 5 5 5 5 5 5 5 5 5 5 5 5 5 5 5 5 5 5 5 5 5 5 5 5 5 5 5 5 5 5 5 5 5 5 5 5 5 5 5 5 5 5 5 5 5 5 5 ",
"5 5 5 5 5 5 5 5 5 5 5 5 5 5 5 5 7 7 % 5 7 5 5 5 5 5 5 5 5 5 5 5 5 5 5 5 5 5 5 5 5 5 5 5 5 5 5 5 5 5 5 5 5 5 5 5 5 5 5 5 5 5 5 5 5 5 5 5 5 5 5 5 5 5 5 5 5 5 5 5 5 5 5 5 5 5 5 5 5 5 5 5 5 5 5 5 5 5 5 5 5 5 5 5 5 5 5 5 5 5 5 5 5 5 5 5 5 5 5 5 5 5 5 5 5 5 5 5 5 5 5 5 5 5 5 5 5 5 5 5 5 5 5 5 5 5 5 5 5 5 5 5 5 5 5 5 5 5 5 5 5 5 5 5 5 5 5 5 5 5 5 5 5 5 5 5 5 5 5 5 5 5 5 5 5 5 5 5 5 5 5 5 5 5 5 5 5 5 5 5 5 5 5 5 5 5 5 5 5 5 5 5 5 5 5 5 5 5 5 5 5 5 5 5 5 5 5 5 5 5 5 5 5 5 5 5 5 5 5 5 5 5 5 5 5 5 5 5 5 5 5 5 5 5 5 5 ",
"5 5 5 5 5 5 5 5 5 5 5 5 5 5 5 5 7 7 % 5 7 5 5 5 5 5 5 5 5 5 5 5 5 5 5 5 5 5 5 5 5 5 5 5 5 5 5 5 5 5 5 5 5 5 5 5 5 5 5 5 5 5 5 5 5 5 5 5 5 5 5 5 5 5 5 5 5 5 5 5 5 5 5 5 5 5 5 5 5 5 5 5 5 5 5 5 5 5 5 5 5 5 5 5 5 5 5 5 5 5 5 5 5 5 5 5 5 5 5 5 5 5 5 5 5 5 5 5 5 5 5 5 5 5 5 5 5 5 5 5 5 5 5 5 5 5 5 5 5 5 5 5 5 5 5 5 5 5 5 5 5 5 5 5 5 5 5 5 5 5 5 5 5 5 5 5 5 5 5 5 5 5 5 5 5 5 5 5 5 5 5 5 5 5 5 5 5 5 5 5 5 5 5 5 5 5 5 5 5 5 5 5 5 5 5 5 5 5 5 5 5 5 5 5 5 5 5 5 5 5 5 5 5 5 5 5 5 5 5 5 5 5 5 5 5 5 5 5 5 5 5 5 5 5 5 5 ",
"5 5 5 5 5 5 5 5 5 5 5 5 5 5 5 5 7 7 % 5 7 5 5 5 5 5 5 5 5 5 5 5 5 5 5 5 5 5 5 5 5 5 5 5 5 5 5 5 5 5 5 5 5 5 5 5 5 5 5 5 5 5 5 5 5 5 5 5 5 5 5 5 5 5 5 5 5 5 5 5 5 5 5 5 5 5 5 5 5 5 5 5 5 5 5 5 5 5 5 5 5 5 5 5 5 5 5 5 5 5 5 5 5 5 5 5 5 5 5 5 5 5 5 5 5 5 5 5 5 5 5 5 5 5 5 5 5 5 5 5 5 5 5 5 5 5 5 5 5 5 5 5 5 5 5 5 5 5 5 5 5 5 5 5 5 5 5 5 5 5 5 5 5 5 5 5 5 5 5 5 5 5 5 5 5 5 5 5 5 5 5 5 5 5 5 5 5 5 5 5 5 5 5 5 5 5 5 5 5 5 5 5 5 5 5 5 5 5 5 5 5 5 5 5 5 5 5 5 5 5 5 5 5 5 5 5 5 5 5 5 5 5 5 5 5 5 5 5 5 5 5 5 5 5 5 5 ",
"5 5 5 5 5 5 5 5 5 5 5 5 5 5 5 5 7 7 % 5 7 5 5 5 5 5 5 5 5 5 5 5 5 5 5 5 5 5 5 5 5 5 5 5 5 5 5 5 5 5 5 5 5 5 5 5 5 5 5 5 5 5 5 5 5 5 5 5 5 5 5 5 5 5 5 5 5 5 5 5 5 5 5 5 5 5 5 5 5 5 5 5 5 5 5 5 5 5 5 5 5 5 5 5 5 5 5 5 5 5 5 5 5 5 5 5 5 5 5 5 5 5 5 5 5 5 5 5 5 5 5 5 5 5 5 5 5 5 5 5 5 5 5 5 5 5 5 5 5 5 5 5 5 5 5 5 5 5 5 5 5 5 5 5 5 5 5 5 5 5 5 5 5 5 5 5 5 5 5 5 5 5 5 5 5 5 5 5 5 5 5 5 5 5 5 5 5 5 5 5 5 5 5 5 5 5 5 5 5 5 5 5 5 5 5 5 5 5 5 5 5 5 5 5 5 5 5 5 5 5 5 5 5 5 5 5 5 5 5 5 5 5 5 5 5 5 5 5 5 5 5 5 5 5 5 5 ",
"5 5 5 5 5 5 5 5 5 5 5 5 5 5 5 5 5 5 % 5 7 5 5 5 5 5 5 5 5 5 5 5 5 5 5 5 5 5 5 5 5 5 5 5 5 5 5 5 5 5 5 5 5 5 5 5 5 5 5 5 5 5 5 5 5 5 5 5 5 5 5 5 5 5 5 5 5 5 5 5 5 5 5 5 5 5 5 5 5 5 5 5 5 5 5 5 5 5 5 5 5 5 5 5 5 5 5 5 5 5 5 5 5 5 5 5 5 5 5 5 5 5 5 5 5 5 5 5 5 5 5 5 5 5 5 5 5 5 5 5 5 5 5 5 5 5 5 5 5 5 5 5 5 5 5 5 5 5 5 5 5 5 5 5 5 5 5 5 5 5 5 5 5 5 5 5 5 5 5 5 5 5 5 5 5 5 5 5 5 5 5 5 5 5 5 5 5 5 5 5 5 5 5 5 5 5 5 5 5 5 5 5 5 5 5 5 5 5 5 5 5 5 5 5 5 5 5 5 5 5 5 5 5 5 5 5 5 5 5 5 5 5 5 5 5 5 5 5 5 5 5 5 5 5 5 5 ",
"7 7 7 7 7 7 7 7 7 7 7 7 7 7 7 7 7 7 % 5 e 7 7 7 7 7 7 7 7 7 7 7 7 7 7 7 7 7 7 7 7 7 7 7 7 7 7 7 7 7 7 7 7 7 7 7 7 7 7 7 7 7 7 7 7 7 7 7 7 7 7 7 7 7 7 7 7 7 7 7 7 7 7 7 7 7 7 7 7 7 7 7 7 7 7 7 7 7 7 7 7 7 7 7 7 7 7 7 7 7 7 7 7 7 7 7 7 7 7 7 7 7 7 7 7 7 7 7 7 7 7 7 7 7 7 7 7 7 7 7 7 7 7 7 7 7 7 7 7 7 7 7 7 7 7 7 7 7 7 7 7 7 7 7 7 7 7 7 7 7 7 7 7 7 7 7 7 7 7 7 7 7 7 7 7 7 7 7 7 7 7 7 7 7 7 7 7 7 7 7 7 7 7 7 7 7 7 7 7 7 7 7 7 7 7 7 7 7 7 7 7 7 7 7 7 7 7 7 7 7 7 7 7 7 7 7 7 7 7 7 7 7 7 7 7 7 7 7 7 7 7 7 7 7 7 7 ",
": : : : % % : % % % % % % % % % : : % % : % % : % % % % % % % % : : : : : % % % : % % % % % % % % % % % % % % % % % % % % % % % % % % % % % % % % % % % % % % % % % % % % % % % % % % % % % % % % % % % % % % % % % % % % % % % % % % % % % % % % % % % % % % % % % % % % % % % % % % % % % % % % % % % % % % % % % % % % % % % % % % % % % % % % % % % % % % % % % % % % % % % % % % % % % % % % % % % % % % % % % % % % % % % % % % % % % % % % % % % % % % % % % % % % % % : : : : : : : : % % : : : : : % % : : : : : % : : ",
": : : : : : : : : : : : : : : 4 : % : : : : : : : : : : : : : : : : : : : : : : : : : : : : : : : : : : : : : : : : : : : : : : : : : : : : : : : : : : : : : : : : : : : : : : : : : : : : : : : : : : : : : : : : : : : : : : : : : : : : : : : : : : : : : : : : : : : : : : : : : : : : : : : : : : : : : : : : : : : : : : : : : : : : : : : : : : : : : : : : : : : : : : : : : : : : : : : : : : : : : : : : : : : : : : : : : : : : : : : : : : : : : : : : : : : : : : : : : : : : : : : - - 4 4 4 : : : : : : : : % : ",
"a ^ ^ e 7 7 7 7 7 7 7 7 7 7 7 5 t _ / / e 7 7 7 7 7 7 7 7 7 7 7 e a a ^ r 5 7 7 7 7 7 7 7 7 7 7 7 7 7 7 7 7 7 7 7 7 7 7 7 7 7 7 7 7 7 7 7 7 7 7 7 7 7 7 7 7 7 7 7 7 7 7 7 7 7 7 7 7 7 7 7 7 7 7 7 7 7 7 7 7 7 7 7 7 7 7 7 7 7 7 7 7 7 7 7 7 7 7 7 7 7 7 7 7 7 7 7 7 7 7 7 7 7 7 7 7 7 7 7 7 7 7 7 7 7 7 7 7 7 7 7 7 7 7 7 7 7 7 7 7 7 7 7 7 7 7 7 7 7 7 7 7 7 7 7 7 7 7 7 7 7 7 7 7 7 7 7 7 7 7 7 7 7 7 7 7 7 7 7 7 7 7 7 7 7 7 7 7 7 7 7 7 7 7 7 7 7 7 7 7 7 7 7 7 7 7 7 7 7 e e e 7 r r e e 7 w 0 0 7 7 7 7 7 e p p p e 7 p r ",
"-./ ( e 5 5 p r 5 e e e 5 5 7 5 a _ _ -.r 5 5 p p 5 7 e e 5 5 5 e / >.t.i 5 5 r p 5 7 e e 7 5 5 5 5 5 5 5 5 5 5 5 5 5 5 5 5 5 5 5 5 5 5 5 5 5 5 5 5 5 5 5 5 5 5 5 5 5 5 5 5 5 5 5 5 5 5 5 5 5 5 5 5 5 5 5 5 5 5 5 5 5 5 5 5 5 5 5 5 5 5 5 5 5 5 5 5 5 5 5 5 5 5 5 5 5 5 5 5 5 5 5 5 5 5 5 5 5 5 5 5 5 5 5 5 5 5 5 5 5 5 5 5 5 5 5 5 5 5 5 5 5 5 5 5 5 5 5 5 5 5 5 5 5 5 5 5 5 5 5 5 5 5 5 5 5 5 5 5 5 5 5 5 5 5 5 5 5 5 5 5 5 5 5 5 5 5 5 5 5 5 5 5 5 5 5 5 5 5 5 5 5 5 5 5 5 r i ^ i t i ^ r w 8 Z V Z Z 3 5 5 e r p ~ e 7 p p ",
"_ _ y.e 5 e ! p 5 e p p 5 7 7 5 a -./ t r 5 7 ! ~ 5 e p p 5 7 5 r e ^ _ e 5 5 p ! e 7 p p e 5 7 5 5 5 5 5 5 5 5 5 5 5 5 5 5 5 5 5 5 5 5 5 5 5 5 5 5 5 5 5 5 5 5 5 5 5 5 5 5 5 5 5 5 5 5 5 5 5 5 5 5 5 5 5 5 5 5 5 5 5 5 5 5 5 5 5 5 5 5 5 5 5 5 5 5 5 5 5 5 5 5 5 5 5 5 5 5 5 5 5 5 5 5 5 5 5 5 5 5 5 5 5 5 5 5 5 5 5 5 5 5 5 5 5 5 5 5 5 5 5 5 5 5 5 5 5 5 5 5 5 5 5 5 5 5 5 5 5 5 5 5 5 5 5 5 5 5 5 5 5 5 5 5 5 5 5 5 5 5 5 5 5 5 5 5 5 5 5 5 5 5 5 5 5 5 5 5 5 5 5 5 5 7 5 e / / ( r i ( r w 0 V V Z Z Z w 5 e e p p e 7 p p ",
"/ _ t.7 5 5 e 7 5 5 5 5 7 5 7 5 t ( a t e 5 5 e 7 5 5 5 5 5 7 5 e t ^ ( r 5 5 7 e 5 7 5 5 5 7 5 5 5 5 5 5 5 5 5 5 5 5 5 5 5 5 5 5 5 5 5 5 5 5 5 5 5 5 5 5 5 5 5 5 5 5 5 5 5 5 5 5 5 5 5 5 5 5 5 5 5 5 5 5 5 5 5 5 5 5 5 5 5 5 5 5 5 5 5 5 5 5 5 5 5 5 5 5 5 5 5 5 5 5 5 5 5 5 5 5 5 5 5 5 5 5 5 5 5 5 5 5 5 5 5 5 5 5 5 5 5 5 5 5 5 5 5 5 5 5 5 5 5 5 5 5 5 5 5 5 5 5 5 5 5 5 5 5 5 5 5 5 5 5 5 5 5 5 5 5 5 5 5 5 5 5 5 5 5 5 5 5 5 5 5 5 5 5 5 5 5 5 5 5 5 5 5 5 5 5 5 5 7 5 t a 5 r t r e t 7 5 3 3 7 0 0 5 5 7 r p r e 5 ~ r ",
"5 5 5 5 5 7 5 5 7 7 7 7 5 5 5 7 5 5 7 e 5 5 7 5 5 7 7 7 7 5 5 7 5 7 7 5 7 5 7 5 5 7 5 7 7 7 5 5 5 5 5 5 5 5 5 5 5 5 5 5 5 5 5 5 5 5 5 5 5 5 5 5 5 5 5 5 5 5 5 5 5 5 5 5 5 5 5 5 5 5 5 5 5 5 5 5 5 5 5 5 5 5 5 5 5 5 5 5 5 5 5 5 5 5 5 5 5 5 5 5 5 5 5 5 5 5 5 5 5 5 5 5 5 5 5 5 5 5 5 5 5 5 5 5 5 5 5 5 5 5 5 5 5 5 5 5 5 5 5 5 5 5 5 5 5 5 5 5 5 5 5 5 5 5 5 5 5 5 5 5 5 5 5 5 5 5 5 5 5 5 5 5 5 5 5 5 5 5 5 5 5 5 5 5 5 5 5 5 5 5 5 5 5 5 5 5 5 5 5 5 5 5 5 5 5 5 5 5 5 7 5 r 7 5 5 5 5 5 5 5 7 w w 5 5 5 7 5 5 7 7 7 7 5 5 7 "
};
