/* XPM */
static char *mb_gate_ms[] = {
/* columns rows colors chars-per-pixel */
"256 256 256 2 ",
"   c #15161B",
".  c #151B1E",
"X  c #1A1A1E",
"o  c #1A1419",
"O  c #120F12",
"+  c #21181D",
"@  c #200D0F",
"#  c #183C1C",
"$  c #142C1B",
"%  c #2C341B",
"&  c #1C1E24",
"*  c #161B23",
"=  c #17192A",
"-  c #221D25",
";  c #241B28",
":  c #2E1D2E",
">  c #1F2026",
",  c #1E2329",
"<  c #1B2827",
"1  c #1C2C33",
"2  c #192A36",
"3  c #1B333C",
"4  c #193439",
"5  c #183A29",
"6  c #212126",
"7  c #24262D",
"8  c #26282F",
"9  c #282728",
"0  c #3A232B",
"q  c #35262C",
"w  c #273629",
"e  c #373A29",
"r  c #252531",
"t  c #262931",
"y  c #2A2C34",
"u  c #262C39",
"i  c #2C2F39",
"p  c #2A2535",
"a  c #382934",
"s  c #25333B",
"d  c #2D323A",
"f  c #2A3937",
"g  c #31333D",
"h  c #3B3739",
"j  c #6F261A",
"k  c #722719",
"l  c #461F28",
"z  c #432429",
"x  c #48262A",
"c  c #472A35",
"v  c #45363C",
"b  c #46383D",
"n  c #49363B",
"m  c #582F31",
"M  c #66332D",
"N  c #723A36",
"B  c #462715",
"V  c #115114",
"C  c #354C16",
"Z  c #026703",
"A  c #067708",
"S  c #0B7814",
"D  c #147216",
"F  c #29741A",
"G  c #1B4824",
"H  c #155134",
"J  c #34422D",
"K  c #2C4537",
"L  c #314434",
"P  c #374738",
"I  c #30542F",
"U  c #197828",
"Y  c #177031",
"T  c #2C6D2F",
"R  c #464636",
"E  c #4A4B3C",
"W  c #484739",
"Q  c #584A3B",
"!  c #4B543C",
"~  c #4B583A",
"^  c #52583C",
"/  c #4A552B",
"(  c #714C3A",
")  c #4D6833",
"_  c #4F6A30",
"`  c #64683C",
"'  c #54580C",
"]  c #193740",
"[  c #1A3A43",
"{  c #183D48",
"}  c #18304D",
"|  c #2E2D4A",
" . c #2D2D43",
".. c #302E42",
"X. c #31284A",
"o. c #2A3143",
"O. c #263943",
"+. c #2A3845",
"@. c #343642",
"#. c #373944",
"$. c #383B46",
"%. c #32314E",
"&. c #3B3D4A",
"*. c #373A48",
"=. c #2B3957",
"-. c #343352",
";. c #383B57",
":. c #332B59",
">. c #3C3B62",
",. c #233061",
"<. c #1F2D60",
"1. c #562C42",
"2. c #4A3C42",
"3. c #493643",
"4. c #573746",
"5. c #4C354B",
"6. c #403D66",
"7. c #403474",
"8. c #6F3650",
"9. c #19434B",
"0. c #094859",
"q. c #184955",
"w. c #175453",
"e. c #23454E",
"r. c #2A4A47",
"t. c #3E414E",
"y. c #354947",
"u. c #2C544C",
"i. c #2B584A",
"p. c #335E4C",
"a. c #365947",
"s. c #264854",
"d. c #3B4E56",
"f. c #3A4655",
"g. c #285956",
"h. c #3B535B",
"j. c #365856",
"k. c #11704D",
"l. c #35614E",
"z. c #3A6849",
"x. c #296459",
"c. c #356351",
"v. c #386658",
"b. c #31714E",
"n. c #0A5A68",
"m. c #155767",
"M. c #0F556B",
"N. c #2A4667",
"B. c #354567",
"V. c #285867",
"C. c #3A5B65",
"Z. c #3C5E69",
"A. c #375A65",
"S. c #2F5177",
"D. c #02636C",
"F. c #16666B",
"G. c #086876",
"H. c #156778",
"J. c #16757A",
"K. c #0A7477",
"L. c #266668",
"P. c #3C6363",
"I. c #39636C",
"U. c #29766A",
"Y. c #357367",
"T. c #276977",
"R. c #366977",
"E. c #2D7775",
"W. c #4A4A42",
"Q. c #494647",
"!. c #574A46",
"~. c #495945",
"^. c #535B44",
"/. c #565848",
"(. c #424553",
"). c #46495A",
"_. c #4A4D5D",
"`. c #454857",
"'. c #575654",
"]. c #4A5259",
"[. c #675746",
"{. c #714B4A",
"}. c #42604E",
"|. c #4C624E",
" X c #58634A",
".X c #446352",
"XX c #486858",
"oX c #4B6F58",
"OX c #636845",
"+X c #646850",
"@X c #494B65",
"#X c #4E5162",
"$X c #475A67",
"%X c #515466",
"&X c #535669",
"*X c #56596C",
"=X c #585C6E",
"-X c #475479",
";X c #5A5E72",
":X c #585A77",
">X c #534772",
",X c #7E4867",
"<X c #654B74",
"1X c #43666B",
"2X c #426472",
"3X c #476978",
"4X c #5E6277",
"5X c #487466",
"6X c #62667B",
"7X c #9A3321",
"8X c #874439",
"9X c #903C60",
"0X c #935149",
"qX c #974864",
"wX c #048706",
"eX c #039505",
"rX c #0C8816",
"tX c #128618",
"yX c #0F892B",
"uX c #1E881D",
"iX c #668B18",
"pX c #0D884E",
"aX c #148969",
"sX c #62A254",
"dX c #102D9A",
"fX c #1232AA",
"gX c #067988",
"hX c #157986",
"jX c #0E718B",
"kX c #3B6B85",
"lX c #357384",
"zX c #276F8D",
"xX c #2F6092",
"cX c #51538D",
"vX c #605999",
"bX c #63579C",
"nX c #546B8B",
"mX c #4F6B8E",
"MX c #696E87",
"NX c #4F60AA",
"BX c #153BC7",
"VX c #4B73CD",
"CX c #415CC8",
"ZX c #3F5DC4",
"AX c #078798",
"SX c #09848D",
"DX c #2B869A",
"FX c #048FA5",
"GX c #3493A7",
"HX c #3498AD",
"JX c #2793AB",
"KX c #23A4BD",
"LX c #28A1C5",
"PX c #7C83A4",
"IX c #878EB2",
"UX c #82C041",
/* pixels */
"8 8 8 8 8 8 8 t 8 8 8 8 8 8 8 8 8 8 8 t 8 8 8 7 9 6 6 9 7 8 8 8 8 8 8 8 8 8 8 8 8 8 8 8 8 8 8 8 8 8 8 8 8 8 8 8 8 8 8 8 8 8 8 8 8 8 8 8 8 8 8 8 8 8 8 8 8 8 8 8 8 8 8 8 8 8 8 8 8 8 8 8 8 8 8 8 8 8 8 8 8 8 8 8 8 8 8 8 8 8 8 8 8 8 8 8 8 8 8 8 8 8 8 8 8 8 8 8 8 8 8 8 8 8 8 8 8 8 8 8 8 8 8 8 8 8 8 8 8 8 8 8 8 8 8 8 8 8 8 8 8 8 8 8 7 8 6 7 7 6 7 7 7 7 8 6 6 6 7 6 6 8 6 7 6 7 7 6 6 7 8 7 6 7 8 6 7 6 6 6 7 8 6 7 7 6 6 7 6 6 7 6 7 6 7 > 7 7 6 7 7 7 7 7 6 7 8 8 8 7 6 8 7 7 6 7 7 6 7 7 7 7 7 7 7 7 7 7 8 8 8 8 8 7 8 8 ",
"7 7 7 8 8 8 7 6 7 6 6 6 7 7 7 7 6 6 6 6 8 8 9 u { j.j.} r 7 8 8 8 8 8 8 8 8 8 8 8 8 8 8 8 8 8 8 8 8 8 8 8 8 8 8 8 8 8 8 8 8 8 8 8 8 8 8 8 8 8 8 8 8 8 8 8 8 8 8 8 8 8 8 8 8 8 8 8 8 8 8 8 8 8 8 8 8 8 8 8 8 8 8 8 8 8 8 8 8 8 8 8 8 8 8 8 8 8 8 8 8 8 8 8 8 8 8 8 8 8 8 8 8 8 8 8 8 8 8 8 8 8 8 8 8 8 8 8 8 8 8 8 8 8 8 8 8 8 8 8 8 8 8 8 7 &.d @.&.g d @.@.t ).).`.@.t.(.7 *.i &.d @.&._.i 7 y `.@.7 &.i #X(.t.t.6 &.g g &.t.g @X$.y (.$.t.@.#Xg d _.y d #.@.#.(.t 7 y 7 t e.8 O.O.s.s t s.s s e.s O.t e.s e.t 7 8 7 w G V G 8 ",
"e.JXe.6 t 7 t T.DXDXDXDXs s DXDXDXDXDXs.7 7 } 5XUXsXUXUXoXu 7 8 8 8 8 8 8 8 8 8 8 8 8 8 8 8 8 8 8 8 8 8 8 8 8 8 8 8 8 8 8 8 8 8 8 8 8 8 8 8 8 8 8 8 8 8 8 8 8 8 8 8 8 8 8 8 8 8 8 8 8 8 8 8 8 8 8 8 8 8 8 8 8 8 8 8 8 8 8 8 8 8 8 8 8 8 8 8 8 8 8 8 8 8 8 8 8 8 8 8 8 8 8 8 8 8 8 8 8 8 8 8 8 8 8 8 8 8 8 8 8 8 8 8 8 8 8 8 8 8 8 8 8 8 t > *X_.&X&X(.$.@X).& ).`.`.t.*X4Xi 6X`.&X*X).#X&.#X> _.).t.g MXi #X&.=X`.& %X#X%X#X).(.`.).).&X@._.(.(._._.;Xy 7 4X(.).MXd 7 y 7 t T.O.L.s.T.s.s.s.O.s.T.O.L.e.V.s.s.7 7 8 r 5 V V V w ",
"s.LXs.- t - V.KXJXJXJXJXs s KXJXJXJXKXKXs r oXUX~ 7 7 _ sXm.t 7 8 8 8 8 8 8 8 8 8 8 8 8 8 8 8 8 8 8 8 8 8 8 8 8 8 8 8 8 8 8 8 8 8 8 8 8 8 8 8 8 8 8 8 8 8 8 8 8 8 8 8 8 8 8 8 8 8 8 8 8 8 8 8 8 8 8 8 8 8 8 8 8 8 8 8 8 8 8 8 8 8 8 8 8 8 8 8 7 7 7 7 7 7 7 7 7 7 7 7 7 7 7 7 7 7 7 7 7 7 7 7 7 7 7 7 7 7 7 7 7 7 7 7 7 7 7 7 7 7 7 7 7 8 6 ).;X=X)._._.(.&Xy &.&.`.t.&X&X_.;X=X_.#X;X_.(.#X& _.).%X#X6X`.`.@.*Xt.6 `.;X;X`._.(.).#X@.#X#X).`.)._.).&Xt t ;X)._.4X@.6 y 7 u V.V.g.s.V.s.s.s.V.s.V.e.V.V.g.s V.s 7 8 7 5 V G V w ",
"s.KXs.6 t - T.KXO.+ 6 - 6 O.KXT.- - V.KXO.s.sXJ = 7 O.] { zXO.7 8 8 8 8 8 8 8 8 8 8 8 8 8 8 8 8 8 8 8 8 8 8 8 8 8 8 8 8 8 8 8 8 8 8 8 8 8 8 8 8 8 8 8 8 8 8 8 8 8 8 8 8 8 8 8 8 8 8 8 8 8 8 8 8 8 8 8 8 8 8 8 8 8 8 8 8 8 8 8 8 8 8 8 8 8 8 7 8 8 8 8 8 8 8 8 8 8 8 8 8 8 8 8 8 8 8 8 8 8 8 8 8 8 8 8 8 8 8 8 8 8 8 8 8 8 8 8 8 8 8 8 8 8 7 g #.#.d *.(.t `.&.d d &.@.t.&.#.y @.&.y *.$.).i 7 y `.&.#.t @.@.y &.t.7 g #.@.@.t.g _.@.i (.@.t.g _.g d ).y g g @.$.t.y 8 y 8 t O.O.s s s.s u s.O.s e.s O.O.s O.e.t 8 8 r w G G G 8 ",
"s.LXs.6 t 6 V.KXJXDXDXL.6 O.KXT.6 7 T.KXO.s zXzXu 7 s s 7 zXs.7 8 8 8 8 8 8 8 8 8 8 8 8 8 8 8 8 8 8 8 8 8 8 8 8 8 8 8 8 8 8 8 8 8 8 8 8 8 8 8 8 8 8 8 8 8 8 8 8 8 8 8 8 8 8 8 8 8 8 8 8 8 8 8 8 8 8 8 8 8 8 8 8 8 8 8 8 8 8 8 8 8 8 8 8 8 7 8 6 6 6 6 6 6 6 6 6 6 6 6 6 6 6 6 6 6 6 6 6 6 6 6 6 6 6 6 6 6 6 6 6 6 6 6 6 6 6 6 6 6 6 6 6 6 6 & & & > & & 6 & & > > & & & & & > & & > & & & > 6 > & & & 6 > 6 6 > & 7 6 > > 6 & 6 & > 6 & > & 6 & 6 6 & 6 6 > > & & 6 6 6 6 6 6 - 6 6 - 6 6 - - 6 - 6 - - 6 - - 6 6 6 6 6 6 ; 6 6 ",
"s.LXs.6 t 8 7 T.JXJXJXKXs.s KXJXJXJXKXJXs O.DXKXO.- 7 7 8 zXs.7 8 8 8 8 8 8 8 8 8 8 8 8 8 8 8 8 8 8 8 8 8 8 8 8 8 8 8 8 8 8 8 8 8 8 8 8 8 8 8 8 8 8 8 8 8 8 8 8 8 8 8 8 8 8 8 8 8 8 8 8 8 8 8 8 8 8 8 8 8 8 8 8 8 8 8 8 8 8 8 8 8 8 8 8 7 8 6 & * & * * & & & & & & & & & & & & & & & & & & * &     & & X & & & X X & & & & & & & * & * X & & & & & & & & & & & & & & & & & & & & * & & & & * & & & & & > > ; - > & > , , , , > 6 & & - & > > 6 > > 6 > & * X X & *   *         * . * X * & & X X X & *   *   X X   X X X     X ",
"s.KXe.+ 6 7 7 - 6 - u KXL.u KXJXzXzXzXe.- V.zXJXDXs u - s.zXO.7 8 8 8 8 8 8 8 8 8 8 8 8 8 8 8 8 8 8 8 8 8 8 8 8 8 8 8 8 8 8 8 8 8 8 8 8 8 8 8 8 8 8 8 8 8 8 8 8 8 8 8 8 8 8 8 8 8 8 8 8 8 8 8 8 8 8 8 8 8 8 8 8 8 8 8 8 8 8 8 8 8 8 8 7 8 6 & & & X , & & & & & & & & & & & & & & & & & & & & * i @.  * @.X   X 8 7 X & X X *   X &   & t * & & & & & & & & & & & & & & & & & & & , & & & & & & & & & > > ; V $ ; > > - - + - , - 1 m.q.> > > > > > > & & , 3 3 , 6 d & g g g d & i 7 t 6 * & 1 3 1 & & i 7 &.7 t &.7 7 7 g (.r ",
"g.KXDXzXDXV.8 zXDXzXDXKXg.s LXT.+ 6 - 6 t - s.KXJXKXT.s zXL.u 7 8 8 8 8 8 8 8 8 8 8 8 8 8 8 8 8 8 8 8 8 8 8 8 8 8 8 8 8 8 8 8 8 8 8 8 8 8 8 8 8 8 8 8 8 8 8 8 8 8 8 8 8 8 8 8 8 8 8 8 8 8 8 8 8 8 8 8 8 8 8 8 8 8 8 8 8 8 8 8 8 8 8 7 8 6 & & & X 1 9.& & & & & & & & & & & & & & & & & & & &   &X$.(.&X#X#X_.t.;Xt.8 &Xt._.`.%X#X#._.;X&XX & & & & & & & & & & & & & & & & & & X , 9.& & & & & & & > > & > A V ; > > { 9.m.3 - - 1 G.n., & > > > > & & X 1 T.zX{ y 6X&.6X*X&.6X(.%Xg t.i   , ] q.3 * i 6X&.6X).).@.;X#.&.&.*X6 ",
"s.JXJXJXKXV.8 JXJXJXJXzX7 s JXV.6 t t 8 8 6 g.s.zXJXT.zXT.s 7 8 8 8 8 8 8 8 8 8 8 8 8 8 8 8 8 8 8 8 8 8 8 8 8 8 8 8 8 8 8 8 8 8 8 8 8 8 8 8 8 8 8 8 8 8 8 8 8 8 8 8 8 8 8 8 8 8 8 8 8 8 8 8 8 8 8 8 8 8 8 8 8 8 8 8 8 8 8 8 8 8 8 7 8 6 & & & & X 3 9.X & & & & & & & & & & & & & & & & & & & * y *XMX#X4X6X=X(.t.g g #X;X`.*X&X).;X6X#X`.  & & & & & & & & & & & & & & & & & & & , q.& & & & & & > > > ; G V V < & > [ { w.3 - - 1 n.n.1 - > > > & & & X 1 T.zX{ 8 4X4X_.*X#.`.4X*X&.).t X , 3 q.3 * _.6X;X%X%X_.y 4X(.`.i ).X ",
"8 t 8 8 8 8 8 8 8 8 8 6 7 8 t 8 8 8 8 8 8 8 7 + V.e.e.s.u 7 8 8 8 8 8 8 8 8 8 8 8 8 8 8 8 8 8 8 8 8 8 8 8 8 8 8 8 8 8 8 8 8 8 8 8 8 8 8 8 8 8 8 8 8 8 8 8 8 8 8 8 8 8 8 8 8 8 8 8 8 8 8 8 8 8 8 8 8 8 8 8 8 8 8 8 8 8 8 8 8 8 8 8 8 6 & & & & & & X , & & & & & & & & & & & & & & & & & & & & * @.$.g #.i $.i &.$.d g ;Xd t i $.@.$.$.d $.& & & & & & & & & & & & & & & & & & & & , > X & & & & > > > > & < - < , & > - - + - > > , 3 1 - > > > & & & & * , 9.9.1 6 g #.y t.$.t g g &.&.X & & 3 ] 3 & g & t.`.y d ).6 &.&.& g & ",
"8 7 7 7 7 8 8 7 7 7 7 8 8 8 7 8 8 8 8 8 8 8 8 t 6 7 7 7 7 8 8 8 8 8 8 8 8 8 8 8 8 8 8 8 8 8 8 8 8 8 8 8 8 8 8 8 8 8 8 8 8 8 8 8 8 8 8 8 8 8 8 8 8 8 8 8 8 8 8 8 8 8 8 8 8 8 8 8 8 8 8 8 8 8 8 8 8 8 8 8 8 8 8 8 8 8 8 8 8 8 8 8 8 6 & & & & & & & & X & & & & & & & & & & & & & & & & & & & & & X   X X X   X   X   y y   * X X X     X   & & & & & & & & & & & & & & & & & & & & & & & & & & > > > > > > - > & & > > , , , > > > > - - > > > & & & & & & & o o X * X   X   X * X X     & & & X X X & X &     X X   *     & X & ",
"& & & & & & & & & & & & & & & & & & & & & & & & & & & & & & & & & & & & & & & & & & & & & & & & & & & & & & & & & & & & & & & & & & & & & & & & & & & & & & & & & & & & & & & & & & & & & & & & & & & & & & & & & & & & & & & & & * * * * * * * * * & * * * * * * * * * * * * * * * * * * * * * & & & & & & & & & & X X & & & & & & & & & * * * * * * * * * * * * * * * * * * * * * * * * & & & & & & & & & & & & & & & & & & & & & & & & & & & & & & & & & & & & & & & & & & & & & & & * & & & & & * & & & & & & & & & & * & * ",
"g d d d d d d i i i i d g d d d g g i d i g d d i g g g g g g g g g g g g g g g g g g g g g g g g g g g g g g g g g g g g g g g g g g g g g g g g g g g g g g g g g g g g g g g g g g g g g g g g g g g g g g g g g g g g g g g g g g g g g g g g g g g g g g g g g g g g g g g g g g g g g g g g g g g g g g g g g g g g g g g g g g g g g g g g g g g g g g g g g g g g g g g g g g g g g g g g g g g g g 7 & 7 7 7 7 6 6 7 7 7 7 & & 7 6 6 7 7 7 6 & 7 > 6 7 7 7 7 & d g d g g g g g g g d g g g g g g g g g g g g g g g g g ",
"$.(.(.(.(.(.t.).).`.(.t.&.(.&.&.&.$.).t.`.&.&.t.(.&.$.&.$.$.$.$.$.$.$.$.$.$.$.$.$.$.$.$.$.$.$.$.$.$.$.$.$.$.$.$.$.$.$.$.$.$.$.$.$.$.$.$.$.$.$.$.$.$.$.$.$.$.$.$.$.$.$.$.$.$.$.$.$.$.$.$.$.$.$.$.$.$.$.$.$.$.$.$.$.$.$.$.$.$.$.$.$.$.$.$.$.$.$.$.$.$.$.$.$.$.$.$.$.$.$.$.$.$.$.$.$.$.$.$.$.$.$.$.$.$.$.$.$.$.$.$.$.$.$.$.$.$.$.$.$.$.$.$.$.$.$.$.$.$.$.$.$.$.$.$.$.$.$.$.$.$.$.$.$.$.$.$.$.$.$.$.$.$.$.$.$.&.7 > t 8 8 @.`.t.g 7 8 t > > 7 d i > 7 t 7 & 7 #.d 6 7 8 7 & @.$.(.(.#.@.@.#.#.&.(.#.$.$.$.$.$.$.$.$.$.$.$.$.$.$.$.$.",
"`.;X*XMX4X&X*X(.;X;XMX;X(.MX;X4X_.%X#X*XMX#X4X*XMX;X*X_.g #.#.#.#.#.#.#.#.#.#.#.#.#.#.#.#.#.#.#.#.#.#.#.#.#.#.#.#.#.#.#.#.#.#.#.#.#.#.#.#.#.#.#.#.#.#.#.#.#.#.#.#.#.#.#.#.#.#.#.#.#.#.#.#.#.#.#.#.#.#.#.#.#.#.#.#.#.#.#.#.#.#.#.#.#.#.#.#.#.#.#.#.#.#.#.#.#.#.#.#.#.#.#.#.#.#.#.#.#.#.#.#.#.#.#.#.#.#.#.#.#.#.#.#.#.#.#.#.#.#.#.#.#.#.#.#.#.#.#.#.#.#.#.#.#.#.#.#.#.#.#.#.#.#.#.#.#.#.#.#.#.#.#.#.#.#.#.#.$.7 > 8 8 7 ).t.t.&.7 8 8 > > 6 &.#X_.g 7 7 X #._._.&.#.;Xy & g (.4X).#X&X&X#X(.;X#Xg $.#.#.#.#.#.#.#.#.#.#.#.#.#.#.#.",
"$.=XMX`.;X*X=X@.#X%XMX=X%X4XMXMX`.&X*XMX4X4X6XMX`.=X4X_.g #.#.#.#.#.#.#.#.#.#.#.#.#.#.#.#.#.#.#.#.#.#.#.#.#.#.#.#.#.#.#.#.#.#.#.#.#.#.#.#.#.#.#.#.#.#.#.#.#.#.#.#.#.#.#.#.#.#.#.#.#.#.#.#.#.#.#.#.#.#.#.#.#.#.#.#.#.#.#.#.#.#.#.#.#.#.#.#.#.#.#.#.#.#.#.#.#.#.#.#.#.#.#.#.#.#.#.#.#.#.#.#.#.#.#.#.#.#.#.#.#.#.#.#.#.#.#.#.#.#.#.#.#.#.#.#.#.#.#.#.#.#.#.#.#.#.#.#.#.#.#.#.#.#.#.#.#.#.#.#.#.#.#.#.#.#.#.#.$.7 > 8 8 7 `.&.#X_.6 8 8 > > 6 $.*X%X(.6 7 X &.`._.*X*X=X8 & g $.*XMX4X4X4X=X6XMX#Xg $.#.#.#.#.#.#.#.#.#.#.#.#.#.#.#.",
"&.#X`.@.).).)._.(.(.(.`.#X(.`.).&.t.%X`.(._.$._.#.(.&.t.#.$.$.$.$.$.$.$.$.$.$.#.#.#.$.$.$.$.$.$.$.$.$.$.$.$.$.$.$.$.$.$.$.$.$.$.$.$.$.$.$.$.$.$.$.$.$.$.$.$.$.$.$.$.$.$.$.$.$.$.$.$.$.$.$.$.$.$.$.$.$.$.$.$.$.$.$.$.$.$.$.$.$.$.$.$.$.$.$.$.$.$.$.$.$.$.$.$.$.$.$.$.$.$.$.$.$.$.$.$.$.$.$.$.$.$.$.$.$.$.$.$.$.$.#.$.$.$.$.$.$.$.$.$.$.$.$.$.$.$.$.$.$.$.$.$.$.$.$.$.$.$.$.$.$.$.$.$.$.$.$.$.$.$.$.$.$.$.#.$.7 > 8 7 7 #.t.&X_.6 8 8 > > 7 g &.d d 7 7 & 7 (.@.@.t.#.y & @.&._.(.#XMX(.(.#X_.t.#.$.$.$.$.$.$.$.$.$.$.$.$.$.$.$.$.",
"g d d g i i i i d d d i i d i i g d y i d i g i g d d d g g g g g g g g g g g +.+.+.a a i g g i i g g g g g g g g g g g g g g g g g g g g g g g g g g g g g g g g g g g g g g g g g g g g g g g g g g g g g g g g +.g g g g g g g g g g g g g g g g g g g g g g g g g g g g g g g g g g g g g g g g g g g g d @.@.g g g g g g g g g g g g g g g g g g g g g g g g g g g g g g g g g g g g g g g g g g g g #.7 > 8 7 7 8 7 6 7 8 7 8 > > t 7 6 7 7 8 6 & 8 6 7 7 6 7 7 & d g d d $.&.d g d d g g g g g g g g g g g g g g g g g g ",
"m a q 6 & & & & & & & & > & & & 6 6 & & & & & & & & & 7 & & & & & & 7 > > + { G.m.G.0.q.{ 6 > 3 O.7 & > 7 & 9 a 0 Q ~ w w 9 > & & & & & & & & & & & & 7 > & & & & & & & & 6 6 & & & & & > 7 & & & & 6 6 & 6 9 e u.n.4 3 1 & 6 6 & 6 6 & 7 > & & & & & & & & & & & & & & & > 7 & & & & & & & & & 7 & & & , 4 4 N.>X..i 7 & 7 > & & & 7 & & > 7 & & 7 & & 7 & > 7 & & & & & & & & & & & & & & & & 6 7 r ..@.:X..& t 7 8 7 & & 7 8 7 8 > > 8 8 8 8 8 8 7 & 8 8 8 8 8 8 7 & 7 7 7 8 7 7 8 8 8 8 7 7 7 7 7 7 7 7 7 7 7 7 7 7 7 7 7 7 ",
"n 2.2.9 > > > > > > > > > > > & 7 7 & > > > > > > > > 7 > > > > > > 7 - > + m.e.d f w.q.J.6 9.H.H.m.+ 6 7 & 9 h c Q ) e w 9 6 > > > > > > > > > > > > 7 6 > > > > > > > > 6 7 & > > > > 6 7 > > > > 6 7 > 9 w e g.n.3 [ 1 > 7 7 & 7 7 > t 6 > > > > > > > > > > > > > > > 6 8 > > > > > > , > > 8 > > > 1 3 4 V.cX@...t > 7 6 > > 6 7 > > 6 7 > > 7 6 > 7 6 6 t & > > > > > > > > > > > > > > & 7 7 p @.*.cX@.& t 7 8 7 * & 7 8 7 8 > > q 0 q q 0 q 7 & q 0 0 q 0 0 9 & 7 8 8 8 6 6 6 - 6 8 8 8 8 8 8 8 8 8 8 8 8 8 8 t 8 8 8 8 ",
"!.Q.Q.8 & > > > > > > > > > > & 6 7 & > > > > > > > > 7 > > > > > > 9 m.F.m.H.f +.s i 9 m.H.G.O.d J.F.3 6 > 9 a c Q ) e w 9 6 > > > > > > > > > > > & 7 6 > > > > > > > & 6 7 & > > > > 6 7 & > > & 6 7 & 9 w e g.n.3 [ 1 > 7 6 X - - o 9 + + + + + + - - - - - - - - - - - 6 + + + + + + + + + 9 & > , 1 3 4 V.:X@...t & 7 6 > > > 7 > > 6 7 & > 7 6 & 7 > 6 8 & > > > > > > > > > > > > > > & 7 7 p @.@.cX@.& t 7 8 7 , , 7 8 7 8 > > q 0 0 q 0 0 7 & q 0 0 q 0 0 9 & 7 8 7 7 V.lXDXlXs.6 8 8 8 8 8 8 7 7 6 7 6 7 7 6 7 8 8 8 ",
"!.2.$.9 & > > > > > > > > > > & 6 7 & > > > > > > > > 7 > > > > > & 8 F.O.f f d +.s f s f r.s s f f m.q.- > 9 a c Q ) e w 9 6 > > > > > > > > > > > & 7 6 > > > > > > > & 6 7 & > > > > 6 7 & > > & 6 7 & 9 w e g.n.3 [ 1 X - 7 1 { q.0.m.M.M.M.M.M.M.M.M.M.M.M.M.M.M.M.M.M.M.M.M.M.M.M.m.m.q.9.[ , + + 1 3 4 V.:X@...t & 7 6 > > > 7 > > 6 7 & > 7 6 & 7 > 6 8 & > > > > > > > > > > > > > > & 7 7 p @.@.cX@.& t 8 7 O.GXDXs 7 8 8 > > q 0 0 q 0 0 7 & q 0 0 q 0 0 9 & 7 7 t lXGXV.s.V.GXR.6 8 8 8 8 6 (.&.g d @.y y (.d 7 8 8 ",
"m a q 6 > > > > > > > > > > > & 6 7 & > > > > > > > > 7 > > > > > & t F.d d s f +.s f s f d d s f d e.q.- > 9 a c Q ) e w 9 6 > > > > > > > > > > > & 7 6 > > > > > > > & 6 7 & > > > > 6 7 & > > & 6 7 & 9 w e g.n.] 3 , ] M.H.M.m.m.q.q.9.{ { [ ] [ ] 3 ] ] ] ] ] ] ] 3 ] { ] [ [ { { 9.q.q.m.M.G.M.9.1 1 4 V.:X@...t & 7 6 > > > 7 > > 6 7 & > 7 6 & 7 > 6 8 & > > > > > > > > > > > > > > & 7 7 p @.@.cX@.& t 8 6 O.HXGXs 7 8 8 > > q 0 0 q 0 0 7 & q 0 0 q 0 0 9 & 7 - R.DX& o o o 1 GXV.- t 8 8 6 t.*X*X*X&X*X`.6Xd 7 8 8 ",
"m a q 6 > > > > > > > > > > > & 6 7 & > > > > > > > > 7 > > > > > & u F.d s s f +.s f s f f s s f d e.w.- > 9 a c Q ) e w 9 6 > > > > > > > > > > > & 7 6 > > > > > > > & 6 7 & > > > > 6 7 & > > & 6 7 & 9 w e g.n.4 9.G.n.q.3 , 8 8 , u 1 , 1 1 1 1 1 1 1 1 1 1 1 1 1 1 1 u 1 1 1 1 1 , , , , t 1 { M.G.q.4 V.:X@...t & 7 6 > > > 7 > > 6 7 & > 7 6 & 7 > 6 8 & > > > > > > > > > > > > > > & 7 7 p @.@.cX@.& t 8 6 O.HXGXs 7 8 8 > > q 0 0 q 0 0 7 & q 0 0 q 0 0 9 & 6 s GX3 o > &   O e.GX8 7 8 8 6 (._.#.;X%X).&X_.g 7 8 8 ",
"!.v q 6 > > > > > > > > > > > & 6 7 & > > > > > > > > 7 > > > > , & s F.i f f f +.s f s f f s s f d e.m.6 > 9 a c Q ) e w 9 6 > > > > > > > > > > > & 7 6 > > > > > > > & 6 7 & > > > > 6 7 & > > & 6 7 & 9 w e g.m.m.jXq., t 1 1 3 3 1 s 1 1 1 1 1 1 1 1 1 1 1 1 1 1 1 1 1 s 1 1 1 1 1 1 1 1 1 s 1 1 , [ jXn.N.:X@...t > 7 6 > > > 7 > > 6 7 & > 7 6 > 7 > 6 8 & > > > > > > > > > > > > > > & 7 7 p @.@.cX@.& t 8 6 O.HXGXs 7 8 8 > > q 0 0 q 0 0 7 & q 0 0 q 0 0 9 & - s.DX& & & & 4XMX+.DXs 7 8 8 7 6 8 & #.t 6 8 6 7 7 8 8 ",
"!.v q 9 > > > > > > > > > > > > 6 7 & > > > > > > > > 7 > > > - + + u F.i f f f +.f f f f f f f f f e.F.q > 9 a c Q ) e w 9 6 > > > > > > > > > > > > 7 6 > > > > > > > > 6 7 & > > > > 6 7 > > > > 6 7 > 9 w e i.gXG.9.3 1 s 1 1 3 1 1 s 1 1 1 1 1 1 1 1 1 1 1 1 1 1 1 1 1 s 1 1 1 1 1 1 1 1 1 s 1 1 1 3 3 G.zX>X@...t > 7 6 > > > 7 > > 6 7 > > 7 > > 7 > 6 8 > > > > > > > > > > > > > > > > 7 7 t @.@.cX@.& t 8 6 O.HXGXs 7 8 8 > > q 0 0 q 0 0 7 & q 0 0 q 0 0 9 & - e.DX& & & & `.#Xu m.u 7 8 7 g $.7 t.g &.7 t &.&.g 7 8 ",
"n c q 6 & - & & & & & & & & - & 6 7 & - & & & & & & & 7 & & - ] m.q.F.m.y d d d +.d d i d @.i i o...o.jXg., 9 a c Q ^ w w 9 > & & & & & & & & & & & & 7 > & & & & & & & & 6 7 & & & & & > 7 & & & & 6 6 & 6 w e L.gX{ 9.3 1 u u 2 u u 2 o.u 2 1 1 1 1 1 1 1 1 1 1 1 1 1 1 1 u 1 1 1 1 1 1 1 1 1 s 1 1 1 3 { { jXxXX...p - 7 - & & & 7 - - - 7 - - 7 - & 7 - - r & - - - - - - - - - - - - - - & 6 7 p ..%.cX@.& t 8 6 O.HXGXs 7 8 8 > > q 0 0 q 0 0 7 & q 0 0 q 0 0 9 & 7 t GXe.o & &   O ] g.7 8 8 7 _._.$.%X4X#X@.#X;X4X#X6 8 ",
"D D S A A A A A A A A A A A A A A S A A A A A A A A A S A A A rXyXyXyXS S S S S rXS S S S S S D D D V k.K.{ 0 v c Q ) e e y 8 8 8 8 8 8 8 8 8 t 8 8 8 y 8 8 8 8 8 8 8 8 8 t y 7 8 8 8 8 8 y 8 8 8 8 t y 7 y e r.AXF.q.s.+.s f H V D D D S S S S S S S S S S S S S S S S S S S S S S S S S S S S S S S S S S S rXyXS S S Z A S D D S S S S S S S S S S A S A A S A A A A A A A A A A A A A A A A S S S S S b...& t 8 6 O.HXGXs 7 8 8 > > q 0 0 q 0 0 7 & q 0 0 q 0 0 9 & 7 6 V.GXs X & & 3 m.s 7 8 8 7 ).%X`.%X;X#X$.&X&X4X#X7 8 ",
"Q R n e e e e e e e e e e e e e e e e e e e e e e e e e e e e x.P J P P P P P P P I I i.i.k.k.aXaXpXF F uXtXD G v !. XL w 9 6 6 6 6 6 6 6 6 y y 6 6 6 8 7 6 6 6 6 6 6 6 6 7 8 6 6 6 6 6 7 8 6 6 6 6 7 7 6 9 f J.L.H.9.H D S S S D D V G H G G G G G 5 5 5 5 5 5 5 5 5 5 5 G G 5 5 5 5 5 5 5 5 5 G 5 5 5 H H H x.1XK.H w s.cXcXR.hXSXaXF.w.w.u.r.r.r.r.r.r.K r.r.K K K K K K K K K K K K K K K K r.r.r.f.d.nX..& t 8 6 O.HXGXs 7 8 8 > > q 0 0 q 0 0 7 & q 0 0 q 0 0 9 & 7 8 6 T.g.- 7 6 e.O.7 8 8 8 7 d #.i @.d @.7 #.g #.d 7 8 ",
"N m m x l l l l l l l l l l l l x x l l l l l l l l l c l z l V.(.n 2.3.n n n n 3.n n n n 3.3.3.A.zXjXf.`.XX( F rXF T P q 9 6 > > > & & & u s u & & * ; = & & & & & & & * & ; = & & & * & 7 & & & & 6 7 > 6 H.g.i.pXrXrXD G 4 u 2 u u 2 o.1 2 1 1 1 1 1 1 1 1 1 1 1 1 1 1 1 u 1 1 1 1 1 1 1 1 1 u 1 1 2 3 { { S.cXs.xXcXcX>.m.jXM.=.-.X.X.X.%.X.X.-.X.| -.X.X.-.| X.X.X.X.X.X.X.X.X.X.X.X.X.X.| %.-.:.6.6.bX..& t 8 6 O.HXGXs 7 8 8 > > q 0 0 q 0 0 7 & q 0 0 q 0 0 9 & 7 8 8 6 7 t t t 7 7 8 8 8 8 8 7 6 7 6 7 6 8 6 7 6 7 8 8 ",
"N m m x z z z z z z z z z z z z x x z z z z z z z z z c z z z V.Q.v 2.b b b b b 2.b b b 2.2.b v n n d.hXhXV.1.9X{.T tXtXD # - ; ; ; 6 % w P I I I C C C C C C C C C C C C C C C C C C C C J % % 9 - ; ; - H pXD rXY w.{ } 2 u 1 1 3 1 1 s 1 1 1 1 1 1 1 1 1 1 1 1 1 1 1 1 1 s 1 1 1 1 1 1 1 1 1 s 1 1 1 3 { 9.S.-XcXVXS.u gXjX%.X.X.-.| | | -.| | -.| | -.| | -.| | | | | | | | | | | | | | | | %.%.-.>.>.vX..& t 8 6 O.HXGXs 7 8 8 > > q 0 0 q 0 0 7 & q 0 0 q 0 0 9 & 7 8 8 t 7 - - - 7 t 8 8 8 8 7 8 t 8 8 8 8 8 8 8 8 8 7 8 ",
"N m m x z z z z z z z z z z z z x x z z z z z z z z z c z z z V.2.v 2.b b b b b 2.b b b b 2.b b 2.2.n n J.AXJ.Q.8X0X XI D S A Z V F F C C I I I I C % C % % % % % % % % % % C % C C C C C C C C F F F D A rXD I x.G.{ 9.3 1 s 1 1 s 1 1 s 1 1 1 1 1 1 1 1 1 1 1 1 1 1 1 1 1 s 1 1 1 1 1 1 1 1 1 s 1 1 1 3 { 9.V.NXcXB.zXjXH.X.| | | -.| | | -.| | -.| | -.| | -.| | | | | | | | | | | | | | | | %.-.-.>.6.vX..& t 8 6 O.HXGXs 7 8 8 > > q 0 0 q 0 0 7 & q 0 0 q 0 0 9 & 7 8 8 - s V.R.V.u 6 8 8 8 8 8 7 > 7 8 7 7 7 8 8 7 7 8 8 ",
"N m m x z z z z z z z z z z z z x x z z z z z z z z z c z z z F.2.v 2.b b b b b 2.b b b b 2.b b 2.2.b b n L.FX].4.0X0Xy.$.I F F D S S A S S S S S S A S A A A A A A A A A A S A A A A A A A A A A A D V pXb.f g x.G.9.9.3 1 s 1 1 s 1 1 s 1 1 1 1 1 1 1 1 1 1 1 1 1 1 1 1 1 s 1 1 1 1 1 1 1 1 1 s 1 1 1 3 { 9.xXNXB.>.AXjXX.%.| | | -.| | | -.| | -.| | -.| | -.| | | | | | | | | | | | | | | | %.-.-.>.6.vX..& t 8 6 O.HXGXs 7 8 8 > & e e e e e e 7 & y e e e e e 9 & 7 8 6 V.GXzXT.zXGXs.6 t 8 8 7 d _.y 7 y d t 7 7 y d 7 8 ",
"N m m c z z z z z z z z z z z z x x z z z z z z z z h H.L.L.L.L.n b 2.b b b b b 2.b b b b 2.b b 2.2.v b 2.c J.zXN !.0X( T / f d g g f f K K K K I G # G G G G G G G G G # G G # # # # # # w % 9 9 6 9 s G.J F I g.G.9.9.3 1 s 1 1 s 1 1 s 1 1 1 1 1 1 1 1 1 1 1 1 1 1 1 1 1 s 1 1 1 1 1 1 1 1 1 s 1 1 1 3 4 N.VXcX>.jXjXxX-.| | | | -.| | | -.| | -.| | -.| | -.| | | | | | | | | | | | | | | | %.-.-.>.6.vX..& t 8 6 O.HXGXs 7 8 8 > & e e e e e e 7 & w e e e e e 9 & 8 6 V.GXO.o o o s.HXe.6 8 8 7 #X$.=X$.&X*X#X%X&.=X_.6 8 ",
"N 4.m n z z z z z z z z z z z z x x z z z z z z z l *.L.n 2.b n b b 2.b b b b b 2.b b b b 2.b b 2.2.v b 2.n d.FXI.{. X` ^ f f f f f f f f f f f f f 9 9 9 6 9 9 9 9 9 9 6 9 9 6 9 9 9 9 9 9 6 9 9 9 % F.q.w K _ b.G.9.9.3 1 s 1 1 s 1 1 s 1 1 1 1 1 1 1 1 1 1 1 1 1 1 1 1 1 s 1 1 1 1 1 1 1 1 1 s 1 1 1 4 { NXxXcXzXjX-.S.S...| | | -.| | | -.| | -.| | -.| | -.| | | | | | | | | | | | | | | | %.-.-.>.6.vX..& t 8 6 O.HXGXs 7 8 8 > & e e e e e e 7 & w e e e e e 9 & 7 t GXe.O & &   O V.DX6 8 8 6 `._.#X*X&X%X=X&X*X=Xt.6 8 ",
"N m 4.c z z z z z z z z z z z z x x z z z z z z z l *.V.c b b b b b 2.b b b b b 2.b b b b 2.v b 2.2.v b 2.n (.T.AX1X_ Q 0XP f f f f f f f f f f f f w w 9 9 9 9 9 9 9 9 9 9 w 9 9 9 9 9 9 w 9 9 9 6 4 H.w f K L T b.{ 9.3 1 s 3 1 3 3 1 s 1 1 1 1 1 1 1 1 1 1 1 1 1 1 1 1 1 u 1 1 1 1 1 1 1 1 1 s 1 1 1 4 cXxXS.NXgXB.;.=.zX%.| | | -.| | | -.| | -.| | -.| | -.| | | | | | | | | | | | | | | | %.-.-.>.6.vX..& t 8 6 O.HXGXs 7 8 8 > & e e e e e e 7 & w e e e e e 9 & 6 e.DX& & & & (.).s GXs 7 8 7 8 @.7 d t $._.7 d t i 7 8 ",
"N m m x z z z z z z z z z z z z x x z z z z z z z l y.A.n b b b b b 2.b b b b b 2.b b b 2.2.b b 2.2.b b 2.b 2.4.].FXXXE {.( f f f f f f f f f f f f f f 9 9 9 9 9 9 9 9 9 9 w 9 9 9 9 9 9 w 9 9 9 + F.9.w f K P g.pXI { 3 1 s t , t t 1 s 3 3 3 ] ] ] [ [ [ [ [ [ [ [ [ ] [ { 3 ] 3 3 3 4 1 1 , t , 1 < B.NXs.xXFXS.>.>.%.S.S. .| | -.| | %.-.| | -.| | -.| | -.| | | | | | | | | | | | | | | | %.-.-.>.6.vX..& t 8 6 O.HXGXs 7 8 8 > & e e e e e e 7 & w e e e e e 9 & - s.DX& & & & 4XMXd m.s 7 8 7 y t 7 y 8 y 6 7 i i t 7 8 ",
"N m m c c c c c c c c c c c c x c c x c c c c c c x f.A.n 2.2.2.2.2.2.2.2.2.2.2.Q.2.2.2.2.2.2.2.2.2.2.2.2.2.2.!._ XXFXE.E 0XE K P K K K L L L L L L K P w w w w w w w w w w w w w w w w w w w w 9 e.H.f f f K P x.F.T s.[ t O.q.m.H.H.G.H.G.G.G.G.G.G.G.G.G.G.G.G.G.G.G.G.G.H.G.G.G.G.G.G.G.G.H.H.q.[ s NXS.N.gXzX>XB.B.=.B.zX-.%.-.;.-.-.-.-.-.-.;.-.-.;.-.-.;.-.-.-.-.-.-.-.-.-.-.-.-.-.-.-.-.-.;.;.6.@XvX..& t 8 6 O.HXGXs 7 8 8 > & e e e e e e 7 & w e e e e e 9 & 6 s GX3 o & &   O 1 g.7 8 8 7 ).#Xg &X*X%Xy (.=X;X_.6 8 ",
"N m m x z z z z z z z z z z z z x x z z z z z z z l r.A.n b b b b v 2.b b b b b 2.b b v b 2.v v 2.2.v b 2.b 3.^ ^ ( aXSXQ Q 0Xf f f f f f f f f f f f f w 6 6 6 6 6 6 6 6 9 9 6 6 6 6 6 6 9 6 6 + G.9.w w f K L x.F.H T { M.G.H.m.q.9.[ { [ 3 3 3 3 3 3 3 3 3 3 3 3 3 3 3 3 [ 3 3 3 3 3 ] [ { 9.m.M.G.xXNX=.jXJXcXB.B.=.=.-.S.S. .| -.| | | %.| | -.| | -.| | -.| | | | | | | | | | | | | | | | %.-.-.>.6.vX..& t 8 6 O.HXGXs 7 8 8 > & e e e e e e 7 & w e e e e e 9 & 7 6 R.DX& * & & , m.e.7 8 8 7 _.#X`.#X6X_.t.&X*X4X#X7 8 ",
"N m m x z z z z z z z z z z z z x x z z z z z z z l s.A.n b b b b b 2.b b b b b 2.b b b b 2.b b 2.2.v b 2.v W _ !.[.OXSXv.n {.m f L L I I I I I I I I ) I C C C C C C C C C C C C C C C C C C C K H.w s 1 f K L x.F.9.U.hXM.[ 3 4 ] ] 3 O.[ ] ] ] ] ] ] ] ] ] ] ] ] ] ] ] [ [ ] ] ] ] ] ] 3 3 3 O.4 [ NXzXjXgXxXcXB.B.;.=.=.=.zX| | -.| | | -.| | -.| | -.| | -.| | | | | | | | | | | | | | | | %.-.-.>.6.vX..& t 8 6 O.HXGXs 7 8 8 > & e e e e e e 7 & w e e e e e 9 & 7 7 8 DXV.X , - e.s.7 8 8 8 7 #.`.@.(.&.(.7 (.t.`.$.7 8 ",
"N m m x z z z z z z z z z z z z x x z z z z z z z l s.A.n b b b b b 2.b b b b b 2.b b b b 2.b b 2.2.v b 2.v _ ^ !.[.` T.FXQ.Q ` T ) I I I I I I I I I I I C % % % % % % % C C J I J C C C C C C U.T C I J f f L x.F.K.H.T 4 [ [ ] [ [ 3 [ [ ] ] ] ] ] ] ] ] ] ] ] ] ] ] ] ] [ 3 ] ] ] ] ] ] ] ] { 4 cXcXs.FXjXxXvXB.B.;.=.=.%.xXN...-.| | | -.| | -.| | -.| | -.| | | | | | | | | | | | | | | | %.-.-.>.6.vX..& t 8 6 O.HXGXs 7 8 8 > > a a a i d d 7 & y q q y o.o.t & 7 8 7 8 t 8 8 8 t 7 7 8 8 7 8 7 6 7 6 6 6 7 6 6 6 7 8 8 ",
"N m m x z z z z z z z z z z z z x x z z z z z z z l s.A.n b b b b b 2.b b b b b 2.b b b b 2.b b 2.2.v b 3.R _ !.!.[.OXW.hXAX) ( Q K L K K L L L L L L P L L w % w % % % % w w L L K w % w w % 4 H.w K I I T I L p.AXF.9.I T [ [ 3 [ [ 3 [ [ ] ] ] ] ] ] ] ] ] ] ] ] ] ] ] ] [ 3 ] ] ] ] [ ] ] ] [ =.NXs.AXH.S.JXcXB.B.;.=.=.=.N.zX .-.| | | -.| | -.| | -.| | -.| | | | | | | | | | | | | | | | %.-.-.>.6.vX..& t 8 6 O.HXGXs 7 8 8 > > y y y y y y 7 & y q q y o.o.t & 7 8 8 7 7 r r r 7 8 8 8 8 8 7 8 8 8 t 8 8 8 8 8 8 8 8 8 ",
"N m m x z z z z z z z z z z z z x x z z z z z z z l s.h.n b b b b b 2.b b b b b 2.b b b b 2.b b 2.2.v b 2._ E !.!.[.OX/ b.U.hXW.8XL L L L L L L L L L P L L L % % % % % % w L L L L e % % w % F.9.w K f w J F / hXK.9.w.9.T K [ 3 [ [ 3 [ [ ] ] ] ] ] ] ] ] ] ] ] ] ] ] ] ] [ 3 ] ] 3 [ [ 3 ] [ 4 cXcXgXjXN.N.zXzXB.B.;.=.=.=.%.zX=.%.| | | -.| | -.| | -.| | -.| | | | | | | | | | | | | | | | %.-.-.>.6.vX..& t 8 6 O.HXGXs 7 8 8 > & {.0X0X*XnXnXy * y q q y o.o.t & 7 8 8 r 9 e C e 8 r 8 8 8 8 8 8 8 7 6 7 t 8 8 8 8 8 8 8 ",
"N 4.m c z z z z z z z z z z z z x x z z z z z z z l s.h.n b b b b b 2.b b b b b 2.b b b b 2.b b 2.2.b 3.~ / 2.!.!.[.` _ v.T.L.SX'.( K L L L L L L L L P L L L L w % % % % w P L L L L % w e f H.w w f K w K J U.aXF.w.w.9.K T [ 3 [ [ 3 [ [ ] ] ] ] ] ] ] ] ] ] ] ] ] ] ] ] [ 3 ] ] 3 [ { ] [ 4 =.NXAXH.=.N.V.xXNXxX>.>.=.=.=.%.N.xXX.| | | -.| | -.| | -.| | -.| | | | | | | | | | | | | | | | %.-.-.>.6.vX..& t 8 6 O.HXGXs 7 8 8 > > n n n *.f.&.8 & q q q i o.o.t & 7 8 r e ' ' C ' ' % r 8 8 8 8 8 7 8 $.y > 7 7 7 8 8 8 8 ",
"N 4.'.n z z z z z z z z z z z z x x z z z l l l l l s.h.n b b b b b 2.b b b b b 2.b b b b 2.b b 2.2.v b _ b W !.!.` _ ^ Q v.L.a.SX3XK e J L L L L L L P L L L L L w w w L L P L L L L w w e m.w.w w K K w w i.hXT b.w.w.9.[ T K ] [ [ ] { [ ] ] ] ] ] ] ] ] ] ] ] ] ] ] ] [ { ] ] ] 3 [ 9.3 3 { jXAXm.=.N.N.V.kXcXzXS.;.=.=.=.=.=.zX=.| | | -.| | -.| | -.| | -.| | | | | | | | | | | | | | | | %.-.-.>.6.vX..& t 8 6 O.HXGXs 7 8 8 > & n {.N `.@X@Xt & 8 8 8 t t t 8 & 7 r % ' % * * * % ' e r 8 8 8 8 6 g %X_._.(.&.y 7 8 8 8 ",
"N 4.m c z z z z z z z z z z z z x x z z z #.r.r.r.*.F.d.n b v v b v 2.b v v v b 2.v b v b 2.v v 2.b v / ~ b W !.Q _ ` ^ E E L.m W J.SXF.u.K L L e e e J J e e e J J J J J L L e J J J e e r.F.w w w w w w J J.I x.pXI q.K 4 K T 1 3 3 2 O.3 4 4 4 3 3 4 4 4 4 4 4 4 4 4 4 3 s 4 3 3 ] 9.Y M.K.gXzXs.=.N.N.N.V.kXcXS.zX>.=.=.=.=.| S.S. .| | %.| | %.| | %.| | -.| | | | | | | | | | | | | | | | %.%.-.>.>.vX..& t 8 6 O.HXGXs 7 8 8 > & 0X0X0X6XMXMXi * m N k 6.xXcX| X 7 8 ' % = & & & = % ' r 8 8 8 8 6 @._.*X#X(.;X6 8 8 8 8 ",
"N m m x x x x x x x x x x x x x c c x x h J.A.A.A.A.A.Q.2.2.2.2.2.2.2.2.2.2.2.2.2.2.2.2.2.2.2.2.2.2.b _ W.W W.!._ ` OX^ ^ E J.j.R R {.L.hXhXSXgXF.F.L.x.g.g.g.g.g.g.g.g.g.g.g.g.g.g.g.g.u.J.F.9.w.w.w.w.w.K.hXx.J.hXaXJ.G.F.F.U.F.G.G.G.G.G.G.G.G.G.G.G.G.G.G.G.G.G.G.G.G.G.K.K.gXgXgXSXaXjXw.cXcXs.N.N.N.S.S.xXNXB.xXxX-.f.=.=.=.=.zX-.%.-.-.%.%.-.%.%.=.%.-.;.%.%.%.%.%.%.%.%.%.%.%.%.%.%.%.%.-.-.;.6.6.vX..& t 8 6 O.HXGXs 7 8 8 > & {.0X0X:XnXnXy * m 7X7X@XxXNX=.X r e ' & &   X & * 6 ' 9 7 8 8 8 7 t ).#.t (.(.> t 8 8 8 ",
"N m m c c c c c c c c c c c c c c c c x y.V.m n n n n 2.2.2.2.2.2.2.2.2.2.2.2.2.2.2.2.2.2.2.2.2.2.3.~ ~ Q.W Q._ ^ [.` ^ ^ E W.J.T.a.( ( r.hXg.J.J.F.H.J.J.J.J.J.J.J.J.J.J.J.J.J.J.J.J.J.hXSXK.hXJ.K.K.J.hXAXJ.J.SXSXhXaXK.F.F.H.U.F.F.n.F.n.n.n.n.F.H.F.n.n.m.n.n.m.n.m.m.m.m.w.q.q.q.H rXO.O.NXN.N.N.N.N.S.S.xXNXS.S.zXN.;.=.=.=.-.xXS.X.-.-.%.%.;.%.=.H.-.-.;.%.-.-.-.-.-.-.-.-.-.-.-.-.-.-.%.-.-.;.6.@XvX..& t 8 6 O.HXGXs 7 8 8 > & {.0X0X:XnXnXy & 8 7 7 7 8 8 7 & 7 e ' &   d i X & & ' 9 7 8 8 8 t 7 & 6 t d 7 8 7 7 8 8 ",
"N m m x z z z z z z z z z l l l l x l l #.V.n b b b b 2.v v v v v v 2.b v v v b 2.v v v b 2.v v 3.b _ b W b E _ Q [.` ! ! E R R j.J.W 8Xx.g.e g.F.e e J J e e e J J J J e L L e J e J e g.L.e K K L w L T.g.a.a.Y.U.g.z.I 4 K r.I K 3 3 e.3 3 s 3 O.e.O.2 3 3 3 3 4 3 3 4 3 O.3 3 4 ] H wX4 S.cXs.N.=.=.N.N.V.kXNXS.B.S.zX-.=.=.=.=.N.zX .| %.| | -.X.=.H.m.H.%.| | | | | | | | | | | | | | | | %.%.-.>.>.vX..& t 8 6 O.HXGXs 7 8 8 > & {.0X0X:XnXnXy * a m x @.=.=.u & 7 9 ' + = IX&.  = % ' 7 8 8 8 6 y @.g _.`.6 #X#X%Xy 7 8 ",
"N M m x h h h h h h h h h h s.s.s.s.s.r.F.j.n b b b b 2.b b b b b b 2.b b b b b 2.b b b b 2.b b 3.~ / b W b _ ^ Q [.` ^ ! E R R m L.J.( 1Xw.L J H.K L P L L L L L L L L L L P L L L L K J.u.r.r.r.K w g.J.i.p.l.Y.U.x.g.T K s.s.u.z.{ 9.s.[ { e.9.e.s.e.{ [ ] e.[ ] { [ ] [ [ e.[ 3 [ Y wX{ NXN.N.N.N.N.N.N.V.kXNXS.S.B.zXN.=.=.=.=.-.zX=.X.-.| | -.X.s.H.H.FX;.X.| | | | | | | | | | | | | | | %.-.-.>.6.vX..& t 8 6 O.HXGXs 7 8 8 > & {.0X0X:XnXnXy * M 7X7X<XCXCX>.X 7 r C C g *X  & & ' e r 8 8 7 d (.;X&X4Xg `.;X;X4Xg 7 8 ",
"I.A.V.T.L.L.L.L.L.L.L.L.L.L.V.j.j.j.j.j.j.2.b b b b b 2.b b b b b b 2.b b b b b 2.b b b b 2.b v b _ b W 2./ _ !.Q [.` ^ ! E R R R R T.j.R.r.L J x.F.e P L L L L L L L L L L P L L L e g.L.P r.r.r.K K hXg.u.p.p.Y.U.x.g.p.T s.u.e.z.r.9.s.[ e.e.e.e.e.e.e.e.[ e.[ [ e.[ [ [ [ e.[ 3 e.rXwXS.cX=.B.N.N.N.N.N.V.kXNXS.S.B.S.zX%.=.=.=.=.N.S...-.| | -.X.s.H.H.FXjX=.| | | | | | | | | | | | | | | %.-.-.>.6.vX..& t 8 6 O.HXGXs 7 8 8 > & {.0X0X:XnXnXy * M 7X7X<XCXCX>.X 7 8 7 ' ' * 6 & C C r 8 8 8 7 t $._.$._.y &.%X_.&Xi 7 8 ",
"'.].`.Q.n n n n n n n n n n n n n n n n n b b b b b b 2.b b b b b b 2.b b b b b 2.b b b b 2.b 3./ / b W W _ E Q Q [.` ^ ! E R R R R W.hX1XQ K L L F.L P L L L L L L L L L L P L L L L J.u.y.r.r.r.K g.J.r.u.p.p.Y.U.g.x.g.z.l.s.e.u.T e.s.e.e.e.e.e.e.e.e.e.e.e.[ [ s.e.e.[ e.e.{ ] 9.eXtXmXB.=.N.B.N.N.N.N.V.kXNXS.S.N.=.zXN.%.=.N.=.=.zX-.%.| | -.X.N.gXAXAXhXjX=.| | | | | | | | | | | | | | %.-.-.>.6.vX..& t 8 6 O.HXGXs 7 8 8 > & {.0X0X:XnXnXy * M 7X7X<XCXCX>.X 7 8 7 8 y t t t 8 7 7 8 8 8 8 7 7 7 7 7 7 7 7 7 8 7 8 8 ",
"{.4.4.n b b b b b b b b b b b b 2.2.b b b b b b b b b 2.b b b b b b 2.b b b b b 2.b b b b 2.v b _ W b b ) / W Q Q [.` ^ ! E R R R R R R Q ( L L L F.K P L L L L L L L L L L P L L e g.L.K u.K r.r.K hXg.u.u.p.p.Y.U.g.x.g.i.z.s.r.s.z.i.s.e.e.e.e.e.e.e.e.e.e.e.[ [ s.e.e.[ s.e.e.[ i.eXU L.=.N.B.B.N.N.N.N.V.kXNXS.S.N.s.S.zX| =.jX=.| S.S.X.| | -.X.jXAXgXk.V.FXH.X.| | X.| | | | | | | | | | %.-.-.>.6.vX..& t 8 6 O.HXGXs 7 8 8 > & {.0X0X:XnXnXy * M 7X7X<XCXCX>.X 7 8 8 r 7 - - - 7 t 8 8 8 8 8 8 8 8 8 8 8 8 8 8 7 8 8 8 ",
"{.'.'.2.v b b b b b b b b b b b 2.2.b b b b b b b b b 2.b b b b b b 2.b b b b b 2.b b b b 2.v / ~ b b R _ R E Q Q [.` ^ ! E R R R R R R P ( Q K e F.g.P L L L L L L L L L L P L L L J.u.K r.K r.K L.T.u.u.u.p.p.Y.U.g.x.g.u.z.l.e.u.u.z.s.s.e.e.e.e.e.e.e.e.e.s.[ 9.s.e.e.e.s.e.e.=.H eXb.i.>.N.B.B.N.N.N.S.S.kXmXS.B.B.N.N.zX=.=.jX=.=.=.zX%.| | -.X.gXFXhXyXL.FXjXm.s.X.s.m.=.X.| | | | | | | %.-.-.>.6.vX..& t 8 6 O.HXGXs 7 8 8 > & {.0X0X:XnXnXy * M 7X7X<XCXCX>.X 7 8 8 6 s S.xXS.u 6 t 7 8 8 8 8 8 7 7 7 7 t 8 8 8 8 8 8 ",
"{.'.'.Q.v b b b b b b b b b b b 2.2.b b b b b b b b b 2.b b b b b b 2.b b b b b 2.b b b b 2.b _ W W b ) ~ R E Q Q [.` ^ ! E R R R R R R R Q ( K J g.F.e L L L L L L L L L L P L J u.H.K r.y.r.r.r.hXg.u.u.u.p.p.Y.U.g.x.g.u.i.z.r.u.s.z.p.e.e.e.e.e.e.e.e.e.e.s.{ e.s.e.e.e.s.e.e.e.Y rXY.Y B.B.B.B.N.N.N.S.S.kXmXS.S.S.B.f.S.zXs.gX-.H.m.xXN. .| %.=.jXAXhXrXL.FXjXAXH.p H.H.gXN.X.| | | | | | %.-.-.>.6.vX..& t 8 6 O.HXGXs 7 8 8 > & {.0X0X:XnXnXy * M 7X7X<XCXCX>.X 7 t 6 S.LXzXxXzXLXs.6 t 8 8 8 8 7 y y y t > 7 8 8 8 8 8 ",
"{.!.4.2.v b b b b b b b b b b v b 2.v b b b b b b b b 2.b b b b b v 2.b v b b b 2.v b v b 3./ / b W R _ W R E Q Q [.` ^ ! E R R R R R R R P ( W K K J.x.L L L L L L L L L L P L J H.u.K r.r.r.K L.H.r.u.u.u.p.p.Y.U.g.x.g.u.u.z.l.s.s.i.z.e.e.e.e.e.e.e.e.e.e.e.e.e.e.e.e.e.s.e.e.i.wXY.v.Y S.B.S.B.N.N.N.S.S.kXmXS.S.B.V.N.=.jXm.gXV.jXH.N.xX .| X.m.V.jXJ.rXx.jXH.AXH.%.H.H.FXm.X.| | | | | | %.%.-.>.>.vX..& t 8 6 O.HXGXs 7 8 8 > & {.0X0X:XnXnXy * M 7X7X<XCXCX>.X t 6 S.LXO.o o o N.LXs.6 t 8 8 8 7 (.;X&X`.).;Xi 7 8 8 8 ",
"{.!.4.2.2.2.2.2.2.2.2.2.2.2.2.2.2.2.2.2.2.2.2.2.2.2.2.2.2.2.2.2.2.2.2.2.2.2.2.2.2.2.2.2.2.2._ W W.Q._ ~ E E E !.!.[.OX^ ^ E E E E E E E E W Q ( K P P J.g.P P P P P P P P P P L u.T.P u.y.a.r.y.hXg.u.u.u.p.p.l.Y.U.x.x.g.u.u.p.z.u.u.s.z.u.s.s.s.s.s.s.s.s.s.s.s.s.s.s.s.s.s.s.s.i.eX3Xv.tXi.g.S.k.A.S.S.S.T.kXmXS.S.S.AXS.;.jXjXAXAXAXH.=.zX=.%.-.H.f.hXH.eXx.zXhXhXgXjXjXjXhXjXN.%.-.-.-.-.%.-.-.;.6.@XvX..& t 8 6 O.HXGXs 7 8 8 > & {.0X0X:XnXnXy * M 7X7X<XCXCX>.X 7 t HXs.O & &   O S.VX6 8 8 8 8 6 t.6X;X&X6X=Xy 7 8 8 8 ",
"{.!.4.2.b b b b b b b b b b b b 2.2.b b b b b b b b b 2.b b b b b b 2.b b b b b 2.b b b 3.! / b W E _ W E R E Q Q [.` ^ ! E W R R R R R R W R ( R K J u.J.L L L L L L L L L P e T.g.K r.r.u.K L.H.r.u.u.u.u.p.l.Y.U.x.x.g.u.u.u.z.z.s.e.p.z.e.e.e.e.e.e.e.e.e.e.e.e.e.e.e.s.s.e.s.H eXv.C.eXwXY A.eXV.B.V.S.S.kXmXS.B.zXFXS.;.jXFXAXAXhXjXjXgXV.X.N.H.;.jXpXeXi.>.hXT.AXjXgXAXN.AXAX%.| | | | | %.-.-.>.6.vX..& t 8 6 O.HXGXs 7 8 8 > & {.0X0X:XnXnXy * M 7X7X<XCXCX>.X 6 =.GX& & & & t.`.o.HXs 7 8 8 8 7 y @.@.d $.$.i 7 8 8 8 ",
"{.!.4.b b b b b b b b b b b b v 2.2.v b b b b b b b b 2.b b b b b v 2.b b b b b 2.b b b 3._ R b b _ / W E R E Q Q [.` ^ ! E R R R R R R R R R Q ( K L J F.r.J L L L L L L L L r.H.L K r.r.r.K J.g.u.u.u.u.u.p.p.Y.U.g.x.g.u.u.u.u.z.u.r.s.z.r.e.e.e.e.e.e.e.e.e.e.e.e.e.e.e.s.r.s.S eXA.C.rXeXY g.rXg.B.S.xXk.E.NXS.S.k.K.zX;.jXFXjXH.;.hXAXFXjXa AXhX*.J.yXeXi.I Y Y gXH.AXAXs.hXH.=.| | | | | %.-.-.>.6.vX..& t 8 6 O.HXGXs 7 8 8 > & {.0X0X:XnXnXy * M 7X7X<XCXCX>.X 6 s.VX& & & & 6XMXd S.s 7 8 8 7 7 7 6 > 6 6 > 7 7 7 8 8 ",
"{.!.4.b b b b b b b b b b b b b 2.2.b b b b b b b b b 2.b b b b b b 2.b b b b b 2.b b v R / b b W _ R W E R E Q Q [.` ^ ! E R R R R R R R R R R ( R K P g.J.K L L L L L L L L J.gXx.r.K r.P g.J.r.u.u.u.u.u.p.p.Y.U.g.x.g.u.u.u.u.z.l.e.s.p.z.e.e.e.e.e.e.e.e.e.e.e.e.e.e.e.U S H eXb.Z.A.tXrXrXY yXg.Y Y x.rXU.R.S.S.yXrXH.S.jXFXk.Y ;.hXH.x.AXm.SXzXI rXrXeXi.rXS U hXH.AXAXs.hXH.jX| | | | | %.-.-.>.6.vX..& t 8 6 O.HXGXs 7 8 8 > & {.0X0X:XnXnXy * M 7X7X>XCXCX=.X 7 o.LX3 o & &   O 2 N.7 8 8 6 (._.y %X).#X7 $.%X%X(.7 8 ",
"{.!.4.b b b b b b b b b b b b b 2.2.b b b b b b b b b 2.b b b b b b 2.b b b b b 2.b b v _ E b b ) / R W E R E Q Q [.` ^ ! E R R R R R R R R R R Q ( K P e g.F.J K L L L L L g.hXu.J.J.K r.y.J.g.u.u.u.u.u.u.p.p.Y.U.g.x.g.u.u.u.u.i.z.e.u.u.z.e.e.e.e.e.e.e.e.e.e.e.e.H e.e.wXrXD eXc.T.hXU tXrXeXY i.wXeXrXwXb.yXA.b.rXY aXFXAXJ.eXeXr.jXF.D gXFXhXN.T S eXtXU eXtXrXs.H.jXjXf.;.H.AX| | | | | %.-.-.>.6.vX..& t 8 6 O.HXGXs 7 8 8 > & N 8XN @X-X-Xy * m 7X7X>.BXBX<.X r 6 xXzX& * & & , m.=.9 8 8 8 _._.(._.6X_.t.&X=X4X#X6 8 ",
"{.4.4.n b b b b b b b b b b b b 2.2.b b b b b b b b b 2.b b b b b b 2.b b b b b 2.b v R _ b b R _ W R W E R E Q Q [.` ^ ! E R R R R R R R R R R R ( P L L L J.L e L L L L L AXL.L K J.u.L g.J.r.u.u.u.u.u.u.p.p.Y.U.g.x.g.u.u.u.u.u.z.T i.s.l.l.e.e.e.e.e.e.e.e.H Y s.S r.e.wXeXeXyX$XT.AXY tXb.Y T Y tXtXeXrXyXyXU.b.tXl.aXjXAXg.eXrXU S.g.S gXFXzX*.Y U eXT Y eXrXeXI zXgXJ.f.y.T.FXm.X.| | | %.-.-.>.6.vX..& t 8 6 O.HXGXs 7 8 8 > & N 8XN @X-X-Xy * m 7X7X7.BXBX<.X 7 7 8 VXS.X , - s.N.7 8 8 8 6 (.#Xt.#X_.#Xi #X_.&X`.7 8 ",
"{.!.!.2.v b b b b b b b b b b b 2.2.b b b b b b b b b 2.b b b b b b 2.b b b b b 2.b v / E W b / / W R W E R E Q Q [.` ^ ! E R R R R R R R R R R R ( Q K L J F.F.F.r.L L K F.AXK r.K F.u.r.SXg.u.u.u.u.u.u.u.p.p.Y.U.g.x.g.u.u.u.u.u.j.rXU s.u.z.e.e.e.e.e.e.=.U wXwXU wXY Y rXY 5Xb.C.T.SXC.U b.Z.c.eXb.b.eXyXyXyXpXtXb.l.pXJ.T.x.rXaXY H s.wXH.aXyXeXU T eXp.T rXrXeXD xXpXY Y Y S.AXH.X.| | | %.-.-.>.6.vX..& t 8 6 O.HXGXs 7 8 8 > & N 8XN @X-X-Xy * m 7X7X7.BXBX<.X 7 8 7 t u 8 8 8 t 7 7 8 8 8 7 7 7 7 7 7 7 7 8 7 8 7 7 8 ",
"{.'.'.Q.v b b b b b b b b b b b 2.2.b b b b b b b b b 2.b b b b b b 2.b b b b b 2.v W _ b W R _ W W R R E R E Q Q [.` ^ ! E R R R R R R R R R R R R ( P L L L x.g.J.L x.J.AXL.K r.K F.F.x.AXu.u.u.u.u.u.u.u.p.p.Y.U.g.x.g.u.u.u.u.p.U uXuXs.e.l.uXH r.Y s.e.H U wXU rXS S wXU -XmXA.C.T.hXR.U b.$Xj.b.Z.b.U pXaXb.yXeXv.c.Y yXi.U Y U.pXeXY rXY eXyXrXY p.U @XT T tXY D k.yXeXeXY y.H.jXX.| | | %.-.-.>.6.vX..& t 8 6 O.HXGXs 7 8 8 > & N 8XN @X-X-Xy * m 7X7X7.BXBX<.X 7 8 8 8 7 , , , 7 8 8 8 8 8 8 8 8 8 8 8 8 8 8 8 7 8 8 8 ",
"{.'.'.2.v b b b b b b b b b b v 2.2.v b b b b b b b b 2.b b b b b v 2.b b b b b 2.v / E b b / / W W R E ! R W Q Q [.` ^ ! E R R R R R R R R R R R P ( Q K L L e e g.J.F.L hXu.K r.r.r.J.J.SXu.u.u.u.u.u.r.u.p.c.E.U.g.x.g.u.u.p.T rXeXz.uXH s.u.rXwXY S e.e.wXrXU Y Y Y rXtXD mXZ.A.C.J.T.zXT b.Z.C.C.A.Z.U.yXFXlXuXeXv.C.rXrXY rXj.Z.aXY rXU eXeXaXj.a.j.T d.p.a.tXj.U yXyXeXU S wXs.H.| | | | %.-.-.>.6.vX..& t 8 6 O.HXGXs 7 8 8 > & N 8XN @X-X-Xy * m 7X7X7.BXBX<.X 7 8 8 r w / / / 8 r 8 8 8 8 7 6 8 8 8 8 7 7 7 7 t 8 8 8 ",
"{.!.4.2.b b b b b b b b b b b b 2.2.b b b b b b b b b 2.b b b b b b 2.b b b b b 2.b _ P R E _ E E E R W./.E E Q Q [.` ^ ! E W R W W W W W W W W W R W ( L L L L L L K e g.T.P r.r.a.P x.J.J.x.y.r.u.u.x.hXx.P L.FXSXSXAXx.u.j.b.rXT l.p.T Y s.u.tXeXyXS S Y tXrXi.u.j.U U Y b.mXj.C.Z.hXT.T.h.C.Z.A.C.C.Z.SXaXAXlXT eXv.Z.yXeXU rXZ.C.R.I.rXY Y U pXR.f.h.d.d._.d.tXd.T rXtXeXa.eXrXs.H.| | | | %.-.-.>.6.vX..& t 8 6 O.HXGXs 7 8 8 > & N 8XN @X-X-Xy * m 7X7X7.BXBX<.X 7 8 7 / iX_ ' _ iXJ 7 8 8 7 g @.6 6 7 7 d y y t > 7 8 8 ",
"{.!.!.2.2.2.2.2.2.2.2.2.2.2.5.5.5.5.5.5.5.3.2.2.2.2.2.Q.2.2.2.2.2.2.Q.2.W.W.2.3.4.I tXF F F uXF F T W.F F ~ ^.!.!.[.OX^ ^ E ! ! E E E E E E E E E E W {.Q K P P P P P P T.g.a.a.y.a.a.U.v.J.L.U.J.x.a.J.AXSXJ.hXE.E.L.J.J.a.L.pXT j.c.v.b.U s.k.yXyXrXrXrXY U tXj.j.j.Y Y j.mX-XC.$XT.T.I.zX$XZ.I.SXI.I.R.AXAXhXmXb.eXP.-XY wXtXtX$XZ.I.lXT h.$XU Y kXh.].h.].].h.U h.p.wXU rXl.U Y T zX-.-.-.-.-.;.;.@X@XvX..& t 8 6 O.HXGXs 7 8 8 > & N 8XN @X-X-Xy * m 7X7X7.BXBX<.X 8 r / iX% * * * C iXJ 7 8 7 #X_._.`.$.&.=X*X&X(.).;Xd 7 ",
"{.!.4.b b b b b b b b b b b I I I I I I I J P P P P P 2.n n n 3.3.n 3.F F F D I I uXI W.! _ ~ ! ~ F I F T T !.^ Q [.` ! ! ! ! E R R R W R R R R R R R Q ( K L L L L J u.H.K r.r.a.a.p.E.a.U.SXU.J.hXx.hXp.x.J.L.v.U.x.x.J.u.k.eXk.c.a.J.SXyXY eXaXU.uXyXrXrXY yXu.u.g.g.i.j.mXhXA.h.J.I.I.hXC.C.T.AXA.T.SXhXT.R.nXb.eXv.Z.Y rXrXtXZ.C.A.lXZ.h.A.U T kXA.d.d.d.h.d.i.d.d.tXtXU a.U Y wXk.| | | | %.%.-.>.>.vX..& t 8 6 O.HXGXs 7 8 8 > & N 8XN @X-X-Xy * m 7X7X7.BXBX<.X 7 8 iXC   & & &   / _ 7 8 7 _.`.6X#.4X#X`.6X;X&X6X;Xy 7 ",
"{.!.2.3.3.3.3.3.3.3.3.3.1.I F I T T I I T F T F F T D I P P P I T I F F Q.W.P T F T E E ~ ) ! ! ! F D I ~ D T ^.Q [.` ^ ^ ^ ! ! E R R ! R R R R W ! ! W ( ! P P L L e T.g.K r.a.a.P U.L.a.c.x.a.a.U.J.L.a.l.z.l.Y.U.x.x.J.T.pXU J.SXU.J.L.pXyXyXAXx.z.Y yXeXT pXL.u.hXJ.P mX3XAXT.A.AXA.A.hXA.h.T.hXA.T.FXT.I.kXnXR.yXv.Z.b.yXeXU Z.Z.C.R.R.h.A.U T I.R.d.d.d.h.d.d.d.).tXtXU a.T j.wXyXS. .| | %.-.-.>.6.vX..& t 8 6 O.HXGXs 7 8 8 > & N 8XN @X-X-Xy * m 7X7X7.BXBX<.X r J iX& & &   X * 9 iXw 7 7 &.(.d d %Xd i @.@.d $.$.d 7 ",
"8.4.4.R I I I I I I I I I D I Q.Q.Q.Q.Q.Q.Q.Q.Q.Q.Q.E F F F F T I I I E W.W.W.Q.) W.E E _ ~ ! ! ! ! ! ! ! ~ F ) !.[.OX^ ^ ~ ! ! ! ! W ! W R R E ! ! ! ! ^ [.I P P L u.J.K r.r.a.a.a.E.p.p.l.p.l.a.L.SXx.a.l.l.z.Y.U.x.v.U.pXyXj.a.c.AXL.L.pXyXp.AXx.}.T k.pXSXJ.L.J.SXhXhXmXT.hXT.T.AXA.h.J.I.T.hXhXT.hXFXT.I.kXmX$XyXv.Z.b.b.rXc.C.Z.C.C.lXC.A.Y b.A.lXh.d.d.h.d.d.d.d.T U U j.d.@XD yXjX..| | %.-.-.>.6.vX..& t 8 6 O.HXGXs 7 8 8 > & N 8XN @X-X-Xy * m 7X7X7.BXBX<.X , J iX& & X @.t   6 iXw 7 8 6 6 > y i > 7 6 6 6 6 7 7 8 ",
"T T I D T I I I I I I I I I W.W.W.W.W.W.W.W.W.W.W.W.W.!.Q.Q.Q.Q.Q.Q.Q.W.W.W.W.~ ) E E ~ _ ! ! ! ! ! ! ! ! !.T ) [.[.OX^ ^ ~ ! ! ! ! ! ! ! W W ! ! ! ! ! ! [.! P P L U.x.K r.a.a.P L.U.a.p.l.p.p.a.L.AXc.p.l.l.z.Y.U.v.b.eXrXz.p.p.p.SXx.v.pXeXb.gXg.z.z.u.hXAXJ.F.J.g.SXFXT.AXT.T.T.hXC.C.T.T.hXAXT.AXSXhXT.I.kXnX2XU v.C.C.C.U C.C.Z.C.C.R.R.B.Y b.h.R.I.d.d.h.d.d.d.d.d.d.T d.d.d.a.yXgXX.| | %.-.-.>.6.vX..& t 8 6 O.HXGXs 7 8 8 > & N 8XN @X-X-Xy * m 7X7X7.BXBX<.X 7 w iX9 *   #XPX  e iX8 7 8 t 7 $.(.(._.#Xd `.`.i 7 8 8 ",
") ) I ~ Q.Q.Q.Q.Q.Q.Q.Q.Q.Q.W.W.W.W.W.W.W.W.W.W.W.W.W.W.W.W.W.W.W.W.W.W.W.W.W._ ! E E _ ~ ! ! ! ! ! ! ! ! ! T uX) OXOX^ ^ ~ ! ! ! ! ! ! ! ! W ! ! ! ! ! ! ^ [.I P a.U.a.r.r.a.a.a.E.c.p.p.l.p.p.p.x.hXp.p.l.l.z.Y.U.v.tXeXwXl.p.p.p.hXx.j.aXwXb.hXg.p.z.p.u.J.L.J.J.u.hXzXSXhXC.hXAXI.C.C.T.SXhXhXT.SXC.hXT.I.kXmX2XP.Z.A.Z.C.v.C.C.Z.C.C.I.lXh.p.j.h.A.R.d.d.h.d.d.d.d.d.d.d.d.d.d.d.Y jX| | | %.-.-.>.6.vX..& t 8 6 O.HXGXs 7 8 8 > & N 8XN @X-X-Xy * m 7X7X7.BXBX<.X 7 r _ _ & * X :Xy iX/ , 8 8 8 7 d *X`.6X%X&.#XMX).6 8 8 ",
"{.'.'.!.E W.W.W.W.W.W.W.W.W.W.W.W.W.W.W.W.W.W.W.W.W.W.W.W.W.W.W.W.W.W.W.W.W.! ) W.E ~ _ ! ! ! ! ! ! ! ! ! ! ! T F OXOX^ ^ ~ ! ! ! ! ! ! ! ! ! ! ! ! ! ! ! ! [.! P L.x.P r.r.a.P x.U.a.p.p.l.p.p.p.p.p.l.p.l.l.z.Y.U.v.eXwXrXl.p.p.l.c.p.p.U.x.z.b.u.u.z.z.u.g.g.J.J.u.zXnXhXT.h.T.AXA.C.C.I.hXA.hXA.I.C.T.I.I.kXmX2X$XZ.A.Z.C.C.C.C.Z.C.C.C.lXA.h.C.h.h.lXh.d.h.d.d.d.d.d.d.d.d.d.d.d.U F.%.| | %.-.-.>.6.vX..& t 8 6 O.HXGXs 7 8 8 > & N 8XN @X-X-Xy * m 7X7X7.BXBX<.X 7 7 8 iX/ = >   ' _ 7 8 8 8 8 7 y t.)._.%Xd g _.`.6 8 8 ",
"+X'.'./.W.W.W.W.W.W.W.W.W.W.W.W.W.W.W.W.W.W.W.W.W.W.W.W.W.W.W.W.W.W.W.W.W.W.) ~ W.E _ ~ ! ! ! ! ! ! ! ! ! ! ^.^.F OXOX^ ^ ^ ! ! ! ! ! ! ! ! ! ! ! ! ! ! ! ! ` Q I E.a.a.a.a.a.a.E.c.p.p.p.l.p.p.p.p.l.l.p.l.l.z.b.U.b.tXb.rXl.l.p.l.p.p.c.p.p.p.z.p.p.p.z.u.u.u.hXJ.u.mX$XhXT.C.C.I.A.C.C.A.A.C.I.C.C.C.C.I.I.kXmX2XI.Z.A.Z.C.C.C.C.Z.C.C.C.R.R.h.C.h.h.R.I.d.h.d.d.d.d.d.d.d.d.d.d.d.D yX:.| | %.-.-.>.6.vX..& t 8 6 O.HXGXs 7 8 8 > & N 8XN @X-X-Xy * m 7X7X7.BXBX<.X 7 8 7 8 t 8 8 t t 8 7 8 8 8 8 8 8 7 7 7 7 7 7 7 7 8 8 8 ",
"[.'.'.W.W.W.W.W.W.W.W.W.W.W.W.W.W.W.W.W.W.W.W.W.W.W.W.W.W.W.W.W.W.W.W.W.W.! _ E W.! _ ! ! ! ! ! ! ! ! ! ! ! ^ ^ F OXOX^ ^ ~ ! ! ! ! ! ! ! ! ! ! ! ! ! ! ! ! ! ( v.L.P a.a.a.a.x.U.a.p.p.p.l.p.p.p.p.p.l.p.l.l.v.uXyXeXY l.U p.l.p.l.l.p.c.p.p.p.z.z.u.u.z.z.u.u.hXF.$XmXh.T.R.C.A.C.C.A.A.C.C.A.C.A.A.A.A.I.I.kXmX2XI.Z.A.C.C.A.A.C.Z.A.A.C.Z.lXh.C.h.h.Z.R.d.h.d.d.d.d.d.d.d.d.d.d.f.U rX%.| | %.%.-.>.>.vX..& t 8 6 O.HXGXs 7 8 8 > & N 8XN @X-X-Xy * m 7X7X7.BXBX<.X 7 8 8 7 7 7 7 7 7 7 8 7 7 7 7 7 7 8 7 8 7 8 8 8 8 7 7 7 ",
"[.!.!.W.W.W.W.W.W.W.W.W.W.W.W.W.W.W.W.W.W.W.W.W.W.W.W.W.W.W.W.W.W.W.W.W.Q.) ~ W.W.) ) ! ! ~.! ! ! ! ! ! ^.! ^.^.F OXOX^ ^.^ ! ! ! ! ! ! ! ! ! ! ! ! ! ^.! ! ! [.Y.p.a.a.a.a.a.E.v.p.l.l.l.c.l.l.l.l.c.c.l.l.c..XrXyXyXyXv.l.c.c.p.c.c.p.c.l.l.p.l.z.p.p.p.z.u.u.g.u.mX$XC.C.Z.C.C.C.C.C.C.C.C.C.Z.C.C.C.Z.I.I.kXmX2X2XZ.C.Z.Z.C.C.C.Z.C.C.Z.C.R.I.h.C.C.h.lXC.].h.h.h.h.h.h.h.h.h.h.@XU rX=.%.%.-.-.;.6.6.vX..& t 8 6 O.HXGXs 7 8 8 > & N 8XN @X-X-Xy * m 7X7X7.BXBX<.X r t 8 8 8 8 8 8 8 8 8 8 8 8 8 8 8 8 8 8 8 8 8 8 8 8 8 8 ",
"[.!.!.W.W.W.W.W.W.W.W.W.W.W.W.W.W.W.W.W.W.W.W.W.W.W.W.W.W.W.W.W.W.W.W.W.W._ W.W.~._ ! ! ! ! ! ! ! ! ! ! ~.! ^./.F OXOX^.^ ^ ! ! ! ! ! ! ! ! ! ! ! ! ! ~.! ! ! v.5XP a.a.a.a.v.E.p.l.l.p.l.c.p.l.l.p.l.c.p.l.c.z.yXE.b.b.c.l.c.l.p.c.l.p.c.l.p.l.p.z.z.p.p.z.z.u.u.C.mXA.C.C.Z.C.C.C.C.C.C.C.C.C.Z.C.C.C.Z.I.I.kXmX2X2XZ.C.Z.C.C.C.C.Z.C.C.C.Z.I.lXh.C.h.h.R.R.).h.h.h.h.h.h.h.h.h.h.h.a.yX=.%.%.-.-.;.6.6.vX..& t 8 6 O.HXGXs 7 8 8 > & N 8XN @X-X-Xy * m 7X7X7.BXBX<.X , 6 6 6 6 6 6 6 6 6 6 6 6 6 6 6 6 6 6 6 6 6 6 6 6 6 6 6 ",
"[.!.!.W.W.W.W.W.W.W.W.W.W.W.W.W.W.W.W.W.W.W.W.W.W.W.W.W.W.W.W.W.W.W.W.Q.) ~ E E ) ) ! ! ! ! ! ! ! ! ! ! ! ! ! /.F uXuX) ^ ~ ! ! ! ! ! ! ! ! ! ! ! ! ! ! ! ! ! U.+X^.a.a.a.P E.x.a.p.p.p.p.l.p.p.p.p.p.l.p.p.U T yXU.x.v.c.p.l.p.p.l.p.p.c.p.p.p.p.l.z.u.i.p.z.u.u.mX-XA.C.C.Z.A.C.C.C.C.C.C.C.A.Z.C.C.A.A.I.I.kXmX2XI.Z.A.C.C.A.A.C.Z.A.A.C.Z.A.lXZ.h.h.h.A.lXh.d.d.d.d.d.d.d.d.d.d.d.d.Y =.| | %.%.-.>.>.vX..& t 8 6 O.HXGXs 7 8 8 > & N 8XN @X-X-Xy * m 7X7X7.BXBX<.X 7 7 7 7 7 7 7 7 7 7 7 6 7 7 7 7 7 7 7 7 7 7 7 7 7 7 7 7 ",
"[.!.!.W.W.W.W.W.W.W.W.W.W.W.W.W.W.W.W.W.W.W.W.W.W.W.W.W.W.W.W.W.W.W.W.W._ E E ! _ ! ! ! ! ! ! ! ! ! ! ! ! ! ! ^./.` _ uX^.~ ! ! ! ! ! ! ! ! ! ! ! ! ! ! ! ! }.Y.^.[.a.a.a.l.E.p.p.p.p.p.p.l.p.p.p.p.l.l.p.j.rXU yXU.x.v.c.p.l.l.p.l.l.p.c.p.p.p.p.p.z.l.u.u.z.l.j.mXA.C.C.C.Z.C.C.C.C.C.C.C.C.C.Z.C.C.C.Z.I.I.kXmX2X2XZ.A.Z.C.C.C.C.Z.C.C.C.Z.A.R.R.h.h.C.h.lXZ.d.d.d.d.d.d.d.d.d.d.d.d.Y =.X.| %.-.-.>.6.vX..& t 8 6 O.HXGXs 7 8 8 > & N 8XN @X-X-Xy * m 7X7X7.BXBX<.X @.$.#.#.#.$.#.$.$.#.#.$.#.$.$.$.$.$.$.$.$.$.$.$.$.$.$.$.",
"[.!.!.W.W.W.W.W.W.W.W.W.W.W.W.W.W.W.W.W.W.W.W.W.W.W.W.W.W.W.W.W.W.W.Q.) ) E E ) ) ! ! ! ! ! ! ! ! ! ! ! ! ! ! ^.^.OXOXF F ^.F T ! ! ! ! ! ! ! ! ! ! ! ! ! ! Y..X~.[.~.a.P U.Y.a.p.p.p.p.p.l.p.p.p.p.l.l.p.tXrXtXpXU.x.v.c.p.l.l.p.l.l.p.c.p.p.p.p.p.z.z.u.u.l.T mX3Xh.C.C.C.Z.C.C.C.C.C.C.C.C.C.Z.C.C.C.Z.I.I.kXmX2X2XZ.A.Z.C.C.C.C.Z.C.C.C.Z.A.C.lXh.h.C.h.R.R.f.d.d.d.d.d.d.d.d.d.d.d.Y e.X.| %.-.-.>.6.vX..& t 8 6 O.HXGXs 7 8 8 > & N 8XN @X-X-Xy * m 7X7X7.BXBX<.X @.@.#Xt.t.&.&.%X&.&.(.(.t.$.#.#.#.#.#.#.#.#.#.#.#.#.#.#.",
"[.!.!.W.W.W.W.W.W.W.W.W.W.W.W.W.W.W.W.W.W.W.W.W.W.W.W.W.W.W.W.W.W.W.W._ ! E E _ ^ ! ! ! ! ! ! ! ! ! ! ! ! ! ! ^.^.OXOX^ F uXF F ~ ! ! ! ! ! ! ! ! ! ! ! ! ~.E.~.~.^.[.a.a.E.l.p.p.p.l.p.T tXp.l.p.p.l.j.p.eXrXrXY.U.x.v.c.p.l.l.p.l.l.p.c.p.p.p.p.p.p.z.l.p.i.z.mXA.C.C.C.C.Z.C.C.C.C.C.C.C.C.C.Z.C.C.C.Z.I.I.kXmX2X2XZ.A.Z.C.C.C.C.Z.C.C.C.Z.C.C.lXI.h.C.h.A.R.d.d.d.d.d.d.d.d.d.d.d.d.Y e.X.| %.-.-.>.6.vX..& t 8 6 O.HXGXs 7 8 8 > & N 8XN @X-X-Xy * m 7X7X7.BXBX<.X @.$.MX4X4X&X4XMX;X;X4X;X4X(.@.#.#.#.#.#.#.#.#.#.#.#.#.#.",
"[.'.!.W.W.W.W.W.W.W.W.W.W.W.W.W.W.W.W.W.W.W.W.W.W.W.W.W.W.W.W.W.W.W.~ ) E E ~ ) ~.! ! ! ! ! ! ! ! ! ! ! ! ! ! ^.^.OXOX^ ^.) ! F ~ ! ! ! ! ! ! ! ! ! ! ~.! Y.v.~.~.~.[.! L.Y.p.p.p.j.U rXtXtXT tXj.U T U U U b.z.Y.U.x.v.c.p.l.l.p.l.l.p.c.p.p.p.p.p.p.z.z.u.i.3X3Xh.C.C.C.C.Z.C.C.C.C.C.C.C.C.C.Z.C.C.C.Z.I.I.kXmX2X2XZ.A.Z.C.C.C.C.Z.C.C.C.Z.C.C.R.R.h.C.h.h.lXA.d.d.d.d.d.d.d.d.d.d.d.Y e.X.| %.-.-.>.6.vX..& t 8 6 O.HXGXs 7 8 8 > & N 8XN @X-X-Xy * m 7X7X7.BXBX<.X g `.#X;X_.=XMX*X;X#X=X=X*X).g #.#.#.#.#.#.#.#.#.#.#.#.#.",
"[.'.'.!.E W.W.W.W.W.W.W.W.W.W.W.W.W.W.W.W.W.W.W.W.W.W.W.W.W.W.W.W.W._ ! E E _ ~ ! ! ! ! ! ! ! ! ! ! ! ! ! ! ! ^.^.OXOX^ ^ ! E F T W.! ! ! ! ! ! ! ! ! ! ~.E.~.~.~.~./.[.E.c.l.p.p.tXU tXU T tXrXj.U wXtXU p.c.z.Y.U.x.v.c.p.l.l.p.l.l.p.c.p.p.p.p.p.p.p.z.p.p.mXoXC.A.C.C.C.Z.C.C.C.C.C.C.C.C.C.Z.C.C.C.Z.I.I.kXmX2X2XZ.A.Z.C.C.C.C.Z.C.C.C.Z.C.C.Z.lXA.C.h.h.R.R.d.d.d.d.d.d.d.d.d.d.d.Y e.X.| %.-.-.>.6.vX..& t 8 6 O.HXGXs 7 8 8 > & N 8XN @X-X-Xy * m 7X7X7.BXBX<.X @.$.@.#.$.#.$.#.%X&.$.#.&.#.$.$.$.$.$.$.$.$.$.$.$.$.$.$.",
"[.'.'.W.W.W.W.W.W.W.W.W.W.W.W.W.W.W.W.W.W.W.W.W.W.W.W.W.W.W.W.W.W.~ ) W.E ~ _ ! ! ! ! ! ! ! ! ! ! ! ! ! ! ! ! ^.^.OXOX^ ^ ~ ! ~ tXI ~ tX~ ! ! ! ! ! ! ! Y.v.~ ~.~.~.! 5XU.a.j.U T eXY p.p.b.rXU U tXb.j.j.l.l.z.Y.U.x.v.c.p.l.l.p.l.l.p.c.p.p.p.p.p.p.p.z.z.$XmXv.XXA.C.C.C.Z.C.C.C.C.C.C.C.C.C.Z.C.C.C.Z.I.I.kXmX2X2XZ.A.Z.C.C.C.C.Z.C.C.C.Z.C.C.C.R.I.h.h.h.C.R.d.d.d.d.d.d.d.d.d.d.`.Y q.X.| %.-.-.>.6.vX..& t 8 6 O.HXGXs 7 8 8 > & N 8XN @X-X-Xy * m 7X7X7.BXBX<.X t y y y y y y y t t y y y y y 8 9 8 8 9 8 y p p p p p y ",
"[.!.!.W.W.W.W.W.W.W.W.W.W.W.W.W.W.W.W.W.W.W.W.W.W.W.W.W.W.W.W.W.W._ ~ E E _ ~ ! ! ! ! ! ! ! ! ! ! ! ! ! ! ! ! ^.^.OXOX^ ^ ~ ! ! I D F D D ~ E T F T ! ~.E.U tX~.~.~.~.E.XXp.l.tXrXT p.p.p.l.p.U rXT p.l.p.l.l.z.Y.U.x.v.c.p.l.p.p.l.l.p.c.p.p.p.p.p.p.p.p.z.mXZ.C.oXC.A.C.C.Z.A.C.C.C.C.C.C.C.C.Z.C.C.C.A.I.I.kXmX2XI.Z.A.Z.C.A.C.C.Z.C.C.C.Z.A.C.C.I.lXh.h.h.h.R.A.d.d.d.d.d.d.d.d.d.`.Y w.X.| %.-.-.>.6.vX..& t 8 6 O.HXGXs 7 8 8 > & N 8XN @X-X-Xy * m 7X7X7.BXBX<.X 7 7 6 7 6 6 7 7 7 8 7 7 7 8 6 q.gXG.K.K.m.w S S S S S w ",
"[./.!.!.W.W.W.W.W.W.W.W.W.W.W.W.W.W.W.W.W.W.W.W.W.W.W.!.W.W.W.Q.~.) /.W.^ _ ~.~.^.~.~.~.^.^.~.~.^.^.! ^.^.~.^.^./.OXOX X^.^.^.~ /.T F ! T D ^.F ) F F 1XY.F U rXT /.1XE.+Xv.b.U c.c.c.c.c.c.j.U tXh.c.c.c.c.v..XY.U.v.v.v.c.c.c.c.c.c.c.c.c.c.c.c.c.c.c.p.5XnXC.Z.5X1XZ.Z.Z.I.Z.Z.Z.Z.Z.Z.Z.Z.Z.I.Z.Z.Z.I.I.R.mXmX2X2XI.Z.I.Z.Z.Z.Z.I.Z.Z.Z.I.Z.Z.I.Z.lXI.C.C.$XR.R.`.h.h.h.h.h.h.h.h._.Y g.-.-.;.;.;.@X@XvX..& t 8 6 O.HXGXs 7 8 8 > & N 8XN @X-X-Xy * m 7X7X7.BXBX<.X 7 t g i g @.y i 8 > 7 8 8 t ; H.gXG.K.K.gXG wXZ A Z wXw ",
"[.!.!.W.W.W.W.W.W.W.W.W.W.W.W.W.W.W.W.W.W.W.W.W.W.W.W.W.W.W.W.Q.) ~ W.W.) ) ! ! ! ! ! ! ! ! ! ! ! ! ! ! ! ! ! ^./.OXOX^ ^ ^ ! ! ! ! ! ! W.F D F ! ! F yXuXT ~.~.U F pXb. X'.Y U j.p.p.p.p.l.p.p.p.p.l.l.p.l.c.z.Y.U.x.v.c.p.l.l.p.l.l.p.c.p.p.p.p.p.p.p.p.mX5Xj.C.P.oXC.C.C.Z.C.C.C.C.C.C.C.C.C.Z.C.C.C.Z.I.I.kXmX2X2XZ.C.Z.C.C.C.C.Z.C.C.C.Z.C.C.Z.C.R.R.h.h.C.A.lXd.d.d.d.d.d.d.d.d.`.Y w.X.| %.-.-.>.6.vX..& t 8 6 O.HXGXs 7 8 8 > & N 8X( @X-X-Xy * m 7X7X7.BXBX<.X > (.%X&X(.;Xg `.).`.t 7 8 t ; F.K.K.gXD.jXG wXZ A Z wXw ",
"[.!.!.W.W.W.W.W.W.W.W.W.W.W.W.W.W.W.W.W.W.W.W.W.W.W.W.W.W.W.W.! _ E W.! _ ! ! ! ! ! ! ! ! ! ! ! ! ! ! ! ! ! ! ^.^.OXOX^ ^ ~ ! ! ! ! ! ! ! T rX! ! ! v.b.~ ~.~.~.~ yXpXtXT  XtXp.p.p.p.p.p.l.p.p.p.p.p.l.p.l.l.z.Y.U.x.v.c.p.l.l.p.l.l.p.c.p.p.p.p.p.p.p.P.mXoXXXC.C.oXP.A.C.Z.C.C.C.C.C.C.C.C.C.Z.C.C.C.Z.I.I.kXmX2X2XZ.A.Z.C.C.C.C.Z.C.C.C.Z.A.C.Z.C.Z.lXh.h.C.h.R.A.d.d.d.d.d.d.d.d.f.Y w.X.| %.-.-.>.6.vX..& t 8 6 O.HXGXs 7 8 8 > > m N M (.B.B.t * x k k :.fXfX<.X & `._.&X@.).8 (.*X&X@.6 8 t ; F.G.D.G.D.jXG wXZ A Z wXw ",
"[.!.!.W.W.W.W.W.W.W.W.W.W.W.W.W.W.W.W.W.W.W.W.W.W.W.W.W.W.W.Q.) ~ E W.) ) ! ! ! ! ! ! ! ! ! ! ! ! ! ! ! ! ! ! ^.^.OXOX^ ^ ~ ! ! ! ! ! ! ! ~ ~ ! ! ! E..X~.~.~.~.~.R.1XT T T T j.p.p.p.p.p.l.p.p.p.p.l.l.p.l.l.z.Y.U.x.v.c.p.l.l.p.l.l.p.c.p.p.p.p.p.p.a.mX2Xv.oXC.C.P.oXA.C.Z.C.C.C.C.C.C.C.C.C.Z.C.C.C.Z.I.I.kXmX2X2XZ.A.Z.C.C.C.C.Z.C.C.C.Z.C.C.Z.C.C.lXZ.h.C.h.R.I.d.d.d.d.d.d.d.d.f.T H X.| %.-.-.>.6.vX..& t 8 6 O.HXGXs 7 8 8 > > m M m &.f.;.r * x j j :.dXdX} X 6 g y g 7 #.8 &.&.g i 7 8 t - H.gXG.G.K.gXG eXZ A Z eXw ",
"[.!.!.W.W.W.W.W.W.W.W.W.W.W.W.W.W.W.W.W.W.W.W.W.W.W.W.W.W.W.E _ E E ~._ ! ! ! ! ! ! ! ! ! ! ! ! ! ! ! ! ! ! ! ^.^.OXOX^ ^ ~ ! ! ! ! ! ! ! ! ! ! ! v.Y.~.~.~.~.~..XE.~.z.uXuX+Xp.p.p.p.p.p.l.p.p.p.p.p.l.p.l.l.z.Y.U.x.v.c.p.l.l.p.l.l.p.c.p.p.p.p.p.p.v.mXv.P.oXv.C.C.oXP.A.Z.C.C.C.C.C.C.C.C.C.Z.C.C.C.Z.I.I.kXmX2X2XZ.A.Z.C.C.C.C.Z.C.C.C.Z.C.C.Z.C.A.R.R.h.C.h.A.R.d.d.d.d.d.d.d.d.d.T H X.| %.-.-.>.6.vX..& t 8 6 O.HXGXs 7 8 8 > > m M M ;.B.f.r * x j j :.dXdX} X 8 7 8 7 t 7 8 7 7 7 7 8 8 t 9 q.J.H.H.H.m.w D D D D D w ",
"[.!.!.W.W.W.W.W.W.W.W.W.W.W.W.W.W.W.W.W.W.W.W.W.W.W.W.W.W.Q.) ) E E ) ) ! ! ! ! ! ! ! ! ! ! ! ! ! ! ! ! ! ! ! ^.^.OXOX^ ^ ~ ! ! ! ! ! ! ! ! ! ! ! Y..X~.~.~.~.! Y.Y.~.}.uXT +X}.p.p.p.p.p.l.p.p.p.p.p.l.p.l.l.z.Y.U.x.v.c.p.l.l.p.l.l.p.c.p.p.p.p.p.a.3X3Xv.P.P.oXC.C.P.oXA.Z.C.C.C.C.C.C.C.C.C.Z.C.C.C.Z.I.I.kXmX2X2XZ.A.Z.C.C.C.C.Z.C.C.C.Z.C.C.Z.C.C.Z.lXh.C.h.h.lXh.d.d.d.d.d.d.d.d.p.H X.| %.-.-.>.6.vX..& t 8 6 O.HXGXs 7 8 8 > > m M M ;.B.f.r * x j j :.dXdX} X 6 7 6 6 6 7 6 7 7 6 6 6 6 6 6 - - - - - - 6 ; ; ; ; ; 6 ",
"[.'.!.W.W.W.W.W.W.W.W.W.W.W.W.W.W.W.W.W.W.W.W.W.W.W.W.W.W.W._ ! E E _ ~ ! ! ! ! ! ! ! ! ! ! ! ! ! ! ! ! ! ! ! ^.^.OXOX^ ^ ~ ! ! ! ! ! ! ! ! ! ! ~.E.~.~.~.~.~.~.E.~.}.}.~.}.|.+Xp.p.p.p.p.l.p.p.p.p.p.l.p.l.l.z.Y.U.x.v.c.p.l.l.p.l.l.p.c.p.p.p.p.p.c.mXP.P.P.P.oXP.C.C.oXP.Z.C.C.C.C.C.C.C.C.C.Z.C.C.C.Z.I.I.kXmX2X2XZ.A.Z.C.C.C.C.Z.C.C.C.Z.C.C.Z.C.C.C.lXI.h.h.h.R.I.d.d.d.d.d.d.d.d.p.H X.| %.-.-.>.6.vX..& t 8 6 O.HXGXs 7 8 8 > > m M M ;.B.f.r * x j j :.dXdX} X & & & & & & & & & & & & & & & & & & & & & & & & & & & & ",
"[.'.'.'.E W.W.W.W.W.W.W.W.W.W.W.W.W.W.W.W.W.W.W.W.W.W.W.Q.~ ) W.E ~ ) ! ! ! ! ! ! ! ! ! ! ! ! ! ! ! ! ! ! ! ! ^.^.OXOX^ ^ ~ ! ! ! ! ! ! ! ! ! ! Y.v.~.~.~.~.! Y.Y.~.}.}.}.}..X+X}.p.p.p.p.l.p.p.p.p.l.l.p.l.l.z.Y.U.x.v.c.p.l.l.p.l.l.p.c.p.p.p.p.a.3X3Xv.P.P.P.XXoXC.C.v.XXC.C.C.C.C.C.C.C.C.C.Z.C.C.C.Z.I.I.kXmX2X2XZ.A.Z.C.C.C.C.Z.C.C.C.Z.C.C.Z.C.C.C.R.R.h.h.h.A.R.d.d.d.d.d.d.d.d.p.H X.| %.-.-.>.6.vX..& t 8 6 O.HXGXs 7 8 8 > > m M M ;.B.f.r * x j j :.dXdX} X 7 t t t t t 8 8 t 8 8 8 8 8 7 s e.e.e.e.s 8 G G G G w 8 ",
"[.'.'.Q.E W.W.W.W.W.W.W.W.W.W.W.W.W.W.W.W.W.W.W.W.W.W.W.W._ ! E E _ ~ ! ! ! ! ! ! ! ! ! ! ! ! ! ! ! ! ! ! ! ! ^.^.OXOX^ ^ ~ ! ! ! ! ! ! ! ! ! ~.E.~.~.~.~.~.~.E.}.}.}.}.}.}..X|.+Xp.p.p.p.l.p.p.p.p.p.l.p.l.l.z.Y.U.x.v.c.p.l.p.p.l.l.p.c.p.p.p.p.p.mXP.P.P.P.P.P.oXP.C.C.oXP.A.C.C.C.C.C.C.C.C.Z.C.C.C.A.I.I.kXmX2XI.Z.A.Z.C.A.C.C.Z.A.C.C.Z.A.C.Z.C.A.Z.C.lXC.h.h.h.lXh.d.d.d.d.d.d.d.p.H X.| %.-.-.>.6.vX..& t 8 6 O.HXGXs 7 8 8 > > m M M ;.B.f.r * x j j :.dXdX} X 7 7 6 6 7 6 7 7 6 7 8 7 7 t - F.AXgXgXSXjXw eXA wXwXeXw ",
"[.!.!.W.W.W.W.W.W.W.W.W.W.W.W.W.W.W.W.W.W.W.W.W.W.W.W.Q.~ ) W.W.~ _ ~.! ! ! ! ! ^ ! ! ! ! ! ! ! ! ! ! ! ! ! ^ ^./.OXOX^ ^ ^ ! ! ! ! ! ! ! ! ! Y.v.~.~.~.~.~.Y.Y.~..X}.}.}..X.Xl.+Xl.p.p.l.c.p.p.p.p.l.l.p.l.c.z.Y.U.v.v.c.p.l.l.p.l.l.p.c.l.p.p.p.2XnXv.P.P.P.P.P.oXoXC.C.XX5XA.C.C.C.C.C.C.C.C.Z.C.C.C.Z.I.I.kXmX2X2XZ.C.Z.C.C.C.C.Z.C.C.C.Z.C.C.Z.C.C.Z.C.R.R.h.C.h.R.C.d.h.d.d.d.d.d.l.Y X.| %.-.;.>.6.vX..& t 8 6 O.HXGXs 7 8 8 > > m M M ;.B.f.r * x j j :.dXdX} X 6 @.(.(.t.#X@.d _.d 7 i g 7 ; F.G.D.G.D.jXG A Z Z Z wXw ",
"[./.!.W.W.W.W.W.W.W.W.W.W.W.W.W.W.W.W.W.W.W.W.W.W.W.W.Q.) ! W.W._ ~ ^.! ! ! ! ! ^.! ! ! ! ^.! ! ~.~.! ! ^.! ^.^./.OXOX^.^.^ ! ! ! ! ! ! ! ! ~.E.~.~.~.~.~.~.E..X}..X.X.X.X.X.X.X X Xp.l.l.c.l.l.l.l.c.c.l.l.c.z.Y.U.v.v.c.l.c.c.l.c.c.l.c.c.l.l.l.mX1XP.P.P.P.P.P.P.oXP.P.P.oXZ.Z.Z.Z.Z.Z.Z.Z.Z.Z.Z.Z.Z.I.I.I.kXmX2X2XZ.C.Z.Z.C.Z.Z.Z.C.C.Z.Z.C.Z.Z.Z.C.Z.C.I.R.h.C.h.I.R.d.h.h.h.h.h.).l.Y :.%.-.-.;.6.@XvX..& t 8 6 O.HXGXs 7 8 8 > > m M M ;.B.f.r * x j j :.dXdX} X & ).%X;Xt.#Xy _.#.;X&.=X_., ; F.K.gXgXG.jXG wXZ A Z wXw ",
"[.!.!.W.W.W.W.W.W.W.W.W.W.W.W.W.W.W.W.W.W.W.W.W.W.W.W.^._ E E ~ _ ! ! ! ! ! ! ! ! ! ! ! ! ! ! ! ! ! ! ! ! ! ! ^.^.OXOX^ ^ ~ ! ! ! ! ! ! ! E v.P.! ~.~.~.~.v.E.~.}.}.}.}.~.}..X~.}.+Xp.p.p.l.p.p.p.p.p.l.p.l.l.z.Y.U.x.v.c.p.l.p.p.l.p.p.c.p.p.a.P.mXv.P.P.P.P.P.P.C.oXXXC.C.5Xv.A.C.A.A.A.A.A.A.Z.C.A.A.A.I.I.kXmX2XI.Z.A.C.C.A.A.C.Z.A.A.C.C.A.A.Z.C.A.Z.C.C.lXh.h.h.A.R.d.d.d.d.d.d.d.p.Y X.| %.%.-.>.>.vX..& t 8 6 O.HXGXs 7 8 8 > > m M M ;.B.f.r * x j j :.dXdX} X > t.&.).y `.t (._._.&X*X(.7 ; F.G.n.D.D.jXG wXZ Z Z wXw ",
"[.!.!.W.W.W.W.W.W.W.W.W.W.W.W.W.W.W.W.W.W.W.W.W.W.W.W.) ~ E E ) ~ ! ! ! ! ! ! ! ! ! ! ! ! ! ! ! ! ! ! ! ! ! ! ^.^.OXOX^ ^ ^ ! ! ! ! ! ! ! ! E.~.~.~.~.~.~.E.v.~.}.~.}.}.}.}..X}.l. X Xp.p.l.p.p.p.p.p.p.p.l.l.z.Y.U.x.v.c.p.l.l.p.l.l.p.c.p.p.p.mX2Xv.P.P.P.P.P.P.P.P.oXC.C.P.oXA.C.C.C.C.C.C.C.Z.C.C.C.Z.I.I.kXmX2XI.Z.A.Z.C.C.C.C.Z.C.C.C.Z.C.C.Z.A.A.Z.C.C.lXI.h.h.h.R.A.d.d.d.d.d.d.p.Y X.| %.-.-.>.6.vX..& t 8 6 O.HXGXs 7 8 8 > > m M M ;.B.f.r * x j j :.dXdX} X 7 t 7 8 7 t 8 7 g 7 d y y t - F.AXgXgXSXjXw eXwXwXwXeXw ",
"[.!.!.W.W.W.W.W.W.W.W.!.W.W.W.W.W.W.W.W.W.W.W.W.W.W.! _ W.~.^._ ! ! ! ! ! ! ! ! ! ! ! ! ! ! ^.^.^.! ! ! ! ! ! ^.^.OXOX^ ^ ^ ! ! ^.^.! ! ! v.Y.! ~.~.~.~.v.E.~.}.}..X.X.X}.}..X}.}.}.+Xp.p.l.p.p.p.p.l.v.c.l.l.z.Y.U.x.v.c.p.l.l.p.l.l.p.c.c.l.P.mXv.P.P.P.P.P.P.P.P.C.oXv.C.I.5X1XA.C.C.C.C.C.C.Z.C.C.C.Z.I.I.kXmX2X2XZ.A.Z.C.C.C.C.Z.C.C.C.Z.C.A.Z.I.Z.Z.C.C.R.R.h.h.h.R.I.d.d.d.d.d.d.p.Y X.| %.-.-.>.6.vX..& t 8 6 O.HXGXs 7 8 8 > > m M M ;.B.f.r * x j j :.dXdX} X 7 8 8 8 8 7 8 8 7 8 7 7 7 8 7 u O.O.O.O.s 8 w w w w w 8 ",
"[.!.!.W.W.W.W.W.W.W./.W.'.!.W.W.W.W.W.W.W.W.W.W.W.Q.) ^ /.W.) ) ! ! ! ! ! ! ! ! ! ! ! ! ! ^.^.! ^.! ! ! ! ! ! ^.^.OXOX^ ^ ~ ! ^.! ^.~.! ! E.~.~.~.~.~.~.E.v.~.}..X.X.XXX~.}..X}.}.p. X|.p.l.p.p.p.p.v.c.v.c.l.z.Y.U.x.v.c.p.l.l.p.l.l.p.v.c.v.nX2Xv.P.P.P.P.P.P.P.P.P.P.oXC.1XP.5XA.C.C.C.C.C.C.Z.C.C.C.Z.I.I.mXmX3X3XZ.C.Z.C.C.C.C.Z.C.C.C.Z.C.C.2XZ.2X1XA.C.Z.lXA.h.h.A.R.d.d.d.d.d.d.a.Y X.| %.-.-.>.6.vX..& t 8 6 O.HXGXs 7 8 8 > > m M M ;.B.f.r * x j j :.dXdX} X & & & & & & & & & & & & & & & & X X X X & & & & & & & & ",
"[.!.!.W.W.W.W.W.W.W././.'.W.W.W.W.W.W.W.W.W.W.W.W.E _ W./.~._ ! ! ! ! ! ! ! ! ! ! ! ! ! ! ^.^.^.^.! ! ! ! ! ! ^.^.OXOX^ ^ ^ ! ^.^.^.~.! v.Y.! ~.~.~.~..XE.~.}.}..XXX.XXX}.}..X}.}.}.}.+Xp.l.p.p.p.p.c.v.c.v.l.z.Y.U.x.v.c.p.l.l.p.l.l.p.v.c.1XmXv.P.P.P.P.P.P.P.P.P.P.P.oXP.1XP.5XP.A.C.C.C.C.C.Z.C.C.C.Z.I.I.kXmX3X3XZ.C.Z.C.C.C.C.Z.C.C.C.Z.C.A.2XZ.2XZ.C.C.C.R.I.h.h.h.lXh.d.d.d.d.d.a.Y X.| %.-.-.>.6.vX..& t 8 6 O.HXGXs 7 8 8 > > m M M ;.B.f.r * x j j :.dXdX} X 6 7 6 7 6 - - - 7 7 6 6 6 7 7 7 7 7 7 7 7 6 6 6 7 6 6 6 ",
"[.'.'.W.W.W.W.W.W.W.W.W.W.W.W.W.W.W.W.W.W.W.W.W.Q.) ~ W.W.) ) ! ! ! ! ! ! ! ! ! ! ! ! ! ! ! ! ! ! ! ! ! ! ! ! ^.^.OXOX^ ^ ~ ! ! ! ! ! ! E..X~.~.~.~.! Y.P.~.}.}.~.}.~.~.}.}..X}.}.}.p.+X|.l.p.p.p.p.p.l.p.l.l.z.Y.U.x.v.c.p.l.l.p.l.l.p.c.p.3X3Xv.P.P.P.P.P.P.P.P.P.P.P.P.oXZ.C.v.oXA.C.C.A.A.C.Z.A.C.C.A.I.I.kXmX2X2XZ.A.Z.C.A.A.C.Z.A.C.C.C.C.C.Z.C.C.Z.C.C.C.I.R.h.h.h.R.A.d.d.d.d.d.a.Y X.| %.-.-.>.6.vX..& t 8 6 O.HXGXs 7 8 8 > > m M M ;.B.f.r * x j j :.dXdX} X 7 8 t 6 8 s.g.e.7 7 t 8 8 7 6 8 t 8 t 8 7 8 t 8 7 8 t 8 ",
"[.'.%X!.W.W.W.W.W.W.W.'.W.W '.W.W././.'.W !.'.W /._ E /.~._ ! ! ^.! ~.^.^.^.! ^.^.! ^.^.! ^.^.^.! ^.^.! ^.^./.^./.+X X^. X~ ~.^.^.^.! XXE.~.|.|.|.~..XE.~..XXX~..X.XXX.X}.XX}..XXXXX.X~.+Xc.p.v.c.p.v.c.v.l.v.XXY.U.v.Y.c.p.v.p.p.v.p.c.c.v.mXv.1X1XP.1X1X1XP.1X1XP.1X1XC.oX1X1XC.oX1XA.C.2X2XZ.A.2XZ.A.2XI.I.mXmX3XZ.2X2XA.Z.I.2XC.C.2XC.C.2XC.Z.I.2XI.A.2XZ.A.2XlX$Xh.$XR.R.d.d.d.d.d.a.Y | | %.-.-.>.6.vX..& t 8 6 O.HXGXs 7 8 8 > > m M M ;.B.f.r * x j j :.dXdX} X 7 t 6 s.GXDXDXDXDXO.6 t 7 g $.7 6 7 6 8 y y 6 t y 7 6 7 ",
"[./.!.W.E W.W.W.W.W.W.'./.W '.!.W '.'.'.W /.'.Q.^ ) E /.) ) ~.!  X! ~.^. X^.!  X^.!  X^.! ^.^. X! ^./.! ^.^. X^./.+X X^. X! ^.^.^.^.E Y.XX~.|.|.|.! Y.Y.~.XXXXa.XX.XoX.X.XoX}..XXXXXXXp.+X.Xi.XXc.p.v.v.v.p.v.oXY.E.Y.Y.c.l.XXp.p.XXp.c.l.nXnXj.1X1XP.1X1X1XP.1X1Xj.1X1XC.5X5X2XZ.v.5XA.Z.2X2X2XA.2XI.A.3XR.I.mXmX3XZ.2X2XA.2X2X2XZ.C.3XC.C.3XC.Z.2X2X2XA.2XI.A.2XlX3Xh.$X3XR.d.d.d.d.d.a.Y | | %.%.-.>.>.vX..& t 8 6 O.HXGXs 7 8 8 > > m M M ;.B.f.r * x j j :.dXdX} X 8 6 s.HXg.& X > L.GXO.7 , _.6X_._.(._.).*X_.t.`.=X#Xt.i ",
"[./.!.W.W.W.W.W.W.W.W.'./.W '.!.W '.'.'.W /.'.W _ /.E /._  X! !  X! ~.^./.^.! /.^.!  X^.! ^.^./.! ^./.! ^.^. X^./.+X X^. X! ^.^.^.^.~.E.~.~.|.|.|.~.E.XX~.XXXXa.XX.XXX.X.XoX}..XXXXXXXp.oX+Xi.XXc.p.v.v.v.p.v.oXY.E.Y.Y.c.l.XXp.p.XXp.c.v.mX1Xv.1X1XP.1X1X1XP.1X1Xj.1X1Xj.1X5X1XZ.P.5XC.Z.2X2XI.A.2XI.A.3XR.I.mXmX3XZ.2X2XA.I.2X2XZ.C.3XC.C.3XC.Z.I.2X2XA.2XI.A.2XR.lXd.$X1XlXh.h.h.h.).j.Y -.-.-.;.;.6.@XvX..& t 8 6 O.HXGXs 7 8 8 > > m M M ;.B.f.r * x j j :.dXdX} X 7 7 DXg.O & & X O T.lX6 6 _.=X4X;X4XMX(.%X%X4X%X&X_.4X7 ",
"[.!.!.W.W.W.W.W.W.W.W.'./.W '.!.W '.'.'.W /.'.~ ) '.W ^ _ /.! !  X! ~.^./.^.! /.^.!  X^.! ^.^. X! ^./.! ^.^. X^.^.+X X^. X! ~.^.^.^ Y.5X~.~.|.|.|.Y.Y.|.a.XXXXa.XX.XXX}.}.oX~..XXXXXXXa.XX+Xa.v.c.p.v.v.v.p.v.oXY.E.Y.Y.c.p.XXp.p.XXp.l.3XnXP.j.1X1Xv.1X1X1Xj.1X1Xj.1X1Xj.1X5X5XC.C.5Xv.C.2X2XI.A.2XI.A.3XR.I.mXmX3XZ.2X2XA.I.2X2XC.C.3XC.C.3XC.Z.I.2XI.A.2XI.A.2X2XlXh.Z.$XR.Z.d.h.h.d.j.Y %.%.-.-.;.6.6.vX..& t 8 6 O.HXGXs 7 8 8 > > m M M ;.B.f.r * x j j :.dXdX} X 6 +.GX, & & & 6 X 3 GXs 7 i i @.@.$.g $.$.d g d d ).(.6 ",
"[.!.!.W.W.W.W.W.W.W.W.'.'.W.'./.W.'.'.'.W.'.'._  X/.W._ ^ /.^.^. X~.^.^./.^.!  X^.~. X^.~.^.^. X! ^./.! ^.^. X^./.+XOX X X^.^.^.^.|.E.|.|.~.|.|.|.E.XXXX.XXXXX.XXX.XXX.X.XoX.X.XXXXXXX.XXXoX Xv.v.c.v.v.v.l.v.oXY.E.Y.Y.v.c.XXc.c.XXc.v.mX3X1XP.1X1XP.1X1X1XP.1X1XP.1X1XP.1X1X5XP.P.1X5XI.2X2X2XZ.2X2XZ.3XR.R.mXmX3X2X2X2XC.2X2X2XZ.Z.2XZ.Z.2XZ.I.I.2X2XZ.2X2XZ.2X1XlXZ.$X1XR.R.f.d.d.d.j.Y | | %.%.-.>.>.vX..& t 8 6 O.HXGXs 7 8 8 > > m M M ;.B.f.r * x j j :.dXdX} X - s.DX& & & & MXPXo.DXO.7 7 7 7 7 7 6 6 6 7 6 > & y 7 7 ",
"[.!.!.W.W.W.W.W.W.W.W.'.'.'.'.'.'.'.'.'.'.'. X) '.'. X_ ^. X^. X X^. X^././.^. X/./. X/. X^.^. X^. X X^. X^. X X+X+XOX X X X X^.^.5XY. X|.|.|.|.5XE.XXXXXXoXXXXXoX.XXXXXXXoXXXoXXXXXXXXXoXXX+XXXv.v.v.v.XXv.oXoXY.E.Y.Y.v.v.XXv.v.XXv.3XmX1X1X1X1X1X1X1X1X1X1X1X1X1X1X1X1X1X1X5X5X2X3X5X5X2X2X2X2X3X2X2X3XR.R.mXmX3X3X3X2X2X3X2X2X2X2X3X2X2X2X2X3XI.2X2X2X3X2X2X2X1XkXR.1X2XZ.R.d.d.d.d.j.Y | | %.-.-.>.6.vX..& t 8 6 O.HXGXs 7 8 8 > > m M M ;.B.f.r * x j j :.dXdX} X 6 O.GX1 X & & 7 i u m.t 8 7 _._.t #X%X#X&X&.i (.$.g @.7 ",
"[.!.!.W.W.W.W.W.W.W.W.'.'./.'./.'.'./.'./.'.) ^././._  X~.^.^.^.^.^.^.^.^.^.^.^.^.^.^.^.^.^.^.^.^.^.^.^.^.^././.OX+XOX X X^.^.^.^.E.|.|.|.|.|.|.E.XXXXXXXXXXXXXXXX.XXXXXXXXXXXXXXXXXXXXXXXXX+X+Xv.v.v.c.v.v.XXoXY.E.v.Y.v.v.v.v.v.v.c.mX2X1X1X1X1X1X1X1X1X1X1X1X1X1X1X1X1X1X1X1X5X1X1X1X5XI.2X2X2X2X2X2X2XR.R.mXmX3X3X3X2XI.2XI.2XI.2X2XI.2X2XI.2XI.2X2X2X2X2X2X2X1X2XlX$X1XC.R.h.d.d.d.d.Y | | %.-.-.>.6.vX..& t 8 6 O.HXGXs 7 8 8 > > m M M ;.B.f.r * x j j :.dXdX} X 7 6 lXT.o & & X   q.e.7 7 t _.#Xy ).%X=X;X(.`.4X&X%X#X7 ",
"[.!.!.W.W.W.W.W.W.W.W.W.W.W.W.W.W.W.E E W.! _ E E ! _ ! ! ! ! ! ! ! ! ! ! ! ! ! ! ! ! ! ! ! ! ! ! ! ! ! ! ! ! ^.^.OXOX^ ^ ~ ! ! v.Y.! ~.~.~.~.v.E.~.}..X}.}.}.}.}.}.}.}.}.}..X~.}.}.}.}.}..X}.+Xp.p.p.l.p.l.l.z.Y.U.x.v.c.p.l.l.p.p.P.mXv.P.P.P.P.P.P.P.P.P.P.P.P.P.P.P.P.P.P.C.oXv.C.C.oXP.A.C.Z.A.A.C.A.I.I.kXmX2XI.Z.A.Z.C.A.C.C.Z.A.C.C.Z.A.C.Z.C.A.Z.C.C.Z.A.A.A.lXA.h.h.R.A.d.d.d.d.Y | | %.%.-.>.>.vX..& t 8 6 O.HXGXs 7 8 8 > > m M M ;.B.f.r * x j j :.dXdX} X 7 7 s GXV.X > & e.V.8 7 8 7 (._.(.%X(._._.$.@.&.&.t.).7 ",
"[.!.!.W.W.W.W.W.W.W.W.W.W.W.W.W.W.W.W.W.Q.) ~ E W.) ) ~.~.~.~.! ! ! ! ! ! ! ! ! ~.~.~.~.! ! ! ! ! ! ! ! ! ! ! ^.^.OXOX^.^.^.~.! E.~.~.~.~.~.~.E.v.~.}..X.X.X.X.X.X}.}.}.}.}..X.X.X.X.X}.}..Xp. X|.p.l.c.p.c.v..XY.U.x.v.c.p.l.l.p.p.nX2XP.1XP.P.P.P.P.P.P.P.P.P.P.P.P.P.P.P.P.1X1XoXC.C.P.oXA.C.Z.C.Z.C.Z.I.I.kXmX2X2XZ.A.C.Z.C.C.C.Z.C.C.C.Z.C.C.Z.C.C.Z.C.C.Z.C.Z.C.R.I.h.h.I.R.d.d.d.d.Y | | %.-.;.@X6.vX..& t 8 6 O.HXGXs 7 8 8 > > m M M ;.B.f.r * x j j :.dXdX} X 7 t 6 s s 7 8 7 u t 7 8 8 8 7 7 7 7 7 6 7 7 7 7 7 7 7 7 ",
"+X'.'.W.W.W.W.W.W.W.W.W.W.W.W.W.W.W.'.'./._ E E ! _ ! ! /.'./.! ! ! ! ! ! ! ! ! ~.'.'./.! ! ! ! ! ! ! ! ! ! ! ^./.OXOX'. X'./.v.Y.! ~.~.~.~.v.E.~.}.}..X.XXXXX1XXX}.}.}.}.}..X1XXX1XXX}.}..X}.}.+Xp.p.v.XXXX1XXXY.U.x.v.c.p.l.l.p.v.mXv.P.1X1X1XP.P.P.P.P.P.P.P.P.P.P.P.P.P.P.1X1XoXv.C.C.oXP.A.Z.Z.2X$XA.I.I.kXmX2X2XZ.C.C.$X$X$XA.Z.C.C.C.Z.C.C.Z.C.C.Z.C.C.Z.$X$X$X2XR.h.h.A.R.d.d.d.d.Y | | %.-.@X@X%XvX..& t 8 6 O.HXGXs 7 8 8 > > m M M ;.B.f.r * x j j :.dXdX} X 7 8 8 7 7 t t t 7 7 8 8 8 8 8 8 8 8 8 8 8 8 8 8 8 8 8 8 ",
"[.'.'.W.W.W.W.W.W.W.W.W.W.W.W.W.W.W.'.]. X~ E E ) ) ! ! /.'./.! ! ! ! ! ! ! ! ! ! /.'./.! ! ! ! ! ! ! ! ! ! ! ^.^.OXOX/.'.'./.Y.}.~.~.~.~.! Y.v.~.}.~.}..XXXXXXX.X~.~.~.~.}..XXXXXXXXX~.}..X~.p.+X~.p.c..XXXXXXXY.U.v.v.c.p.p.p.a.3X3Xv.P.1X1X1XP.P.P.P.P.P.P.P.P.P.P.P.P.P.1X1X1X1XoXC.C.v.XXA.C.Z.$X$XA.I.I.kXnX2XI.Z.A.C.Z.$X$XA.C.A.A.C.C.A.A.C.C.A.C.C.C.Z.$X$X$X$XlXh.h.h.lXh.d.d.d.Y | | | ;.@X@X@XvX..& t 8 7 O.HXGXs 7 8 8 > > m M M ;.B.f.r * x j j :.dXdX} X 7 8 7 t 7 - - - 7 t 7 8 8 8 8 8 8 8 8 8 8 8 8 8 8 8 8 8 ",
"[./.!.W.W.W.W.W.W.W.W.W.W.W.W.W.W.W.W.W._ ! ! ! _ ~ ! ^.^ ! ! ~ ~ ~ ^ ~ ~ ~ ~ ~ ^.! ! ! ~ ^ ~ ~ ^ ^ ~ ~ ^ ! ^ ^./.OXOX^  X^ .XY.~.~.~.~.~..XE.}..X.X.X.X.X.X.X.X.X.X.X.X.X.X.X.X.X.X.X}..X.X.X.X|.+Xl.c.l.c.v..XY.U.v.v.c.l.c.l.v.mXP.P.1XP.P.P.P.P.P.P.P.P.P.P.P.P.P.P.P.P.1X1XP.P.5XP.P.P.5XP.I.Z.Z.Z.I.I.R.kXmX2X2XI.Z.I.Z.Z.Z.Z.I.Z.Z.Z.I.Z.Z.I.Z.Z.I.Z.Z.I.Z.Z.Z.C.lXI.h.h.R.Z.d.h.h.U | | %.-.;.6.6.bX@.& t 8 6 O.HXHXs 7 8 8 > > m M M ;.B.f.r * x j j :.dXdX} X 7 8 8 - s V.T.g.t 6 8 8 8 8 8 8 8 6 6 7 8 7 6 7 8 8 8 8 ",
"W.W b h h h h h h h h h h h h h h P h P R h P P ~ P P P P P P P P P P P P P P P P P P P P P P P P P P P P P R W W E E W W R j.y.P y.y.y.P j.j.y.y.y.y.y.y.y.y.y.y.y.y.y.y.y.y.y.y.y.y.y.y.y.y.y.y.!.y.r.y.y.y.y.a.u.r.u.y.y.y.r.h.C.y.d.d.d.d.d.d.d.d.d.d.d.d.d.d.d.d.d.d.d.d.d.d.d.j.j.f.f.j.d.f.f.f.f.f.d.d.h.h.d.d.f.f.f.f.f.f.f.f.f.f.f.f.f.f.f.f.f.f.f.f.f.f.f.f.f.h.h.y.y.h.d.y.y.y.H  . . . .| %.%.;.r > t 8 7 O.DXDXs 7 8 8 > > m M M ;.B.f.r * x j k :.dXdX} X 7 8 6 V.GXzXlXDXGXs.6 8 8 8 8 8 7 $.t.&.7 #._.i 7 8 8 8 ",
"* * & & & & & & & & & & & & & & & & & & & & & & * & & & & & & & & & & & & & & & & & & & & & & & & & & & & & & * * * * * & & & & & & & & & & & & & & & & & & & & & * * * & * * & & & & & & & & & & * & & & & & & & X & & & & & & & X & & * & & & & & & & & & & & & & & & & & & & & & * * & & * * & & & & & & & X X X X X X X X X X X X X X X X X X X X X X X X X X X X * X X * * X X * * * & & & & & & & & X * 6 8 7 7 7 7 7 7 7 7 8 > > m M m &.f.;.r * x j j :.dXdX} X 8 6 V.HXO.o o O s.zXs 7 8 8 8 8 6 #X_.4X).&X6X_.6 8 8 8 ",
"8 8 8 7 7 7 8 7 7 7 7 7 7 7 7 7 7 7 7 7 7 7 7 7 7 7 7 7 7 7 7 7 8 7 7 7 7 7 8 8 8 8 7 8 7 7 7 7 7 7 7 7 7 7 7 7 7 7 8 7 7 7 8 8 7 7 7 7 7 7 7 8 7 7 7 7 7 8 8 8 8 8 8 8 8 8 8 8 8 8 8 7 7 8 8 8 8 8 7 7 7 7 7 7 7 t u u u u t 7 8 8 8 8 8 8 7 7 7 7 7 7 7 7 7 7 7 7 7 7 7 7 7 8 t t t t t t 8 t t t t t 8 8 6 & 8 t y y y y y y y y y y y y y y y y y y y y y y y y y y y y y y y y y y y y y y y y y y t 8 & 6 8 7 #X$.#.#X_.(.7 t > > 8 7 7 7 t t 7 & 8 7 7 r r r 7 & 7 t GXe.O &   #X*X4 V.7 8 8 8 8 7 $.4X`.%X%X`.`.6 8 8 8 ",
"7 7 7 7 8 8 7 8 8 8 6 & & & & & & & & & & & & & & & & & & & > & X & & 7 8 8 7 7 7 6 7 7 t 8 8 8 8 8 7 8 7 & * & & & & & & * & * & & & & & > & X & & 8 8 8 g d i d i d d d d d i d d g t 8 7 6 7 7 7 8 8 8 8 8 7 u SXgXgXgXgXSXs A wXwXwXA eXG r 8 8 8 8 8 8 8 8 8 8 8 8 8 7 t g d d d d d d d d i d d d d d 6 & 7 d d i i i i i i i i i i i i i i i y y y y y y y y i i i i i i i i i i i i i i i i i i g 8 & 6 7 d #X`.(.*X;X).t 8 > 6 7 a v v y v 6 & 7 q a 0 q x 7 & 6 e.DX& &   i PXg , V.t 7 8 8 7 7 g y t y y y i 7 7 8 8 ",
"g y g t 7 7 $.7 7 8 6 & & &     X 7         X & & & & & & & & X i 7 X 7 8 7 d #.g &.i #.> 7 6 7 6 8 y 8 7 & 7 & X   7 X & 7 6 t & * & & & & X d > & 8 7 8 d 7 y t t t t 8 7 t y 8 7 d t 7 d &.d $.t 7 6 7 7 8 7 s SXn.D.D.n.gXO.A Z Z Z Z wXG r 8 8 8 8 8 8 8 8 8 8 8 8 8 7 t d 7 8 8 7 t t 7 t y 7 7 8 t d 6 & 7 i t 7 7 7 7 7 7 7 7 7 7 7 7 7 7 7 y y @.i t y i t 7 7 7 7 7 7 7 7 7 7 7 7 7 7 7 7 7 7 d 8 & 6 8 8 _.).(.#X#X(.7 t > > y v n n a n , & 8 x m M c M 9 & - s.DX& & & & *   , m.u 7 8 7 t y 6 y 8 y 6 6 y i t 7 8 ",
"#X%X4X#X`.`.;X#X#Xd * %X$.&X@.i t._.g $.@.t.y X & & & & & & & X :X`.  7 t 6 ).#X#Xd g 4X(._.(._.`.#X=X$.> g 4X&.@.$.).i t ;X`.&X7 * & & & & & 4X#.X 8 8 8 d y @X).).@Xd &.(.).(.).t i y > `.&X(.;X%X_.%X)._.i 6 s gXG.gXgXD.gXO.A Z A A Z wXG r 8 8 8 8 8 8 8 8 8 8 8 8 8 7 t y @.).`.*.).@.@.@.%X`.).t.7 d 6 & 7 d t 7 8 8 8 8 8 8 8 8 8 8 8 8 7 t t.i ).&Xt.#X@X6 7 7 8 8 8 8 8 8 8 8 8 8 8 8 8 8 8 8 d 8 & 6 8 7 7 7 6 > > 7 7 8 > > t 8 y q a a 6 & 8 9 9 q q 0 8 & 6 s GX1 o & & & X 1 V.8 7 8 7 ).#Xg &X&X%Xy (.=X;X).6 8 ",
"t.6X;X*X&X*X*X6X#Xi & #X;X4X_.&X#X=X6X;X&.%X(.  & & & & & & & * &X(.  7 8 7 d ;X*Xi g *X;X%X=X%X#X=X&X@.> &.).t.=X`.MX`.7 6X(.t.& & & & & & > :X*.X 8 8 8 i i `.&.@X).@.(.&X`.(.@Xt i y > (.(.#X&X%X6X4X#.&X$.6 s gXD.SXgXD.gXO.A Z Z A Z wXG r 8 8 8 8 8 8 8 8 8 8 8 8 8 7 t i i &X@X&.*.t.&.&.).%X*X(.7 d 6 & 7 d t 7 8 8 8 8 8 8 8 8 8 8 8 8 7 t ).*.).f.&X_.@Xd @.i 7 8 8 8 8 8 8 8 8 8 8 8 8 8 8 8 d 8 & 6 8 8 7 7 &.t.$.7 8 8 > > 7 i i d 7 i 6 & 7 u u u u o.7 & 7 6 lXzX& * & & , m.e.7 8 8 7 _.#X`._.6X_.t.&X*X4X#X7 8 ",
"y g i g g g #.d @.i > i $.d &.d &.#.#.g 7 i y * & & & & & & >   &.d X 7 8 7 g @.d &.8 &.i #.y #.d @.@.@.6 y 6 8 g y #.g 7 `.d i & & & & & & X `.t * 8 7 8 d 8 t 7 y g y t i y g y t i t 7 y 8 i d g g g t #.y 6 s gXn.D.D.n.gXO.A Z Z Z Z A G r 8 8 8 8 8 8 8 8 8 8 8 8 8 7 t i 7 i i t i y i @.i y i y t d 6 & 7 i t 7 7 7 7 7 7 7 7 7 7 7 7 7 7 7 @.@.d t i y y g d y 7 7 7 7 7 7 7 7 7 7 7 7 7 7 7 7 d 8 & 6 8 7 8 _.;X4X*X7 7 8 > > y *.f.t.@.@X6 & t %.=.S.%.B.t & 7 7 8 DXV.X > - e.s.7 8 8 8 7 $.`.#.`.&.`.8 `.(.).&.7 8 ",
"7 7 7 7 7 7 6 7 6 7 6     X   X     X X * X X & & & & & & & & &   X & 7 8 8 7 7 7 6 7 6 7 6 7 6 7 6 6 7 7 * & *   X   X *   X X & & & & & & &   X & 7 8 7 g i i i y y y y y y y y y g t 7 7 7 7 7 7 7 7 7 6 7 7 s AXgXgXgXgXAXO.wXwXwXwXA eXG r 8 7 7 7 7 7 7 7 7 7 7 7 8 7 t g y y y y y y y y y y y y i g 6 & 7 d y t y y y y y y y y y y y y y y 8 8 8 t t t t 8 t t y y y y y y y y y y y y y y y y g 8 & 6 8 7 t %X&X;X*X8 7 8 > > y i @.*.@.*.6 & t u o.=.o.=.t & 7 8 7 t u 7 8 8 t 7 7 8 7 7 8 7 6 7 6 6 6 7 6 6 6 6 8 7 ",
"8 t t t t t t t t 8 8 7 8 8 8 8 8 8 8 8 7 7 7 7 7 7 7 7 7 7 7 7 8 7 7 8 8 8 t t t t 8 t t t 8 t t t t t 8 7 7 7 8 7 8 7 7 8 7 7 7 7 7 7 7 7 7 8 7 7 8 8 8 y y y y y y y y y y y y y y 8 8 8 8 t t t t t 8 t 8 8 t O.e.e.e.e.O.t w G G G G G 8 8 8 8 8 8 8 8 8 8 8 8 8 8 8 8 8 y y y y y y y y y y y y y y y 7 & 8 y d i d d d d d d d d d d d d d d d d d d d d d d d d d d d d d d d d d d d d d d i d y t > 6 t 8 7 g g @.g 7 8 t > > 8 7 7 7 7 7 7 & 8 7 7 9 8 7 7 & 7 8 t 8 7 8 8 8 8 8 8 8 8 8 8 t t t t t t 8 t t t t 8 8 ",
"& & & & & & & & & & & & & & & & & & & & & & & & & & & & & & & & & & & & & & & & & & & & & & & & & & & & & & & & & & & & & & & & & & & & & & & & & & & & & & & & & & & & & & & & & & & & & & & & & & & & & & & & & X X X X X X & & & & & & & & & & & & & & & & & & & & & & & & & & & & & & & & & & & & & & & & * & & & & & & & & & & & & & & & & & & & & & & & & & & & & & & & & & & & & & & & & & & & & & & * & & & & * X X X & & & * * & & & & & & & * & & & & & & & * & & & & & & & & & & & & & & & & & & & & & & & & & & & & ",
"i t i i y y i i i i i y i y i i i i i i i i i i i i i i i i i i i i i i i i i i i i i i i i i i i i i i i i i i i i i i i i i i i i i i i i i i i i i i i i i i i i i i i i i i i i i i i i i i i i i i i i i i i i i i i i i i i i i i i i i i i i i i i i i i i i i i i i i i i i i i i i i i i i i i i i i i i i i i i i i i i i i i i i i i i i i i i i i i i i i i i i i i i i i i i i i i i i i i i i i i i i i i i i i i i i i i i i i i i i i i i i i i i i i i i i i i i i i i i i i i i i i i i i i i i i i i i i i i ",
"$.%X&.$.t.(.#.#.@.#.$.t.$.(.$.$.$.$.$.$.$.$.$.$.$.$.$.$.$.$.$.$.$.$.$.$.$.$.$.$.$.$.$.$.$.$.$.$.$.$.$.$.$.$.$.$.$.$.$.$.$.$.$.$.$.$.$.$.$.$.$.$.$.$.$.$.$.$.$.$.$.$.$.$.$.$.$.$.$.$.$.$.$.$.$.$.$.$.$.$.$.$.$.$.$.$.$.$.$.$.$.$.$.$.$.$.$.$.$.$.$.$.$.$.$.$.$.$.$.$.$.$.$.$.$.$.$.$.$.$.$.$.$.$.$.$.$.$.$.$.$.$.$.$.$.$.$.$.$.$.$.$.$.$.$.$.$.$.$.$.$.$.$.$.$.$.$.$.$.$.$.$.$.$.$.$.$.$.$.$.$.$.$.$.$.$.$.$.$.$.$.$.$.$.$.$.$.$.$.$.$.$.$.$.$.$.$.$.$.$.$.$.$.$.$.$.$.$.$.$.$.$.$.$.$.$.$.$.$.$.$.$.$.$.$.$.$.$.$.$.$.$.$.$.$.$.",
"(.PX).g *X6X`._.%X(.*X%X).4X@.#.#.#.#.#.#.#.#.#.#.#.#.#.#.#.#.#.#.#.#.#.#.#.#.#.#.#.#.#.#.#.#.#.#.#.#.#.#.#.#.#.#.#.#.#.#.#.#.#.#.#.#.#.#.#.#.#.#.#.#.#.#.#.#.#.#.#.#.#.#.#.#.#.#.#.#.#.#.#.#.#.#.#.#.#.#.#.#.#.#.#.#.#.#.#.#.#.#.#.#.#.#.#.#.#.#.#.#.#.#.#.#.#.#.#.#.#.#.#.#.#.#.#.#.#.#.#.#.#.#.#.#.#.#.#.#.#.#.#.#.#.#.#.#.#.#.#.#.#.#.#.#.#.#.#.#.#.#.#.#.#.#.#.#.#.#.#.#.#.#.#.#.#.#.#.#.#.#.#.#.#.#.#.#.#.#.#.#.#.#.#.#.#.#.#.#.#.#.#.#.#.#.#.#.#.#.#.#.#.#.#.#.#.#.#.#.#.#.#.#.#.#.#.#.#.#.#.#.#.#.#.#.#.#.#.#.#.#.#.#.#.",
"(.MX).g ;XMX4XMX;X6X6X&X#.;X(.@.#.#.#.#.#.#.#.#.#.#.#.#.#.#.#.#.#.#.#.#.#.#.#.#.#.#.#.#.#.#.#.#.#.#.#.#.#.#.#.#.#.#.#.#.#.#.#.#.#.#.#.#.#.#.#.#.#.#.#.#.#.#.#.#.#.#.#.#.#.#.#.#.#.#.#.#.#.#.#.#.#.#.#.#.#.#.#.#.#.#.#.#.#.#.#.#.#.#.#.#.#.#.#.#.#.#.#.#.#.#.#.#.#.#.#.#.#.#.#.#.#.#.#.#.#.#.#.#.#.#.#.#.#.#.#.#.#.#.#.#.#.#.#.#.#.#.#.#.#.#.#.#.#.#.#.#.#.#.#.#.#.#.#.#.#.#.#.#.#.#.#.#.#.#.#.#.#.#.#.#.#.#.#.#.#.#.#.#.#.#.#.#.#.#.#.#.#.#.#.#.#.#.#.#.#.#.#.#.#.#.#.#.#.#.#.#.#.#.#.#.#.#.#.#.#.#.#.#.#.#.#.#.#.#.#.#.#.#.#.#.",
"&.4X&.@._.&X%X%X(.`.&X`.t.%X&.#.$.$.$.$.$.$.$.$.$.$.$.$.$.$.$.$.$.$.$.$.$.$.$.$.$.$.$.$.$.$.$.$.$.$.$.$.$.$.$.$.$.$.$.$.$.$.$.$.$.$.$.$.$.$.$.$.$.$.$.$.$.$.$.$.$.$.$.$.$.$.$.$.$.$.$.$.$.$.$.$.$.$.$.$.$.$.$.$.$.$.$.$.$.$.$.$.$.$.$.$.$.$.$.$.$.$.$.$.$.$.$.$.$.$.$.$.$.$.$.$.$.$.$.$.$.$.$.$.$.$.$.$.$.$.$.$.$.$.$.$.$.$.$.$.$.$.$.$.$.$.$.$.$.$.$.$.$.$.$.$.$.$.$.$.$.$.$.$.$.$.$.$.$.$.$.$.$.$.$.$.$.$.$.$.$.$.$.$.$.$.$.$.$.$.$.$.$.$.$.$.$.$.$.$.$.$.$.$.$.$.$.$.$.$.$.$.$.$.$.$.$.$.$.$.$.$.$.$.$.$.$.$.$.$.$.$.$.$.$.$.",
"g y g g d d i i g d i g g d g g g g g g g g g g g g g g g g g g g g g g g g g g g g g g g g g g g g g g g g g g g g g g g g g g g g g g g g g g g g g g g g g g g g g g g g g g g g g g g g g g g g g g g g g g g g g g g g g g g g g g g g g g g g g g g g g g g g g g g g g g g g g g g g g g g g g g g g g g g g g g g g g g g g g g g g g g g g g g g g g g g g g g g g g g g g g g g g g g g g g g g g g g g g g g g g g g g g g g g g g g g g g g g g g g g g g g g g g g g g g g g g g g g g g g g g g g g g g g g g g g ",
"& > & & > & & & & & & & & & & & & & & & & & & & & & & & & & & & & & & & & & & & & & & & & & & & & & & & & & & & & & & & & & & & & & & & & & & & & & & & & & & & & & & & & & & & & & & & & & & & & & & & & & & & & & & & & & & & & & & & & & & & & & & & & & & & & & & & & & & & & & & & & & & & & & & & & & & & & & & & & & & & & & & & & & & & & & & & & & & & & & & & & & & & & & & & & & & & & & & & & & & & & & & & & & & & & & & & & & & & & & & & & & & & & & & & & & & & & & & & & & & & & & & & & & & & & & & & & & & & ",
"@.g #.#.@.#.#.@.g #.#.#.#.@.#.#.#.#.#.#.#.#.#.#.#.#.#.#.#.#.#.#.#.#.#.#.#.#.#.#.#.#.#.#.#.#.#.#.#.#.#.#.#.#.#.#.#.#.#.#.#.#.#.#.#.#.#.#.#.#.#.#.#.#.#.#.#.#.#.#.#.#.#.#.#.#.#.#.#.#.#.#.#.#.#.#.#.#.#.#.#.#.#.#.#.#.#.#.#.#.#.#.#.#.#.#.#.#.#.#.#.#.#.#.#.#.#.#.#.#.#.#.#.#.#.#.#.#.#.#.#.#.#.#.#.#.#.#.#.#.#.#.#.#.#.#.#.#.#.#.#.#.#.#.#.#.#.#.#.#.#.#.#.#.#.@.& 7 8 7 6 7 8 8 8 8 8 8 8 7 7 8 & 6 8 7 7 7 7 7 7 7 7 8 7 7 7 7 8 7 7 7 7 7 7 7 7 7 7 7 8 & 6 8 7 7 7 7 7 7 7 7 7 6 7 8 7 8 8 7 7 7 7 7 7 7 7 8 6 & 7 6 7 8 7 8 ",
"&.#X(.#.#X$.@.&.%X$.$.&.&.$.#.#.#.#.#.#.#.#.#.#.#.#.#.#.#.#.#.#.#.#.#.#.#.#.#.#.#.#.#.#.#.#.#.#.#.#.#.#.#.#.#.#.#.#.#.#.#.#.#.#.#.#.#.#.#.#.#.#.#.#.#.#.#.#.#.#.#.#.#.#.#.#.#.#.#.#.#.#.#.#.#.#.#.#.#.#.#.#.#.#.#.#.#.#.#.#.#.#.#.#.#.#.#.#.#.#.#.#.#.#.#.#.#.#.#.#.#.#.#.#.#.#.#.#.#.#.#.#.#.#.#.#.#.#.#.#.#.#.#.#.#.#.#.#.#.#.#.#.#.#.#.#.#.#.#.#.#.#.#.#.$.#.& 7 7 d $.i 6 7 6 6 6 6 6 8 g 7 & 6 8 8 8 8 8 8 8 8 8 7 i t i i 6 @.8 8 8 8 8 8 8 8 8 8 8 & 6 8 8 8 8 8 8 8 8 7 t @.y 7 @.6 7 8 8 8 8 8 8 8 8 8 7 & y #.8 7 y 6 ",
"`.4X%X=X6X4X6X&XMX=X#X6X=X6X(.@.#.#.#.#.#.#.#.#.#.#.#.#.#.#.#.#.#.#.#.#.#.#.#.#.#.#.#.#.#.#.#.#.#.#.#.#.#.#.#.#.#.#.#.#.#.#.#.#.#.#.#.#.#.#.#.#.#.#.#.#.#.#.#.#.#.#.#.#.#.#.#.#.#.#.#.#.#.#.#.#.#.#.#.#.#.#.#.#.#.#.#.#.#.#.#.#.#.#.#.#.#.#.#.#.#.#.#.#.#.#.#.#.#.#.#.#.#.#.#.#.#.#.#.#.#.#.#.#.#.#.#.#.#.#.#.#.#.#.#.#.#.#.#.#.#.#.#.#.#.#.#.#.#.#.#.#.#.#.#.#.& 6 d _.t.4X@.(.).).(.).&.%X`.6 > 6 8 7 8 8 8 8 8 8 t & _.#X;X).(.=X7 8 8 8 8 8 8 8 8 7 8 & 6 8 7 8 8 8 8 8 8 6 (.#X$.`.*X`.&.6 8 8 8 8 8 8 7 8 7 & _.(.g ).t._.",
"$.;XMX4X6XMX6X=X%X*XMXMX4X&X_.g $.#.#.#.#.#.#.#.#.#.#.#.#.#.#.#.#.#.#.#.#.#.#.#.#.#.#.#.#.#.#.#.#.#.#.#.#.#.#.#.#.#.#.#.#.#.#.#.#.#.#.#.#.#.#.#.#.#.#.#.#.#.#.#.#.#.#.#.#.#.#.#.#.#.#.#.#.#.#.#.#.#.#.#.#.#.#.#.#.#.#.#.#.#.#.#.#.#.#.#.#.#.#.#.#.#.#.#.#.#.#.#.#.#.#.#.#.#.#.#.#.#.#.#.#.#.#.#.#.#.#.#.#.#.#.#.#.#.#.#.#.#.#.#.#.#.#.#.#.#.#.#.#.#.#.#.#.#.#.#.& > @._.g %X&X6X6X_.;X_.MX6X`.6 > 6 8 7 8 8 8 8 8 8 8 6 (.6X;X4X*X%X7 8 8 8 8 8 8 8 8 8 8 & 6 8 7 8 8 8 8 8 8 7 i &X4X&X=XMX`.6 8 8 8 8 8 8 7 8 7 & #X_.4XMX4X#X",
"&.(.$.t.(.&.&.(.t.&.(.t.&.&.$.#.$.#.#.#.#.#.#.#.#.#.#.#.#.#.#.#.#.#.#.#.#.#.#.#.#.#.#.#.#.#.#.#.#.#.#.#.#.#.#.#.#.#.#.#.#.#.#.#.#.#.#.#.#.#.#.#.#.#.#.#.#.#.#.#.#.#.#.#.#.#.#.#.#.#.#.#.#.#.#.#.#.#.#.#.#.#.#.#.#.#.#.#.#.#.#.#.#.#.#.#.#.#.#.#.#.#.#.#.#.#.#.#.#.#.#.#.#.#.#.#.#.#.#.#.#.#.#.#.#.#.#.#.#.#.#.#.#.#.#.#.#.#.#.#.#.#.#.#.#.#.#.#.#.#.#.#.#.#.$.#.& 7 7 &.t.i #.(.@.d @.d #.$.d 7 & 6 8 7 7 7 7 7 7 7 8 7 i $.@.@.&.&.7 8 7 7 7 7 7 7 7 7 8 & 6 8 7 7 7 7 7 7 8 7 d t.g &.&.#.d 7 8 7 7 7 7 7 7 8 7 * g (.t.t.#.g ",
"@.g @.g g @.@.g @.@.g g @.@.@.@.@.@.@.@.@.@.@.@.@.@.@.@.@.@.@.@.@.@.@.@.@.@.@.@.@.@.@.@.@.@.@.@.@.@.@.@.@.@.@.@.@.@.@.@.@.@.@.@.@.@.@.@.@.@.@.@.@.@.@.@.@.@.@.@.@.@.@.@.@.@.@.@.@.@.@.@.@.@.@.@.@.@.@.@.@.@.@.@.@.@.@.@.@.@.@.@.@.@.@.@.@.@.@.@.@.@.@.@.@.@.@.@.@.@.@.@.@.@.@.@.@.@.@.@.@.@.@.@.@.@.@.@.@.@.@.@.@.@.@.@.@.@.@.@.@.@.@.@.@.@.@.@.@.@.@.@.@.@.@.@.& 7 t 6 7 7 7 6 7 7 7 7 7 7 7 t & 6 t 8 8 8 8 8 8 8 8 8 7 7 7 7 7 6 t 8 8 8 8 8 8 8 8 8 t & 7 t 8 8 8 8 8 8 8 8 7 6 7 7 7 7 7 8 8 8 8 8 8 8 8 t 7 & 7 6 6 6 6 7 ",
"7 7 7 7 7 7 7 7 7 7 7 7 7 7 7 7 7 7 7 7 7 7 7 7 7 7 7 7 7 7 7 7 7 7 7 7 7 7 7 7 7 7 7 7 7 7 7 8 7 7 8 7 7 7 7 7 7 7 7 7 7 7 7 7 7 7 7 7 7 7 7 7 7 7 7 7 7 7 8 7 7 7 7 7 7 7 7 7 7 7 7 7 7 7 7 7 7 7 7 8 7 7 7 7 7 7 7 7 7 7 7 7 7 7 7 7 7 7 7 7 7 7 7 7 7 7 7 7 7 7 7 7 7 7 7 7 7 7 7 7 7 7 7 7 7 7 7 7 7 7 7 7 7 7 7 7 7 7 7 7 7 7 7 7 7 7 7 7 7 7 7 7 7 7 7 7 & > 6 6 6 6 6 6 6 6 6 6 6 6 6 6 & & 6 6 6 6 6 6 6 6 6 , 6 6 6 6 7 7 , 6 6 6 6 6 6 6 6 6 6 & & 6 , 6 6 6 6 6 6 , 6 6 6 6 6 6 6 , 6 6 6 6 6 6 , 6 > & t r r r r r ",
"8 8 8 8 8 8 8 8 8 8 8 8 8 7 7 7 7 7 7 t 7 7 8 8 8 8 8 8 8 8 8 8 8 8 8 8 8 8 8 8 8 8 7 7 7 6 7 6 y 7 6 8 7 7 7 7 7 7 t 7 8 8 8 8 8 8 8 8 8 8 7 8 6 7 7 7 7 7 6 7 7 6 8 8 8 8 8 8 8 8 8 8 7 8 8 6 7 7 7 6 6 8 7 8 6 6 7 7 8 8 8 8 8 8 8 8 8 8 8 8 8 8 8 8 8 7 7 8 t t t 7 8 8 8 8 8 8 8 8 8 8 8 8 8 8 8 8 8 8 8 8 8 8 8 8 7 7 7 8 t t t 7 8 8 8 8 8 8 8 8 8 8 8 7 & & & & & & & & & & & & & & & & & & & X + + + + + + + + + + + + + + + + + + + + + + + & > & & & & ; ; ; ; ; ; ; ; ; ; ; ; ; ; ; ; ; ; ; ; ; & & & = / ' ' ' ' ' ",
"8 8 8 8 8 8 8 8 8 8 8 t > _.&.#X$.g g %Xg d 7 8 8 8 8 8 8 8 8 8 8 8 8 8 8 8 8 8 8 7 d t.8 $.i @.`.@.i (._.t @.d d &._.6 8 8 8 8 8 8 8 8 8 6 g 4X(.g @.d g @.t.@.g $.7 8 8 8 8 8 8 8 8 8 6 _.%Xg g g i (.`.#.y #._.#.i t 7 8 8 8 8 8 8 8 8 8 8 8 8 8 8 8 7 (.y _.`.%Xi 7 8 8 8 8 8 8 8 8 8 8 8 8 8 8 8 8 8 8 8 8 8 8 8 6 $.$.(._.`.%Xy 7 8 8 8 8 8 8 8 8 8 8 8 7 & 7 t 8 8 t t 8 8 8 8 8 8 8 8 t & 6 t 9.q.q.q.q.q.q.q.q.q.q.q.q.q.q.q.q.q.q.q.q.q.q.q.O.7 & 7 8 G G G G G G G G G G G G G G G G G G G G G G G 8 7 X A.mXNX`.e P ",
"8 8 8 8 8 8 8 8 8 8 8 t > #X6X6X*X*X*X=XMX_.6 8 8 8 8 8 8 8 8 8 8 8 8 8 8 8 8 8 8 7 @.`.t.*X=X#XMX&X#XMX%X4X6X%XMX=X#X6 t 8 8 8 8 8 8 8 8 6 &.=X#X_.6X*X6X6X;X&X%X=Xd 7 8 8 8 8 8 8 8 8 6 =X4X6X;X;X6X`.*X*X=X*X;X%X&X7 8 8 8 8 8 8 8 8 8 8 8 8 8 8 8 8 7 _.&.`.d 4Xt 7 8 8 8 8 8 8 8 8 8 8 8 8 8 8 8 8 8 8 8 8 8 8 t > (.;XMXt.g ;X8 7 8 8 8 8 8 8 8 8 8 8 8 7 & 7 8 8 7 6 7 7 7 7 7 7 8 7 7 8 & 6 u AXgXgXgXgXgXgXgXgXgXgXgXgXgXgXgXgXgXgXgXgXgXgXAXH.; > ; w eXA wXwXwXA A A A A wXA A wXA A wXA wXwXwXA eXw 7 o xXVXVXB.u o.",
"8 8 8 8 8 8 8 8 8 8 8 8 7 #.#X(.).(.`._._.#.7 8 8 8 8 8 8 8 8 8 8 8 8 8 8 8 8 8 8 7 y %X(._.(.).(._.&X#X#.).).#X%X_.(.6 8 8 8 8 8 8 8 8 8 6 @.g g g )._.*X`.$.$.=X#Xt 7 8 8 8 8 8 8 8 8 7 &.(._.).&X_.(._.t._.&.(.#X_.> t 8 8 8 8 8 8 8 8 8 8 8 8 8 8 8 6 _.(.).(.#.7 8 8 8 8 8 8 8 8 8 8 8 8 8 8 8 8 8 8 8 8 8 8 8 8 6 #.@.t._.(.@.7 8 8 8 8 8 8 8 8 8 8 7 8 7 & 7 8 7 y %X$.y y d 7 _.i 7 8 8 & 6 s gXn.n.n.n.D.D.D.D.G.D.D.G.n.D.D.D.D.D.D.n.n.n.G.H.; > ; w wXZ Z Z Z Z Z Z Z Z Z Z Z Z Z Z Z Z Z Z Z Z wXw 7 o S.VXVXB.u o.",
"8 8 8 8 8 8 8 8 8 8 8 8 8 7 6 7 7 7 7 7 7 8 8 8 8 8 8 8 8 8 8 8 8 8 8 8 8 8 8 8 8 8 7 7 7 7 7 7 6 7 7 6 7 6 7 7 6 7 7 8 8 8 8 8 8 8 8 8 8 8 7 7 7 7 7 7 6 7 7 6 $.8 7 8 8 8 8 8 8 8 8 8 8 7 7 7 7 7 6 8 7 7 6 7 6 t.i 7 8 8 8 8 8 8 8 8 8 8 8 8 8 8 8 8 8 7 8 7 8 7 8 8 8 8 8 8 8 8 8 8 8 8 8 8 8 8 8 8 8 8 8 8 8 8 8 8 7 7 7 7 8 7 8 8 8 8 8 8 8 8 8 8 8 8 8 8 & 7 8 6 g 6X#X&X4X&X%X;Xi 7 8 8 & 6 s gXD.D.D.D.SXgXD.K.gXgXgXgXD.SXgXK.K.SXgXD.D.D.K.H.; > ; w wXZ Z Z A wXA Z A A A wXA Z wXA Z A Z Z Z Z wXw 7 o S.VXVXB.u o.",
"7 7 7 7 7 7 7 7 7 7 7 7 7 7 7 7 7 7 7 7 7 7 7 7 7 7 7 7 7 7 7 7 7 7 7 7 7 7 7 7 7 7 7 7 7 7 7 7 7 7 7 7 7 7 7 7 7 7 7 7 7 7 7 7 7 7 7 7 7 7 7 7 7 7 7 7 7 7 7 7 6 7 7 7 7 7 7 7 7 7 7 7 7 7 7 7 7 7 7 7 7 7 7 7 7 6 7 7 7 7 7 7 7 7 7 7 7 7 7 7 7 7 7 7 7 7 7 7 7 7 7 7 7 7 7 7 7 7 7 7 7 7 7 7 7 7 7 7 7 7 7 7 7 7 7 7 7 7 7 7 7 7 7 7 7 7 7 7 7 7 7 7 7 7 7 7 & 7 8 7 d =X*X4X%Xt.%X&Xy 7 8 8 & 6 s gXD.D.D.G.gXgXG.G.K.K.K.K.D.gXG.K.G.gXK.D.D.n.G.H.; > ; w wXZ Z Z A A A Z A A A A A Z A Z A A Z Z Z Z wXw 7 o S.VXVXB.u o.",
"& & & & & & & & & & & & & & & & & & & & & & & & & & & & & & & & & & & & & & & & & & & & & & & & & & & & & & & & & & & & & & & & & & & & & & & & & & & & & & & & & & & & & & & & & & & & & & & & & & & & & & & & & & & & & & & & & & & & & & & & & & & & & & & & & & & & & & & & & & & & & & & & & & & & & & & & & & & & & & & & & & & & & & & & & & & & & & & & & 7 8 8 7 y 8 t 8 8 8 y 7 8 7 8 & 6 s SXD.D.D.D.D.D.D.D.D.D.D.D.D.D.D.D.D.D.D.D.D.D.K.H.; > ; w wXZ Z Z Z Z Z Z Z Z Z Z Z Z Z Z Z Z Z Z Z Z wXw ; o S.VXVXB.u o.",
"7 7 7 7 7 7 7 7 7 7 7 7 7 7 7 7 7 7 7 7 7 7 7 7 7 7 7 7 7 7 7 7 7 7 7 7 7 7 7 7 7 7 7 7 7 7 7 7 7 7 7 7 7 7 7 7 7 7 7 7 7 7 7 7 7 7 7 7 7 7 7 7 7 7 7 8 t 8 7 7 7 7 7 7 7 7 7 7 7 7 7 7 7 7 7 7 7 7 8 8 8 8 7 7 7 7 7 7 7 7 7 7 7 & & & & & & & & & & & & & & & & & & & & & & & & & & & & & & & & & & & & & & & & & & & & & & & & & & & & & & & & & & & & & & & & 7 8 7 8 7 7 7 7 8 7 7 8 8 7 8 & 6 u gXgXgXgXgXgXgXgXgXgXgXgXgXgXgXgXgXgXgXgXgXgXgXSXm.6 > 6 w wXA A A A A A A A A A A A A A A A A A A A A wXw 7 o S.VXVXB.u o.",
"7 7 7 7 7 7 7 7 7 7 7 7 7 7 7 7 7 7 7 7 7 7 7 7 7 7 7 7 7 7 7 7 7 7 7 7 8 8 8 8 8 8 8 8 8 8 8 8 8 7 9 9 9 8 8 8 8 8 8 8 8 8 8 8 8 8 8 8 8 8 8 8 8 8 7 - - - 7 8 8 8 8 8 8 8 8 8 8 8 8 8 8 8 8 8 8 t 9 - - 6 8 8 8 8 8 8 8 8 8 8 7 > & & & & & & & & & & & & & & & & & & & & & & & & & & & & & & & & & & & & & & & & & & & & & & & & & & & & & & & & & & & & & & & 7 8 8 8 8 8 8 8 8 8 8 8 8 7 8 & 6 8 7 8 t 8 7 8 t 8 8 8 8 8 8 8 8 8 t 8 8 8 8 8 8 8 7 8 & 6 8 8 t t 7 7 t t 8 8 8 8 8 8 8 8 t 8 8 8 t 8 8 8 8 7 o S.VXVXB.u o.",
"7 X X X & X X * & & & & & & & & & & & & & & & & & & & & & & & & &   X & 7 8 7 8 8 8 8 8 8 8 8 8 9 3 9.q.] 7 7 8 8 8 8 8 8 8 8 8 8 8 8 8 8 8 8 7 8 9 t m.H.m.u 9 8 8 8 8 8 8 8 8 8 8 8 8 8 8 8 8 8 6 9.H.H.q.9 7 8 8 8 8 8 8 8 8 7 & , 8 8 8 8 8 8 8 8 8 8 8 8 r r t 8 8 8 8 8 8 8 8 8 8 8 , & & , 8 8 8 8 8 8 8 8 8 8 8 8 8 8 r r r 8 8 8 8 8 8 8 8 8 8 8 8 6 & & 7 8 7 7 7 7 7 6 7 6 7 7 8 7 8 & 6 8 8 8 - 7 s 8 9 8 7 7 7 7 7 7 7 7 7 8 7 7 7 7 8 7 8 8 & 6 8 8 7 - u s 9 7 8 7 7 7 7 7 8 7 7 8 7 7 7 7 7 7 8 7 o S.VXVXB.u o.",
"6 t y 8 & 8 y 7 * & & & & & & & & & & & & & & & & & & & & & & > X @.@.  7 8 7 8 8 8 8 8 8 8 8 7 9.0.] ] 0.0.7 8 8 8 8 8 8 8 8 8 8 8 8 8 8 8 8 8 7 s gXG.0.0.n.] 9 8 8 8 8 8 8 8 8 8 8 8 8 8 8 8 9 H.gX0.0.jXjX7 8 8 8 8 8 8 8 8 7 & t g y i y y y y y y i y y y y y y y y y y y y y i y g t & & t g y i y y y y y y y y y y y y y y y y y y y y y y y i y g t & & 7 8 8 %X(.i d #.y #.y g 7 8 8 & 6 8 8 9 m.jXgXn.{ 7 8 8 8 8 8 8 8 7 `.t._.(._.t 7 8 8 8 & 6 t 9 s jXjXgX0.3 7 8 8 8 8 8 7 8 _.&._.(.).7 8 8 8 7 o S.VXVXB.u o.",
"& _.&X;X&.4X%Xr * & & & & & & & & & & & & & & & & & & & & & & & X @X@X  7 8 7 8 8 8 8 8 8 8 9 { 0.X X X X 0.{ 9 8 8 8 8 8 8 8 8 8 8 8 8 8 8 8 8 9 jX0.@ @.;X* n.t 7 8 8 8 8 8 8 8 8 8 8 8 8 t 6 m.gXo o o O jXm.- t 8 8 8 8 8 8 7 & t y 7 7 7 7 7 7 7 7 7 t t d @.@.7 7 7 7 7 7 7 7 7 7 y t & & t y 7 7 7 7 7 7 7 7 7 7 7 y t g @.g 7 7 7 7 7 7 7 7 7 7 7 y t & & 7 7 t MX#X%XMX&X*X%X4X6Xy 7 8 & 6 t 6 H.jX< o.o.0.9.9 8 8 8 8 8 7 y 6X`.#X(.).t 7 8 8 8 & 7 7 u gXM., *.3 0.3 7 8 8 8 8 6 g 6Xt.&X(.`.7 8 7 8 7 o S.VXVXB.u o.",
"& _.&X_.4X_.(.t.  & & & & & & & & & & & & & & & & & & & & & & >   %X@X  7 8 7 8 8 8 8 8 8 8 7 0.2 X   * X , 0.7 8 8 8 8 8 8 8 8 8 8 8 8 8 8 8 9 { jXX   &X:XO { { 9 8 8 8 8 8 8 8 8 8 8 8 8 8 9 jX] o * u ).O.jX7 8 8 8 8 8 8 8 7 & t y 7 8 8 8 8 8 8 8 7 @.*.&.#.).7 8 8 8 8 8 8 8 8 7 y t & & t y 7 8 8 8 8 8 8 8 8 8 8 ).#Xt.#.).7 8 8 8 8 8 8 8 8 8 7 y t & & 7 7 y (.).;X%X$._.;X&X).8 7 8 & 6 9 { gXX O PX`.  0.u 7 8 8 8 8 7 8 _.#X).=X_.7 8 8 8 8 & 7 - H.M.@ i IX+ 4 0.9 8 8 8 8 7 y #X_._.;X(.7 8 8 8 7 o S.VXVXB.u o.",
"6 7 t i y y @.8 X & & & & & & & & & & & & & & & & & & & & & & & X i i X 7 8 7 8 8 8 8 8 8 8 7 0., X @.> * , 0.t 7 8 8 8 8 8 8 8 8 8 8 8 8 8 8 6 q.jXo & & * X ] q.9 8 8 8 8 8 8 8 8 8 8 8 8 8 7 jX2 &   t.MXo.0.t 7 8 8 8 8 8 8 7 & t y 7 8 8 8 8 8 8 8 7 d (.&.*.*.7 8 8 8 8 8 8 8 8 7 y t & & t y 7 8 8 8 8 8 8 8 8 7 t *.&.t.*.#.7 8 8 8 8 8 8 8 8 8 7 y t & & 7 8 7 7 7 6 7 6 i _.t 7 8 7 8 & 6 - m.n.o & t.7 o 0.[ 9 8 8 8 8 8 6 6 6 7 6 t 7 8 8 8 8 & 7 9 jX3 o t &.X & 0.t 7 8 8 8 8 6 6 6 7 6 t 7 8 7 8 7 o S.VXVXB.u o.",
"7 * * X X X X * & & & & & & & & & & & & & & & & & & & & & & & > & X X & 7 8 8 8 8 8 8 8 8 8 9 0.2 h IX& o 2 0.9 8 8 8 8 8 8 8 8 8 8 8 8 8 8 8 7 s gX& X & & o 0.[ 9 8 8 8 8 8 8 8 8 8 8 8 8 t - jX0.@ & X O 2 0.7 8 8 8 8 8 8 8 7 & t y 7 8 8 8 8 8 8 8 8 8 y t y 7 8 8 8 8 8 8 8 8 8 7 y t & & t y 7 8 8 8 8 8 8 8 8 8 8 8 7 t y 7 8 8 8 8 8 8 8 8 8 8 7 y t & & 7 8 8 8 7 #.y d t i 8 7 8 7 8 & 6 - m.G.o &   * X 0.[ 9 8 8 8 8 7 @.#.#.g $.t @.7 8 8 8 & 7 9 jX] o *   & > 0.t 7 8 8 8 7 $.@.$.g #.y g 7 8 8 7 o S.VXVXB.u o.",
"7 8 8 8 8 8 8 7 8 7 7 7 7 7 7 7 7 7 7 7 7 7 7 7 7 7 7 7 7 7 7 7 7 8 8 7 7 8 8 8 8 8 8 8 8 8 7 3 n.O.i   , 0.3 9 8 8 8 8 8 8 8 8 8 8 8 8 8 8 8 t - H.jXX & X ] 0.7 8 8 8 8 8 8 8 8 8 8 8 8 8 8 9 [ FX4 X & , 0.3 9 8 8 8 8 8 8 8 7 & 7 d i i i i i i i i i i i i i i i i i i i i i i i i d 7 & & 7 d i i i i i i i i i i i i i i i i i i i i i i i i i i i d r & & 7 8 8 7 d =X%X%X_.*Xd 7 8 7 8 & 6 7 s AX2 X & X < 0.t 7 8 8 8 8 7 @.6X*X6X4X_.*X6 8 8 8 & 7 6 m.jXo & & X { 0.9 8 8 8 8 7 t.6X&X6X=X%X_.> t 8 7 o S.VXVXB.u o.",
"7 & & & & & & & X & & & & & & & & & & & & & & & & & & & & & & > & * * & 7 8 8 8 8 8 8 8 8 8 8 9 9.{ & 7 3 ] 9 8 8 8 8 8 8 8 8 8 8 8 8 8 8 8 8 8 7 7 m.t 6 7 { u 7 8 8 8 8 8 8 8 8 8 8 8 8 8 8 t 6 q.9.- 6 3 ] 9 8 8 8 8 8 8 8 8 7 > & & & & & & & & & & & & & & & & & & & & & & & & & & & & & & & & & & & & & & & & & & & & & & & & & & & & & & & & & & & & & & & 7 8 8 6 g &X_.&X&X_.#.6 8 7 8 & 6 t - m.jX& & & 0.] 9 8 7 7 8 8 7 $.*X%X4X;X4X;X7 8 7 8 & 6 8 7 jXq.X & 2 0.t 7 8 7 8 8 7 (.&X&X4X;X6X#X> 8 8 7 o S.VXVXB.u o.",
"6 & & > & X 7   y >   & & & & & & & & & & & & & & & & & & & & & X y y X 7 8 7 8 8 8 8 8 8 8 8 8 9 9 t 8 7 9 8 8 8 8 8 8 8 8 8 8 8 8 8 8 8 8 8 8 8 8 6 7 8 8 9 7 8 8 8 8 8 8 8 8 8 8 8 8 8 8 8 7 8 9 9 t 8 7 9 8 8 8 8 8 8 8 8 8 7 & & & & & & & & & & & & & & & & & & & & & & & & & & & & & & & & & & & & & & & & & & & & & & & & & & & & & & & & & & & & & & & & 7 8 8 7 y (.8 d &.(.y 7 8 8 t & 6 t 8 9 s t 8 t t 7 8 8 8 8 8 8 7 @.g g i #.8 i 8 8 8 8 & 7 t 7 8 s 8 8 t t 7 8 8 8 8 8 8 #.g g d @.8 i 7 8 t 7 o S.VXVXB.u o.",
"& #X$.=Xg (.).&.=X$.$.> & & & & & & & & & & & & & & & & & & & >   %X@X  7 8 7 8 8 8 8 8 8 8 8 8 8 8 7 7 8 8 8 8 8 8 8 8 8 8 8 8 8 8 8 8 8 8 8 8 8 8 t 8 7 7 8 8 8 8 8 8 8 8 8 8 8 8 8 8 8 8 8 8 8 8 8 7 7 8 8 8 8 8 8 8 8 8 8 8 7 & & & & & & & & & & & & & & & & & & & & & & & & & & & & & & & & & & & & & & & & & & & & & & & & & & & & & & & & & & & & & & & & 6 7 7 7 7 6 7 6 & 6 7 7 7 7 7 & > 7 7 7 6 7 7 7 6 7 7 7 7 7 7 7 7 > 6 6 6 > 7 6 7 7 7 7 & > 7 7 7 6 7 7 7 7 7 7 7 7 7 7 7 > 6 6 6 > 7 6 7 7 7 6 o S.VXVXB.u o.",
"& ).4X=X=X_.=X#X%X;X6X7 X & & & & & & & & & & & & & & & & & & & X @X@XX 7 8 7 8 8 8 8 8 8 8 8 8 8 8 8 8 8 8 8 8 8 8 8 8 8 8 8 8 8 8 8 8 8 8 8 8 8 8 8 8 8 8 8 8 8 8 8 8 8 8 8 8 8 8 8 8 8 8 8 8 8 8 8 8 8 8 8 8 8 8 8 8 8 8 8 8 7 & & & & & > & & & & & & & & & & & & & & & & & & & & & & & & & & & & & > & & > > & & & & & & & & & & > & & & & & & & & & & & & & & & & & & > & & > > & & & & & & & & & & > & & & & & & & & & & & & > > & & > & > & & & & > & & & > & & & & & & & & & & & & 6 > * & > & > & > ; & X S.VXVXB.u o.",
"6 y $.g g &.@.&.#.g $.& & & & & & & & & & & & & & & & & & & & >   *.@.  7 8 7 8 8 8 8 8 8 8 8 7 7 7 7 7 7 7 7 8 8 8 8 8 8 8 8 8 8 8 8 8 8 8 8 7 8 7 7 8 7 7 7 7 7 7 8 8 8 8 8 8 8 8 8 8 8 8 8 8 8 7 7 7 7 7 7 7 8 8 8 8 8 8 8 8 7 & & & > & * , 7 & & > & & & & & & & & & & > & & & & & & & & & & & > & X , 7 * * > & & & & & & & & & & & & & & & & & & & & & & & t y y y y y y y y y y y y y y y y y y y y y y y y y y y y y y y y y y y y y y y y y y y y y w y t v v t y y y y y y y O.y t a 4.d t y y y p G G o S.VXVXB.u o.",
"6 X   X X         X X & & & & & & & & & & & & & & & & & & & & & &     & 7 8 7 8 8 8 8 8 8 8 6 (.`.y #X)._._.t.6 8 8 8 8 8 8 8 8 8 8 8 8 8 8 8 8 > #.`.t.(.g #X_.`.7 8 8 8 8 8 8 8 8 8 8 8 8 8 8 6 $.(.).&.@.%Xt 7 8 8 8 8 8 8 8 7 & & > & 6 ].1X].+.7 & & & & & & & & & & *.i *.@.@.& & & & & & & > & 6 ].1X1X1Xd & > & & & & & & & 7 #.*.@.*.@.&.t & & & & & & & 7 & > > > > & 8 6 & > > > & 7 > > > > > & 8 6 & > > > & 7 6 > > > > & 8 6 & > > > & 7 6 & < G ; . 1.1.. 6 > > & 7 7 & 9.& > a qXd & 6 > ; # wXw o S.VXVXB.u o.",
"7 7 8 7 7 8 7 7 7 7 7 7 7 7 7 7 7 7 7 7 7 7 7 7 7 7 7 7 7 7 7 7 7 8 7 7 7 8 8 8 8 8 8 8 8 7 t _._.(.#X4X&X;X).7 8 8 8 8 8 8 8 8 8 8 8 8 8 8 8 7 @.#._.@.(.t.&X4X_.y 7 8 8 8 8 8 8 8 8 8 8 8 8 8 7 g *X_.).(.%X@.6 8 8 8 8 8 8 8 7 & & & , 1Xf.> *.y y.7 & & & & & & & & t @Xd t.d @.& & & & & & & & > 1Xf.> * y 1X8 & > & & & & & & , &.d t.@X@.*.7 & & & & & & & 7 & > > > > & 8 6 & > > > > 7 6 > > > > & 8 6 & > > > & 7 6 > > > > & 8 6 & > > > & 7 6 & < # ; . 1.1.. 6 > > & 7 7 > { i #.5.<Xd & > - < wX5 p o xXVXVXB.u o.",
"7 & & > > > > > > > > > & & & & & & & & & & & & & & & & & & & 6 > & & & 7 8 8 8 8 8 8 8 8 8 7 (.#Xt.#X_.#X#X(.6 8 8 8 8 8 8 8 8 8 8 8 8 8 8 8 7 i i t.&X`.(.#X#X).7 8 8 8 8 8 8 8 8 8 8 8 8 8 8 7 y t._._.(.%Xy 7 8 8 8 8 8 8 8 7 & > X f.h.O t IX6 7 +.& & & & & & & & 6 &.*.*.`.@.& & & & & & > X f.h.O   d MXt f & & & & & & & & & d y &.&.*.d & > & & & & & & 7 & > > > 6 & 8 6 > > > > > 7 6 > > > 6 & 8 6 & > > 6 > 7 6 > > > 6 & 8 6 & > > 6 & 7 6 & < # ; . 1.1.. 6 > > > 7 7 > { g #.3.<Xd & 6 6 A V ; t & +.B.B.+.o.o.",
"6 & &               X   > & * & & & & & & & & & & & & & & & * & X 6 6 X 7 8 7 8 8 8 8 8 8 8 7 7 8 7 8 7 7 7 7 7 8 8 8 8 8 8 8 8 8 8 8 8 8 8 8 8 7 7 8 7 7 6 7 7 7 7 8 8 8 8 8 8 8 8 8 8 8 8 8 8 8 8 7 7 8 7 7 7 8 8 8 8 8 8 8 8 7 & > * $Xd   7 t.* & +., & & & & & & & & & & & & , & & & & & & > * $Xd *   #X*XX +.6 & & & & & & & & & , & & & & & & & & & & & & 7 & > > & & & 8 6 & > & & & 7 6 > > & & & 8 6 & > > & & 7 6 > > > & & 8 6 & > & & & 7 6 & < # - . 1.1.. 6 & & & 6 7 > { 6 , a ,Xd $ $ Z D ; 6 t & t u u u o.o.",
"& @.t.d $.#.i d d #.7 y (.> * & & & & & & & & & & & & & & & & >   %X@X  7 8 7 8 8 8 8 8 8 8 8 8 7 7 7 7 8 8 8 8 8 8 8 8 8 8 8 8 8 8 8 8 8 8 8 8 8 8 6 g &.&.t 7 8 8 8 8 8 8 8 8 8 8 8 8 8 8 8 8 8 7 7 7 7 7 8 8 8 8 8 8 8 8 8 8 7 & > * $Xd   &   & & +., & & & & & & & & 7 , 7 & & & & & & & & > * $Xd   &     & +., & & & & & & & & , 7 7 7 & & & & & & & & & & 7 > & & 7 8 7 8 6 > & 7 8 7 t > > & 7 y t 8 6 > & 6 8 t 8 6 > & & 8 8 8 6 > & 6 t 7 7 6 & < G p < 4.1.* 6 6 8 t 8 6 > { & * 0 ,X@.# wXZ < & 6 t & u o.o.u o.o.",
"& d %X_.&X%X6X;Xt.&X`.;X;X& & & & & & & & & & & & & & & & & & & X @X).X 7 8 7 8 8 8 8 8 8 8 8 6 @.=X%X`._.7 8 8 8 8 8 8 8 8 8 8 8 8 8 8 8 8 8 8 8 7 #.=X=X6X#.6 8 8 8 8 8 8 8 8 8 8 8 8 8 8 8 8 7 y &X*X(.#Xi 7 8 8 8 8 8 8 8 8 7 & > * y.$XX & & X y f & & & & & & & > * @.t.&.&., & & & & & & > * y.1XX & & * y f & & & & & & & & & 6 t.&.&.@.* > & & & & & & & 7 @.@.6 g (.#.t 6 > & g &.&.y & > 6 t g d y 6 > & g $.@.d & 6 > d t.&.y 6 > 6 7 &.&.t 6 & < # g #.8.c * 6 8 g y i 6 > { 6 > 0 ,X&.K Z V < & 6 t & u o.o.u o.o.",
"& g (.y $.&.(.@.y d t._.t.& & & & & & & & & & & & & & & & & & >   (.&.  7 8 7 8 8 8 8 8 8 8 8 6 &.%X_._.*Xy 7 8 8 8 8 8 8 8 8 8 8 8 8 8 8 8 8 8 8 6 (.*X*X4X$.6 8 8 8 8 8 8 8 8 8 8 8 8 8 8 8 8 7 d %X_._.*X$.6 8 8 8 8 8 8 8 8 7 & & & & $Xy.  & 6 #., & & & & & & & > * @.&.(.&.& & & & & & & & & & $Xy.  & , #., & & & & & & & & & 6 &.*.).y & > & & & & & & & 7 g d 7 t @.g t & & 6 d @.@.y & & 6 t y g 7 > & > i #.g y & & 6 i #.@.t > & 6 8 g @.y > & < G @.u 8.c . 6 7 y g 8 6 & { & * 0 ,Xy.U # & & & 6 t & u o.o.u o.o.",
"6 X X X X X X X X X       & & & & & & & & & & & & & & & & & * & &     & 7 8 7 8 8 8 8 8 8 8 8 7 y i y d @.8 7 8 8 8 8 8 8 8 8 8 8 8 8 8 8 8 8 8 8 7 y $.g $.t 7 8 8 8 8 8 8 8 8 8 8 8 8 8 8 8 8 7 t i y i @.y 7 8 8 8 8 8 8 8 8 7 & & & & & 7 & & , > & & & & & & & & & & 7 & y i & & & & & & & & & & & 7 & & , , & & & & & & & & & & > 6 , d 8 & & & & & & & & & t t t 8 t t t i y t 8 t t 7 i t t 8 t y y d y t 8 8 t t i t t 8 7 8 t i y 8 8 t y t y y 8 w G p < 4.4., t 8 t y y y t 9.t 7 c ,XtXG p t t t y y & u o.o.u o.o.",
"7 7 7 7 7 7 7 7 7 7 7 7 7 7 7 7 7 7 7 7 7 7 7 7 7 7 7 7 7 7 7 7 7 7 7 7 7 8 7 8 8 8 8 8 8 8 7 8 7 7 7 7 6 7 8 8 8 8 8 8 8 8 8 8 8 8 8 8 8 8 8 8 7 8 7 6 7 6 7 8 7 8 8 8 8 8 8 8 8 8 8 8 8 8 8 8 8 7 7 7 7 6 7 8 7 8 8 8 8 8 7 8 7 & & & & & & & & & & & & & & & & & & & & & & & & & & & & & & & & & & & & & & & & & & & & & & & & & & & & & * & & & & & & & & & & d (.(.(.(.(.(.`.(.(.(.(.(.(.(.(.(.(.(.(.t.(.(.(.(.(.(.(.(.(.(.(.(.(.t.(.(.(.(.(.(.(.(.(.(.y.I 5.t.,X{.t.(.(.(.t.(.(.(.V.(.t.8.OXS 5.(.(.t.t.(.i & u o.o.u o.o.",
"8 8 8 8 8 8 8 8 8 8 8 8 8 8 8 8 8 8 8 8 8 8 8 8 8 8 8 8 8 8 8 8 8 8 8 8 8 8 8 8 8 8 8 8 8 8 8 8 8 8 8 8 t 8 8 8 8 8 8 8 8 8 8 8 8 8 8 8 8 8 8 8 8 8 8 t 8 t 8 8 8 8 8 8 8 8 8 8 8 8 8 8 8 8 8 8 8 8 8 8 8 t 8 8 8 8 8 8 8 8 8 8 8 > & & & & & & & & & & & & & & & & & & & & & > > & & & & & & & & & & & & & & & & & & & & & & & & & & & & & > & & & & & & & & & & 7 X & & & & X 7 & & & & & & 6 & & & & & X 7 & X & & & & 6 & & & & & X 7 & X & & & X > > * < # & . m c   & & & X > > * { &   e +Xs X & & 7 t 6 t & u o.o.u o.o.",
"& & & & & & & & & & & & & & & & & & & & & & & & & & & & & & & & & & & & & & & & & & & & & & & & & & & & & & & & & & & & & & & & & & & & & & & & & & & & & & & & & & & & & & & & & & & & & & & & & & & & & & & & & & & & & & & & & & & & & & & & & & & & & & & & & & & & & & & & & & & & & & & & & & & & & & & & & & & & & & & & & & & & & & & & & & & & & & & & & 7 > 6 6 6 6 > t 6 > 6 6 6 > 8 6 6 6 6 6 > 8 6 > 6 6 6 > 8 6 6 6 6 6 > 8 7 > 6 6 6 > 7 7 - < # ; * 1.1.* 6 6 6 > 7 7 > 9.; # uX,Xd & 6 g &.t.i 8 & u o.o.u o.o.",
"6 6 6 6 6 6 6 6 6 6 6 6 6 6 6 6 6 6 6 6 6 6 6 6 6 6 6 6 6 6 6 6 6 6 6 6 6 6 6 6 6 6 6 6 6 6 6 6 6 6 6 6 6 6 6 6 6 6 6 6 6 6 6 6 6 6 6 6 6 6 6 6 6 6 6 6 7 7 6 6 6 6 6 6 6 6 6 6 6 6 6 6 6 6 6 6 6 6 6 7 7 6 6 6 6 6 6 6 6 6 6 6 6 & & & & & & & & & & & & & & & & & & & & & & & & & & & & & & & & & & & & & & & & & & & & & & & & & & & & & & & & & & & & & & & & 7 & > > > > & 8 6 & > > > > 7 6 > > > > & 8 6 & > > > & 7 6 > > > > & 8 6 & > > > & 7 6 & < # ; . 1.1.. 6 > > & 7 7 > { < wXaX,Xd & 6 g g #.y t & u o.o.u o.o.",
"8 8 8 8 8 8 8 8 7 8 7 7 7 7 7 7 7 7 7 7 7 7 7 7 7 7 7 7 7 8 7 8 7 8 8 7 8 8 8 8 8 8 8 8 8 8 8 8 t 8 9 9 8 t 8 8 8 8 8 8 8 8 8 8 8 8 8 8 8 8 8 8 8 8 t 7 9 9 t t 8 8 8 8 8 8 8 8 8 8 8 8 8 8 8 8 8 t 8 9 9 8 t 8 8 8 8 8 8 8 8 8 8 > & & & & & & & & & & & & & & & & & & & & & & & & & & & & & & & & & & & & & & & & & & & & & & & & & & & & & & & & & & & & & & & 7 & > > > > & 8 6 & > > > > 7 6 > > > > & 8 6 & > > > & 7 6 > > > > & 8 6 & > > > & 7 6 & < # ; . 1.1.. 6 > > & 7 7 > { A V zX,Xd & > 6 6 6 6 t & u o.o.u o.o.",
"7 X X * & * X * & & & & & & & & & & & & & & & & & & & & & & & & & X X & 7 8 7 7 7 7 7 7 7 7 7 8 9 8 3 3 t 9 8 7 7 7 7 7 7 7 7 7 7 7 7 7 7 7 7 7 8 7 - s q.[ 9 7 8 7 7 7 7 7 7 7 7 7 7 7 7 7 7 7 8 6 8 9.9.t 6 8 7 7 7 7 7 7 7 8 7 & & > , , , , , , , , , , , , , , , , , , , , , , , , > & & & & > , , , , , , , , , , , , , , , , , , , , , , , , , , , > & & & 7 & > > > > & 8 6 & > > > > 7 6 > > > > & 8 6 & > > > & 7 6 > > > > & 8 6 & > > > & 7 6 & < # ; . 1.1.. 6 > > & 7 7 ; Y Z 2 zX,Xd & 6 > > & 6 t & u o.o.u o.o.",
"6 7 t 7 & 7 t 7 * & & & & & & & & & & & & & & & & & & & & & & > X g d   7 8 7 8 8 8 8 8 8 8 8 9 3 0.0.0.0.] 9 8 8 8 8 8 8 8 8 8 8 8 8 8 8 8 8 8 8 7 H.gXjXjXjXu 7 8 8 8 8 8 8 8 8 8 8 8 8 8 8 t 6 9.gXjXjXgXq.6 t 8 8 8 8 8 8 8 7 & r g i i i i i i i i i i i i y i i i i i i i i i i i g r & & 8 g i i i i i i i i i i i i d i i i i i i i i i i i i i i g t & & 7 & > > > > & 8 6 > > > > > 7 6 > > > > & 8 6 & > > > & 7 6 > > > > & 8 6 & > > > & 7 6 & < # ; . 1.1.. 6 > > & 7 ; V Y + 9.T.qXg & 6 > > & 6 t & u o.o.u o.o.",
"& _.&X=X&.4X%X8 * & & & & & & & & & & & & & & & & & & & & & & > X #X@X  7 8 7 8 8 8 8 8 8 8 7 3 0.2 X X , 0.3 9 8 8 8 8 8 8 8 8 8 8 8 8 8 8 8 t 6 H.jX& o O 0.gX8 7 8 8 8 8 8 8 8 8 8 8 8 8 8 9 [ gX3 o o 2 gX9.6 8 8 8 8 8 8 8 7 & t y 7 7 7 7 7 7 7 7 7 8 7 t i y 8 7 7 7 7 7 7 7 7 7 y t & & t y 7 7 7 7 7 7 7 7 7 7 7 7 7 y y y 8 7 7 7 7 7 7 7 7 7 7 y t & & 7 & > > > > & 8 6 & > > > & 7 > & > > > & 8 6 & > > > & 7 > & > > > & 7 6 & > > > & 7 6 & < # ; . 1.1.. 6 > > > ; # wX9.+ 0.V.9Xd & > > > & 6 t & u o.o.u o.o.",
"& _.&X_.4X#X(.t.  & & & & & & & & & & & & & & & & & & & & & & > X %X@X  7 8 7 8 8 8 8 8 8 8 9 0.4 o & & o 2 0.9 8 8 8 8 8 8 8 8 8 8 8 8 8 8 8 7 s gX& X * &.(.n.{ 9 8 8 8 8 8 8 8 8 8 8 8 8 t - jX0.@ & & + { jX9 8 8 8 8 8 8 8 7 & t y 7 8 8 8 8 8 8 8 7 g @.*.&.`.7 8 8 8 8 8 8 8 8 7 y t & & t y 7 8 8 8 8 8 8 8 8 8 8 f.`.t.&.(.7 8 8 8 8 8 8 8 8 8 7 y t & & 7 6 6 6 6 6 6 t 7 6 6 6 6 6 8 6 6 6 6 6 6 t 7 6 6 6 6 6 8 6 6 6 6 6 6 8 7 6 6 6 6 6 7 7 - < # ; > 1.1.* 6 6 6 - 6 wX# { + n.V.9X+.& 6 6 6 6 7 t & u o.o.u o.o.",
"6 8 y d d i #.t X & & & & & & & & & & & & & & & & & & & & & & > X @.d   7 8 7 8 8 8 8 8 8 8 7 0., X & & & > 0.t 7 8 8 8 8 8 8 8 8 8 8 8 8 8 8 6 q.jXo & * MX%X2 9.9 8 8 8 8 8 8 8 8 8 8 8 8 8 7 jX2 &   (.IX*.n.t 7 8 8 8 8 8 8 7 & t y 7 8 8 8 8 8 8 8 7 @.(.&.#.f.7 8 8 8 8 8 8 8 8 7 y t & & t y 7 8 8 8 8 8 8 8 8 8 t (.).t.#.t.7 8 8 8 8 8 8 8 8 8 7 y t & & 8 7 7 7 7 7 7 y 8 7 7 7 7 7 y 7 7 7 7 7 7 y 8 7 7 7 7 7 t 7 7 7 7 7 7 y 8 7 7 7 7 7 t 8 7 7 G r < 4.1.< 7 7 7 7 S V : 9.- G.f.9X@.6 7 7 7 7 8 t & u o.o.u o.o.",
"7 X X X X X X * & & & & & & & & & & & & & & & & & & & & & & & & & X X & 7 8 7 8 8 8 8 8 8 8 7 0.2 y PX7 X , 0.7 8 8 8 8 8 8 8 8 8 8 8 8 8 8 8 9 [ jXo & &   O { { 9 8 8 8 8 8 8 8 8 8 8 8 8 8 6 jX{ o & 6 7 , 0.7 8 8 8 8 8 8 8 7 & t y 7 7 7 7 7 7 7 7 7 t g i d 7 7 7 7 7 7 7 7 7 7 7 y t & & t y 7 7 7 7 7 7 7 7 7 7 7 t 8 d d 7 7 7 7 7 7 7 7 7 7 7 7 y t & & 7 & & & & & & 8 6 & & & & & 7 > & & & & & 7 6 & & & & & 7 > & & & & & 7 6 & & & & & 6 6 & < # - . 1.1.. 6 > ; Z D ; > { + G.#.9Xs 6 y y 6 & 6 t & u o.o.u o.o.",
"7 7 8 8 8 8 8 7 7 7 7 7 7 7 7 7 7 7 7 7 7 7 7 7 7 7 7 7 7 7 7 7 7 8 8 7 7 8 8 8 8 8 8 8 8 8 9 { 0.*.#X  & 0.{ 9 8 8 8 8 8 8 8 8 8 8 8 8 8 8 8 8 9 jXM.o & & 2 0.t 7 8 8 8 8 8 8 8 8 8 8 8 8 t 6 q.gX& & * X 0.{ 9 8 8 8 8 8 8 8 7 & t g i i i i i i i i i i y y y i i i i i i i i i i i g t & & t g i i i i i i i i i i i i i y y i i i i i i i i i i i i g t & & 7 > > > > > & 8 6 > > > > > 7 6 > > > > & 8 6 > > > > > 7 6 > > > > & 8 6 & > > > & 7 7 & < # ; . 1.1.. 6 ; V A ; 7 > { 6 K.g ,X+.8 d d 7 & 6 t & u o.o.u o.o.",
"7 & & & & & & & * & & & & & & & & & & & & & & & & & & & & & & > & & & & 7 8 8 8 8 8 8 8 8 8 8 9 m.9.o - 3 0.7 8 8 8 8 8 8 8 8 8 8 8 8 8 8 8 8 8 9 s jX1 & - 9.] 9 8 8 8 8 8 8 8 8 8 8 8 8 8 8 8 6 H.q.+ - 3 0.7 8 8 8 8 8 8 8 8 7 & > 7 7 7 7 7 7 7 7 7 7 7 7 7 7 7 7 7 7 7 7 7 7 7 7 7 7 > & & > 7 7 7 7 7 7 7 7 7 7 7 7 7 7 7 7 7 7 7 7 7 7 7 7 7 7 7 7 7 > & & 7 & > > > > & 8 6 & > > > > 7 6 > > > > & 8 6 & > > > & 7 6 > > > > & 8 6 & > > > & 7 6 & < # ; . 1.1.. ; # wX< 6 7 > { 1 K.a ,X+.6 y g 6 & 6 t & u o.o.u o.o.",
"6 & * & & X 6   t &   & & & & & & & & & & & & & & & & & & & & & X t r X 7 8 7 8 8 8 8 8 8 8 8 7 7 t t 8 8 7 7 8 8 8 8 8 8 8 8 8 8 8 8 8 8 8 8 7 8 7 9 8 8 8 8 7 8 8 8 8 8 8 8 8 8 8 8 8 8 8 8 8 8 9 8 8 8 8 7 7 8 8 8 8 8 8 8 8 7 > & & & & & & & & & & & & & & & & & & & & & & & & & & & & & & & & & & & & & & & & & & & & & & & & & & & & & & & & & & & & & & & 7 & > > > > & 8 6 & > > > > 7 6 > > > > & 8 6 & > > > & 7 6 > > > > & 8 6 & > > > & 7 6 & < # ; . 1.1.* < wX# ; 7 7 > [ 3 G.0 ,Xd X > & > & 6 t & u o.o.u o.o.",
"& #X#.*Xi t.).$.=X$.#.& & & & & & & & & & & & & & & & & & & & >   %X@X  7 8 7 8 8 8 8 8 8 8 8 8 8 7 7 7 7 8 8 8 8 8 8 8 8 8 8 8 8 8 8 8 8 8 8 8 8 8 8 7 7 7 8 8 8 8 8 8 8 8 8 8 8 8 8 8 8 8 8 8 8 8 7 7 7 7 8 8 8 8 8 8 8 8 8 8 7 & & & & & & & & & & & & & & & & & & & & & & & & & & & & & & & & & & & & & & & & & & & & & & & & & & & & & & & & & & & & & & & & 7 & > > > > & 8 6 & > > > > 7 6 > > > > & 8 6 & > > > & 7 6 > > > > & 8 6 & > > > & 7 6 & < # ; . 1.1.* A V ; > 7 7 > ] { G.0 ,Xd & 6 > > & 6 t & u o.o.u o.o.",
"& _.4X=X=X#X=X#X%X=X6X7 X & & & & & & & & & & & & & & & & & & & X @X@XX 7 8 7 8 8 8 8 8 8 8 8 8 8 8 8 8 8 8 8 8 8 8 8 8 8 8 8 8 8 8 8 8 8 8 8 8 8 7 8 8 8 8 8 8 8 8 8 8 8 8 8 8 8 8 8 8 8 8 8 8 7 8 8 8 8 8 8 8 8 8 8 8 8 8 8 8 7 & & & & & > & & & & & & & & & & & & & & & & & & & & & & & & & & & & & > & & > > & & & & & & & & & & > & & > & & & & & & & & & & 7 > > > > > & 8 6 > > > > > 7 6 > > > > & 8 6 > > > > > 7 6 > > > > & 8 6 & > > > & 7 7 & < # ; . 1.1.Z D ; > & 7 7 > 3 q.D.0 ,Xd & 6 > > & 6 t & u o.o.u o.o.",
"6 i &.@.@.t.$.&.$.g &.& & & & & & & & & & & & & & & & & & & & >   &.*.  7 8 7 8 8 8 8 8 8 8 8 7 7 7 7 6 7 6 7 8 8 8 8 8 8 8 8 8 8 8 8 8 8 8 8 8 8 8 7 7 7 7 7 7 8 8 8 8 8 8 8 8 8 8 8 8 8 8 8 8 8 7 6 7 7 7 6 7 8 8 8 8 8 8 8 8 7 & & & > & X > 7 & & & & & & & & & & & & & & & & & & & & & & & & & > & X > , * & > & & & & & & & & & & & & & & & & & & & & & & & 7 & & & & & & 8 6 & & & & & 7 > & & & & & 7 6 & & & & & 7 > & & & & & 7 6 & & & & & 6 6 & < # - . 1.~ A - & > & 6 6 > 3 m.0.0 ,Xd X > & & & 6 t & u o.o.u o.o.",
"6 X                 X & & & & & & & & & & & & & & & & & & & & & &     & 7 8 7 8 8 8 8 8 8 8 6 (.`.y #X`.)._.&.6 8 8 8 8 8 8 8 8 8 8 8 8 8 8 8 8 7 y %X@._.t._.g 7 8 8 8 8 8 8 8 8 8 8 8 8 8 8 8 6 $.(.).$.g #Xt 7 8 8 8 8 8 8 8 7 & & > & , d.1X].+.7 & & & & & & & & & & #.i *.@.@.& & & & & & & > & > d.1X1X$Xi & > & & & & & & & 7 @.*.@.*.@.&.t & & & & & & & 8 7 7 7 7 7 7 y 7 7 7 7 7 7 t 7 7 7 7 7 7 y 7 7 7 7 7 7 t 7 7 7 7 7 6 y 8 7 7 7 7 7 8 8 7 7 G 7 < 1._ $ 7 7 7 7 8 8 7 [ G.q.0 ,X@.6 7 7 7 7 8 t & u o.o.u o.o.",
"7 7 7 7 7 7 7 7 7 7 7 7 7 7 7 7 7 7 7 7 7 7 7 7 7 7 7 7 7 7 7 7 7 7 7 7 7 8 8 8 8 8 8 8 8 7 t _._.(.#X4X&X;X).7 8 8 8 8 8 8 8 8 8 8 8 8 8 8 8 8 8 6 _.d t.4X#X(.6 t 8 8 8 8 8 8 8 8 8 8 8 8 8 8 7 g *X_.).(.%X@.6 8 8 8 8 8 8 8 7 & & & > 1Xd., @.y y.7 & & & & & & & & t @Xd t.d #.& & & & & & & & & 1Xd.7 & f 1X7 & & & & & & & & , &.d t.@X@.*.7 & & & & & & & 8 7 7 7 7 7 7 y 8 7 7 7 7 7 y 7 7 7 7 7 7 y 8 7 7 7 7 7 y 7 7 7 7 7 7 y 8 7 7 7 7 7 t 8 7 7 G r < ^ 4., 7 7 7 7 t t 7 { K.{ z ,X@.6 7 7 7 7 8 t & u o.o.u o.o.",
"7 & > > > > > > > > > > & & > > > > > > > > > > > > > > > > & 6 > & & > 7 8 8 8 8 8 8 8 8 8 7 `.%Xt.%X#X#X%X(.6 8 8 8 8 8 8 8 8 8 8 8 8 8 8 8 8 7 y (.@.t.#X&X$.6 8 8 8 8 8 8 8 8 8 8 8 8 8 8 8 7 y (._._.(.%Xy 7 8 8 8 8 8 8 8 7 & > X y.].O 7 IX6 7 +.& & & & & & & & 6 &.*.*.`.@.& & & & & & > X y.].O   y :Xy f & & & & & & & & & g y &.t.*.d & > & & & & & & 7 & & & & & & 8 6 & & & & & 7 & & & & & & 7 6 & & & & & 7 > & & & & & 7 6 & & & & & 6 6 & < # - < _ 1.. - & & & 6 6 & { gX2 0 ,Xd 6 i i 6 & 6 t & u o.o.u o.o.",
"6 & *               X   & & * & & & & & & & & & & & & & & & * & * > & X 7 8 7 8 8 8 8 8 8 8 7 8 t 8 t 7 8 7 8 7 8 8 8 8 8 8 8 8 8 8 8 8 8 8 8 8 7 8 7 7 t > 8 7 8 8 8 8 8 8 8 8 8 8 8 8 8 8 8 8 8 8 7 t t 8 8 7 8 8 8 8 8 8 8 8 7 & > * $Xd   8 `.* & +., & & & & & & & & & > > > 6 & & & & & & > * $Xd *   %X;XX +., & & & & & & & & & 6 & & & & & & & & & & & & 7 > > > > > & 8 6 > > > > > 7 6 > > > > & 8 6 > > > > > 7 6 > > > > & 8 6 > > > > & 7 7 & < # p 5 _ 1.. 6 > > & 7 7 & q.gX< 0 ,X@.8 @.(.8 & 7 t & u o.o.u o.o.",
"& @.&.y #.@.y i i g 7 y (.> * & & & & & & & & & & & & & & & & >   %X@X  7 8 7 8 8 8 8 8 8 8 8 8 7 7 7 7 7 8 7 8 8 8 8 8 8 8 8 8 8 8 8 8 8 8 8 8 8 8 6 g $.$.t 7 8 8 8 8 8 8 8 8 8 8 8 8 8 8 8 8 8 7 7 7 7 7 8 8 8 8 8 8 8 8 8 8 7 & > * $Xd   &   & & +., & & & & & & & & 7 > 7 & & & & & & & & > * $Xd   & X   & +., & & & & & & & & > 6 6 , & & & & & & & & & & 7 & > > > > & 8 6 & > > > > 7 6 > > > > & 8 6 & > > > & 7 6 > > > > & 8 6 & > > > & 7 6 & < G p V _ 1.. 6 > > & 7 7 + n.K.X 0 ,Xd y i 8 7 & 6 t & u o.o.u o.o.",
"& d %X#X&X%X6X;Xt.&X`.;X=X& & & & & & & & & & & & & & & & & & & X @X).X 7 8 7 8 8 8 8 8 8 8 8 7 @.*X#X(.).7 8 8 8 8 8 8 8 8 8 8 8 8 8 8 8 8 8 8 8 7 @.=X=X6X@.6 8 8 8 8 8 8 8 8 8 8 8 8 8 8 8 8 7 y %X&X(._.y 7 8 8 8 8 8 8 8 8 7 & > * y.$X  & & X t f & & & & & & & > * @.&.&.&., & & & & & & > * y.$X  & & * t f & & & & & & & & & 6 t.&.&.@.* > & & & & & & & 7 & > > > > & 8 6 & > > > > 7 6 > > > > & 8 6 & > > > & 7 6 > > > > & 8 6 & > > > & 7 7 & < G ; V ) 1.. 6 > > & 7 7 + G.F.o a ,Xd X & & > & 6 t & u o.o.u o.o.",
"& g `.i &.t.(.#.y g (.#X(.& & & & & & & & & & & & & & & & & & >   `.f.  7 8 7 8 8 8 8 8 8 8 8 6 &.%X#X_.*Xy 7 8 8 8 8 8 8 8 8 8 8 8 8 8 8 8 8 8 8 6 (.*X*X4X$.6 8 8 8 8 8 8 8 8 8 8 8 8 8 8 8 8 7 d &X#X_.*X$.6 8 8 8 8 8 8 8 8 7 & & & & $Xy.  & , y.6 & & & & & & & > * @.&.(.&.& & & & & & & & & & $Xy.  & , y.6 & & & & & & & & & 6 t.&.).i & > & & & & & & & 7 & > > > > & 8 6 & > > > > 7 6 > > > > & 8 6 & > > > & 7 6 > > > > & 8 6 & > > > & 7 6 & f G ; Z ) 1.. 6 > > & 7 6 & gX] X 0 ,Xd & 6 > > & 6 t & u o.o.u o.o.",
"6 X X X X X X X * X       & & & & & & & & & & & & & & & & & * & &     & 7 8 7 8 8 8 8 8 8 8 8 7 y d i d #.8 7 8 8 8 8 8 8 8 8 8 8 8 8 8 8 8 8 8 8 7 y &.g &.t 7 8 8 8 8 8 8 8 8 8 8 8 8 8 8 8 8 7 t d i i $.y 7 8 8 8 8 8 8 8 8 7 & & & & > 8 & & , , & & & & & & & & & & 7 & y i & & & & & & & & & & > 8 & & , , & & & & & & & & & & > 7 , d r & & & & & & & & & 7 > > > > > & 8 6 > > > > > 7 6 > > > > & 8 6 > > > > > 7 6 > > > > & 8 6 & > > > & 7 6 y w # ; Z ! 1.. 6 > > > 7 - G.G.+ > 0 ,Xd & 6 > > & 6 t & u o.o.u o.o.",
"7 6 7 7 7 7 7 7 7 7 7 7 7 6 6 6 6 6 6 6 6 6 6 6 6 6 6 6 6 6 6 7 6 7 7 6 7 8 7 7 7 7 7 7 7 7 7 8 7 7 7 7 6 7 8 7 7 7 7 7 7 7 7 7 7 7 7 7 7 7 7 7 7 8 7 6 7 6 7 8 7 7 7 7 7 7 7 7 7 7 7 7 7 7 7 7 8 7 7 7 7 6 7 8 7 7 7 7 7 7 7 8 7 & & & & & & & & & & & & & & & & & & & & & & & & & & & & & & & & & & & & & & & & & & & & & & & & & & & & & * & & & & & & & & & & 7 & & & & & & 8 6 & & & & & 7 > & & & & & 7 6 & & & & & 7 > & & & & & 7 6 & & & & & 6 y 8 < # ; A W 1.. 6 & & & + m.K.[ & * 0 ,Xd X > & & & 6 t & u o.o.u o.o.",
"8 t t t t t t t t t t t t t t t t t t t t t t t t t t t t t t t t t t t 8 8 8 8 8 8 8 8 8 8 8 8 8 t t t t 8 8 8 8 8 8 8 8 8 8 8 8 8 8 8 8 8 8 8 8 8 8 t t t 8 8 8 8 8 8 8 8 8 8 8 8 8 8 8 8 8 8 8 8 t t t t 8 8 8 8 8 8 8 8 8 8 8 > & > > > > > > > > > > > > > > > > > > > > > > > > > > > > > > > > > > > > > > > > > > > > > > > > > > > > > > > > > > > > & & 8 7 7 7 7 7 7 y 7 7 7 7 7 7 t 7 7 7 7 7 7 y 8 7 7 7 7 7 t 7 7 7 7 7 7 y 8 7 7 7 7 6 t g 7 7 G 7 A 4.1.< 7 7 7 6 9.gX8 9.7 , a ,X@.6 7 7 7 7 8 t & u o.o.u o.o.",
"& & & & & & & & & & & & & & & & & & & & & & & & & & & & & & & & & & & & & & & & & & & & & & & & & & & & & & & & & & & & & & & & & & & & & & & & & & & & & & & & & & & & & & & & & & & & & & & & & & & & & & & & & & & & & & & & & * * * * * * * * * * * * * * * * * * * * * * * * * * * * * * * * * * * * * * * * * * * * * * * * * * * * * * * * * * * * * * * & 7 6 6 6 6 6 6 t 7 6 6 6 6 6 8 6 6 6 6 6 6 t 7 6 6 6 6 6 8 6 6 6 6 6 6 t 7 6 6 6 6 7 g 7 6 < # 9 A 1.1.> 6 6 3 { gX] - 9.6 > a ,Xg 6 7 6 6 6 7 t & u o.o.u o.o.",
"i y y i i y i i i i i i i i i i i i i i i i i i i i i i i i i i i i i i i i i i i i i i i i i i i i i i i i i i i i i i i i i i i i i i i i i i i i i i i i i i i i i i i i i i i i i i i i i i i i i i i i i i i i i i i i i i i i i i i i i i i i i i i i i i i i i i i i i i i i i i i i i i i i i i i i i i i i i i i i i i i i i i i i i i i i i i i i i y & 7 & > & & > & 8 6 & & & & & 7 > & & & > & 8 6 & & & & & 7 > & & & > & 7 6 & > & & y 8 6 & < # $ A 1.1.. - , { AX0.7 & { - * 0 ,Xd 6 #.g 6 & 6 t & u o.o.u o.o.",
"#._.`.#.&.&.@.$.$.$.$.$.$.$.$.$.$.$.$.$.$.$.$.$.$.$.$.$.$.$.$.$.$.$.$.$.$.$.$.$.$.$.$.$.$.$.$.$.$.$.$.$.$.$.$.$.$.$.$.$.$.$.$.$.$.$.$.$.$.$.$.$.$.$.$.$.$.$.$.$.$.$.$.$.$.$.$.$.$.$.$.$.$.$.$.$.$.$.$.$.$.$.$.$.$.$.$.$.$.$.$.$.$.$.$.$.$.$.$.$.$.$.$.$.$.$.$.$.$.$.$.$.$.$.$.$.$.$.$.$.$.$.$.$.$.$.$.$.$.$.$.$.$.$.$.$.$.$.$.$.$.$.$.$.$.$.$.$.$.$.$.$.$.$.$.#.> 7 > > > > > & 8 6 > > > > > 7 6 > > > > & 8 6 & > > > & 7 6 > > > > & 8 6 & > & y 7 6 7 & < # # Z 1.1.. 6 - n.n.] 7 & { 6 & 0 ,X@.7 &.&.7 & 6 t & u o.o.u o.o.",
"`.;X`.#X6X=X4X(.@.#.#.#.#.#.#.#.#.#.#.#.#.#.#.#.#.#.#.#.#.#.#.#.#.#.#.#.#.#.#.#.#.#.#.#.#.#.#.#.#.#.#.#.#.#.#.#.#.#.#.#.#.#.#.#.#.#.#.#.#.#.#.#.#.#.#.#.#.#.#.#.#.#.#.#.#.#.#.#.#.#.#.#.#.#.#.#.#.#.#.#.#.#.#.#.#.#.#.#.#.#.#.#.#.#.#.#.#.#.#.#.#.#.#.#.#.#.#.#.#.#.#.#.#.#.#.#.#.#.#.#.#.#.#.#.#.#.#.#.#.#.#.#.#.#.#.#.#.#.#.#.#.#.#.#.#.#.#.#.#.#.#.#.#.#.#.@.> 7 & > > > > & 8 6 & > > > > 7 6 > > > > & 8 6 & > > > & 7 6 > > > > & 8 6 > & t y & 7 6 & < # V Z 1.1.> + w.gX> 7 6 > { 6 & 0 ,Xd 6 t t 6 & 6 t & u o.o.u o.o.",
"`.;X6XMXMX4XMX(.@.#.#.#.#.#.#.#.#.#.#.#.#.#.#.#.#.#.#.#.#.#.#.#.#.#.#.#.#.#.#.#.#.#.#.#.#.#.#.#.#.#.#.#.#.#.#.#.#.#.#.#.#.#.#.#.#.#.#.#.#.#.#.#.#.#.#.#.#.#.#.#.#.#.#.#.#.#.#.#.#.#.#.#.#.#.#.#.#.#.#.#.#.#.#.#.#.#.#.#.#.#.#.#.#.#.#.#.#.#.#.#.#.#.#.#.#.#.#.#.#.#.#.#.#.#.#.#.#.#.#.#.#.#.#.#.#.#.#.#.#.#.#.#.#.#.#.#.#.#.#.#.#.#.#.#.#.#.#.#.#.#.#.#.#.#.#.#.> 7 & > > > > & 8 6 & > > > > 7 6 > > > > & 8 6 & > > > & 7 6 > > > > & 8 6 & 7 y & & 7 6 & < # V V 1.1.  { gX, & 7 7 & { 6 & 0 ,Xd X & & > & 6 t & u o.o.u o.o.",
"@.).`.`.(.(.(.$.#.#.#.#.#.#.#.#.#.#.#.#.#.#.#.#.#.#.#.#.#.#.#.#.#.#.#.#.#.#.#.#.#.#.#.#.#.#.#.#.#.#.#.#.#.#.#.#.#.#.#.#.#.#.#.#.#.#.#.#.#.#.#.#.#.#.#.#.#.#.#.#.#.#.#.#.#.#.#.#.#.#.#.#.#.#.#.#.#.#.#.#.#.#.#.#.#.#.#.#.#.#.#.#.#.#.#.#.#.#.#.#.#.#.#.#.#.#.#.#.#.#.#.#.#.#.#.#.#.#.#.#.#.#.#.#.#.#.#.#.#.#.#.#.#.#.#.#.#.#.#.#.#.#.#.#.#.#.#.#.#.#.#.#.#.#.#.#.> 7 & > > > > & 8 6 & > > > > 7 6 > > > > & 8 6 & > > > & 7 6 > > > > & 8 6 6 i 6 > & 7 6 & < # D V 1.m < SX4 + > 7 7 & { 6 & 0 ,Xd & 6 > > & 6 t & u o.o.u o.o.",
"#.@.@.@.@.@.@.#.#.#.#.#.#.#.#.#.#.#.#.#.#.#.#.#.#.#.#.#.#.#.#.#.#.#.#.#.#.#.#.#.#.#.#.#.#.#.#.#.#.#.#.#.#.#.#.#.#.#.#.#.#.#.#.#.#.#.#.#.#.#.#.#.#.#.#.#.#.#.#.#.#.#.#.#.#.#.#.#.#.#.#.#.#.#.#.#.#.#.#.#.#.#.#.#.#.#.#.#.#.#.#.#.#.#.#.#.#.#.#.#.#.#.#.#.#.#.#.#.#.#.#.#.#.#.#.#.$.$.#.#.#.$.#.#.#.#.#.#.#.#.#.#.#.#.#.#.#.#.#.#.#.#.#.#.#.#.#.#.#.#.#.#.#.#.#.#.> 7 > > > > > & 8 6 > > > > > 7 6 > > > > & 8 6 > > > > > 7 6 > > > > & 8 6 y 7 & 6 & 7 7 & < # D # 1.m gXq.+ , & 7 7 > { 6 & 0 ,Xd & 6 > > & 6 t & u o.o.u o.o.",
"t y y y y y y t t t t t t t t t t t t t t t t t t t t t t t t t t t t t t t t t t t t t t t t t t t t t t t t t t t t t t t t t t t t t t t t t t t t t t t t t t t t t t t t t t t t t t t t t t t t t t t t t t y t t y y y y y y t t t t t t t t t t t t t t t t t t t t t t t 8 t t 8 8 t t t t t t y t t t t t t t t t t t t t t t t t t t t t t t t t t t & 7 & & & & & & 8 6 & & & & & 7 & & & & & & 7 6 & & & & & 7 > & & & & & 7 i 7 & & & & 6 6 & < # A $ m mXn.+ > & & 6 6 & { & * 0 ,Xd X > & & & 6 t & u o.o.u o.o.",
"7 7 7 7 7 7 7 7 7 7 7 7 7 7 7 7 7 7 7 7 7 7 7 7 7 7 7 7 7 7 7 7 7 7 7 7 7 7 7 7 7 7 7 7 7 7 7 7 7 7 7 7 7 7 7 7 7 7 7 7 7 7 7 7 7 7 7 7 7 7 7 7 7 7 7 7 7 7 7 7 7 7 7 7 7 7 7 7 7 7 7 7 7 7 7 7 7 7 7 7 7 7 7 7 7 7 y t 6 6 > 7 6 6 7 7 7 7 7 7 7 7 7 7 7 7 7 7 7 7 7 7 7 7 7 d i @.7 t i g 7 8 t 8 8 y i y 8 7 7 7 7 7 7 7 7 7 7 7 7 7 7 7 7 7 7 7 7 7 7 7 7 7 & 8 7 7 7 7 7 7 y 8 7 7 7 7 7 y 7 7 7 7 7 7 y 8 7 7 7 7 7 y 7 7 7 7 7 7 y d 7 7 7 7 7 t t 7 7 G S < 5.3X< 7 7 7 7 t t 7 9.7 , a 9X@.6 7 7 7 7 8 t & u o.o.u o.o.",
"8 8 8 8 8 8 8 8 7 8 8 8 8 8 8 8 8 7 8 8 8 8 8 8 8 8 8 8 8 8 8 8 8 8 8 8 8 8 7 8 8 8 8 8 8 8 8 8 8 8 8 8 8 8 8 8 8 8 8 8 8 8 8 8 8 8 8 t 8 8 8 8 8 8 8 8 8 8 8 8 8 8 8 7 8 8 8 8 8 8 8 8 8 8 8 8 8 8 8 8 8 8 8 8 7 @.#X$.d $.(.d #.t.t 7 8 8 8 8 8 8 8 8 8 8 8 8 8 8 8 8 8 8 6 &.;X6X_.&X&X=X*X4X_.*X;X#X#X&Xy 7 8 8 8 8 8 8 8 8 8 8 8 8 8 8 8 8 7 8 8 8 8 8 8 7 & 8 7 7 7 7 7 6 y 7 7 7 7 7 7 t 7 7 7 7 7 6 y 7 7 7 7 7 7 t 7 7 7 7 6 t g 7 7 7 7 7 7 8 8 7 7 V Z { mXm < 7 7 7 7 8 8 7 9.7 , a ,X@.6 t t 7 7 8 t & u o.o.u o.o.",
"8 8 8 8 8 8 7 7 t 6 7 6 6 6 7 6 7 t 6 7 8 8 8 8 8 8 8 7 7 7 7 7 7 8 7 7 6 6 t 6 7 6 7 8 7 8 7 7 7 7 8 8 7 7 7 7 6 7 8 8 8 8 8 8 7 7 6 > 7 7 7 8 7 7 8 8 8 8 8 7 7 7 7 t 7 7 7 7 7 7 7 8 8 8 8 8 8 8 8 8 8 8 8 8 > `.&.&.%X6X(.;X4XMXi 7 8 8 8 8 8 8 8 8 8 8 8 8 8 8 8 8 8 8 6 $.).`.4Xt.=X#X=X*X#.=X_.=X#X%X@.7 8 8 8 8 8 8 8 8 8 8 8 8 7 7 7 6 t 7 7 8 7 8 8 7 & 7 & & & & & & 8 6 & & & & & 7 > & & & & & 7 6 & & & & & 7 > & & & 6 y 8 6 & & & & & 6 6 & > Z S gX_.m . - & & & 6 6 & { & * 0 ,Xd 7 &.$.7 & 6 t & u o.o.u o.o.",
"8 8 8 8 8 7 t #X$.@.i @.&.&.d g @.`.g t 7 8 8 8 8 8 7 8 %X(.d y _.t.t i t.(.d @.y $.t 7 8 7 #X#.#Xy (.$.i g y i $.y 7 8 8 8 8 7 g `.&.).@.d i _.#.8 7 8 8 8 7 d *X&.i ).g i d g d g y 7 8 8 8 8 8 8 8 8 8 8 8 8 7 y _.&._.(.t (.#.(.8 8 8 8 8 8 8 8 8 8 8 8 8 8 8 8 8 8 8 8 7 t 7 d ).t i y y y 7 t i i y d 8 8 8 8 8 8 8 8 8 8 8 8 8 7 &.#.&.d (.@.#Xy 7 8 8 7 & 7 > > > > > & 8 6 > > > > > 7 6 > > > > & 8 6 > > > > > 7 6 > > > i 6 7 6 & > > > & 7 7 & > A aX0.m 1.. 6 > > & 7 7 > { 6 & 0 ,X@.g t.&.8 & 7 t & u o.o.u o.o.",
"8 8 8 8 8 6 &.(.g *X=X&X;X*X_.#X*X&X*Xy 7 8 8 8 8 8 7 t 6X=X6X6X*X=X`.;X).*X*X#X=X;Xt.6 t 6 ;X4X;X%XMX4X=XMX_.&X=X).6 8 8 8 t > _.MX&X=X`.MX%X%X6X6 8 8 8 8 6 @.MX*X6X;X6X=X=X4X*XMXt.6 8 8 8 8 7 7 7 8 8 8 8 8 8 7 7 7 6 6 7 6 7 7 7 7 7 8 8 8 8 8 8 8 8 8 8 8 8 7 7 7 8 8 8 8 8 t 7 7 7 7 7 7 8 7 7 7 6 6 7 7 7 7 7 8 8 8 8 8 8 8 t 6 %X;X6X#X;X&X=Xy 7 8 8 7 & 7 & > > > > & 8 6 & > > > > 7 6 > > > > & 8 6 & > > > & 7 6 > & y 8 & 8 6 & > > > & 7 6 > - wXk.  1.1.. 6 > > & 7 7 & { 6 & 0 ,Xd X 6 7 6 & 6 t & u o.o.u o.o.",
"8 8 8 8 8 7 y #X(._.`.$.`._.g `._.(.#Xd 7 8 8 8 8 8 7 t (.`.#X`.#X).&X_.(._.)._.`.&.$.6 8 7 (.#X).*X&X_.#X`.#X&X;X&.7 8 8 8 8 7 (.t.#X(.%X=X_.)._.t 7 8 8 8 7 d `._.#X`.#X_.=X_.%X%Xg 7 8 8 8 7 t g g 7 6 6 6 > t y 7 t 8 8 8 8 8 8 t g 8 6 6 6 7 6 8 8 8 8 8 8 7 t g g 7 6 6 6 > 8 y 6 8 8 8 8 8 8 7 y #X&.t t y 7 t 7 8 8 8 8 8 8 8 7 t.#._._.`._.#Xt 7 8 8 7 & 7 & > > > > & 8 6 & > > > > 7 6 > > > > & 8 6 & > > > & 7 6 & 8 y & & 8 6 & > > > & 7 7 ; V A ; . 1.1.. 6 > > & 7 7 & { 6 & 0 ,Xd & > & > & 6 t & u o.o.u o.o.",
"8 8 8 8 8 8 7 8 8 7 7 7 7 8 7 7 7 7 8 7 8 8 8 8 8 8 8 8 7 7 7 7 8 7 7 7 t 8 7 8 7 7 7 8 8 8 7 6 7 7 6 6 7 8 7 i #.6 8 8 8 8 8 8 7 6 7 8 7 7 7 8 6 8 7 8 8 8 8 7 7 7 7 7 7 8 7 8 7 7 8 7 8 8 8 7 y *X=X_.$.&.t.t.`.=Xd 7 8 8 8 8 8 7 8 *X).$.&.(.#.t.7 8 8 8 8 8 7 y *X*X_.#.&.t.t.(.=Xd 7 8 8 8 8 8 8 7 _.#X#X&X&X=X*X7 8 8 8 8 8 8 8 8 7 7 7 8 6 7 7 7 8 8 8 7 & 7 & > > > > & 8 6 & > > > > 7 6 > > > > & 8 6 & > > > & 7 > 7 y & > & 8 6 & > > > & 7 ; # wXG ; . 1.1.. 6 > > & 7 7 & { 6 & 0 ,Xd & 6 > > & 6 t & u o.o.u o.o.",
"8 8 8 8 8 8 8 8 7 8 8 8 8 8 8 8 8 8 7 8 8 8 8 8 8 8 8 8 8 8 8 8 8 8 8 8 7 8 8 8 8 8 8 8 8 8 8 8 8 8 8 8 8 7 8 7 7 8 7 8 8 8 8 8 8 8 8 8 8 8 8 8 8 7 8 8 8 8 8 8 8 8 7 8 8 7 8 7 8 8 7 8 8 8 8 8 7 `.).%X4X`.MX*X;X*X).6 t 8 8 8 8 7 d _._.*X;X%XMX*X7 8 8 8 8 8 8 7 `.).%X4X`.MX*X;X*X_.6 8 8 8 8 8 6 #.=X).%X_.(.4X_.7 8 8 8 8 8 8 8 8 8 8 8 8 8 8 8 8 8 8 8 7 & 7 > > > > > & 8 6 > > > > > 7 6 > > > > & 8 6 > > > > > 7 6 i 6 > 6 & 8 6 & > > > > 7 9 wXG # - . 1.1.. 6 > > & 7 7 > { 6 & 0 ,Xd & 6 > > & 6 t & u o.o.u o.o.",
"8 8 8 8 8 8 8 8 8 8 8 8 8 8 8 8 8 8 8 8 8 8 8 8 8 8 8 8 8 8 8 8 8 8 8 8 8 8 8 8 8 8 8 8 8 8 8 8 8 8 8 8 8 8 8 8 8 7 8 8 8 8 8 8 8 8 8 8 8 8 8 8 8 8 8 8 8 8 8 8 8 8 8 8 8 8 8 8 8 8 8 8 8 8 8 8 7 #.@.@.&.y (.$.).@.@.7 8 8 8 8 8 6 @.#Xt.(.@.@.(.$.7 8 8 8 8 8 8 7 #.#.@.t.y (.$.).@.@.7 8 8 8 8 8 7 t d y y 7 t 8 y 7 8 8 8 8 8 8 8 8 8 8 8 8 8 8 8 8 8 8 8 7 & 7 & & & & & & 8 6 & & & & & 7 > & & & & & 8 6 & & & & & 7 i 6 & & & & 7 6 & & & > & ; A V & # - . 1.1.. 6 & & & 6 6 & { & * 0 ,Xd X > > & & 6 t & u o.o.u o.o.",
"8 8 8 8 8 8 8 8 8 8 8 8 8 8 8 8 8 8 8 8 8 8 8 8 8 8 8 8 8 8 8 8 8 8 8 8 8 8 8 8 8 8 8 8 8 8 8 8 8 8 8 8 8 8 8 8 8 8 8 8 8 8 8 8 8 8 8 8 8 8 8 8 8 8 8 8 8 8 8 8 8 8 8 8 8 8 8 8 8 8 8 8 8 8 8 8 8 7 7 7 6 7 6 7 6 7 7 8 8 8 8 8 8 8 7 6 7 6 7 7 6 7 8 8 8 8 8 8 8 8 7 7 7 6 7 6 7 6 7 7 8 8 8 8 8 8 8 7 7 7 7 8 7 7 7 8 8 8 8 8 8 8 8 8 8 8 8 8 8 8 8 8 8 8 8 7 & 8 7 7 7 7 7 7 y 8 7 7 7 7 7 y 7 7 7 7 7 7 y 8 7 7 7 7 7 d y 7 7 7 7 7 y 8 7 7 7 7 : D D : w G r < 4.1.< 7 7 7 7 8 8 7 9.7 , a 9X@.6 7 7 7 7 8 t & u o.o.u o.o.",
"& & & & & & & & & & & & & & & & & & & & & & & & & & & & & & & & & & & & & & & & & & & & & & & & & & & & & & & & & & & & & & & & & & & & & & & & & & & & & & & & & & & & & & & & & & & & & & & & & & & & & & & & & & & & & & & & & & & & & > > & & & & & & & & & & & & & & & & & & & & & & & & & & & & & & & & & & & & & & & & & & & & & & & & & & & & & & & & & & 7 6 6 6 6 6 6 t 6 6 6 6 6 6 8 6 6 6 6 6 6 t 7 6 6 6 > t d > 6 6 6 6 > 8 7 6 6 6 ; V S ; - < # ; > 1.1.* 6 6 6 6 7 7 6 9.6 > a ,Xd 6 t y 6 6 7 t & u o.o.u o.o.",
"7 7 7 7 7 7 7 7 7 7 7 7 7 7 7 7 7 7 7 7 7 7 7 7 7 7 7 7 7 7 7 7 7 6 6 - 6 7 7 7 7 7 7 7 7 7 7 7 7 7 6 - - 6 7 7 7 7 7 7 7 7 7 7 7 7 7 , < > 6 7 7 7 7 7 7 7 7 7 7 7 7 6 ; ; ; 7 7 7 7 7 7 7 7 7 7 7 7 7 , < > 6 7 7 7 7 7 7 7 7 7 7 7 7 6 - + - 7 7 7 7 7 7 > & & & & & & & * * & & & & & & & & & & & & & & * * & & & & & & & > 7 7 7 7 7 7 6 - 6 6 7 7 7 7 7 6 & 7 & > > > > & 8 6 & > > > & 7 > & > > > & 8 6 & > & 7 y 7 6 & > > > & 7 6 & > ; # wX7 6 & < # ; . 1.1.. 6 > > & 6 6 & { - * 0 ,Xd i $.@.8 & 6 t & u o.o.u o.o.",
"7 6 6 6 6 6 6 6 6 6 6 6 9 8 7 7 7 7 7 8 7 7 7 7 7 8 8 8 8 8 8 t 7 t [ { 3 7 8 8 8 8 8 8 8 8 8 8 t 9 u m.9.3 9 8 8 8 8 8 8 8 8 8 8 7 , 3.8.4.t , t 8 8 8 8 8 8 8 8 8 7 t H w.4 7 8 8 8 8 8 8 8 8 8 8 7 , 3.8.4.y , t 8 8 8 8 8 8 8 8 t 9 u q.m.{ 9 8 8 8 8 8 7 & & & & & & 7 a y 6 & > & & & & & & & & > & , s f t & & > & & & 6 8 8 8 8 8 9 3 { [ t 9 t 8 8 8 7 & 7 & > > > > & 8 6 > > > > > 7 6 > > > > & 8 6 > > 6 i 6 7 6 > > > > & 8 6 > - < wX# ; 7 & < # ; . 1.1.. 6 > > & 7 7 & { 6 & 0 ,X@.i $.@.7 & 6 t & u o.o.u o.o.",
"s q.q.q.q.q.q.q.q.q.q.q.9.7 y y y y y 8 y y y y y t 7 8 7 7 8 7 3 0.0.{ 0.0.8 7 8 7 7 7 7 7 7 8 6 q.gXG.{ 0.9.7 8 7 7 7 7 7 7 8 7 8 9X9X8.9XqXv , 8 7 7 7 7 7 7 8 7 H k.k.H k.k.7 8 8 7 7 7 7 7 8 7 8 9X9X8.9XqXv , 8 7 7 7 7 7 7 8 6 9.gXG.n.gXH.7 7 8 7 8 6 & & & & & a c q a v 9 & & & & & & & & > & t d.r.O.y.y.& & & & & 6 8 7 8 7 7 0.0.{ 0.0.] 9 8 7 8 7 & 7 & > > > > & 8 6 & > > > > 7 6 > > > > & 8 6 & & y 7 & 7 6 > > > > & 8 6 > ; A V ; 7 6 & < # ; . 1.1.. 6 > > & 7 7 & { 6 & 0 ,Xd X 6 6 > & 6 t & u o.o.u o.o.",
"m.AXgXgXgXgXgXgXgXgXgXSXgXt g y d y g y g i y y d i 7 8 8 8 7 u gX[ + o X { 0.9 8 8 8 8 8 8 8 9 { AX< #.&X  0.{ 9 8 8 8 8 8 8 8 , 9X8.  . O z qXy 7 8 8 8 8 8 8 7 4 pX< o o o k.w.; 8 8 8 8 8 8 8 < 9X8.  .   c qXy 7 8 8 8 8 8 8 9 O.gX4 o o o jXH.- t 7 8 6 & & & & a a       - v 6 & & & & & & & & 7 d., O     r.r.& > & & 6 8 7 8 9 9.0.X X o < n.u 7 8 8 7 & 7 & > > > > & 8 6 & > > > > 7 6 > > > > & 8 6 & y 8 & > 7 6 > > > > & 8 6 ; D D ; > 7 6 & < # ; . 1.1.. 6 > > & 7 7 & { 6 & 0 ,Xd & 6 > > & 6 t & u o.o.u o.o.",
"m.K.D.K.K.K.G.D.G.gXG.n.K.y y y &.6 i y y y `.&.8 i 7 8 8 t - m.n.(.PX& * & 0.u 7 8 8 8 8 8 t - jX0.O @XMXO , 0.8 7 8 8 8 8 8 7 a qX* & & %X$Xm c , 8 8 8 8 8 8 ; k.H o & , @.u k.t 7 8 8 8 8 8 7 a qX& * & &   8.8.< 8 8 8 8 8 t - H.M.@ , . O , gXt 7 8 8 6 & & & 6 v X   X O O q a * & & & & & > * +.f O *   O   y., & & & 6 8 8 7 t 0.& & * & o ] 9.9 8 8 7 & 7 & > > > > & 8 6 & > > > > 7 6 > > > > & 8 6 8 y & > & 7 6 > > > > & 8 ; V A - > & 7 6 & < # ; . 1.1.. 6 > > & 7 7 & { 6 & 0 ,Xd & 6 > > & 6 t & u o.o.u o.o.",
"w.gXD.SXgXgXK.G.gXgXgXD.gXy i t f.8 i y i y #Xt.8 i 7 8 8 t - H.0.o t.6 * X 0.] 9 8 8 8 8 8 8 6 jX] X & & & & 0.u 7 8 8 8 8 8 , 1.9X. & * 4Xt.0 m , 8 8 8 8 8 8 7 k.5 &   @.IX&.H t 7 8 8 8 8 8 , 3.9X. & 7 t   1.9X< 8 8 8 8 8 t - jX{ X   #.@XX jX[ 9 8 8 6 & & & 7 a   X   `.@.- h * & & & & & > * y.t     t &.  y.t & > & 6 8 8 7 u 0.& * t & X 2 0.9 8 8 7 & 7 & > > > > & 8 6 > > > > > 7 6 > > > > & 7 8 y & > > & 7 6 > > > > > r # wX< - > & 7 7 & < # ; . 1.1.. 6 > > & 7 7 > { 6 & 0 ,Xd & 6 > > & 6 t & u o.o.u o.o.",
"m.gXn.D.D.D.D.D.D.D.D.D.gXy i 7 y 7 i y d 7 t 8 t i 7 8 8 t - m.G.@   * & X 0.u 7 8 8 8 8 8 t - jX0.@ & & X , 0.8 7 8 8 8 8 8 7 a qX* * &   O c c , 8 8 8 8 8 8 ; k.H o & &   * H 8 7 8 8 8 8 8 7 a qX&   d IX< 8.8.< 8 8 8 8 8 t - H.M.@ * d MX+.gXu 7 8 8 6 & & & 6 v X     *.@X9 a & & & & & & > * +.f O   7 :Xu y.7 & & & 6 8 8 7 t 0.  %XMX  + ] q.9 8 8 7 & 7 & > > > > & 8 6 & > > > & 7 > & > > > & 8 d > & > > & 7 6 & > > > & 7 wX# ; > > & 7 6 & < # ; . 1.1.. 6 > > & 6 6 & { 6 * 0 ,Xd & 6 > > & 6 t & u o.o.u o.o.",
"q.AXgXgXgXgXgXgXgXgXgXSXgX8 g i i i g t d d i i g i 7 8 8 8 7 t AX9.X & X { 0.9 8 8 8 8 8 8 8 9 [ AX2 X & & 0.{ 9 8 8 8 8 8 8 8 , 9X8.. & * 0 1.8 7 8 8 8 8 8 8 7 s pX5 * & & H G 7 8 8 8 8 8 8 8 < 9X9X*   t.5.qXy 7 8 8 8 8 8 8 7 s AX] X     0.q.9 8 7 8 6 & & & & a a     O o 9 & & & & & & & & & 7 d.,     O t s & & & & 6 8 7 8 9 9.0.t.g   2 0.u 7 8 8 7 & 8 8 t 8 8 t 8 i t 8 8 8 t 8 y t 8 8 8 8 8 g y 8 t 8 t 8 y t 8 8 8 8 p A V : 8 8 t 8 y y r w G p < 4.4., t 8 t 8 y y 8 9.t 7 c 9X#.7 8 7 8 8 y y & u o.o.u o.o.",
"t s s s s s s s s s s s u t y y y y y t t y y y y 8 7 8 8 8 8 6 9.M.- 6 7 9.t 7 8 8 8 8 8 8 8 t 6 m.q.- 6 1 9.7 8 8 8 8 8 8 8 8 7 y 8.p > , c a 7 8 8 8 8 8 8 8 8 ; H H ; 6 1 H 7 8 8 8 8 8 8 8 8 7 t 8.p , . 1.3., 8 8 8 8 8 8 8 t 6 q.m.- 6 1 9.7 8 8 7 8 6 & & & & & a 6 * & 6 6 & & & & & & & & > & u f X & > t & & & & & 6 8 7 8 8 7 M.2 & 6 { ] 9 8 8 8 7 & 7 > 6 > > 6 & 8 6 > > > 6 > 7 6 > > 6 & y d 6 > > > 6 > 7 6 > > > ; Z D ; > > > 6 & 7 7 & < # ; . 1.1.* 6 > 6 > 7 7 > { 6 > 0 ,Xd 6 g i 6 & 7 t & u o.o.u o.o.",
"y g i i i i i y y y y y y i y y i y i d d d d i g i 7 8 8 8 8 8 9 9 t 8 8 9 7 8 8 8 8 8 8 8 8 8 t 9 9 t t 7 9 8 8 8 8 8 8 8 8 8 8 7 , 8 t 8 7 7 8 8 8 8 8 8 8 8 8 8 7 7 t 8 8 7 8 8 8 8 8 8 8 8 7 8 7 , 8 8 t , , t 8 8 8 8 8 8 8 8 t 9 9 t t 8 9 8 8 8 7 8 6 & & & & & & & > > & & & > > & & & & & & > & & > > & & > > > & & 6 8 7 8 8 8 9 8 t 8 7 7 8 8 8 8 7 & 7 & > > > > & 8 6 & > > > & 7 6 > > & 8 t 7 6 & > > > & 7 6 & > ; V A r 6 > > > > & 7 6 & < # ; . 1.1.. 6 > > & 7 7 & { 6 & 0 ,X+.7 g g 7 & 6 t & u o.o.u o.o.",
"i y 7 7 7 7 7 d @.&.*.&.&.&.*.*.*.*.@.7 7 7 7 7 y i 7 8 8 8 6 7 7 8 7 7 6 8 8 7 6 7 8 8 8 8 8 6 7 7 7 7 7 t 7 7 6 7 8 8 8 8 8 7 7 7 8 7 6 8 8 8 8 8 8 8 8 8 8 8 7 7 7 7 6 8 8 8 8 8 8 8 8 8 8 8 8 7 7 7 6 7 7 t 8 7 6 7 8 8 8 8 8 8 7 8 7 7 6 7 t 7 6 7 8 8 6 & & & & & & & & & & > & & & & & & & & & & > & & & & > & & & & & 6 8 7 8 7 7 8 6 7 8 8 8 8 8 8 8 7 & 7 & > > > > & 8 6 & > > > > 7 6 > & 7 i & 8 6 & > > > & 7 6 > ; # wX< 7 6 & > > > & 7 6 & < # ; . 1.1.. 6 > > & 7 7 & { 6 & 0 ,X+.7 y g 6 & 6 t & u o.o.u o.o.",
"y y 7 8 8 8 7 (.).).(.t.).@X@X(.`.`.t.8 8 8 8 7 y i 7 8 7 7 $.t d 8 @.d #.t 6 @.#.g 7 8 8 8 7 @.y y @.g g > i #.#.t 7 8 8 8 7 @.g @.t i @.7 6 6 6 7 8 8 8 8 8 7 g y @.d @.7 6 6 6 7 8 8 8 8 8 8 7 g y y #.8 g 6 y #.#.y 7 8 8 8 7 7 g 7 g d @.t 6 @.#.g 7 8 6 & & 7 7 y 6 7 t t r * 7 y y , & & & & & t & t 7 y , * t y t & & 6 8 8 7 g g 7 $.8 6 6 7 6 7 8 8 7 & 7 & > > > > & 8 6 & > > > > 7 6 & 6 i 6 & 8 6 & > > > & 7 6 - < wX# ; 8 6 & > > > & 7 6 & < # ; . 1.1.. 6 > > & 7 7 & { 6 & 0 ,Xd X > > > & 6 t & u o.o.u o.o.",
"i y 7 7 7 7 7 y y t g i g d d @.@.@.d 7 7 7 7 7 t i 7 8 t 8 (._.=Xg _.;X&X#.&.;X;X=X8 7 8 7 i &X(.t.=X=X`.d *X=X4X$.6 8 8 8 7 g ;X&X&.(.%Xg #X%Xt._.t 7 8 8 8 6 _.#X%X;X_.g %X%Xt.).t 7 8 8 7 t 7 #X#.#.*Xt.*Xt &X=X4Xt.6 8 8 8 7 t.;Xy _.;X*X$.&.;X;X;Xt 7 6 & & g *.i @.d (.(.@.7 (.(.).y & > & & i `.6 *.`.f.i i `.`.`.6 & 6 8 7 8 #X).$.*X@.`.*X(.).g 7 8 7 & 7 & > > > > & 8 6 & > > > > 7 6 & y 7 & & 8 6 & > > > & 7 6 - A V ; > 8 6 & > > > & 7 6 & < # ; . 1.1.. 6 > > & 7 7 & { 6 & 0 ,Xd & 6 > > & 6 t & u o.o.u o.o.",
"i d y y y y y y y y t y t y t t t t y y y y y y d i 7 7 i $._.#XMX`._.4X&X&.#X*X;X;Xy 7 8 7 i %X_.`.*X;X`.(.=X*X4Xt.6 8 8 8 6 (.%X#X_.).#X$.&X#X_.=X@.7 8 8 8 6 &.#X#X4X_.&.&X#X_.=Xg 7 8 8 7 y #.$.(.y #XMX=X$.=X*X4X(.6 8 8 7 g _.;X`._.4X&Xt._.*X;X;Xy 7 6 & i y @.*.d @.(.`.@.@.(.(.).d * > & 7 *.`.#.*.).t.d *.(.`.`.7 & 6 8 7 t #X#X`.&X&.#X%X_.&X(.6 8 7 & 7 & > > > > & 8 6 > > > > > 7 & y 8 & 6 & 8 6 & > > > & 7 ; D D ; > & 8 6 & > > > & 7 6 & < # ; . 1.1.. 6 > > & 7 7 & { 6 & 0 ,Xd & 6 > > & 6 t & u o.o.u o.o.",
"t y y y y y y y y y i y i y i i i i y y y y y y y t 7 8 7 t `.d g @.$.g &.8 @.&.$.$.7 8 8 8 7 $.#.@.$.#.g t t.@.t.y 7 8 7 8 7 t.$.&.@.@.$.t g d d &.y 7 8 7 8 7 i d &.@.$.t g d d &.y 7 8 7 8 7 6 y g #.&.t g t t.@.t.i 7 8 7 8 7 t &.g $.@.&.t g &.$.&.7 8 6 & & , t @.i y i y t > d y d 6 & & & & > i t i t d , t d y i & & 6 8 8 7 @.$.g &.t d d d $.g 7 8 7 & 7 & > > > > & 8 6 & > > > > 7 8 y & > > & 8 6 & > > > > : V A - > > & 8 6 & > > > & 7 6 & < # ; . 1.1.. 6 > > & 6 7 & { 6 * 0 ,Xd & 6 > > & 6 t & u o.o.u o.o.",
"8 7 7 7 7 7 7 7 7 7 7 7 7 7 7 7 7 7 7 7 7 7 7 7 7 8 8 8 8 8 > 7 7 7 6 7 6 8 7 6 7 6 8 8 8 8 8 6 7 7 7 7 7 8 6 7 6 7 8 8 8 8 8 6 7 6 7 7 7 8 7 7 7 6 7 8 8 8 8 8 7 7 6 7 7 8 7 7 7 6 7 8 8 8 8 8 t 7 7 7 6 7 7 8 6 7 6 7 8 8 8 8 8 8 6 7 6 7 6 8 7 6 7 6 8 8 6 & > & & * & & & & & & * & * & & & & > & & & & & & & & & & & & & 6 8 8 8 7 6 7 6 8 7 7 7 7 7 8 8 7 & 7 > 6 6 6 6 > 8 6 > 6 6 6 & t i > 6 6 6 > 8 6 > 6 6 > ; 5 wX< - > 6 > 8 7 > 6 6 6 > 7 7 - < # ; * 1.1.* 6 6 6 > 7 7 > 9.6 > 0 ,Xd & 6 6 6 > 7 t & u o.o.u o.o.",
"7 7 7 7 7 7 7 7 7 7 7 7 7 7 7 7 7 7 7 7 7 7 7 7 7 7 7 7 7 7 7 7 7 7 7 7 7 7 7 7 7 7 7 7 7 7 7 7 7 7 7 7 7 7 7 7 7 7 7 7 7 7 7 7 7 7 7 7 7 7 7 7 7 7 7 7 7 7 7 7 7 7 7 7 7 7 7 7 7 7 7 7 7 7 7 7 7 7 7 7 7 7 7 7 7 7 7 7 7 7 7 7 7 7 7 7 7 7 7 7 7 7 7 7 7 7 > & & & & & & & & & & & & & & & & & & & & & & & & & & & & & & & & > 7 7 7 7 7 7 7 7 7 7 7 7 7 7 7 7 & 8 7 7 7 7 7 7 y 8 7 7 7 7 8 g 8 7 7 7 7 7 y 8 7 7 7 7 8 wXG : 7 7 7 7 y 8 7 7 7 7 7 t t 7 8 G r < 4.4.< 8 7 7 7 t t 7 9.7 , a 9X@.6 7 7 7 7 8 t & u o.o.u o.o.",
"& & & & & & & & & & & & & & & & & & & & & & & & & & & & & & & & & & & & & & & & & & & & & & & & & & & & & & & & & & & & & & & & & & & & & & & & & & & & & & & & & & & & & & & & & & & & & & & & & & & & & & & & & & & & & & & & & & & & & & & & & & & & & & & & & & & & & & & & & & & & & & & & & & & & & & & & & & & & & & & & & & & & & & & & & & & & & & & & & 7 & > & & > & 8 6 & & > & y y & > & & > & 8 6 & > > ; A V ; > & & > & 7 6 & & & > & 7 6 & < # - . 1.1.. 6 & > & 6 6 & { - * 0 ,Xs 7 d y 7 & 6 t & u o.o.u o.o.",
"8 8 8 8 8 8 8 8 8 8 8 8 8 8 8 8 8 8 8 8 8 8 8 8 8 8 8 8 8 8 8 8 8 9 9 7 9 7 8 8 8 8 8 8 8 8 8 8 8 8 - 9 7 9 7 8 8 8 8 8 8 8 8 8 8 8 7 < , < , 8 8 8 8 8 8 8 8 8 8 8 8 ; 7 7 ; 7 8 8 8 8 8 8 8 8 8 8 8 7 < , < < 8 8 8 8 8 8 8 8 8 8 8 8 6 6 9 - 7 t 8 8 8 8 6 & & & & & & * & & & & & & & & & & & & & & > & & & * & > & & & & 6 8 8 8 8 8 7 9 7 9 9 8 8 8 8 8 7 & 7 > > > > > & 8 6 > 6 & y 8 7 6 > > > > & 8 6 & > ; D A : 6 > > > > & 8 6 & > > > & 7 7 & < # ; . 1.1.. 6 > > & 7 7 > { 6 & 0 ,X+.g (.(.8 & 6 t & u o.o.u o.o.",
"7 r r r r r r r r r r r r 7 7 7 7 7 7 7 7 7 7 7 7 7 8 8 8 8 8 8 9 ] 0.0.0.u 9 8 8 8 8 8 8 8 8 8 7 9 m.jX0.9.t 7 8 8 8 8 8 8 8 8 8 , a 9X9X9X4., 8 8 8 8 8 8 8 8 8 7 7 H k.k.k.t 7 8 8 8 8 8 8 8 8 8 , a 9X9X9X4., 8 8 8 8 8 8 8 8 8 8 9 q.jXjXH.s 9 t 8 7 8 6 & & & & & 6 a v v y & & & & & & & & & & & & s y.y.y.7 & > & & & 6 8 7 8 8 7 t 9.0.0.{ 7 8 8 8 8 7 & 7 & > > > > & 8 6 > & 7 y & 7 6 > > > > & 8 6 > ; V A & 7 6 > > > > & 8 6 & > > > & 7 6 & < # ; . 1.1.. 6 > > & 7 7 & { 6 & 0 ,Xd 8 i y 7 & 6 t & u o.o.u o.o.",
"G S D S S S S S S S S S D r d d i d d t i d i i g y 7 8 8 8 8 9 q.0.2 2 ] n.3 7 8 8 8 8 8 8 8 8 7 jXjX{ 3 { 0.t 7 8 8 8 8 8 8 8 , v qX1.a c 9X8., 8 8 8 8 8 8 8 8 7 k.k.5 5 H pXs 7 8 8 8 8 8 8 8 , v qX1.a c qX8., 8 8 8 8 8 8 8 8 9 H.jX{ 3 M.AXO.9 8 7 8 6 & & & & 7 v q - 6 c a & & & & & & & & > & +.y., , s d.t & > & & 6 8 7 8 7 u 0.{ 2 2 0.0.7 8 8 8 7 & 7 & > > > > & 8 6 & 6 i > & 7 6 > > > > & 8 6 - # wX< & 7 6 > > > > & 8 6 & > > > & 7 6 & < # ; . 1.1.. 6 > > & 7 7 & { 6 & 0 ,Xd X & & > & 6 t & u o.o.u o.o.",
"V wXZ A A A A A A A Z A wXy d t g 7 d y d y d i y i 7 8 8 8 9 { gX&.2.  o 2 0.7 8 8 8 8 8 8 t - m.jXO _.MXO { 0.9 8 8 8 8 8 8 7 7 qXc   .   7 9Xa , 8 8 8 8 8 8 7 H k.o & o O H k.7 8 8 8 8 8 8 8 7 qXc O * O   qX3., 8 8 8 8 8 t 6 q.gXo o X @ 0.jX6 8 8 8 6 & & & & v 9         v 8 & & & & & & > & u y.      O t y.& & & & 6 8 7 8 9 0.4 o & X X 0.] 9 8 8 7 & 7 & > > > > & 8 6 > i 6 & > 7 6 > > > > & 8 6 > wX# ; > 7 6 > > > > & 8 6 & > > > & 7 6 & < # ; . 1.1.. 6 > > & 7 7 & { 6 & 0 ,Xd & 6 > > & 6 t & u o.o.u o.o.",
"V A Z A A A A Z A wXA Z A y y y f.7 i y i y %X(.8 i 7 8 8 t - H.0.h PX7 * X 0.3 7 8 8 8 8 8 t 6 jX{ O *.).  & 0.t 7 8 8 8 8 8 , 3.9X. & X MXnX0 c , 8 8 8 8 8 8 ; k.H & . y MX*.Y t 7 8 8 8 8 8 , v 9X. & X 6XMXc 1., 8 8 8 8 8 t - jXq.o & &     jXs 7 8 8 6 & & & 7 v       & O 9 a * & & & & & > * y.s   . .   O y.7 & & & 6 8 8 7 u 0.& *   & X 4 0.9 8 8 7 & 7 & > > > > & 8 6 y 7 & 6 > 7 6 > > > > & 8 ; A V ; > & 7 6 > > > > & 8 6 & > > > & 7 7 & < # ; . 1.1.. 6 > > & 7 7 > { 6 & 0 ,Xd & 6 > > & 6 t & u o.o.u o.o.",
"V A Z A A Z Z Z A Z A Z A y y 8 &.7 i y i t t.@.t i 7 8 8 t - H.0.O & & & X 0.3 9 8 8 8 8 8 8 6 jX] X .   & & 0.t 7 8 8 8 8 8 , 3.9X. & & @.> z m , 8 8 8 8 8 8 ; k.5 & . i 4Xd H t 7 8 8 8 8 8 , v 9X. & * (.d 0 m , 8 8 8 8 8 t - jX9.o   t.MX7 gXO.9 8 8 6 & & & 7 h   X   &X@X- h * & & & & & > * y.t     i :X& y.t & > & 6 8 8 7 u 0.X t @X* X 2 0.9 8 8 7 & 7 & & & & & & 7 y 8 & > & & 7 > & & & & > : D Z ; > & & 7 > & & & & & 7 6 & & & & & 6 6 & < # - . 1.1.. 6 & & & 6 6 & { & * 0 ,Xd X > & & & 6 t & u o.o.u o.o.",
"V wXZ Z Z Z Z Z Z Z Z A wXy d t t 8 d y d t 7 7 y i 7 8 8 8 6 q.gXo & & X , 0.t 7 8 8 8 8 8 t - M.G.o & & o 2 0.7 8 8 8 8 8 8 7 y qXq . &   . m a 7 8 8 8 8 8 8 ; w.k.o & X O $ H 7 8 8 8 8 8 8 7 t qXq . &     m c , 8 8 8 8 8 t - m.jXo & & _.e.jX8 7 8 8 6 & & & & v -     & u 9 9 & & & & & & > & s y.    . *.u r.> & & & 6 8 8 8 7 0.. ;XMX  X 0.{ 9 8 8 7 & 7 6 6 6 6 7 6 y d 6 6 6 6 6 t 7 6 6 6 6 ; G wX6 6 6 6 6 t 7 6 6 6 6 6 t 7 6 6 6 6 6 8 7 6 9 G 7 < 1.1.> 7 6 6 6 7 7 6 9.6 , a ,X+.- 7 6 6 6 7 t & u o.o.u o.o.",
"G S D D D D D D D D D D V r d i i i i 8 y i i i d y 7 8 8 8 8 6 jXn.o & & 0.{ 9 8 8 8 8 8 8 8 7 t gXq.o & , 0.3 7 8 8 8 8 8 8 8 < 4.qX& & * c 1.7 8 8 8 8 8 8 8 7 8 k.H & & < H 1 7 8 8 8 8 8 8 8 , 4.qX- & * c 1.7 8 8 8 8 8 8 8 7 7 gXM.o &   0.] 9 8 7 8 6 & & & & 8 v *     X 9 & & & & & & & & & & y.s     O t 7 & & & & 6 8 7 8 7 3 D.s & X ] 0.7 7 8 8 7 & 8 7 8 8 8 7 t g 7 7 8 8 8 7 y 8 7 8 8 7 w wXw 7 8 8 8 7 y 8 7 8 8 8 7 y t 7 8 8 8 7 t t 7 8 G r < 4.4.< 8 8 8 7 t t 7 9.8 , a 9X@.7 8 8 8 7 t y & u o.o.i o.o.",
"r p p p p p p p p p p p p y y y y y y y y y y y y t 7 8 8 8 8 7 t 9.7 7 t 3 7 8 8 8 8 8 8 8 8 8 9 s [ 7 7 u 3 7 8 8 8 8 8 8 8 8 8 , 3.y 7 7 a 8 7 8 8 8 8 8 8 8 8 7 t 4 7 7 8 1 7 8 8 8 8 8 8 8 8 8 , v y 7 7 a 8 7 8 8 8 8 8 8 8 8 7 u { 7 7 u 3 7 8 8 7 8 6 & & & & & 7 6 & & 6 & & & & & & & & & & & , t & & , , & & & & & 6 8 7 8 8 9 { u 7 7 3 t 7 8 8 8 7 & 7 & & & & > y t > & & & & & 7 & & > & > wXG ; > & & & & 7 > & & & & & 7 6 & & & & & 6 6 & < # - . 1.1.. - & & & 6 6 & { & * 0 ,Xs 8 #.g > & 6 t & t t t t t t ",
"i d y y y y y y y y d d d i i d d i i y y y y y d i 7 8 8 8 8 8 8 9 t t 8 7 8 8 8 8 8 8 8 8 8 8 t 7 9 t 8 7 7 8 8 8 8 8 8 8 8 8 8 t , 8 t 8 7 8 8 8 8 8 8 8 8 8 8 8 8 7 8 8 8 8 8 8 8 8 8 8 8 8 8 8 t , 7 t 8 7 7 8 8 8 8 8 8 8 8 8 t 7 9 t t 7 7 8 8 8 8 8 6 & & & & > & & > > & & & & > & & & & & & > & & > > & & > & > & & 6 8 7 8 8 t 9 8 8 8 7 7 8 8 8 8 7 & 7 > > > & y 7 7 6 > > > > > 7 6 > > ; A V : 6 & > > > > 7 6 > > > 6 & 8 6 > > > > & 7 7 & < # ; . 1.1.* 6 > > & 7 7 > { 6 & 0 ,X@.y (.&.7 & 7 t & 7 u u t t o.",
"y y 7 7 7 7 7 *.t.).t.t.`.`.`.t.&.t.*.7 7 7 7 7 t i 7 8 8 8 7 7 6 7 6 6 6 7 7 7 7 6 7 8 8 8 7 6 7 7 6 6 7 8 7 7 6 7 8 8 8 8 8 7 6 6 7 7 6 7 7 7 7 7 7 8 8 8 8 8 6 7 6 6 6 7 7 7 7 7 7 8 8 8 8 8 7 7 7 7 7 6 6 7 8 7 7 6 7 8 8 7 8 7 7 8 7 6 6 7 7 7 7 6 7 8 6 & > & & & & & & & & & & & & & & & & & & & > & & & & & & & & & & 6 8 7 8 6 7 7 6 7 7 7 7 7 7 8 8 7 & 7 & 6 & y t & 8 6 & > > > > 7 6 > ; V D ; 8 6 & > > > & 7 6 > > > > & 8 6 & > > > & 7 6 & < # ; . 1.1.. 6 > > & 7 7 & { 6 & 0 ,Xd 6 t t 6 & 6 t & t +.B.S.=.S.",
"y y 7 8 8 8 7 &.t.&.t.*.f.`.).t.(.t.&.8 8 8 8 7 y i 7 8 7 7 ).g t.y `.(._.y t )._.`.7 8 8 8 7 _.@.g ).`.t.> t._._.d 7 8 8 8 7 &.(._.g #.).7 d d t i t 7 8 8 8 7 (.$.).(.`.7 d d t i t 7 8 8 8 > &.t.#.@.@.).`.&.> (._._.i 7 8 8 6 y `.7 (.(._.i 8 )._.`.7 8 6 & * y d @.y t #.@.d * d *.*.7 & & & & , #.& @.@.*.7 & #.*.#.> & 6 8 8 7 (.t.y #Xy y g y y y 7 8 7 & 7 > & 8 y & & 8 6 & > > > > 7 > ; V A - & 8 6 & > > > & 7 6 > > > > & 8 6 & > > > & 7 6 & < # ; . 1.1.. 6 > > & 7 7 & { 6 & 0 ,Xd X & & & > 6 t & t =.B.B.=.B.",
"i y 7 7 7 7 7 7 7 7 y 8 t t 8 y y y t 7 7 7 7 7 y i 7 7 y d $.%X6X#.).6X%Xt.).;X4X;Xt 7 8 7 g %X(.(.=X4X`.&.=X;X6X&.6 8 8 8 7 y ;X#X(.`.#X$.;X;X_.&Xy 7 8 8 8 6 `.%X_.6X).&.;X;X_.&Xy 7 8 8 8 g d _.6X`.t.;X;X(.t.;X;X6X$.6 t 7 y _.;X@.).6X%Xt.).;X;X;Xy 7 6 & r d @.y g d (.`.@.d `.`._.i & > & 6 *.).y #.).t.d @.`.`.).7 & 6 8 7 y #X).t.%X&.#X4X#X&X$.6 8 7 & 7 & 6 i > > & 8 6 & > > > & 7 ; # wX< - > 8 6 & > > > & 7 6 > > > > & 8 6 & > > > & 7 6 & < # ; . 1.1.. 6 > > & 7 7 & { 6 & 0 ,Xd 7 6 7 y & 6 t & 7 7 t 6 8 8 ",
"y g d d d d d d d d i d i d d i i i i d d d d d g i 7 7 y @.=X`.=X`._.%X&X@.).%X&X&Xt 7 8 7 t %X_.`.%X&X(.#.*X#X;X$.6 8 8 8 6 #X#X#X).).#Xg `.(.(.%X@.7 8 8 8 6 #.(.%X%X_.g `.(.(.%Xg 7 8 8 8 i #X#X#X%X`.&X&X(.$.*X#X;X#.6 8 7 y t.*X`._.%X&X@.`.&X&X*Xy 7 6 & r r @.t.@.@.t.t.@.y t.&.`.i & > & 6 d t.#.*.t.t.y @.t.t.f.7 & 6 8 8 7 _.#X(.&X@.(.(.(._.(.6 8 7 & 7 > i 6 & > & 8 6 > > > > > 7 > wX# ; > & 8 6 & > > > & 7 6 > > > > & 8 6 & > > > & 7 6 & < # ; . 1.1.. 6 > > & 7 7 & { 6 & 0 ,Xt.#.@.$.g & 7 t & 7 =.B.=.B.B.",
"7 8 t t t t t t t t t t t t t t t t t t t t t t t 8 7 8 7 7 d 8 6 t y 8 y 7 t y y y 7 8 7 8 7 t t t t t t 7 y t y 7 8 7 7 7 7 y y y t t t 7 8 8 t y 7 7 7 7 7 7 8 7 y 8 t 7 8 8 t y 7 7 7 7 7 6 y y 6 8 t t t t 7 y t y 7 8 7 8 7 7 y 8 y 8 y 7 t y t y 7 8 6 & & & > 7 7 > , > > & 7 > 7 & & & & & & 6 > 6 & 6 & > 6 , 6 & & 6 8 8 7 t y 8 y 7 8 8 8 y 8 7 8 7 & 7 y 7 & > > & 8 6 & > & > & 7 A V ; > > & 8 6 & > & > & 7 > & & & > & 8 6 & > & > & 7 6 & < # ; . 1.1.. 6 & > & 6 6 & 9.- * 0 9X@.8 y i 8 & 6 t & u B.B.=.S.B.",
"8 8 8 8 8 8 8 8 8 8 8 8 8 8 8 8 8 8 8 8 8 8 8 8 8 8 8 8 8 8 7 8 t 8 7 8 7 t 8 8 7 7 8 8 8 8 8 8 8 8 8 8 8 8 7 8 7 8 8 8 8 8 8 7 7 7 8 8 8 8 8 8 8 7 8 8 8 8 8 8 8 8 7 8 8 8 8 8 8 7 8 8 8 8 8 t 7 7 t 8 8 8 8 8 8 7 8 7 8 8 8 8 8 t 7 8 7 8 7 8 8 7 7 7 8 t 7 & > & & & & & & & & > & & & > & & & > > & & & & & > & & & & > & 7 t 8 8 8 8 8 7 8 8 8 8 7 8 8 8 8 & i t 6 6 6 6 6 t 7 6 6 6 6 ; D D ; 6 6 6 6 8 7 6 6 6 6 6 8 6 6 6 6 6 6 8 7 6 6 6 6 6 7 7 6 6 # ; > 1.n > 6 6 6 6 7 7 6 [ 6 > q ,Xd & 6 > 6 6 7 y & 7 t u y u u ",
"> > > > > > > > > > > > > > > > & > > > > > > > > > & & & > > > > > > > > > > > > > & & & & & > > > > > > & > > > > & & & & & > > > > > > & > > > > > & & & & & > > > > > & > > > > > & & & & & > > > > > > > > > > > > > & & & & > > > > > > & > > > > & > & & & & & & & & & & & & & & & & & & & & & & & & & & & & & & & & & & > & & > > > > > > > > > > & > & & 6 6 6 6 6 6 6 6 6 6 6 6 6 6 5 6 6 6 6 6 6 6 6 6 6 6 6 6 6 6 6 6 6 6 6 6 6 6 6 6 6 6 6 6 6 6 6 6 6 6 6 6 6 6 6 6 6 6 6 6 6 6 6 6 6 7 7 7 7 6 7 6 & > & & & & & ",
"> > > > > > > > > > > > > > > > 6 > & > & > > > > > > > > > > > > > > > > > > > > > > > > > > > > > > > > > > > > > > > > > > > > > > > > > > > > > > > > > > > > > > > > > > > > > > > > > > > > > > > > > > > > > > > > > > > > > > > > > > > > > > > > > 6 6 6 6 6 6 6 6 6 6 6 6 6 6 6 6 6 6 6 6 6 6 6 6 6 6 6 6 6 6 6 6 6 6 > > > > > > > > > > > > > > > > 6 > > > > > > > > > > > > > > ; > > > > > > > > > > > > > > > > > > > > > > > > > > > > > > > > > > > > > > > > > & > > > > > - - & > > > > > > & 6 > > > > > > ",
"y g @.@.t 8 8 8 8 8 8 8 8 8 8 8 7 i &.#.#.t 8 8 8 8 8 8 8 8 8 8 8 t g g @.y 7 8 8 8 8 8 8 8 8 8 8 8 8 8 8 8 8 8 8 8 8 8 8 8 8 8 8 8 8 8 8 8 8 8 8 8 8 8 8 8 8 8 8 8 8 8 8 8 8 8 8 8 8 8 8 8 8 8 8 8 8 8 8 8 8 8 8 8 8 8 8 8 8 8 8 8 8 8 8 8 8 8 8 8 8 8 8 8 8 8 8 8 8 8 8 8 8 8 8 8 8 8 8 8 8 8 8 8 8 8 8 8 8 8 8 8 8 8 8 8 8 8 8 8 8 8 8 8 8 8 8 8 8 8 8 8 8 8 8 8 8 8 8 8 8 8 8 8 8 8 8 8 8 8 8 8 8 8 8 8 8 8 8 8 8 8 8 8 8 8 8 8 8 8 8 8 8 8 8 8 8 8 8 8 8 8 8 8 8 8 8 t t t 8 y y t t 8 r w w 8 8 8 8 8 t s s s t 8 s u s u ",
"y t.#.$.t 7 7 s u 7 t t t 7 7 8 7 g &.&.t.t 7 7 s u 7 8 t t 7 8 7 t #.t.(.i 7 7 u s 7 8 t t 8 7 7 7 7 7 7 7 7 7 7 7 7 7 7 7 7 7 7 7 7 7 7 7 7 7 7 7 7 7 7 7 7 7 7 7 7 7 7 7 7 7 7 7 7 7 7 7 7 7 7 7 7 7 7 7 7 7 7 7 7 7 7 7 7 7 7 7 7 7 7 7 7 7 7 7 7 7 7 7 7 7 7 7 7 7 7 7 7 7 7 7 7 7 7 7 7 7 7 7 7 7 7 7 7 7 7 7 7 7 7 7 7 7 7 7 7 7 7 7 7 7 7 7 7 7 7 7 7 7 7 7 7 7 7 7 7 7 7 7 7 7 7 7 7 7 7 7 7 7 7 7 7 7 7 7 7 7 7 7 7 7 7 7 7 7 7 7 7 7 7 7 7 7 7 7 7 7 7 7 7 8 7 y d @.d i d @.y r 8 G G V V 5 7 7 t u s O.t 8 s s s u ",
"i &.&.).t 7 t O.s 7 t s s 7 8 8 7 g t.#.d y 7 8 O.O.7 t s s 7 8 7 y t @.&.t 7 7 O.O.8 8 s s 8 7 8 8 8 8 8 8 8 8 8 8 8 8 8 8 8 8 8 8 8 8 8 8 8 8 8 8 8 8 8 8 8 8 8 8 8 8 8 8 8 8 8 8 8 8 8 8 8 8 8 8 8 8 8 8 8 8 8 8 8 8 8 8 8 8 8 8 8 8 8 8 8 8 8 8 8 8 8 8 8 8 8 8 8 8 8 8 8 8 8 8 8 8 8 8 8 8 8 8 8 8 8 8 8 8 8 8 8 8 8 8 8 8 8 8 8 8 8 8 8 8 8 8 8 8 8 8 8 8 8 8 8 8 8 8 8 8 8 8 8 8 8 8 8 8 8 8 8 8 8 8 8 8 8 8 8 8 8 8 8 8 8 8 8 8 8 8 8 8 8 8 8 8 8 8 8 8 8 8 8 8 7 t #.#.$.y d $.y r w G G G V G r 7 t t s s t 8 s s s u ",
"y #.&.(.8 7 7 t 8 7 7 7 7 8 8 8 7 i &.g i t 7 7 t 8 7 7 7 7 8 8 7 t i @.$.t 7 7 8 t 7 8 7 7 7 8 8 8 8 8 8 8 8 8 8 8 8 8 8 8 8 8 8 8 8 8 8 8 8 8 8 8 8 8 8 8 8 8 8 8 8 8 8 8 8 8 8 8 8 8 8 8 8 8 8 8 8 8 8 8 8 8 8 8 8 8 8 8 8 8 8 8 8 8 8 8 8 8 8 8 8 8 8 8 8 8 8 8 8 8 8 8 8 8 8 8 8 8 8 8 8 8 8 8 8 8 8 8 8 8 8 8 8 8 8 8 8 8 8 8 8 8 8 8 8 8 8 8 8 8 8 8 8 8 8 8 8 8 8 8 8 8 8 8 8 8 8 8 8 8 8 8 8 8 8 8 8 8 8 8 8 8 8 8 8 8 8 8 8 8 8 8 8 8 8 8 8 8 8 8 8 8 8 8 8 8 7 y g 7 y i y t i 8 7 5 5 8 w w 7 7 8 u s u t 7 O.u O.u ",
"7 8 7 7 8 8 8 7 8 8 8 8 8 8 8 8 8 7 7 8 t 7 8 8 7 7 8 8 8 8 8 8 8 7 8 8 7 8 8 8 7 7 8 8 8 8 8 8 8 8 8 8 8 8 8 8 8 8 8 8 8 8 8 8 8 8 8 8 8 8 8 8 8 8 8 8 8 8 8 8 8 8 8 8 8 8 8 8 8 8 8 8 8 8 8 8 8 8 8 8 8 8 8 8 8 8 8 8 8 8 8 8 8 8 8 8 8 8 8 8 8 8 8 8 8 8 8 8 8 8 8 8 8 8 8 8 8 8 8 8 8 8 8 8 8 8 8 8 8 8 8 8 8 8 8 8 8 8 8 8 8 8 8 8 8 8 8 8 8 8 8 8 8 8 8 8 8 8 8 8 8 8 8 8 8 8 8 8 8 8 8 8 8 8 8 8 8 8 8 8 8 8 8 8 8 8 8 8 8 8 8 8 8 8 8 8 8 8 8 8 8 8 8 8 8 8 8 8 7 y 8 7 7 7 7 7 7 7 8 r r 7 7 7 8 8 7 8 8 8 8 8 7 8 7 7 "
};
