/* XPM */
static char *mb_gate_stereo[] = {
/* columns rows colors chars-per-pixel */
"256 256 256 2 ",
"   c #121216",
".  c #15161C",
"X  c #17181E",
"o  c #191A1E",
"O  c #1B161A",
"+  c #0F1113",
"@  c #221A1C",
"#  c #1B211E",
"$  c #162A18",
"%  c #24271B",
"&  c #2D3718",
"*  c #161B21",
"=  c #1C1E24",
"-  c #191A28",
";  c #141C2A",
":  c #211D23",
">  c #241D28",
",  c #201E32",
"<  c #321C2E",
"1  c #1F2026",
"2  c #1E2229",
"3  c #19272B",
"4  c #1C2B33",
"5  c #193533",
"6  c #212226",
"7  c #242A22",
"8  c #24262D",
"9  c #2B262D",
"0  c #26282F",
"q  c #2A2B2D",
"w  c #2B2725",
"e  c #3A232A",
"r  c #342A2D",
"t  c #36282C",
"y  c #2B3329",
"u  c #37392A",
"i  c #252632",
"p  c #262931",
"a  c #2A2B33",
"s  c #272738",
"d  c #2B2C3B",
"f  c #282737",
"g  c #322E35",
"h  c #312E39",
"j  c #3A2B35",
"k  c #2E313C",
"l  c #283437",
"z  c #32343E",
"x  c #3A3439",
"c  c #5A3600",
"v  c #5B3D13",
"b  c #41331B",
"n  c #6E2819",
"m  c #452D35",
"M  c #46373B",
"N  c #572E2D",
"B  c #64342E",
"V  c #743632",
"C  c #661A20",
"Z  c #3F580D",
"A  c #344B12",
"S  c #014B2C",
"D  c #055935",
"F  c #114C35",
"G  c #344534",
"H  c #116125",
"J  c #425D0C",
"K  c #4B510D",
"L  c #724300",
"P  c #6E4100",
"I  c #4D7207",
"U  c #577D08",
"Y  c #476216",
"T  c #4A6C0D",
"R  c #4B4439",
"E  c #5A5B3E",
"W  c #514B36",
"Q  c #5C6538",
"!  c #62673B",
"~  c #666B31",
"^  c #674C3B",
"/  c #1B3949",
"(  c #2D2E43",
")  c #262A46",
"_  c #302F46",
"`  c #3C2A46",
"'  c #293544",
"]  c #333543",
"[  c #373944",
"{  c #393B46",
"}  c #363A49",
"|  c #3A3D4C",
" . c #363449",
".. c #3A3D53",
"X. c #3B3A5B",
"o. c #262F56",
"O. c #33336B",
"+. c #1D206F",
"@. c #711B54",
"#. c #453B44",
"$. c #493D45",
"%. c #453C4A",
"&. c #493E49",
"*. c #473642",
"=. c #553C48",
"-. c #493E52",
";. c #4B2C4E",
":. c #693448",
">. c #483B6B",
",. c #66296C",
"<. c #014B5D",
"1. c #175052",
"2. c #3A444B",
"3. c #3E4252",
"4. c #3A4859",
"5. c #2C4B52",
"6. c #0A7448",
"7. c #095266",
"8. c #01457C",
"9. c #015E76",
"0. c #135267",
"q. c #394261",
"w. c #2A5869",
"e. c #016576",
"r. c #076972",
"t. c #2D6873",
"y. c #237754",
"u. c #4D4445",
"i. c #4D424C",
"p. c #484548",
"a. c #564547",
"s. c #594546",
"d. c #53454A",
"f. c #594649",
"g. c #52494B",
"h. c #5B494B",
"j. c #544B45",
"k. c #595544",
"l. c #424454",
"z. c #4E4254",
"x. c #46495B",
"c. c #4A4D5D",
"v. c #464659",
"b. c #514554",
"n. c #544B52",
"m. c #5D4D52",
"M. c #514659",
"N. c #55495C",
"B. c #5A4A59",
"V. c #5C535B",
"C. c #5A5356",
"Z. c #4A5659",
"A. c #634A4D",
"S. c #664449",
"D. c #77464B",
"F. c #6B5D4D",
"G. c #735B4E",
"H. c #614E53",
"J. c #664957",
"K. c #635155",
"L. c #66545A",
"P. c #695759",
"I. c #755652",
"U. c #6C654D",
"Y. c #4A4C63",
"T. c #484866",
"R. c #584C64",
"E. c #4E5163",
"W. c #4A5369",
"Q. c #56596C",
"!. c #565568",
"~. c #544E79",
"^. c #49547C",
"/. c #585A75",
"(. c #494A77",
"). c #67526E",
"_. c #5D6177",
"`. c #4B6A70",
"'. c #696479",
"]. c #756373",
"[. c #556948",
"{. c #8D3637",
"}. c #963439",
"|. c #8E2F29",
" X c #B63C3B",
".X c #AB3931",
"XX c #94301B",
"oX c #D03631",
"OX c #834339",
"+X c #99413D",
"@X c #B14135",
"#X c #8D5005",
"$X c #C94130",
"%X c #923E41",
"&X c #883951",
"*X c #952B61",
"=X c #87474B",
"-X c #95494B",
";X c #964852",
":X c #92514D",
">X c #B0484A",
",X c #9D4D6E",
"<X c #C74647",
"1X c #638A0F",
"2X c #098853",
"3X c #4D9948",
"4X c #122D93",
"5X c #1E2FA6",
"6X c #733786",
"7X c #094C84",
"8X c #01559A",
"9X c #057785",
"0X c #30798B",
"qX c #307A87",
"wX c #28778B",
"eX c #0059A1",
"rX c #295E9C",
"tX c #4C4789",
"yX c #534C96",
"uX c #565497",
"iX c #4F518E",
"pX c #695891",
"aX c #5C668C",
"sX c #686E8D",
"dX c #4C5BA8",
"fX c #565AA7",
"gX c #5357B0",
"hX c #665BB2",
"jX c #5362B7",
"kX c #6F63B5",
"lX c #153BC5",
"zX c #5267CE",
"xX c #6C65C7",
"cX c #6F68D0",
"vX c #5071EE",
"bX c #6462D1",
"nX c #036AC1",
"mX c #963AA4",
"MX c #8E598F",
"NX c #9259A5",
"BX c #B541C4",
"VX c #B33FC2",
"CX c #068B98",
"ZX c #0D8992",
"AX c #2C8594",
"SX c #0B98A8",
"DX c #3095AD",
"FX c #36A2B8",
"GX c #36A2B8",
"HX c #23A1B9",
"JX c #0FA19E",
"KX c #2D9BCA",
"LX c #7C83A4",
"PX c #8990B5",
"IX c #939BC3",
"UX c #8CCB3D",
/* pixels */
"p p p p 0 0 0 0 0 8 w 8 8 8 0 0 0 0 0 0 0 0 0 0 0 0 0 0 0 0 0 0 0 0 0 0 0 0 0 0 0 0 0 0 0 0 0 0 0 0 0 0 0 0 0 0 0 0 0 0 0 0 0 0 0 0 0 0 0 0 0 0 0 0 0 0 0 0 0 0 0 0 0 0 0 0 0 0 0 0 0 0 0 0 0 0 0 0 0 0 0 0 0 0 0 0 0 0 0 0 0 0 0 0 0 0 0 0 0 0 0 0 0 0 0 0 0 0 0 0 0 0 0 0 0 0 0 0 0 0 0 0 0 0 0 0 0 0 0 0 0 0 0 0 0 0 0 0 0 0 0 0 0 0 0 0 0 0 0 0 0 0 0 0 0 0 0 0 0 8 6 0 8 8 8 8 8 8 8 8 6 6 6 8 8 6 8 0 8 8 8 8 8 8 6 6 0 0 0 6 6 8 8 8 8 1 6 8 1 8 0 8 6 6 1 6 6 6 8 6 8 8 1 8 8 1 8 0 8 8 8 8 6 8 0 0 8 0 0 8 8 8 8 8 6 8 ",
": : : > 8 0 8 0 8 s / / / ) 8 8 0 8 0 0 0 0 0 0 0 0 0 0 0 0 0 0 0 0 0 0 0 0 0 0 0 0 0 0 0 0 0 0 0 0 0 0 0 0 0 0 0 0 0 0 0 0 0 0 0 0 0 0 0 0 0 0 0 0 0 0 0 0 0 0 0 0 0 0 0 0 0 0 0 0 0 0 0 0 0 0 0 0 0 0 0 0 0 0 0 0 0 0 0 0 0 0 0 0 0 0 0 0 0 0 0 0 0 0 0 0 0 0 0 0 0 0 0 0 0 0 0 0 0 0 0 0 0 0 0 0 0 0 0 0 0 0 0 0 0 0 0 0 0 0 0 0 0 0 0 0 0 0 0 0 0 0 0 0 0 0 0 0 8 p [ 8 z k k p k k a a 3.3.| ] k 3.d 8 z p z a d d | | 8 0 8 ] | p a k d l.| ] 3.k 8 k | [ l.| ] 3.k 3.z a l.z p l.d 6 z a k d { d 8 0 a 0 8 l p p l l ' p ",
"w.w.w.w.a 8 0 8 / t.3XUXUX3Xw.l 8 0 0 0 0 0 0 0 0 0 0 0 0 0 0 0 0 0 0 0 0 0 0 0 0 0 0 0 0 0 0 0 0 0 0 0 0 0 0 0 0 0 0 0 0 0 0 0 0 0 0 0 0 0 0 0 0 0 0 0 0 0 0 0 0 0 0 0 0 0 0 0 0 0 0 0 0 0 0 0 0 0 0 0 0 0 0 0 0 0 0 0 0 0 0 0 0 0 0 0 0 0 0 0 0 0 0 0 0 0 0 0 0 0 0 0 0 0 0 0 0 0 0 0 0 0 0 0 0 0 0 0 0 0 0 0 0 0 0 0 0 0 0 0 0 0 0 0 0 0 0 0 0 0 0 0 0 0 0 0 0 0 8 a sXa _.Y.Y.k E.x.| 6 Q.E.c.x.x._.Q.6 sX{ E.Q.3.x.Q.E.v.= | Q.c.p l.'.0 _.x.E./.z 8 _.v.z '.3./.Y.3.Q.W.c._.] !.x.Q.0 z /.Y.| aXY.6 p a 0 6 t.' 5.w.5.t.5.",
"HXHXHXHXAXp 8 / `.UX3XW Q UXUX0.l 8 0 0 0 0 0 0 0 0 0 0 0 0 0 0 0 0 0 0 0 0 0 0 0 0 0 0 0 0 0 0 0 0 0 0 0 0 0 0 0 0 0 0 0 0 0 0 0 0 0 0 0 0 0 0 0 0 0 0 0 0 0 0 0 0 0 0 0 0 0 0 0 0 0 0 0 0 0 0 0 0 0 0 0 0 0 0 0 0 0 0 0 0 0 0 0 0 0 0 0 0 0 0 0 0 0 0 0 0 0 0 0 0 0 0 0 0 0 0 0 0 0 0 0 0 0 0 0 0 0 0 0 0 0 0 0 0 0 0 0 0 0 0 0 0 0 0 0 0 0 0 0 0 0 0 0 0 0 0 0 0 8 a _.Y./.v.E.a E.x.{ . l.| [ 3.v.Q.E.{ sX!.l.Q./.v.l.a /.o E.{ c.| Q.sXd v.z x.E.a 8 } Q.0 E.a Q.l.{ aXE.l.Q.] Q.. Q.] o aXx.] '.Y.6 0 a 0 8 w.w.w.5.5.w.5.",
"w.w.w.DXHX5.2 [.UXG - - - - 5.AX5.8 0 0 0 0 0 0 0 0 0 0 0 0 0 0 0 0 0 0 0 0 0 0 0 0 0 0 0 0 0 0 0 0 0 0 0 0 0 0 0 0 0 0 0 0 0 0 0 0 0 0 0 0 0 0 0 0 0 0 0 0 0 0 0 0 0 0 0 0 0 0 0 0 0 0 0 0 0 0 0 0 0 0 0 0 0 0 0 0 0 0 0 0 0 0 0 0 0 0 0 0 8 8 8 8 8 8 8 8 8 8 8 8 8 8 8 8 8 8 8 8 8 8 8 8 8 8 8 8 8 8 8 8 8 8 8 8 8 8 8 8 8 8 8 8 8 8 8 8 8 8 8 8 8 8 8 8 8 8 8 0 8 k Y.Q.E.3.c./.3.l._.k l.| l.Y.v.Q.Y.E.l.E.Q.z _.l./.Q.| 1 [ Q.Q.Y.Y.l.x.v.[ x.Q.k 8 3./.k E.d Q.x.3.Y.x.c./.z Y.Q.E.6 | c.c.x.Q.Y.8 0 a 0 8 5.w.w.5.5.w.5.",
": : @ wXHX' ' qX[.- p 8 5.w.> wXw.l 8 0 0 0 0 0 0 0 0 0 0 0 0 0 0 0 0 0 0 0 0 0 0 0 0 0 0 0 0 0 0 0 0 0 0 0 0 0 0 0 0 0 0 0 0 0 0 0 0 0 0 0 0 0 0 0 0 0 0 0 0 0 0 0 0 0 0 0 0 0 0 0 0 0 0 0 0 0 0 0 0 0 0 0 0 0 0 0 0 0 0 0 0 0 0 0 0 0 0 8 0 0 0 0 0 0 0 0 0 0 0 0 0 0 0 0 0 0 0 0 0 0 0 0 0 0 0 0 0 0 0 0 0 0 0 0 0 0 0 0 0 0 0 0 0 0 0 0 0 0 0 0 0 0 0 0 0 0 0 0 0 p a p a p p z 8 p ] d p p d d a ] p a 6 p d 0 p p z k 8 p 8 d z a 0 6 a a p a ] a 8 z d 8 a 0 a ] a 0 p a ] d 8 ] p 8 a 8 a p z p 8 0 p 0 0 p p p p p l 0 ",
"l l l AXHX5.8 0.DXt.6 0 l p : w.wXl 8 0 0 0 0 0 0 0 0 0 0 0 0 0 0 0 0 0 0 0 0 0 0 0 0 0 0 0 0 0 0 0 0 0 0 0 0 0 0 0 0 0 0 0 0 0 0 0 0 0 0 0 0 0 0 0 0 0 0 0 0 0 0 0 0 0 0 0 0 0 0 0 0 0 0 0 0 0 0 0 0 0 0 0 0 0 0 0 0 0 0 0 0 0 0 0 0 0 8 0 6 = = = = = = = = = = = = = = = = = = = = = = = = = = = = 1 1 = = 1 1 = = = 1 1 = = = = = = = = = = = 1 = = = = = = = = = = = = = = = = 1 = = = = = = = = = = = 1 = = = = = = = 6 6 6 1 = 6 6 6 6 6 6 6 = 6 6 = 1 8 6 6 1 = 6 6 6 1 = 1 6 = 1 1 = = = = = = 1 1 1 1 1 = = = = = = = ",
"HXHXHXHXHXl l wXHXAX> 8 8 p > w.t.l 8 0 0 0 0 0 0 0 0 0 0 0 0 0 0 0 0 0 0 0 0 0 0 0 0 0 0 0 0 0 0 0 0 0 0 0 0 0 0 0 0 0 0 0 0 0 0 0 0 0 0 0 0 0 0 0 0 0 0 0 0 0 0 0 0 0 0 0 0 0 0 0 0 0 0 0 0 0 0 0 0 0 0 0 0 0 0 0 0 0 0 0 0 0 0 0 0 8 0 6 = = = = * = = = = = = = = = = = = = = = = = = = = = = = = X . = = X * = = = * * = = = = = = = = = = = * * = = = = = = = = = = = = = = = = = = = = = = = = = = = = = = = = = = = 1 1 = > 1 1 1 1 1 1 1 2 1 1 1 1 : = : 1 1 1 1 1 1 1 1 = = * o o o = X * * X . . X * o X * o * = = o ",
"AXAXAXwX5.: 5.AXwXHXw.8 0 8 p wXw.a 8 0 0 0 0 0 0 0 0 0 0 0 0 0 0 0 0 0 0 0 0 0 0 0 0 0 0 0 0 0 0 0 0 0 0 0 0 0 0 0 0 0 0 0 0 0 0 0 0 0 0 0 0 0 0 0 0 0 0 0 0 0 0 0 0 0 0 0 0 0 0 0 0 0 0 0 0 0 0 0 0 0 0 0 0 0 0 0 0 0 0 0 0 0 0 0 8 0 6 = = = = o = = = = = = = = = = = = = = = = = = = = = = = = * p ] *   k 0   X . = = * . . X . X . . o o . = = = = = = = = = = = = = = = = = = = = = = = = = = o = = = = = = = = = 1 1 = 2 H 1 1 1 1 : : : : = 1 1 = 1.0.5 : 2 1 1 1 1 1 = = = 2 4 4 4 * a 1 6 p d ] a = 8 p = 8 = = = 3 ",
"8 8 8 6 6 p 8 8 wXHXHXHXw.> t.wX5.8 0 0 0 0 0 0 0 0 0 0 0 0 0 0 0 0 0 0 0 0 0 0 0 0 0 0 0 0 0 0 0 0 0 0 0 0 0 0 0 0 0 0 0 0 0 0 0 0 0 0 0 0 0 0 0 0 0 0 0 0 0 0 0 0 0 0 0 0 0 0 0 0 0 0 0 0 0 0 0 0 0 0 0 0 0 0 0 0 0 0 0 0 0 0 0 8 0 6 = = = = o 5 / o = = = = = = = = = = = = = = = = = = = = = = = '.] k x.Y.3.x.z l./.E.. x.x.z v.| v.l.| z v./.c.. = = = = = = = = = = = = = = = = = = = = = o / / o = = = = = = = 1 1 1 > $ H 7 > 1 = 4 5 5 1.2 = 1 1 r.r.1.@ 2 1 1 1 1 = = = o 5 t.t.w.  '.l.l._.Q.| '.E.| Q.a c.a X * 5 ",
"0 0 0 0 0 0 8 ' DXw.AXHXwXt.wX5.p 8 0 0 0 0 0 0 0 0 0 0 0 0 0 0 0 0 0 0 0 0 0 0 0 0 0 0 0 0 0 0 0 0 0 0 0 0 0 0 0 0 0 0 0 0 0 0 0 0 0 0 0 0 0 0 0 0 0 0 0 0 0 0 0 0 0 0 0 0 0 0 0 0 0 0 0 0 0 0 0 0 0 0 0 0 0 0 0 0 0 0 0 0 0 0 8 0 6 = = = = = * 0.4 o = = = = = = = = = = = = = = = = = = = = = = o [ c.'._.Q.sX/.sXz 3.{ * Q.3.sXl.'./.Q.x.'./._.d X = = = = = = = = = = = = = = = = = = = = = * 2 w.= = = = = = = 1 1 1 1 > H H H > 2 : / 0.0.r.4 : 1 1 7.0.1.: 2 1 1 1 = = = = o 4 t.t.w.. c./.Q.c.Q.] v.Q.Q.!.8 c.a X = 4 ",
"0 8 0 0 8 8 0 0 8 p HX5.t.t.5.a 8 0 8 8 8 8 8 8 8 8 8 8 8 8 8 8 8 8 8 8 8 8 8 8 8 8 8 8 8 8 8 8 8 8 8 8 8 8 8 8 8 8 8 8 8 8 8 8 8 8 8 8 8 8 8 8 8 8 8 8 8 8 8 8 8 8 8 8 8 8 8 8 8 8 8 8 8 8 8 8 8 8 8 8 8 8 8 8 8 8 8 8 8 8 8 8 0 6 = = = = = = o 3 / o = = = = = = = = = = = = = = = = = = = = = = = | !.!.v.l.!.c.| Y.l.x.o _.E.c.d c.v.] Q.!.l.l.l.. = = = = = = = = = = = = = = = = = = = = = o / 4 o = = = = = 1 1 1 1 = 2 S 1 H 1 1 1 : : : 1 = 1 1 = 1.0.5 : 2 1 1 = = = = = o 5 t.t.w.o | !.E.3.Q.| l.d '.{ !.E.= = o 5 ",
"0 0 0 0 0 0 0 0 8 p ' 0 l ' 8 8 0 0 0 0 0 0 0 0 0 0 0 0 0 0 0 0 0 0 0 0 0 0 0 0 0 0 0 0 0 0 0 0 0 0 0 0 0 0 0 0 0 0 0 0 0 0 0 0 0 0 0 0 0 0 0 0 0 0 0 0 0 0 0 0 0 0 0 0 0 0 0 0 0 0 0 0 0 0 0 0 0 0 0 0 0 0 0 0 0 0 0 0 0 0 0 0 6 = = = = = = = = * o = = = = = = = = = = = = = = = = = = = = = = = = a 6 X a 1 * p = 8 6 6 1 Q.8 = = = p 0 6 o a = 8 = = = = = = = = = = = = = = = = = = = = = = = * o = = = = = 1 1 1 1 1 1 1 > 1 > 1 1 1 2 2 2 1 1 1 1 1 : : : 1 1 1 = = = = = = = = = = = = = = = = 8 a = * = * p = * = = 1 ",
"8 8 8 8 8 8 8 8 8 8 6 8 8 6 8 8 8 8 8 8 8 8 8 8 8 8 8 8 8 8 8 8 8 8 8 8 8 8 8 8 8 8 8 8 8 8 8 8 8 8 8 8 8 8 8 8 8 8 8 8 8 8 8 8 8 8 8 8 8 8 8 8 8 8 8 8 8 8 8 8 8 8 8 8 8 8 8 8 8 8 8 8 8 8 8 8 8 8 8 8 8 8 8 8 8 8 8 8 8 8 8 6 = = = = = = = = = = = = = = = = = = = = = = = = = = = = = = = = = = = X * = X * = X = o * o = p o = = = X o * = X = o = = = = = = = = = = = = = = = = = = = = = = = = = = = = = 1 = = = = = = = 1 1 1 = = = = = = 1 = = = = 1 1 1 = = = = = = = = = = = = = = = = = = = o X * = * = o * = = = = ",
"= = = = = = = = = = = = = = = = = = = = = = = = = = = = = = = = = = = = = = = = = = = = = = = = = = = = = = = = = = = = = = = = = = = = = = = = = = = = = = = = = = = = = = = = = = = = = = = = = = = = = = = = = = = = = = = = = = = = = = = = = = = = = = = = = = = = = = = = = = = = = = = = = = = = = = = = = = = = = = = o = = = = = = = = = = = = = = = = = = = = = = = = = = = = = = = = = = = = = = = = = = = = = = = = = = = = = = = = = = = = = = = = = = = = = = = = = = = = = = = = = = = = = = = = = = = = = = = = ",
"z ] z z z z ] z z z z z z z z z z z z z z z z z z z z z z z z z z z z z z z z z z z z z z z z z z z z z z z z z z z z z z z z z z z z z z z z z z z z z z z z z z z z z z z z z z z z z z z z z z z z z z z z z z z z z z z z z z z z z z z z z z z z z z z z z z z z z z z z z z z z z z z z z z z z z z z z z z z z z z z z ] z z z z z z z z z z z z z z z z z z z z z z z z z z z z z z z z z z z z z z z z z z z z z z z ] z = 6 8 8 8 8 8 6 8 8 8 8 8 6 = 8 8 6 8 0 8 8 8 = 1 0 6 8 8 8 8 0 6 = z ] z z z ] ] ] ] ] ] z z ",
"| [ | l.| l.[ | { l.{ { { { { { { { { { { { { { { { { { { { { { { { { { { { { { { { { { { { { { { { { { { { { { { { { { { { { { { { { { { { { { { { { { { { { { { { { { { { { { { { { { { { { { { { { { { { { { { { { { { { { { { { { { { { { { { { { { { { { { { { { { { { { { { { { { { { { { { { { { { { { { { { { { { { { { { { { { { { { { { { { { { { { { { { { { { { { { { { { { { { { { { { { { { { { { { { { { { { { { [ = 8 0 0 8 k | l.{ k 8 0 0 8 = 8 8 d p 1 8 0 0 = 6 8 z a 6 8 6 8 6 = [ [ | l.| z ] ] ] [ [ l.[ ",
"sX] _.Y.!.sXv._.c.aX_.!.c.Y.z [ [ [ [ [ [ [ [ [ [ [ [ [ [ [ [ [ [ [ [ [ [ [ [ [ [ [ [ [ [ [ [ [ [ [ [ [ [ [ [ [ [ [ [ [ [ [ [ [ [ [ [ [ [ [ [ [ [ [ [ [ [ [ [ [ [ [ [ [ [ [ [ [ [ [ [ [ [ [ [ [ [ [ [ [ [ [ [ [ [ [ [ [ [ [ [ [ [ [ [ [ [ [ [ [ [ [ [ [ [ [ [ [ [ [ [ [ [ [ [ [ [ [ [ [ [ [ [ [ [ [ [ [ [ [ [ [ [ [ [ [ [ [ [ [ [ [ [ [ [ [ [ [ [ [ [ [ [ [ [ [ [ [ [ [ [ [ [ [ [ [ [ [ [ [ [ [ [ [ [ [ [ [ [ [ [ [ [ [ [ [ [ [ ] = 8 0 0 8 [ Y.l.x.] 8 0 0 8 = 0 6 E.v.l.z 8 0 = = { !.E.[ a c.c.= = ] | aXx.l.E.x.Y.x.3.Y./.[ ",
"_.l.Q.c.sXsXE.sX_.aXc.'.sXE.z { [ [ [ [ [ [ [ [ [ [ [ [ [ [ [ [ [ [ [ [ [ [ [ [ [ [ [ [ [ [ [ [ [ [ [ [ [ [ [ [ [ [ [ [ [ [ [ [ [ [ [ [ [ [ [ [ [ [ [ [ [ [ [ [ [ [ [ [ [ [ [ [ [ [ [ [ [ [ [ [ [ [ [ [ [ [ [ [ [ [ [ [ [ [ [ [ [ [ [ [ [ [ [ [ [ [ [ [ [ [ [ [ [ [ [ [ [ [ [ [ [ [ [ [ [ [ [ [ [ [ [ [ [ [ [ [ [ [ [ [ [ [ [ [ [ [ [ [ [ [ [ [ [ [ [ [ [ [ [ [ [ [ [ [ [ [ [ [ [ [ [ [ [ [ [ [ [ [ [ [ [ [ [ [ [ [ [ [ [ [ [ { ] = 8 0 0 6 | c.6 E.] 8 0 0 8 = 0 6 3.!.Q.c.6 p = o E.z v._.l.'.l.= = [ [ !./.aXQ.'._./.Q.sX/.] ",
"E.[ Q._./.Y.'.l./.E.z E.l.c.z [ [ [ [ [ [ [ [ [ [ [ [ [ [ [ [ [ [ [ [ [ [ [ [ [ [ [ [ [ [ [ [ [ [ [ [ [ [ [ [ [ [ [ [ [ [ [ [ [ [ [ [ [ [ [ [ [ [ [ [ [ [ [ [ [ [ [ [ [ [ [ [ [ [ [ [ [ [ [ [ [ [ [ [ [ [ [ [ [ [ [ [ [ [ [ [ [ [ [ [ [ [ [ [ [ [ [ [ [ [ [ [ [ [ [ [ [ [ [ [ [ [ [ [ [ [ [ [ [ [ [ [ [ [ [ [ [ [ [ [ [ [ [ [ [ [ [ [ [ [ [ [ [ [ [ [ [ [ [ [ [ [ [ [ [ [ [ [ [ [ [ [ [ [ [ [ [ [ [ [ [ [ [ [ [ [ [ [ [ [ [ [ [ ] = 8 0 0 8 ] v.E.sXl.6 0 0 8 = 0 6 x.E.{ l.6 p = = ] Q.c.l./.c.v.= = [ { !._.!./.sXc.E.'.'.Q.] ",
"{ [ { | [ { { [ { { { { { { { { { { { { { { { { { { { [ [ [ [ [ [ [ [ [ [ [ [ { { { { [ [ { { { { { { { { { { { { { { { { { { { { { { { { { { { { { { { { { { { { { { [ [ { { { { { { { { { { { { { { { { { { { { { { { { { { { { { { { { { { { { { { { { { { { { { { { { { { { { { { { { { { { { { { { { { { { { { { { { { { { { { { { { { { { { { { { { { { { { { { { { { { { { { { { { { { { { { { { { { { { { { { { { { { { z = 8 0 0 8 d z z | z 8 0 0 8 = 8 0 p 0 8 8 0 0 = 6 8 a 0 8 p 8 a 6 = [ { 2.[ [ /.E.] { { { [ { ",
"a a a p a a a a a a a a a a a a a a a a a a a a a p d { { [ #.%.%.{ x [ %.%.z p a a a x x a a a a a a a a a a a a a a a a a a a a a a a a a a a a a a a a a a a a a a z } a d a a a a a a a a a a a a p a a a a a a a a a a p a a a a a a a a a a a a a a a a a a a a a a a a a a a a a a a a a a a a a a a a a a a p a a a a a a a a a a a p a a a a a a a a a a p a a a a a a a a a a a a a a a a a a a a a a a a a a a a a z } = 8 0 8 0 8 6 6 1 8 0 8 0 8 = 8 0 8 8 0 0 8 0 = 1 p 8 8 0 8 0 0 6 = a d a d d k a d d d d d d ",
"= 8 = = = = = = = = = = = 8 = = = = = = = 8 1 = = = a i.i.&.&.&.&.i.&.&.&.i.x = w r t W W q 7 6 p = = = = = = = = = = = = = = = = = = = 8 1 = = = = = = = = = = q 7 7 x /.f f 8 p 6 = = = = = 8 = = = = 8 6 = = 6 8 = = 6 6 = = 8 = = 0 = = = = = = = = = = = = = = = = = = = 8 1 = = = = = = = = = = 8 = = = = = = = 8 6 = = = = = 8 = = = = 8 6 = = 1 8 = = 6 6 = = 8 = = 0 1 = = = = = = = = = = = = = = = = = = 8 6 6 i f  .~.o 8 0 8 8 0 = * = 0 8 8 0 8 = 8 0 0 0 0 0 0 0 = 6 0 0 0 0 0 0 0 6 = 8 8 8 8 8 8 0 8 0 8 8 8 8 ",
"1 0 6 1 1 1 1 1 1 1 1 1 1 0 6 1 1 1 1 6 = 8 6 6 6 = g i.i.&.&.&.&.i.&.&.&.i.[ = w g r W W q w 6 a 6 1 1 1 1 1 1 1 1 1 1 1 1 1 1 1 1 6 1 0 6 1 1 1 1 1 1 1 1 1 1 q q 7 x /.f d i p 6 1 1 1 1 6 0 1 1 6 = 8 6 1 1 6 8 1 1 8 8 = 6 0 1 1 p 6 1 1 1 1 1 1 1 1 1 1 1 1 1 1 1 1 6 = 0 6 1 1 1 1 1 1 1 1 1 6 0 1 6 1 1 1 6 = 8 6 1 6 1 1 1 0 1 1 6 = 8 6 1 1 6 0 1 1 8 8 = 6 0 6 = p 6 1 1 1 1 1 1 1 1 1 1 1 1 1 1 1 1 6 = 8 8 8 a a  .~.o 8 0 8 8 0 = = = 0 8 8 0 8 = 9 e e e t e e 9 = 1 t e e t e e t 6 = 0 0 0 p 8 > 6 6 : 6 p 0 0 ",
"= 0 6 1 1 1 1 1 1 1 1 1 1 0 6 1 1 1 1 1 = 8 6 = = * x i.i.&.&.&.&.i.&.&.&.i.&.#.j r r W W q w 6 a 1 1 1 1 1 1 1 1 1 1 1 1 1 1 1 1 1 1 = 0 6 1 1 1 1 1 1 1 1 1 1 q q 7 x /.f d 0 p 6 = 1 1 1 1 0 1 1 1 = 8 6 = = 6 8 = = 8 8 = 6 0 1 = p 6 1 1 1 1 1 1 1 1 1 1 1 1 1 1 1 1 1 = 8 6 1 1 1 1 1 1 1 1 1 6 0 = 1 1 1 1 1 = 8 6 = 1 1 1 1 0 1 1 1 = 8 6 = 1 6 8 = = 8 8 = 1 0 1 = p 6 1 1 1 1 1 1 1 1 1 1 1 1 1 1 1 1 1 = 8 6 8 p a  .~.o 8 0 8 8 0 = o = 0 8 8 0 8 = 9 e e e t e e 9 = 1 t e e t e e e 6 = 8 0 0 6 a w.0XAXt.' 6 0 0 ",
"= 0 6 1 1 1 1 1 1 1 1 1 1 0 6 1 1 1 1 1 = 8 8 g g a #.i.i.&.&.&.&.i.&.&.&.i.i.d.M r r W W q w 6 a 1 1 1 1 1 1 1 1 1 1 1 1 1 1 1 1 1 1 = 0 6 1 1 1 1 1 1 1 1 1 1 q q 7 x /.f d 0 p 6 = 1 1 1 1 0 1 1 1 = 8 6 = = 6 8 = = 8 8 = 6 0 1 = p 6 1 1 1 1 1 1 1 1 1 1 1 1 1 1 1 1 1 = 8 6 1 1 1 1 1 1 1 1 1 6 0 = 1 1 1 1 1 = 8 6 = 1 1 1 1 0 1 1 1 = 8 6 = 1 6 8 = = 8 8 = 1 0 1 = p 6 1 1 1 1 1 1 1 1 1 1 1 1 1 1 1 1 1 = 8 6 8 p a  .~.o 8 0 0 0 8 t.AXt.8 0 8 0 8 = 9 e e e t e e 9 = 1 t e e t e e e 6 = 8 p 6 5.DXDXt.t.0XFXt.6 0 ",
"= 0 6 1 1 1 1 1 1 1 1 1 1 0 6 1 1 1 1 1 = 8 a i.i.i.&.&.i.&.&.&.&.i.&.&.&.i.i.&.M r r W W q w 6 a 1 1 1 1 1 1 1 1 1 1 1 1 1 1 1 1 1 1 = 0 6 1 1 1 1 1 1 1 1 1 1 q q 7 x /.f d 0 p 6 = 1 1 1 1 0 1 1 1 = 8 6 = = 6 8 = = 8 8 = 6 0 1 = p 6 1 1 1 1 1 1 1 1 1 1 1 1 1 1 1 1 1 = 8 6 1 1 1 1 1 1 1 1 1 6 0 = 1 1 1 1 1 = 8 6 = 1 1 1 1 0 1 1 1 = 8 6 = 1 6 8 = = 8 8 = 1 0 1 = p 6 1 1 1 1 1 1 1 1 1 1 1 1 1 1 1 1 1 = 8 6 8 p a  .~.o 8 0 0 0 6 0XGX0X6 0 0 0 8 = 9 e e e t e e 9 = 1 t e e t e e e 6 = 0 6 ' DXt.= O O O 5.FXt.6 ",
"= 0 6 1 1 1 1 1 1 1 1 1 1 0 6 1 1 1 1 1 = 8 a &.&.&.&.&.i.&.&.&.&.i.&.&.&.i.i.&.*.r r W W q w 6 a 1 1 1 1 1 1 1 1 1 1 1 1 1 1 1 1 1 1 = 0 6 1 1 1 1 1 1 1 1 1 1 q q 7 x /.f d 0 p 6 = 1 1 1 1 0 1 1 1 = 8 6 = = 6 8 = = 8 8 = 6 0 1 = p 6 1 1 1 1 1 1 1 1 1 1 1 1 1 1 1 1 1 = 8 6 1 1 1 1 1 1 1 1 1 6 0 = 1 1 1 1 1 = 8 6 = 1 1 1 1 0 1 1 1 = 8 6 = 1 6 8 = = 8 8 = 1 0 1 = p 6 1 1 1 1 1 1 1 1 1 1 1 1 1 1 1 1 1 = 8 6 8 p a  .~.o 8 0 0 0 6 0XFX0X6 0 0 0 8 = 9 e e e t e e 9 = 1 t e e t e e e 6 = 0 6 0X0XO = = = =   5.DXl ",
"= 0 6 1 1 1 1 1 1 1 1 1 1 0 6 1 1 1 1 1 = 8 g &.&.&.&.&.i.&.&.&.&.i.&.&.&.i.i.&.#.r r W W q w 6 a 1 1 1 1 1 1 1 1 1 1 1 1 1 1 1 1 1 1 = 0 6 1 1 1 1 1 1 1 1 1 1 q q 7 x /.f d 0 p 6 = 1 1 1 1 0 1 1 1 = 8 6 = = 6 8 = = 8 8 = 6 0 1 = p 6 1 1 1 1 1 1 1 1 1 1 1 1 1 1 1 1 1 = 8 6 1 1 1 1 1 1 1 1 1 6 0 = 1 1 1 1 1 = 8 6 = 1 1 1 1 0 1 1 1 = 8 6 = 1 6 8 = = 8 8 = 1 0 1 = p 6 1 1 1 1 1 1 1 1 1 1 1 1 1 1 1 1 1 = 8 6 8 p a  .~.o 8 0 0 0 6 0XFX0X6 0 0 0 8 = 9 e e e t e e 9 = 1 t e e t e e e 6 = 8 l DX' O = = = 1 1 = DXw.",
"= 0 6 1 1 1 1 1 1 1 1 1 1 0 6 1 1 1 1 1 = 8 g &.&.&.&.&.i.&.&.&.&.i.&.&.&.i.i.&.&.d.*.W W q w 6 a 6 1 1 1 1 1 1 1 1 1 1 1 1 1 1 1 1 1 = 0 6 1 1 1 1 1 1 1 1 1 1 q q 7 x /.f d 0 p 6 = 1 1 1 1 0 1 1 1 = 8 6 = = 6 8 = = 8 8 = 6 0 1 = p 6 1 1 1 1 1 1 1 1 1 1 1 1 1 1 1 1 1 = 8 6 1 1 1 1 1 1 1 1 1 6 0 = 1 1 1 1 1 = 8 6 = 1 1 1 1 0 1 1 1 = 8 6 = 1 6 8 = = 8 8 = 1 0 1 = p 6 1 1 1 1 1 1 1 1 1 1 1 1 1 1 1 1 1 = 8 6 8 p a  .~.o 8 0 0 0 6 0XFX0X6 0 0 0 8 = 9 e e e t e e 9 = 1 t e e t e e e 6 = 6 ' DX4 o = o i LXPX| t.w.",
"1 0 6 1 1 1 1 1 1 1 1 1 1 0 6 1 1 1 1 1 1 8 z i.&.&.&.&.i.&.&.&.&.i.&.&.&.i.i.&.i.m.=.W W q 7 q a = 1 1 1 1 6 6 6 6 6 6 6 6 6 6 1 1 1 1 0 6 1 1 1 1 1 1 1 1 1 1 q q 7 x /.f d i p 6 1 1 1 1 6 0 1 1 1 = 8 6 1 1 6 8 = = 8 8 = 6 0 1 1 p 6 1 1 1 1 1 1 1 1 1 1 1 1 1 1 1 1 1 = 8 6 1 1 1 1 1 1 1 1 1 6 0 1 1 1 1 1 1 = 8 6 = 1 1 1 1 0 1 1 1 = 8 6 1 1 6 8 = 1 8 8 = 1 0 6 = p 6 1 1 1 1 1 1 1 1 1 1 6 6 6 6 6 6 6 1 0 8 8 f d ..~.o 8 0 0 0 6 0XFX0X6 0 0 0 8 = 9 e e e t e e 9 = 1 t e e t e e e 6 = 8 l DX' O = = = k ] 6 1.' ",
"= 8 = = = = = = = = = = = 8 = = = = = = = 6 x &.&.&.&.&.i.&.&.&.&.i.&.&.&.&.i.&.&.d.d.F.F.#.M u.{ 6 1 1 = = = - - - - - - - - - = O @ @ > @ O = = = = = = 1 = = q 7 7 x /.f f 8 p 6 = = = = = 8 = = = = 8 6 = = 6 8 = = 6 6 = = 8 = = p = = = = = = = = = = = = = = = = = = = 8 1 = = = = = = = = = = 8 = = = = = = = 8 6 = = = = = 8 = = = = 8 6 = = 1 8 = = 6 6 = = 8 = = 0 1 = = = = = = = = 1 = o O O O O O O O 6 o o 6 8 ] ~.o 8 0 0 0 6 0XFX0X6 0 0 0 8 = 9 e e e t e e 9 = 1 t e e t e e e 6 = 0 6 AXt.  = = = X   4 w.l ",
"8 a 0 0 0 0 0 0 0 0 0 0 8 a 0 0 0 0 8 8 8 0 [ b.i.i.i.i.b.i.i.i.i.b.z.i.i.z.b.i.d.m.B.P.F.n.n.g.n.i.f 6 0 y y & A A A A A A A A G F 1.1.1.1.1.G y & % w 8 i i 0 g a y 2./.h ] d d p 8 0 0 0 0 a 0 0 0 8 a p 8 8 p a 8 8 a a 8 0 a 0 8 d 0 0 0 0 0 0 0 0 0 0 0 0 0 0 0 0 0 0 8 a p 8 0 0 0 0 0 0 0 0 0 a 8 0 0 0 0 0 8 a p 8 0 0 0 0 a 0 0 0 8 a p 8 8 0 a 8 8 a a 8 0 a 0 8 d 0 8 0 0 0 0 0 0 8 % a X.O.>.tXtXtXtXtXtXtXtXtXtXfXiXo 8 0 0 0 6 0XFX0X6 0 0 0 8 = 9 e e e t e e 9 = 1 t e e t e e e 6 = 0 6 5.FX5.o = = = 3 0.5.8 ",
"8 a 8 8 8 8 8 8 8 8 8 8 8 a 8 8 8 8 a z g z #.i.i.i.i.i.b.i.i.i.i.z.i.i.i.i.z.i.d.n.b.F.F.n.g.i.b.g.W Y Y Y Z Z A A A A G 2XJXJXZXZXZXZXZXZXZXCXJXJX2X3XJ A y 8 a q q G /.d d a a 0 8 8 8 8 8 a 8 8 8 8 p 8 8 8 8 p 8 8 p 0 8 8 a 8 8 a 8 8 8 8 8 8 8 8 8 8 8 8 8 8 8 8 8 8 8 a 8 8 8 8 8 8 8 8 8 8 8 a 8 8 8 8 8 8 8 p 0 8 8 8 8 8 a 8 8 8 8 p 0 8 8 8 a 8 8 0 p 8 8 a 8 8 a 8 8 8 8 8 8 8 6 i tXfXtX>.O.X.X.X.X.X.X.X.X.O.O.(.iXo 8 0 0 0 6 0XFX0X6 0 0 0 8 = 9 e e e t e e 9 = 1 t e e t e e e 6 = 8 0 6 w.AX8 = 1 : 5.1.0 8 ",
"= 8 1 = = = = = = = = = = 8 1 = = = g i.&.i.&.&.&.&.&.&.i.&.&.&.&.i.&.&.&.&.i.&.&.d.d.F.F.g.i.j.! Q E R % 7 6 6 6 @ 1.CXCXr.1.5 7 % % % % % % 7 5 1.r.CXCXy.Z J A 8 7 x /.f a 8 p 6 = = = = = 8 = = = = 8 6 = = 6 8 = = 6 6 = = 8 = = p 1 = = = = = = = = = = = = = = = = = = 8 6 = = = = = = = = = 1 8 = = = = = = = 8 6 = = = = = 8 = = = = 8 6 = = 6 8 = = 6 8 = = 8 = = p 1 = = = = 1 o s fX>.s 8 8 8 8 8 i i 8 f f f d d X.~.o 8 0 0 0 6 0XFX0X6 0 0 0 8 = 9 e e e t e e 9 = 1 t e e t e e e 6 = 8 0 0 8 a 8 0 0 0 p 0 8 0 ",
"1 0 6 1 1 1 1 1 1 1 1 1 1 0 6 1 6 = x i.&.i.&.&.&.&.&.&.i.&.&.&.&.i.&.&.&.i.i.&.i.n.d.F.F.b.E ! k.u.u.$.x y # % 7 ZXCX1.% % % % 7 7 7 7 y 7 7 7 % % % % 1.CXCXG J Y 7 z /.f d i p 6 = 1 1 1 6 0 1 1 1 = 8 6 1 1 6 8 = = 8 8 = 6 0 1 1 p 6 1 1 1 1 1 1 1 1 1 1 1 1 1 1 1 1 1 = 8 6 1 1 1 1 1 1 1 1 1 6 0 1 1 1 1 1 1 = 8 6 = 1 1 1 1 0 1 1 1 = 8 6 = 1 6 8 = = 8 8 = 1 0 1 = p 6 1 1 1 6 = i fX .6 s s s s s s s s s ( d ( _ _ X.~.o 8 0 0 0 6 0XFX0X6 0 0 0 8 = 9 e e e t e e 9 = 1 t e e t e e e 6 = 8 0 0 0 8 p 0 0 p 0 8 0 0 ",
"= 0 6 1 1 1 1 1 1 1 1 1 1 0 6 1 6 = x i.&.i.&.&.&.&.&.&.i.&.&.&.&.i.&.&.&.i.i.&.i.n.d.F.K.Q Q u.g.u.u.u.d.M t l SXr.% % 7 7 7 7 7 7 7 7 y 7 7 7 7 7 7 7 % % 0.SX0.& T R ~.a d 0 p 6 = 1 1 1 1 0 1 1 1 = 8 6 = = 6 8 = = 8 8 = 6 0 1 = p 6 1 1 1 1 1 1 1 1 1 1 1 1 1 1 1 1 1 = 8 6 1 1 1 1 1 1 1 1 1 6 0 = 1 1 1 1 1 = 8 6 = 1 1 1 1 0 1 1 1 = 8 6 = 1 6 8 = = 8 8 = 1 0 1 = p 6 1 1 1 1 = fXX.6 d s s s s s s s s s d d d ( _ X.~.o 8 0 0 0 6 0XFX0X6 0 0 0 8 = 9 e e e t e e 9 = 1 t e e t e e e 6 = 8 0 8 p 8 : 6 8 : 6 0 0 0 ",
"= 0 6 1 1 1 1 1 1 1 1 1 1 0 6 1 6 = x i.&.i.&.&.&.&.&.&.i.&.&.&.&.i.&.&.&.i.i.&.i.d.d.K.! k.i.u.g.u.u.u.u.a.Z.SXw.@ % 7 7 7 7 7 7 7 7 7 y 7 7 7 7 7 7 7 7 7 @ 5 SXr.& T Z.s a i p 6 = 1 1 1 1 0 1 1 1 = 8 6 = = 6 8 = = 8 8 = 6 0 1 = p 6 1 1 1 1 1 1 1 1 1 1 1 1 1 1 1 1 1 = 8 6 1 1 1 1 1 1 1 1 1 6 0 = 1 1 1 1 1 = 8 6 = 1 1 1 1 0 1 1 1 = 8 6 = 1 6 8 = = 8 8 = 1 0 1 = p 6 1 1 6 O O.tX6 s s s s s s s s s s s d d d ( _ X.~.o 8 0 0 0 6 0XFX0X6 0 0 0 8 = 9 e e e t e e 9 = 1 t e e t e e e 6 = 8 0 0 6 l t.AXAXqX5.6 8 0 ",
"= 0 6 1 1 1 1 1 1 1 1 1 1 0 6 1 1 = x i.&.i.&.&.&.&.&.&.i.&.&.&.&.i.&.&.&.i.i.%.&.h.f.! [.g.j.u.g.u.u.u.u.p.SXt.M x u q % 7 7 7 7 7 7 7 y 7 7 7 7 7 7 7 7 7 7 % y SXr.u U g s 0 p 6 = 1 1 1 1 0 1 1 1 = 8 6 = = 6 8 = = 8 8 = 6 0 1 = p 6 1 1 1 1 1 1 1 1 1 1 1 1 1 1 1 1 1 = 8 6 1 1 1 1 1 1 1 1 1 6 0 = 1 1 1 1 1 = 8 6 = 1 1 1 1 0 1 1 1 = 8 6 = 1 6 8 = = 8 8 = 1 0 1 = p 6 1 1 = i fXs s s s s s s s s s s s s d d d ( _ X.~.o 8 0 0 0 6 0XFX0X6 0 0 0 8 = q u u u u u u y = 1 u u u u u u u 6 = 8 p 6 5.DXAXw.w.qXFXt.8 8 ",
"= 0 6 1 1 1 1 1 1 1 1 1 1 0 6 1 1 = x i.&.i.&.&.&.&.&.&.i.&.&.&.&.i.&.&.&.i.i.D.;X;X:X:XK.g.j.u.g.u.u.u.u.SXt.M p.u.d.u.x 7 7 7 7 7 7 7 y 7 7 7 7 7 7 7 7 7 7 7 y y CXwXP.J d i p 6 = 1 1 1 1 0 1 1 1 = 8 6 = = 6 8 = = 8 8 = 6 0 1 = p 6 1 1 1 1 1 1 1 1 1 1 1 1 1 1 1 1 1 = 8 6 1 1 1 1 1 1 1 1 1 6 0 = 1 1 1 1 1 = 8 6 = 1 1 1 1 0 1 1 1 = 8 6 = 1 6 8 = = 8 8 = 1 0 1 = p 6 1 6 O tXO.8 s s s s s s s s s s s s d d d ( _ X.~.o 8 0 0 0 6 0XFX0X6 0 0 0 8 = q u u u u u u y = 1 u u u u u u u 6 = 0 6 5.FXw.O O O O l DXt.6 ",
"= 0 6 1 1 1 1 1 1 1 1 1 1 0 6 1 1 = x i.&.i.&.&.&.&.&.&.i.&.&.&.&.i.&.&.%.i.;X=X:.A.! :X:XA.p.d.g.u.u.M wXZXM u.u.u.u.i.R x 7 7 7 7 7 7 y 7 7 7 7 7 7 7 7 7 7 7 y & y SXwXK Y i p 6 = 1 1 1 1 0 1 1 1 = 8 6 = = 6 8 = = 8 8 = 6 0 1 = p 6 1 1 1 1 1 1 1 1 1 1 1 1 1 1 1 1 1 = 8 6 1 1 1 1 1 1 1 1 1 6 0 = 1 1 1 1 1 = 8 6 = 1 1 1 1 0 1 1 1 = 8 6 = 1 6 8 = = 8 8 = 1 0 1 = p 6 1 = s fXf s s s s s s s s s s s s s d d d ( _ X.~.o 8 0 0 0 6 0XFX0X6 0 0 0 8 = q u u u u u u y = 1 u u u u u u u 6 = 0 6 AXqX  = = = =   5.DX' ",
"1 0 6 1 1 1 1 1 1 1 1 1 1 0 1 1 1 = { i.&.i.i.&.&.&.&.&.i.&.&.&.&.i.&.&.&.;XD.&.f.! A.F.G.;XA.p.g.u.M w.SXu.u.u.u.M iXjXdXi.u 7 7 7 % % % 7 7 7 7 7 7 7 7 7 7 7 y y & G SX0.K A i 6 = 1 1 1 6 0 1 1 1 = 8 6 1 1 6 8 = = 8 8 = 6 0 1 1 p 6 1 1 1 1 1 1 1 1 1 1 1 1 1 1 1 1 1 = 8 6 1 1 1 1 1 1 1 1 1 6 0 1 1 1 1 1 1 = 8 6 = 1 1 1 1 0 1 1 1 = 8 6 1 1 6 8 = = 8 8 = 1 0 1 = p 6 6 O >.>.8 s s s s s s s s s s s s s d d d (  .X.~.o 8 0 0 0 6 0XFX0X6 0 0 0 8 = q u u u u u u y = 1 u u u u u u u 6 = 8 l DX' O = = = 0 p = DXw.",
"= 8 1 = = = = = = = = = = 0 6 6 6 1 #.&.&.i.&.&.&.&.&.&.i.&.&.&.&.i.&.%.;XD.i.=.! F.A.G.F.A.;Xa.g.u.p.SXw.M u.i.b.uXzXi.iXzXb.y 7 % q.dXq.% 7 7 7 7 7 7 7 7 7 % y y y u _.SXt.J l 6 = = = = = 8 = = = = 8 6 = = 6 8 = = 8 6 = = 8 = = p 1 = = = = = = = = = = = = = = = = = = 8 6 = = = = = = = = = 1 8 = = = = = = = 8 6 = = = = = 8 = = = = 8 6 = = 6 8 = = 6 8 = = 8 = = p 6 = 6 yXs f s s s s s s s s s s s s f d d d ( _ X.~.o 8 0 0 0 6 0XFX0X6 0 0 0 8 = q u u u u u u y = 1 u u u u u u u 6 = 6 ' DX4 o = o i LXPX| w.w.",
"8 a 8 8 8 8 8 8 8 8 8 8 8 %.&.&.&.&.i.i.i.z.i.i.i.i.i.i.z.i.i.i.i.b.p.=X=Xi.f.k.! H.A.G.F.h.I.:Xn.=.wXAXM R ^.zXjXuXn.d.R ~.zX~.& ' zXR.jXa 7 y y y y y y y y y y y y G !.2.SXy.K i 8 8 8 8 8 a 8 8 8 8 p 0 8 8 0 p 8 8 p 0 8 8 a 8 8 a 8 8 8 8 8 8 8 8 8 8 8 8 8 8 8 8 8 8 8 a 8 8 8 8 8 8 8 8 8 8 8 a 8 8 8 8 8 8 8 p 0 8 8 8 8 8 a 8 8 8 8 p 0 8 8 8 a 8 8 0 p 8 8 a 8 8 a 0 # O.tXp ( d d d d d d d d d d d d d ( ( (  . .>.~.o 8 0 0 0 6 0XFX0X6 0 0 0 8 = q u u u u u u y = 1 u u u u u u u 6 = 8 l DX' O = = = p a = 1.' ",
"6 p 8 6 6 6 6 6 6 6 6 8 6 i.i.i.i.i.i.i.i.z.i.i.i.i.i.i.z.i.i.i.i.i.S.;Xd.f.f.! h.A.A.G.F.A.g.=X=X4.SXW.!.dXzXE.R R u.u.i.R Y.zXdXjX^.R dXl 7 7 7 7 7 7 7 7 7 7 y y y G Q.g z CX2X& > 8 8 6 8 p 6 8 8 6 p 8 6 6 8 p 6 6 0 0 6 8 p 6 6 a 8 6 6 6 6 6 6 6 6 6 6 6 6 6 6 6 6 8 6 p 8 6 6 6 6 6 6 6 6 6 8 p 6 8 6 6 6 8 6 0 8 6 8 6 6 6 p 6 6 8 6 0 8 6 6 8 p 6 6 0 0 6 8 p 8 6 a 8 6 yX .f d d d d d d d d d d d d d d ( ( ( _  .>.~.o 8 0 0 0 6 0XFX0X6 0 0 0 8 = q u u u u u u y = 1 u u u u u u u 6 = 0 6 AXqX  = = = *   4 w.a ",
"= 8 1 = = = = = = = = = = %.&.&.&.&.&.&.&.i.&.&.&.&.&.&.i.&.&.&.&.i.;XS.=.=.F.E f.A.A.G.F.h.h.s.;XSXDXfXdX^.u.u.u.u.u.u.u.u.u.u.M.b.u.R dX..% 7 7 7 7 7 7 7 7 7 y y & G Q.l r l CXZX3 @ = 1 1 0 = = = = 8 6 = = 6 8 = = 8 6 = 1 8 = = p 1 = = = = = = = = = = = = = = = = = = 8 6 = = = = = = = = = 1 8 = = = = = = = 8 6 = = = = = 8 = = = = 8 6 = = 6 8 = = 6 8 = = 8 = = p o _ yX8 s s s s s s s s s s s s s s f d d d ( _ X.~.o 8 0 0 0 6 0XFX0X6 0 0 0 8 = q u u u u u u y = 1 u u u u u u u 6 = 0 6 5.FXw.* = = = 4 w.5.8 ",
"1 0 6 1 1 1 1 1 1 1 1 1 1 &.&.&.&.&.&.&.&.i.&.&.&.&.&.&.i.&.&.&.| =X=X&.=.a.! f.f.A.A.G.F.h.s.S.zXHXb.R R R u.u.u.u.u.u.u.u.u.u.u.u.u.R ^.zX#.% 7 7 7 7 7 7 7 7 y y & G Q.g l q w r.SX0.6 @ : 0 1 2 2 1 0 6 1 1 6 8 1 1 8 8 1 1 0 1 1 p 6 1 1 1 1 1 1 1 1 1 1 1 1 1 1 1 1 1 1 0 6 1 1 1 1 1 1 1 1 1 6 0 1 1 1 1 1 1 1 8 8 1 1 1 1 1 0 1 1 1 1 8 6 1 1 6 0 1 1 8 8 1 1 0 1 1 a o tXO.8 s s s s s s s s s s s s s s s d d d ( _ X.~.o 8 0 0 0 6 0XFX0X6 0 0 0 8 = q u u u u u u y = 1 u u u u u u u 8 = 8 p > w.AX0 1 2 6 5.1.8 8 ",
"= 0 6 1 1 1 1 1 1 1 1 1 6 &.&.&.&.&.&.&.&.i.&.&.&.&.&.&.i.&.&.%.f.;X=.a.=.E E a.f.A.A.G.F.s./.jXSXP.D.p.u.u.u.u.u.u.u.u.u.u.u.u.u.u.u.u.R ^.jXM % % 7 7 7 7 7 7 y y & G Q.g g y y % Y ZXCXr./ p @ @ @ @ > : @ @ : 6 = = 6 6 = : 8 : = 9 : : : : : : : : : : : : : : : : : : = 8 6 = : : : : : : : = : 8 = : : : : : = 8 6 = : : : : 8 : : : = 8 6 = = 6 8 = = 6 6 = : 8 : = 9 8 yXs f f f f f f f f f f f f f f f i d d d _ _ X.~.o 8 0 0 0 6 0XFX0X6 0 0 0 8 = 8 a a q a a a p = 1 r t t a ( ( ( 8 = 8 0 0 8 0 8 0 0 0 0 8 8 0 ",
"= 0 6 1 1 1 1 1 1 1 1 1 6 &.&.&.&.&.&.&.&.i.&.&.&.&.&.&.i.&.&.%.;XD.d.=.a.! f.s.f.A.A.G.F.s.uX0XZXS.;Xu.u.u.u.u.u.u.u.u.u.u.u.u.u.u.u.u.g.R uXjXdXq % 7 7 7 7 7 y y & G Q.g g q y 8 A A / r.CXCX9Xr.0.1.1.1./ 5 5 l 5 4 l 4 4 4 l 4 4 l 4 4 4 4 4 4 4 4 4 4 4 4 4 4 4 4 4 4 3 p 4 3 4 4 4 4 4 4 4 4 4 l 3 4 4 4 4 4 3 p p 3 4 4 4 4 l 4 4 4 3 p 4 3 3 4 l 3 3 p p 3 4 l 4 4 0 O.tX4 ' ' ' ' ' ' ' ' ' ' ' ' ' ' ' d ' ' ' '  .q.~.o 8 0 0 0 6 0XFX0X6 0 0 0 8 * j :X:X=X/.aXaXv.o 6 r t t a ( ( d 8 = 8 0 0 0 8 8 i i 8 0 0 0 0 ",
"= 0 6 1 1 1 1 1 1 1 1 1 6 &.&.&.&.&.&.&.&.i.&.&.&.&.&.&.i.&.%.S.;Xd.a.=.E k.f.s.f.A.A.G.F.s.fXSXE.a.=XD.p.u.u.u.u.u.u.u.u.u.u.u.u.u.u.u.g.u.u.z.iXjX7 % 7 7 7 7 y y & G Q.g g q y 7 7 J % @ 1 / 1.r.r.9XZXCXCXCXCXCXCXCXCXCXCXCXCXCXCXCXCXCXCXCXCXCXCXCXCXCXCXCXCXCXCXCXCXCXCXCXCXCXCXCXCXCXCXCXCXCXCXCXCXCXCXCXCXCXCXCXCXCXCXCXCXCXCXCXCXCXCXCXCXCXCXCXCXCXCXCXCXCXCXCXCXCXCXSXCXCXCXCXCXCXCXCXCXCXCXCXCXCXCXCXCXCXCXCXCXCXCXSXiXO 8 0 0 0 6 0XFX0X6 0 0 0 8 * g S.S.B l.T.Y.} = 2 r t t a ( ( ( 8 = 8 0 0 0 i 0 y y q i 8 0 0 ",
"= 0 6 1 1 1 1 1 1 1 1 1 6 i.&.&.&.&.&.&.&.i.&.&.&.&.&.&.i.&.%.;XS.d.=.a.! f.h.s.f.A.A.G.F.^ AXAXS.a.a.-Xa.u.u.u.u.u.u.u.u.u.u.u.u.u.u.u.g.u.u.u.M iXjX[ % 7 7 7 y y & G Q.g g q y 7 6 A A - 6 9 @ @ @ @ 6 : = 1 8 p 2 3 p p 3 4 l 4 3 l 4 4 4 4 4 4 4 4 4 4 4 4 4 4 4 4 4 4 4 l 4 4 4 4 4 4 4 4 4 4 4 l 4 4 4 4 4 4 4 l 4 4 4 4 4 4 l 4 4 4 4 l 4 4 4 4 l 4 4 l l 4 4 l 4 3 ..dXl ' ' ' ' ' ' ' ' ' ' ' ' ' ' ' ' ' ' ' ' ' } q.~.o 8 0 0 0 6 0XFX0X6 0 0 0 8 = 8 a q q p a a p = 1 r t t a ( ( ( 8 = 8 0 8 8 & K K K K K q i 0 ",
"= 0 6 1 1 1 1 1 1 1 1 1 6 i.&.&.&.&.&.&.&.i.&.&.&.&.&.&.i.%.S.;X&.f.=.! k.f.h.s.f.A.A.G.F./.SXZ.A.f.d.D.=Xp.u.u.u.u.u.u.u.u.u.u.u.u.u.u.g.u.u.u.u.R ~.zX3.% 7 7 y y & G Q.a g q y 7 7 7 J 7 = 0 1 2 2 1 0 6 = = 6 8 = = 6 6 = : 8 = = 9 : = : : : : : : : : : : : : : : : : = 8 : = : : : : 6 : : : : 8 = : : : : : = 6 6 = : : : : 8 : : : = 6 6 = = : 8 = = 6 6 = : 8 : O >.>.> f f f f f f f f f f f f f f f f i d f d _ _ X.~.o 8 0 0 0 6 0XFX0X6 0 0 0 8 = 0 j j g d k k a = 2 r t t a ( ( d 8 = 8 0 8 K K & % % % K K w i ",
"1 0 6 1 1 1 1 1 1 1 1 1 6 i.&.&.&.&.&.&.&.i.i.&.&.&.&.&.i.%.;XS.=.f.f.! a.f.h.s.f.A.A.G.'.KXAXS.m.a.a.a.-Xa.u.u.u.u.u.u.u.u.u.u.u.u.u.u.g.u.u.u.u.u.R c.zXv.y 7 y y y G _.x g q y 7 7 6 A A - 0 1 1 1 = 8 6 1 1 6 8 1 1 8 8 1 6 0 1 1 p 6 1 1 1 1 1 1 1 1 1 1 1 1 1 1 1 1 1 1 0 6 1 1 1 1 1 9 6 1 1 6 0 1 1 1 1 1 1 1 8 8 1 1 1 1 1 0 1 1 1 1 8 6 1 1 6 0 1 1 8 8 1 1 0 1 1 yX_ i s s s s s s s s s s s s s s s s s ( d d ( _ X.~.o 8 0 0 0 6 0XFX0X6 0 0 0 8 = 0 a a q d k k a = 2 r t t a ( ( d 8 = 0 i & K % - * = * * K K 8 ",
"= 8 1 = = = = = = = = = 6 i.&.&.&.&.&.&.&.i.&.&.&.&.&.&.p.S.=X&.=.=.! E a.f.f.s.f.A.A.G.sXSXZ.s.h.a.a.u.D.=Xp.u.u.u.u.u.u.u.u.u.u.u.u.u.g.u.u.u.u.u.u.R Y.zXM.u R y R R '.p.y q x y # 7 7 J 7 8 = = = = 8 1 = = 6 8 = = 6 6 = = 8 = 1 p = = = = = = = = = = = = = = = = = = = 8 6 = = = = = r = = = = 8 = = = = = = = 8 6 = = = = = 8 = = = = 8 6 = = 1 8 = = 6 6 = = 0 o _ yX8 s s s s s s s s s s s s s s s s s i d d d ( _ X.~.o 8 0 0 0 6 0XFX0X6 0 0 0 8 * j =X=XD.g p a p = 1 r t t a ( ( d 8 = 8 0 K & - = = = = * % K u ",
"8 a 0 8 8 8 8 8 8 8 8 8 a z.i.i.i.i.i.i.i.b.i.i.i.i.i.i.z.;XS.d.f.h.! h.h.h.h.h.h.H.A.G.AXAXS.h.m.h.h.h.h.;Xf.g.g.g.g.g.g.g.g.g.g.g.g.g.g.g.g.g.g.g.g.g.R ~.zXg.h.g.g.C.].i.z y p.u.y u.#.A A s 0 8 0 8 a g 8 8 0 a 8 8 a p 8 0 a 8 z d 0 8 8 8 8 8 8 8 8 8 8 8 8 8 8 8 8 8 8 a 0 8 8 8 8 0 x 0 8 8 0 a 8 8 8 8 8 8 8 a p 8 8 8 8 8 a 8 8 8 8 a p 8 8 0 a 8 8 p a 8 8 a 6 tX(.a ( ( d d d d d d d d d d d d d d ( d ] ] ]  . .>.~.o 8 0 0 0 6 0XFX0X6 0 0 0 8 * m :X:X:Xx.T.W.} * 2 r t t a ( ( ( 8 = 8 y K % * = . * = = * K & ",
"8 a 8 8 8 8 8 8 8 8 8 8 p z.i.i.i.i.i.i.i.b.i.i.i.i.i.p.D.;Xd.f.=.k.k.f.h.h.h.h.h.A.).jXSXC.A.h.m.h.f.h.d.D.=Xp.d.g.g.g.g.g.g.g.g.g.g.u.g.g.d.g.g.g.g.g.g.R ~.zXQ.j.g.C.'.n.x x g.g.d.g.u.y J y 8 8 8 6 #.#.6 8 0 a 8 8 p p 8 8 z a %.k 8 8 8 8 8 8 8 8 8 8 8 8 8 8 8 8 8 8 8 a 8 8 8 8 8 8 #.0 8 8 8 a 8 8 8 8 8 8 8 p 0 8 8 8 8 8 a 8 8 8 8 a 0 8 8 8 a 8 8 p p 8 8 a p fX .d d d d d d d d d d d d d d d d d d d ] ( (  . .>.~.o 8 0 0 0 6 0XFX0X6 0 0 0 8 * j :X:X:X_.sXsXY.o 6 r t t a ( ( ( 8 = i y K % = o | 8 * = * K b ",
"= 8 1 = = = = = = = = = 6 i.&.&.&.&.&.&.&.i.&.&.&.&.&.%.;XS.=.=.a.! a.a.R W s.s.s.^ pXHXAXS.h.f.h.a.a.a.a.a.-Xa.u.u.u.u.u.u.u.u.u.u.u.u.g.u.u.u.u.u.u.u.u.u.R c.jXg.j.C.'.n.g.i.g.u.u.u.u.6 A G - 1 = 1 i.#.= = 6 8 = = 6 6 = 6 { [ &.d = = = = = = = = = = = = = = = = = = = 8 6 = = = = 6 #.6 = = 1 8 = = = = = = = 8 6 = = = = = 8 = = = = 8 6 = = 6 8 = = 6 8 = 1 6 X.tXa s s s s s s s s s s s s s s s s s s i d d d ( _ X.~.o 8 0 0 0 6 0XFX0X6 0 0 0 8 * j :X:X:X/.aXaXx.o 6 r t t a ( ( d 8 = 8 0 K & . 3.IX8 o = = K & ",
"1 0 6 1 1 1 6 6 6 6 6 1 8 i.&.&.&.&.&.&.&.i.i.&.&.&.%.S.;X&.a.=.E F.a.n.~.~.!.s.B.).jXHXC.A.h.f.h.a.a.a.s.d.D.=Xp.u.u.u.u.u.u.u.u.u.u.u.g.u.u.u.u.u.u.u.u.u.i.R uXfXW C.'.n.n.g.g.u.u.u.u.u M Q 6 = 9 *.i.i.9 = 6 8 = 1 6 a 9 d i.&.&.{ = 1 1 1 1 1 1 1 1 1 1 1 1 1 1 1 1 1 = 8 6 1 1 6 = a &.9 = 6 6 0 1 1 1 1 1 1 = 8 6 = 1 1 1 1 0 1 1 1 = 8 6 1 1 6 8 = = 8 8 = 6 6 tXX.d d s s s s s s s s s s s s s s s s s s d d d (  .X.~.o 8 0 0 0 6 0XFX0X6 0 0 0 8 * j :X:X:X/.aXsXx.o 6 r t t a ( ( d 8 = 0 i K K   sXE.  = * & K 0 ",
"= 0 6 1 1 1 = = = = = = 8 i.&.&.&.&.&.&.&.i.&.&.&.&.%.;XS.=.=.a.! f.W fXfXiXjXjXjXuXDXAXG.h.h.f.h.a.a.a.a.a.a.-Xa.u.u.u.u.u.u.u.u.u.u.u.g.u.u.u.u.u.u.u.u.u.u.u.j.jXc.m.].g.n.g.g.u.u.u.u.u.u.! G * g i.i.i.x 8 0 8 = 1 6 z x [ b.&.&.z.0 = 1 1 1 1 1 1 1 1 1 1 1 1 1 1 1 1 = 8 6 1 1 6 = g i.9 = 1 6 0 = 1 1 1 1 1 = 8 6 = 1 1 1 1 0 1 1 1 = 8 6 = 1 6 8 = = 8 8 = 1 ] fXi ( s s s s s s s s s s s s s s s s s s s d d d ( _ X.~.o 8 0 0 0 6 0XFX0X6 0 0 0 8 * j :X:X:X/.aXsXx.o 6 r t t a ( ( ( 8 = 0 0 0 K K 6 * = - & K y i ",
"1 0 6 1 6 = a x x x x x x i.&.&.&.&.&.&.&.i.&.&.&.%.S.;Xd.a.=.E k.fXjXjXa.W s.n.s.h.SXP.F.h.h.f.h.a.a.a.a.s.u.D.D.p.u.u.u.u.u.u.u.u.u.u.g.u.u.u.u.u.u.u.u.u.u.u.W iXfXk.sX!.g.g.g.u.u.u.u.u.u.g.Q 1 #.&.i.i.&.#.%.x 6 = 6 x &.&.i.&.&.b.x = 6 1 1 1 1 1 1 1 1 1 1 1 1 1 1 1 = 8 6 1 1 1 = x i.g = 1 6 0 = 1 1 1 1 1 = 8 6 = 1 1 1 1 0 1 1 1 = 8 6 = 1 6 8 = = 8 8 = o (.>.6 ] s s s s s s s s s s s s s s s s s s s d d d ( _ X.~.o 8 0 0 0 6 0XFX0X6 0 0 0 8 * j :X:X:X/.aXsXx.o 6 r t t a ( ( ( 8 = 8 0 i q K 0 8 8 i u & i 0 ",
"= 8 = = = = [ i.&.i.i.i.&.i.&.&.&.&.&.&.&.i.&.&.&.%.;XS.b.=.a.~ N.jXn.f.a.f.h.a.:.AXwXG.F.h.h.f.h.a.a.a.a.a.a.s.-Xd.u.u.u.u.u.u.u.u.u.u.g.u.u.u.u.u.u.u.u.u.u.u.g.j.dXaXxXzXf.g.g.u.u.u.u.u.u.i.Q G %.&.i.i.&.&.i.b.h 6 q [ &.&.i.&.&.z.&.w = 1 1 1 1 1 1 1 1 1 1 8 1 1 1 1 = 8 6 1 1 1 = M i.g = 1 6 0 = 1 1 1 1 1 = 8 6 = 1 1 1 1 0 1 1 1 = 8 6 = 1 6 8 = = 8 8 = 6 uX_ i ] s s s s s s s s s s s s s s s s s s s d d d ( _ X.~.o 8 0 0 0 6 0XFX0X6 0 0 0 8 * j :X:X:X/.aXsXx.o 6 r t t a ( ( d 8 = 8 0 0 8 2 p p p p i i 0 0 ",
"g x g g g g #.&.&.&.&.&.&.i.&.&.&.&.&.&.&.i.&.&.%.S.-XM s.=.C.F.iXfXW a.a.f.h.s.Z.SXC.G.F.h.h.f.h.a.a.a.a.a.s.u.=XD.p.u.u.u.u.u.u.u.u.u.g.u.u.u.u.u.u.u.u.u.u.u.g.j.j.zXfXfX!.u.g.u.u.u.u.u.u.g.j.! &.&.i.i.&.&.&.i.%.g #.i.&.&.i.&.&.z.i.g 6 1 1 1 1 1 1 6 6 1 1 a 1 1 1 1 = 8 6 1 1 1 6 #.S.M = 6 6 0 = 1 1 1 1 1 = 8 6 = 1 1 1 1 0 1 1 1 = 8 6 = 1 6 8 = = 8 8 o ( yXi s  .d s s s s s s s s s s s s s s s s s s d d d ( _ X.~.o 8 0 0 0 6 0XFX0X6 0 0 0 8 * j :X:X:X/.aXsXx.o 6 r t t a ( ( d 8 = 8 0 8 0 0 6 : : : 8 p 0 0 ",
"&.b.i.i.i.i.&.&.&.&.&.&.&.i.&.&.&.&.&.&.&.i.i.&.%.-XpXdXuXfXjXfXjX!.s.a.a.f.h.B AXqXS.G.F.h.h.f.h.a.a.a.a.a.a.a.f.-Xu.u.u.u.u.u.u.u.u.u.g.u.u.u.u.u.u.u.u.u.u.u.g.g.j.C.].iXuXR n.u.u.u.u.u.u.g.$.Q j.%.i.i.&.&.i.i.&.&.i.i.&.&.i.&.&.z.&.&.x 1 1 1 1 6 = a x z a [ 6 1 1 1 = 8 6 1 6 = g &.@X=.8 = 6 0 = 1 1 1 1 1 = 8 6 = 1 1 1 1 0 1 1 1 6 8 6 = 1 6 8 = = 8 8 O (.(.8 s } d f s s s s s s s s s s s s s s s s s d d d ( _ X.~.o 8 0 0 0 6 0XFX0X6 0 0 0 8 * j :X:X:X/.aXsXx.o 6 r t t a ( ( d 8 = 8 0 p 6 0 w.rXrXt.' 6 0 0 ",
"&.i.&.&.&.&.&.&.&.&.&.&.&.i.&.&.&.&.&.&.&.i.$.M B -XjX~.~.!.! M W f.f.a.a.f.s.Z.SXm.A.G.F.h.h.f.h.a.a.a.a.a.a.s.u.=XD.p.u.u.u.u.u.u.u.u.g.u.u.u.u.u.u.u.u.u.u.u.g.g.j.C.].N.zXN.j.u.u.u.u.u.u.g.u.j.Q %.i.i.&.&.i.i.&.&.i.i.&.&.i.&.&.z.&.&.&.8 1 8 a 1 = x i.&.%.#.6 1 1 1 = 8 6 1 = p | =.$X=.g 6 1 0 1 1 1 1 1 1 = 8 6 = 1 1 1 1 0 1 6 1 w 0 6 = 1 6 8 = = 8 8 = fX..( d ..( s s s s s s s s s s s s s s s s s s d d d (  .X.~.o 8 0 0 0 6 0XFX0X6 0 0 0 8 * j :X:X:X/.aXsXx.o 6 r t t a ( ( ( 8 = 8 p 6 ' DXKXrXrXrXKXw.6 0 ",
"&.i.&.&.&.&.&.&.&.&.&.&.&.i.&.&.&.&.&.&.&.i.T.iXpXpXdXM s.~ j.a.a.h.a.a.a.f.S.ZXt.S.A.G.F.h.h.f.h.a.a.a.a.a.a.a.a.S.-Xu.u.u.u.u.u.u.u.u.g.u.u.u.u.u.u.u.u.u.u.u.g.g.j.C.'.a.uX~.iXc.R u.u.u.u.g.u.$.Q j.&.i.&.&.&.i.&.&.i.i.&.&.i.&.&.z.&.&.&.x 9 r #.= : #.&.&.&.&.8 = = = = 8 6 = 6 #.%.=.$X=.%.r = 0 = = = = = = = 8 6 = = = = = 8 = 6 6 9 0 6 6 = 6 8 = = 8 # o.uXx | d v._ i s d f s s s ( d s s s s s s s s f d d d ( _ X.~.o 8 0 0 0 6 0XFX0X6 0 0 0 8 * j :X:X:X/.aXsXx.o 6 r t t a ( ( ( 8 = 0 6 ' KXrX2 O O o w.KXw.6 ",
"i.z.i.i.i.i.i.i.i.i.i.i.i.z.i.i.i.i.i.i.i.u.dXuXMXiXR.=.k.! f.h.f.h.h.f.f.S.W.SXh.A.A.G.F.h.h.h.m.f.f.f.f.f.f.f.h.d.=XD.p.d.u.u.u.u.g.u.g.g.u.u.u.u.u.u.u.u.d.u.g.g.j.C.'.g./.zXzXuXR g.g.u.g.g.g.i.k.Q z.i.i.i.i.z.i.i.i.i.i.i.z.i.i.b.i.i.i.i.x M i.a x i.i.i.i.i.a 6 8 8 8 p h a g d.p.S.$XS.z.#.8 a 8 8 8 8 8 8 8 p 0 8 8 8 8 8 a 8 q q j a 0 j 8 8 p 8 8 p 6 tX~.%.-.] N. .( ] ] d d ( d .. .d d d d d d d d d ( ( (  . .>.~.o 8 0 0 0 6 0XFX0X6 0 0 0 8 * j :X:X:X/.aXsXx.o 6 r t t a ( ( d 8 = p 6 rXrXO o = = =   w.KXd ",
"i.z.i.i.i.i.i.i.i.i.i.i.i.z.i.i.i.i.i.i.i.d.dX=X=X$.s.=.! k.f.f.f.h.h.f.f.s.ZXt.S.H.A.G.F.h.h.h.m.f.f.f.f.f.f.f.f.f.S.:Xp.d.u.u.u.u.u.u.g.g.u.u.u.u.u.u.u.u.u.u.g.g.j.C.'.g.R.jX!.jXu.d.R u.u.g.u.g.i.Q g.&.i.i.i.z.i.i.i.i.i.i.z.i.i.b.i.i.i.i.&.i.i.#.i.i.i.i.i.i.z 6 8 8 x x &.&.#.i.p.S.$XS.p.i.a k 8 0 8 8 6 6 6 g 0 6 9 8 6 8 a 6 a M M a q M r q p 8 8 8 d fX-.-.-. .N. .(  . .d d ( d .. .d d d d d d d d d ( ( ( _  .>.~.o 8 0 0 0 6 0XFX0X6 0 0 0 8 * j :X:X:X/.aXsXx.o 6 r t t a ( ( d 8 = 8 d KXo.O = = = o X = KXw.",
"&.i.&.&.&.&.&.&.&.&.&.&.&.i.&.&.&.&.*.M M $.jX;X=.d.=.j.! a.a.a.a.h.a.a.B t.ZXs.f.A.A.G.F.h.h.f.h.a.a.a.a.a.a.a.a.a.d.-XS.p.u.u.u.u.u.u.g.u.u.u.u.u.u.u.u.u.u.u.g.g.j.C.'.n.n.u.j.hX(.p.uXu.u.g.u.u.u.W ! %.&.&.&.i.&.&.i.i.&.&.z.&.M i.&.&.&.&.&.&.&.%.&.&.&.&.&.&.x * a #.#.&.&.&.&.&.%.V  XV %.&.z { a a = = 6 9 = M 8 = 9 8 = = 8 = a $.#.r q #.j j 8 9 = o O.>.#.-.-.] N.] (  .| s f d d | _ ( d f s s s s s f d d d ( _ X.~.o 8 0 0 0 6 0XFX0X6 0 0 0 8 * j :X:X:X/.aXsXx.o 6 r t t a ( ( d 8 = 6 ' KX4 o = o 8 sXPX{ rXt.",
"&.i.&.&.&.&.&.&.&.&.&.&.&.z.&.&.&.&.iXdXuXdXkXD.&.a.=.! k.a.a.a.a.h.f.s.g.SXW.s.h.A.A.G.F.h.h.f.h.a.a.a.a.a.a.a.a.a.d.S.=Xp.u.u.u.u.u.u.g.u.u.u.u.u.u.u.u.u.u.u.g.g.j.C.'.n.n.g.g.B.zXfXjX^.R g.u.u.u.u.Q u.&.&.i.i.&.&.i.i.&.&.$.&.dXM.&.&.&.&.&.&.&.&.&.&.&.&.&.&.#.h #.i.&.i.&.&.&.&.| {.MXS.%.&.%.i.#.#.6 6 #.$.g i.[ 6 g q 9 6 x = g i.&.m a $.#.#.0 g = 6 uX..z.M.z. .N.| | | -.( s ( ( -. . ._ f s s s s s s d d d ( _ X.~.o 8 0 0 0 6 0XFX0X6 0 0 0 8 * m :X:X:X/.aXsXY.o 6 r t t a ( ( ( 8 = 6 ' KX' O = = = | 3.8 0./ ",
"&.i.&.&.&.&.&.&.&.&.&.&.&.u.$.$.M z.jXT.T.~.,X=.=.=.j.! h.a.a.a.a.h.f.B wXAXS.f.f.A.A.G.F.h.h.f.h.a.a.a.a.a.a.a.a.a.s.d.-XS.p.u.u.u.u.u.g.u.u.u.u.u.u.u.u.u.u.u.g.g.j.C.'.n.n.g.g.u.n.h.b.jXR g.u.u.u.u.k.C.%.&.i.i.&.&.i.i.$.&.iXdXvX~.$.&.&.&.&.&.&.&.&.&.&.&.&.&.&.&.&.&.&.i.&.&.&.&.#.-XvXJ.#.&.&.i.&.&.p a &.&.$.i.%.8 x g j 9 i.w x i.&.$.g &.&.$.a x o _ yXx b.b.z.%.N.-.%.%.-._ ( ]  .-. . ._ s s s s s s s d d d ( _ X.~.o 8 0 0 0 6 0XFX0X6 0 0 0 8 * j -X-XOXQ.aXaX4.o 6 q r r a d d d 6 = 0 8 DXrX  = = = .   3 w.d ",
"&.z.&.&.&.&.$.$.$.$.$.M z.dXdXdXdXjXiXM #.D.=X&.a.=.E k.f.a.a.a.a.h.s.Z.SXg.f.f.f.A.A.G.F.h.h.f.h.a.a.a.a.a.a.a.a.a.s.d.D.=Xp.u.u.u.u.u.g.u.u.u.u.u.u.u.u.u.u.u.g.g.j.C.'.n.n.g.g.u.u.u.R fX).s.u.u.u.R ~.vXi.&.i.i.&.&.i.B.d.z.zXtX).uXM &.&.&.&.&.&.&.&.&.&.&.&.&.&.&.&.&.&.i.&.&.&.&.$.;XvX~.#.&.&.i.&.i.z [ i.&.&.i.%.q *.x #.j i.m M &.&.i.x &.&.&.x #.o tXO.x ~.iXi.-.N.-.(.T.z.] _  . .-.%. .] s s s s s s s d d d ( _ X.~.o 8 0 0 0 6 0XFX0X6 0 0 0 8 * t OXOXV T.^.^...o 2 t e m h o.o.o.8 = p 6 w.KX5.o = = = 2 0.0.8 ",
"M u.M M M M T.(.(.(.(.T.dXdXv.T.T.T.&.&.&.;Xf.=.=.a.! a.h.a.a.a.a.h.f.SXt.s.h.s.f.A.A.G.F.h.h.f.h.a.a.a.a.a.a.a.a.a.a.a.a.-Xs.u.u.u.u.u.g.u.u.u.u.u.u.u.u.u.u.u.g.g.j.C.'.n.n.g.g.u.u.u.R W.bXpXR u.u.R fXkXZ.$.i.u.M &.$.uXgXl.pXXX>XfX#.&.&.&.&.&.&.&.&.&.&.&.&.&.&.&.&.&.&.i.&.&.&.&.M ;XzX~.#.&.&.i.&.&.[ #.&.&.&.i.&.g $.M &.&.i.$.&.&.&.i.M &.&.&.[ #.h fX%.#.iXgX&.z.N.&.dX(.i. . . .| z.%. . .d s s s s s s d d d ( _ X.~.o 8 0 0 0 6 0XFX0X6 0 0 0 8 * j OXOXV T.^.^...o 2 V |.XX;.lXlXlXi = 0 0 6 rXKX8 = 1 : 5.w.p 8 ",
"dXdXdXdXdXdXjXuXdXdXdXdXuXz.$.$.$.$.&.%.S.;X&.a.=.E E a.h.a.a.a.a.S.AXAXB f.h.s.f.A.A.G.F.h.h.f.h.a.a.a.a.a.a.a.a.a.a.s.d.D.=Xp.u.u.u.u.g.u.u.u.u.u.u.u.u.u.u.u.g.g.j.C.'.n.n.g.g.u.u.u.u.u.p.fXL.R a.x.pXpX`.#.%.(.uX&.M dXzXT.MX.XD.hX%.$.&.&.&.&.&.&.&.&.&.&.&.&.&.&.&.&.&.i.&.&.&.&.=.kXzXpXM &.&.i.&.&.#.%.&.&.&.i.&.x &.$.&.&.i.&.&.&.&.i.$.&.&.&.&.#.~.tX%.&.iXgX&.z.N.&.dXtXi.| %.| %.z.-...| ( s s s s s s d d d ( _ X.~.o 8 0 0 0 6 0XFX0X6 0 0 0 8 * j OXOXV T.^.^...o 2 t t e d o.) ) 8 = 8 0 8 8 ' 0 0 0 0 p p 8 0 ",
"T.T.T.T.T.T.&.M M M M M M i.&.&.&.&.&.%.;XS.d.=.a.! a.a.h.a.a.d.B t.SXa.a.f.h.s.f.A.A.G.F.h.h.f.h.a.a.a.a.a.a.a.a.a.a.a.a.a.-Xa.u.u.u.u.g.u.u.u.u.u.u.u.u.u.u.u.g.g.j.C.'.n.n.g.g.u.u.u.u.u.R ^.pXR R iX,X~.MX#X).zXfXtXT.hXdXvX).{ V MXjX$.&.&.&.&.&.&.&.&.&.&.&.$.&.&.&.&.&.i.&.&.&.&.z.jXiXpXM &.&.i.&.&.&.&.&.&.&.i.i.$.&.&.&.&.i.&.&.&.&.i.&.&.&.&.i.#.pX-.-.i.tXjX&.&.dXiXdXtX$.%.%.%.-.z.%.dXT.( s s s s s s d d d ( _ X.~.o 8 0 0 0 6 0XFX0X6 0 0 0 8 * j OXOXV T.^.^...o 6 9 r r p s s s 6 = 8 0 0 0 8 0 8 8 8 0 8 0 0 ",
"$.u.$.$.$.$.&.&.&.&.&.&.&.i.&.&.&.&.%.S.;Xd.f.=.k.E a.a.h.a.d.B t.SXZ.s.a.f.h.s.f.A.A.G.F.h.h.f.h.a.a.a.a.a.a.a.a.a.a.a.s.d.D.D.p.u.u.u.g.u.u.u.u.u.u.u.u.u.u.u.g.g.j.C.'.n.n.g.g.u.u.u.u.u.u.c.hXs.^ kXm.W.pX@XkX>X$XjXjX;XR.NX=X| :.}.dXT.M &.&.&.&.&.&.&.&.&.&.T.z.&.&.&.&.i.&.&.&.$.T.uXT.pXM &.&.i.&.&.&.&.&.&.&.i.i.&.&.&.&.&.i.&.&.&.%.i.i.&.&.i.i.M.pX{ z.z.zXjX&.i.zXdXdXdXT.%.-.-.z.z.&.zX(.] d s s s s s d d d (  .X.~.o 8 0 0 0 6 0XFX0X6 0 0 0 8 * j OXOXV T.^.^...o 6 r r r a ) ) ) 8 = 8 0 0 0 i 8 q y 8 , 8 0 0 ",
"&.i.&.&.&.&.&.&.&.&.&.&.&.i.&.&.&.&.%.;XS.d.=.=.! a.a.a.h.a.B t.SXZ.s.a.a.f.f.s.f.A.A.G.F.h.h.f.h.a.a.a.a.a.a.a.a.a.a.a.a.a.s.-Xd.u.u.u.g.u.u.u.u.u.u.u.u.u.u.u.g.g.j.C.'.g.n.i.g.u.u.u.u.u.u.u.fX=X,XuXR u.jXzXaXS..XhXhX.X$..XOX| =.}.iX(.(.&.%.$.$.&.&.&.&.$.&.vXtXM &.&.&.i.&.&.&.#.(.uXv.hXR.l.$.i.&.&.&.&.&.&.&.i.&.&.&.&.&.&.i.&.&.%.{.S.%.&.&.&.$.~.~.#.z.z.vXvXiX$.zXdXdXvXjX*.-.v.v.z.&.zX(.] d f s s s i d d d ( _ X.~.o 8 0 0 0 6 0XFX0X6 0 0 0 8 * j OXOXV T.^.^...o 6 q r r a ) ) s 6 = 8 0 0 8 G U 1X1X1XY 0 8 0 ",
"i.b.i.i.i.i.i.i.i.i.i.i.i.b.i.i.i.i.A.;Xd.m.b.k.[.f.h.h.S.s.wXSXZ.S.h.h.h.h.h.h.h.H.H.G.F.A.h.h.m.h.h.h.h.h.h.h.h.h.h.h.h.h.g.=XD.p.g.g.g.g.g.g.g.g.g.g.g.g.g.g.g.g.g.C.'.n.n.n.n.g.g.g.g.g.g.j.iXcXjXp.g.j.iXaX~ 3.V ;X<X@Xl.d.b.i.z..XiXfXvXM.B T.(.u.i.i.v.T.z.zXuX$.z.i.i.b.i.i.z.M iXiXi.bXcX(.u.b.i.i.i.i.i.i.i.b.z.i.i.i.i.i.b.i.i.l..XD.l.i.i.i.b.pXR.b.M.M.vXvXjXi.bXfXjXvXvXtXz.tXdXR.jXzXiX%._ d d d d d ] ( _  . .>.~.o 8 0 0 0 6 0XFX0X6 0 0 0 8 * j OXOXV T.^.^...o 6 q r r a ) ) s 6 = 8 0 8 Y 1XY & & K 1XU q 8 ",
"i.z.i.i.i.i.i.i.i.i.i.i.i.z.i.i.i.l.;XD.d.m.b.! h.s.S.s.`.SXZXn.s.m.h.h.f.h.h.h.h.H.H.G.F.h.h.h.m.h.h.h.h.h.h.h.h.h.h.h.h.h.f.A.:Xu.g.g.g.g.g.g.g.g.g.g.g.g.g.g.g.g.j.C.'.n.n.n.n.g.g.g.g.g.g.g.N.dXi.d.g.g.j.u.! g.:.$XD.f.i.i.b.i.l.}.>XxXkXMX.XiXvXi.i.=.J.zX(.kXuXp.i.i.i.b.c.i.$.T.zXT.M pXvX).$.b.i.i.i.i.i.i.i.z.i.i.i.i.i.i.b.i.i.u.pXJ.i.i.z.i.!.pXz.N.M.Y.vXvXgXiXcXpXzXvXzXzXuXiXdX~.vXvXiX%. .d d d d d ] ( _  . .>.~.o 8 0 0 0 6 0XFX0X6 0 0 0 8 * j OXOXV T.^.^...o 2 r r t a ) ) ) 8 = 0 i G 1X& * * * * 1 1XU 8 ",
"*.=.*.*.*.*.*.*.*.*.*.*.*.=.*.*.M :.+X=.B =.^ ! d.Z.t.ZXSXt.s.s.a.h.a.a.a.f.f.s.f.A.A.G.F.h.h.f.h.a.a.a.a.a.a.a.a.a.a.a.a.a.s.u.=XS.p.u.g.u.u.u.u.u.u.u.u.u.u.u.g.g.j.C.'.g.n.d.g.u.u.u.u.u.u.g.u.R u.u.g.u.u.u.j.Q =.@Xi.p.$.&.i.&.&.i.=XvX-XcXhX~.bXT.M J.kXvXiXMXuX%.&.&.&.i.jX(.&.jXvX&.M ~.vXMXM.i.&.&.&.&.&.&.&.i.&.$.%.&.&.&.i.%.&.M hX).#.=.V #.pXR.&.M.b.M.vXvXfXdX,XpXzXcXxXzXjXiXgXiXvXvXuX%.( i s s s i d d d ( _ X.~.o 8 0 0 0 6 0XFX0X6 0 0 0 8 * j OXOXV T.^.^...o 6 9 9 9 p s s s 6 = 8 8 1XY * = = = 1 * 7 1Xu ",
"w.w.w.w.w.w.w.w.w.w.w.w.w.t.t.t.t.`.`.t.wXwXZXZXSXZXwXw.h.B a.a.a.h.f.a.a.f.h.s.f.A.A.G.F.h.h.f.h.a.a.a.a.a.a.a.a.a.a.a.a.a.a.a.S.-Xp.u.g.u.u.u.u.u.u.u.u.u.u.u.g.g.j.C.'.n.n.g.g.u.u.u.u.u.u.g.u.u.u.u.g.u.u.u.u.! u.&.i.i.&.&.i.&.&.i.v.zX:.pXbXMXkX(.M iXkXMXvX].dXi.&.&.&.z.zXvXdXpX).%.$.z.xXNXfX$.&.&.&.&.&.&.&.i.i.%.=.&.%.&.i.:.&.M hXpX{ =..Xz.pXz.z.M.b.T.vXvXhXdX>XhXzXkXkXvXzXuXjXuXjXkXuXz. .s s s s s d d d (  .X.~.o 8 0 0 0 6 0XFX0X6 0 0 0 8 * j OXOXV T.^.^...o 2 m N N h +.+.o.8 = 8 y 1X& * = = X = = * 1XY ",
"ZXZXZXZXZXZXZXZXZXZXZXZXZXZXZXZXZXAXwXwXwXt.t.w.n.s.B s.h.a.a.a.a.h.f.a.a.f.h.s.f.A.A.G.F.h.h.f.h.a.a.a.a.a.a.a.a.a.a.a.a.a.a.s.d.=XS.p.g.u.u.u.u.u.u.u.u.u.u.u.g.g.j.C.'.n.n.g.g.u.u.u.u.u.u.g.u.u.u.u.g.u.u.u.u.k.E %.i.i.&.&.i.&.&.i.i.T.%.$.(.zXuXjXzXdX@X@X,X=XdXz.$.&.M M.vXkXzXNXV %.&.$.-XbXjXz.dXv.$.&.&.&.&.i.i.=.{.{.D.&.i.@X&.#.zXMXV ;X,X).pX&.z.M.b.T.vXMXjXkX$XhXvXkX,XvXzXdXzXuXdXMXpXz.| d s s s s d d d ( _ X.~.o 8 0 0 0 6 0XFX0X6 0 0 0 8 * j OXOXV T.^.^...o 2 V XXXX;.lXlXlXi = 8 u 1X7 * = * a = = * U Y ",
"$.=.$.$.$.$.$.$.$.$.$.$.*.=.$.*.&X%XM =.=.^ ^ =.s.a.a.a.h.a.a.a.a.h.f.a.a.f.h.s.f.A.A.G.F.h.h.f.h.a.a.a.a.a.a.a.a.a.a.a.a.a.a.a.d.S.=Xp.g.u.u.u.u.u.u.u.u.u.u.u.g.g.j.C.'.n.n.g.g.u.u.u.u.u.u.g.u.u.u.u.g.u.u.u.u.g.Q u.&.i.&.&.i.&.&.z.&.$.&.&.$.T.iXbXNXgX}.OX.XV dXT.T.v.v.W.vX,X,XMXB %.&.&.M zXxXpXvXv.M &.&.&.&.i.i..X-X-X.X&.d.pXS.B zXMX{.cXxXpXY.z.z.M.b.T.vX>XzXMXOXhXvXkX>XvXjXzXzXdX(.>XkXdX-._ f s s s d d d ( _ X.~.o 8 0 0 0 6 0XFX0X6 0 0 0 8 * j OXOXV T.^.^...o 2 V |.XX;.lXlX5Xi = 8 q 1XA * 1   sX_.  = 1XY ",
"&.i.&.&.&.&.&.&.&.&.&.&.&.i.&.i.;Xf.d.=.j.! d.a.a.a.a.a.h.a.a.a.a.h.f.a.a.f.h.s.f.A.A.G.F.h.h.f.h.a.a.a.a.a.a.a.a.a.a.a.a.a.a.a.a.d.-Xs.p.u.u.u.u.u.u.u.u.u.u.u.g.g.j.C.'.n.n.g.g.u.u.u.u.u.u.g.u.u.u.u.g.u.u.u.u.i.E E &.i.&.&.i.&.&.z.&.&.&.&.&.M (.vX=X=.=.=.s.M iXzXvX).zX~.cX).oX@X$.&.&.&.#.pXcXvXvXtXT.$.$.v.zXz.$.;XxXpXMX=.b.zX+X.XzXcX).vXvX].a.d.z.M.d.T.vX).zXpXs.kXvXpX>XbXkXvXzXfX:.@XcXvX-._ s s s s d d d ( _ X.~.o 8 0 0 0 6 0XFX0X6 0 0 0 8 * j OXOXV T.^.^...o 2 V |.XX;.lXlX5Xi = 0 i T U * = . ] PX- A 1Xy ",
"&.i.&.&.&.&.&.&.&.&.&.&.&.i.%.D.=X&.a.=.E F.a.a.a.a.a.a.h.a.a.a.a.h.f.a.a.f.h.s.f.A.A.G.F.h.h.f.h.a.a.a.a.a.a.a.a.a.a.a.a.a.a.a.s.d.D.=Xp.u.u.u.u.u.u.u.u.u.u.u.g.g.j.C.'.n.n.g.g.u.u.u.u.u.u.g.u.u.u.u.g.u.u.u.u.g.u.Q i.i.&.&.i.&.&.z.&.&.&.&.&.&.v.jX%.&.%.%.%.#.(.vXhXNXvXzX~.S.@X:.&.&.&.&.%.B uXvXzXvXzXi.$.(.vXdXz.zXvXkXxXM z.jX].,XhXvXhXvXvX,X).).b.b.~.uXvX~.pXpXs.pXvXpXD.cXNXkXkXhX X$XxXvXv.] s s s s d d d ( _ X.~.o 8 0 0 0 6 0XFX0X6 0 0 0 8 * j OXOXV T.^.^...o 2 V |.XX;.lXlX5Xi = 0 8 y 1XT = = o i A 1XY i ",
"&.i.&.&.&.&.&.&.&.&.&.&.&.i.&.;XS.=.=.a.! h.f.a.a.a.a.a.h.a.a.a.a.h.f.a.a.f.h.s.f.A.A.G.F.h.h.f.h.a.a.a.a.a.a.a.a.a.a.a.a.a.a.a.a.a.a.-Xh.u.u.u.u.u.u.u.u.u.u.u.g.g.j.C.'.n.n.g.g.u.u.u.u.u.u.g.u.u.u.u.g.u.u.u.u.g.$.E k.&.&.&.i.&.&.z.&.&.&.&.&.&.&.z.&.&.&.&.&.M (.kX,XvXMXcXz.=.+X| &.&.&.&.&.%.%.hX;XiXjXzXM tXxXvXdXuX(.cXbXpXJ.zXhXvXzXiXbXzXvXbXzXzXz.i.uXzXvX~.@X=Xz.pXcX,XR.bXNXNXxXpXoX$XxXvXT.] s s s s d d d ( _ X.~.o 8 0 0 0 6 0XFX0X6 0 0 0 8 * j OXOXV T.^.^...o 2 V |.XX;.lXlX5Xi = 0 0 8 u Y 0 6 8 - Y Y 8 0 ",
"&.i.&.&.&.&.&.&.&.&.&.&.&.p.S.;X&.a.=.E E f.f.a.a.a.a.a.h.a.a.a.a.h.f.a.a.f.h.s.f.A.A.G.F.h.h.f.h.a.a.a.a.a.a.a.a.a.a.a.a.a.a.a.a.s.d.D.=Xp.u.u.u.u.u.u.u.u.u.u.g.g.j.C.'.n.n.g.g.u.u.u.u.u.u.g.u.u.u.u.g.u.u.u.u.g.u.u.! i.&.&.i.&.&.z.&.&.&.&.&.&.&.&.&.&.&.&.&.$.v.iXf.uX>X@X=.&.&.&.&.&.&.&.&.&.&.x.+XXXkXvXuXfXNXkXfXuXz.vXvXvXfXxXxXvXiX(.zXdXvXzXzXvX=XD.dXvXvX^..X=Xz.].MX.XM.MXMXMX,X;X@X@XxXzX(.] s s s s d d d ( ] X.~.o 8 0 0 0 6 0XFX0X6 0 0 0 8 * j OXOXV T.^.^...o 2 V |.XX;.lXlX5Xi = 0 0 0 8 8 8 0 0 0 8 8 0 0 ",
"&.i.&.&.&.&.&.&.&.&.&.&.&.i.;XS.=.=.a.! a.f.a.a.a.a.a.a.h.a.a.a.a.h.a.a.a.f.f.s.f.A.A.G.F.h.h.f.h.a.a.a.a.a.a.a.a.a.a.a.a.a.a.a.a.a.a.s.-Xd.u.u.u.u.u.u.u.u.u.u.g.g.j.C.'.n.n.d.g.u.u.u.u.u.u.g.u.u.u.u.g.u.u.u.u.g.u.$.E k.%.&.i.&.&.z.&.&.&.&.&.&.&.&.&.&.&.&.&.&.$.#.%.M =.a.&.&.&.&.&.&.&.&.&.&.&.i.&. X,XvXvXvXJ.J.vXdX&.zXzXzXfXbXbXB.M T.vXpXdXgXzXzXMX).uXvXkXR.f.f.x.-X$X+Xb.oX,XMX$X=X+X}.jXkXiX#.s s s f d d d ( _ X.~.o 8 0 0 0 6 0XFX0X6 0 0 0 8 * j OXOXV T.^.^...o 2 V |.XX;.lXlX5Xi = 0 0 8 0 0 8 8 8 8 0 0 0 8 ",
"i.z.i.i.i.i.i.i.i.i.i.i.p.J.;Xd.f.=.k.! f.h.h.f.f.f.f.f.h.f.f.f.f.h.h.f.f.h.h.h.h.A.A.G.F.h.h.h.m.f.f.f.f.f.f.f.f.f.f.f.f.f.f.f.f.f.f.d.=XD.p.d.u.u.u.u.u.u.u.u.g.g.j.C.'.n.n.g.g.g.u.u.u.u.u.g.u.u.u.u.g.g.u.u.g.g.u.u.j.! &.i.z.i.i.b.i.i.i.i.i.i.i.i.i.i.i.i.i.i.i.i.i.z.i.z.i.i.i.i.i.i.i.i.i.i.i.b.i.@XoX,XzXvXz.d.xX).i.zXjXdXhXvXzX$.i.Y.vXpX~.iXzXzXbXdXjXdX=XJ.v.M.Y.-X$XD.B.$X;X;X@X-X=X+XjXNXuX%.d d d d ( ( (  . .>.~.o 8 0 0 0 6 0XFX0X6 0 0 0 8 * j OXOXV T.^.^...o 2 V |.XX;.lXlX5Xi = 0 0 0 0 0 0 0 0 0 0 0 0 0 ",
"i.z.i.i.i.i.i.i.i.i.i.i.p.;XD.d.f.f.! h.f.h.h.f.f.f.f.f.h.f.f.f.f.h.h.f.f.h.h.h.h.A.A.G.F.h.h.h.m.f.f.f.f.f.f.f.f.f.f.f.f.f.f.f.f.f.f.f.A.:Xd.u.u.u.u.u.u.u.u.u.g.g.j.C.'.n.n.g.n.g.u.u.u.u.g.g.u.u.u.u.g.g.u.u.g.g.u.u.i.! j.&.b.i.i.b.i.i.i.i.i.i.i.i.i.i.i.i.i.i.i.i.i.i.i.z.i.i.i.i.i.i.i.i.i.i.i.b.l.+X@X{.(.uXi.z.@X.Xl.zXiXT.kXvXdX$.i.M.zXR.z.b.jXzXbXxXvXY.z.N.M.M.Y.=X+Xx.B.@X@X@X@X+XB.S.hXMXuX%.d d d d ( ( (  . .>.~.o 8 0 0 0 6 0XFX0X6 0 0 0 8 * j OXOXV T.^.^...o 2 V |.XX;.lXlX5Xi = 8 8 8 8 8 8 8 8 8 8 8 8 8 ",
"&.i.&.&.&.&.&.&.&.&.&.%.=.;X=.=.=.k.! a.a.h.a.a.a.a.a.a.h.a.a.a.a.h.a.a.a.f.f.s.f.A.A.G.F.h.h.f.h.a.a.a.a.a.a.a.a.a.a.a.a.a.a.a.a.a.a.a.g.=XD.p.u.u.u.u.u.u.u.u.g.g.j.C.'.n.n.d.g.u.u.u.u.u.u.g.u.u.u.u.g.u.u.u.u.g.u.u.i.k.Q %.i.&.&.z.&.&.&.&.&.&.&.&.&.&.&.&.&.&.&.&.&.&.&.i.&.&.&.&.&.&.&.&.&.&.&.i.%.=.&.%.$.M $.i.s.:.#.zXT.M =XiXT.$.$.M.zXM.z.z.R.dXjXhXvXM.z.M.z.z.M.b.f.z.z.+X+X+X@X=X4.=.hX,XuX#.s s s f d d d ( _ X.~.o 8 0 0 0 6 0XFX0X6 0 0 0 8 * j OXOXV T.^.^...o 2 V |.XX;.lXlX5Xi o = = = = = = = = = = = = = ",
"&.i.&.&.&.&.&.&.&.&.&.%.=XD.&.a.=.! j.a.a.h.f.a.a.a.a.a.h.a.a.a.a.h.f.a.a.f.h.s.f.A.A.G.F.h.h.f.h.a.a.a.a.a.a.a.a.a.a.a.a.a.a.a.a.a.a.a.f.S.-Xu.u.u.u.u.u.u.u.u.g.g.j.C.'.n.n.g.g.u.u.u.u.u.u.g.u.u.u.u.g.u.u.u.u.g.u.u.g.i.Q j.i.&.&.z.&.&.&.&.&.&.&.&.&.&.&.&.&.&.&.&.&.&.&.i.&.&.&.&.&.&.&.&.&.&.&.i.&.%.&.&.&.&.&.i.i.%.$.jXT.$.i.M $.&.#.~.kXz.z.M.i.~.pX).,X&.z.M.z.z.N.z.z.z.b.v.=X+XS.S.v.=.hX,XfXT.f s s s d d d (  .X.~.o 8 0 0 0 6 0XFX0X6 0 0 0 8 * j OXOXV T.^.^...o 2 V |.XX;.lXlX5Xi = ] ] ] ] [ [ ] [ z ] ] [ ] ",
"&.i.&.&.&.&.&.&.&.&.&.=.;Xf.a.=.j.! a.a.a.h.f.a.a.a.a.a.h.a.a.a.a.h.f.a.a.f.h.s.f.A.A.G.F.h.h.f.h.a.a.a.a.a.a.a.a.a.a.a.a.a.a.a.a.a.a.a.h.d.=XS.p.u.u.u.u.u.u.u.g.g.j.C.'.n.n.g.g.u.u.u.u.u.u.g.u.u.u.u.g.u.u.u.u.g.u.u.g.i.E Q -.&.&.z.&.&.&.&.&.&.&.&.&.&.&.&.&.&.&.&.&.&.&.i.&.&.&.&.&.&.&.&.&.&.&.i.&.&.&.&.&.&.&.i.i.&.&.T.z.&.i.&.&.&.&.pX-Xb.z.b.M.b.b.+X+Xl.b.M.z.z.N.z.z.z.b.v.=X+X4.z.z.z.,X>XbXdXi s s s d d d ( _ X.~.o 8 0 0 0 6 0XFX0X6 0 0 0 8 * j OXOXV T.^.^...o 2 V |.XX;.lXlX5Xi = [ [ { | z ] [ z l.[ [ z { ",
"&.i.&.&.&.&.&.&.&.&.%.D.=Xd.a.=.! k.a.a.a.h.f.a.a.a.a.a.h.a.a.a.a.h.f.a.a.f.h.s.f.A.A.G.F.h.h.f.h.a.a.a.a.a.a.a.a.a.a.a.a.a.a.a.a.a.a.a.h.d.S.=Xp.u.u.u.u.u.u.u.g.g.j.C.'.n.n.g.g.u.u.u.u.u.u.g.u.u.u.u.g.u.u.u.u.g.u.u.u.u.u.! g.&.&.z.&.&.&.&.&.&.&.&.&.&.&.&.&.&.&.&.&.&.&.i.&.&.&.&.&.&.&.&.&.&.&.i.&.&.&.&.&.&.&.i.i.&.&.$.&.&.i.&.&.#.R.pXd.z.z.z.M.z.l.D.D.v.z.M.z.z.N.z.z.z.z.v.D.=Xv.b.z.v..X@XbXjXf s s s d d d ( _ X.~.o 8 0 0 0 6 0XFX0X6 0 0 0 8 * j OXOXV T.^.^...o 2 V |.XX;.lXlX5Xi = [ z Q.!.x.E.3.c._.x.l.!.c.",
"&.i.&.&.&.&.&.&.&.&.&.;X=.f.=.j.! a.a.a.a.h.f.a.a.a.a.a.h.a.a.a.a.h.f.a.a.f.h.s.f.A.A.G.F.h.h.f.h.a.a.a.a.a.a.a.a.a.a.a.a.a.a.a.a.a.a.a.h.f.d.-XS.p.u.u.u.u.u.u.g.g.j.C.'.n.n.g.g.u.u.u.u.u.u.g.u.u.u.u.g.u.u.u.u.g.u.u.u.g.$.E k.%.&.z.&.&.&.&.&.&.&.&.&.&.&.&.&.&.&.&.&.&.&.i.&.&.&.&.&.&.&.&.&.&.&.i.&.&.&.&.&.&.&.i.i.&.&.&.&.&.i.&.&.#.pXR.z.z.z.z.M.z.z.M.M.z.z.M.z.z.N.z.z.z.z.z.z.b.z.z.z.v.+X-XbXzXf s s s d d d ( _ X.~.o 8 0 0 0 6 0XFX0X6 0 0 0 8 * j OXOXV T.^.^...o 2 V |.XX;.lXlX5Xi = [ { sXsX_./.Q.sX'._._./._.",
"&.i.&.&.&.&.&.&.&.%.D.=X&.f.=.E k.a.a.a.a.h.f.a.a.a.a.a.h.a.a.a.a.h.f.a.a.f.h.s.f.A.A.G.F.h.h.f.h.a.a.a.a.a.a.a.a.a.a.a.a.a.a.a.a.a.a.a.h.f.d.D.=Xp.u.u.u.u.u.u.g.g.j.C.'.n.n.g.g.u.u.u.u.u.u.g.u.u.u.u.g.u.u.u.u.g.u.u.u.u.u.u.Q u.&.z.&.&.&.&.&.&.&.&.&.&.&.&.&.&.&.&.&.&.&.i.&.&.&.&.&.&.&.&.&.&.&.i.&.&.&.&.&.&.&.i.i.&.&.&.&.&.i.&.$.M.pXz.M.z.z.z.M.z.z.M.M.z.z.M.z.z.N.z.z.z.z.z.z.z.z.z.b.v.+X=XbXvXd f s s d d d ( _ X.~.o 8 0 0 0 6 0XFX0X6 0 0 0 8 * j OXOXV T.^.^...o 2 V |.XX;.lXlX5Xi = ] l.c.E.Q.x._.'.E.Q.Q.c.'.",
"&.i.&.&.&.&.&.&.&.&.;XS.=.f.a.! a.a.a.a.a.h.f.a.a.a.a.a.h.a.a.a.a.h.f.a.a.f.h.s.f.A.A.G.F.h.h.f.h.a.a.a.a.a.a.a.a.a.a.a.a.a.a.a.a.a.a.a.h.a.a.a.-Xs.u.u.u.u.u.u.g.g.j.C.'.n.n.g.g.u.u.u.u.u.u.g.u.u.u.u.g.u.u.u.u.g.u.u.u.u.u.u.E E %.b.&.&.&.&.&.&.&.&.&.&.&.&.&.&.&.&.&.&.&.i.&.&.&.&.&.&.&.&.&.&.&.i.&.&.&.&.&.&.&.i.i.&.&.&.&.&.i.&.#.pX~.z.M.z.z.z.M.z.z.M.M.z.z.M.z.z.N.z.z.z.z.z.z.z.z.z.b.v.+XD.bXvXd f s s d d d ( _ X.~.o 8 0 0 0 6 0XFX0X6 0 0 0 8 * j OXOXV T.^.^...o 2 V |.XX;.lXlX5Xi = { { [ [ [ [ [ [ [ Q.2.{ [ ",
"&.i.&.&.&.&.&.&.%.S.;X&.a.=.E E a.a.a.a.a.h.f.a.a.a.a.a.h.a.a.a.a.h.f.a.a.f.h.s.f.A.A.G.F.h.h.f.h.a.a.a.a.a.a.a.a.a.a.a.a.a.a.a.a.a.a.a.h.f.s.d.D.=Xp.u.u.u.u.u.g.g.j.C.'.n.n.g.g.u.u.u.u.u.u.g.u.u.u.u.g.u.u.u.u.g.u.u.u.u.u.u.g.Q &.z.&.&.&.&.&.&.&.&.&.&.&.&.&.&.&.&.&.&.&.i.&.&.&.&.&.&.&.&.&.&.&.i.&.&.&.&.&.&.&.i.i.&.&.&.&.&.i.&.z.pXz.M.M.z.z.z.M.z.z.M.M.z.z.M.z.z.N.z.z.z.z.z.z.z.z.z.z.v.D.S.xXvX( f s s d d d (  .X.~.o 8 0 0 0 6 0XFX0X6 0 0 0 8 * j OXOXV T.^.^...o 2 V |.XX;.lXlX5Xi = a a a a a a a a d a a a a ",
"&.i.&.&.&.&.&.&.%.;XS.=.=.f.! a.a.a.a.a.a.h.a.a.a.a.a.a.h.a.a.a.a.h.a.a.a.f.f.s.f.A.A.G.F.h.h.f.h.a.a.a.a.a.a.a.a.a.a.a.a.a.a.a.a.a.a.a.h.a.a.a.a.-Xa.u.u.u.u.u.g.g.j.C.'.g.n.d.g.u.u.u.u.u.u.g.u.u.u.u.g.u.u.u.u.g.u.u.u.u.u.u.i.E k.-.&.&.&.&.&.&.&.&.&.&.&.&.&.&.&.&.&.&.&.i.&.&.&.&.&.&.&.&.&.&.&.i.&.&.&.&.&.&.&.i.&.&.&.&.&.&.i.#.~.pX&.M.z.z.z.z.M.z.z.M.M.z.z.M.z.z.M.z.z.z.z.z.z.z.z.z.z.z.v.=.kXvX( i s i d d d ( _ X.~.o 8 0 0 0 6 0XFX0X6 0 0 0 8 * j OXOXV T.^.^...o 2 V |.XX;.lXlX5Xi = 8 8 0 8 8 8 0 8 8 8 8 8 8 ",
"i.b.i.i.i.i.i.i.S.;Xd.f.=.F.k.f.h.h.h.h.f.h.h.f.h.h.h.h.h.f.h.h.f.h.h.f.f.h.h.h.h.A.H.G.F.h.h.h.m.h.h.h.h.h.h.h.h.h.h.h.h.h.h.h.h.h.h.f.h.h.f.h.d.=XD.p.g.g.g.g.g.g.j.C.'.n.n.n.n.g.d.g.g.g.g.g.g.g.g.u.g.g.g.g.g.g.d.d.g.g.u.g.g.j.! b.i.i.i.i.i.i.i.i.i.i.i.i.i.i.i.i.i.i.i.b.i.i.i.i.i.i.i.i.i.i.i.b.i.i.i.i.i.i.i.z.i.i.i.i.i.i.b.i.pXR.b.N.M.M.M.M.N.M.M.N.N.M.M.N.M.M.N.M.M.M.M.M.M.M.M.M.M.M.M.f.kXbX .d ( d ] ( (  . .>.~.o 8 0 0 0 6 0XFX0X6 0 0 0 8 * j OXOXV T.^.^...o 2 V |.XX;.lXlX5Xi = 0 8 6 8 6 6 1 8 6 8 8 0 0 ",
"i.b.i.i.i.i.i.p.;XD.d.f.f.! h.h.h.h.h.h.h.h.h.h.h.h.h.h.h.h.h.h.h.h.h.h.h.h.h.h.h.H.H.G.F.A.h.h.m.h.h.h.h.h.h.h.h.h.h.h.h.h.h.h.h.h.h.h.h.h.h.h.h.h.:Xg.g.g.g.g.g.g.g.C.'.n.n.n.n.g.g.g.g.g.g.g.g.g.g.g.g.g.g.g.g.g.g.g.g.g.g.g.g.i.Q C.-.i.i.i.i.i.i.i.i.i.i.i.i.i.i.i.i.i.i.b.i.i.i.i.i.i.i.i.i.i.i.b.i.i.i.i.i.i.i.b.z.i.i.i.i.i.i.R.pXz.M.N.M.M.M.M.N.M.M.N.N.M.M.N.M.M.N.M.M.M.M.M.M.M.M.M.M.M.M.d.pXbXo.d ( d ] ( ]  . .>.~.o 8 0 0 0 6 0XFX0X6 0 0 0 8 * j OXOXV T.^.^...o 2 V |.XX;.lXlX5Xi = 8 z c.2.x.v.Q.a l.z p 8 0 ",
"&.i.&.&.&.&.%.=.;X=.=.=.k.U.a.a.a.a.a.a.a.h.a.a.a.a.a.a.h.a.a.a.a.h.a.a.a.f.f.s.f.A.A.G.F.h.h.f.h.a.a.a.a.a.a.a.a.a.a.a.a.a.a.a.a.a.a.a.h.a.a.a.a.u.=XD.p.u.u.u.g.g.j.C.'.g.n.i.g.u.u.u.u.u.u.g.u.u.u.u.g.u.u.u.u.g.u.u.u.u.u.u.g.u.j.! %.&.&.&.&.&.&.&.&.&.&.&.&.&.&.&.&.&.&.i.&.&.&.&.&.&.&.&.&.&.&.i.&.&.&.&.&.&.&.i.&.&.&.&.&.&.$.pXR.&.z.M.z.z.z.z.M.z.z.b.M.z.z.M.z.z.M.z.z.z.z.z.z.z.z.z.z.z.z.l.-XNXo.8 s i d d d ( _ X.~.o 8 0 0 0 6 0XFX0X6 0 0 0 8 * j OXOXV T.^.^...o 2 V |.XX;.lXlX5Xi = 1 l.Q.c.Q.[ Q.1 c.E._.{ 6 ",
"&.i.&.&.&.&.%.=XD.&.a.=.! k.a.a.a.a.a.a.a.h.f.a.a.a.a.a.h.a.a.a.a.h.f.a.a.f.h.s.f.A.A.G.F.h.h.f.h.a.a.a.a.a.a.a.a.a.a.a.a.a.a.a.a.a.a.a.h.f.a.a.a.a.S.-Xu.u.u.u.g.g.j.C.'.n.n.g.g.u.u.u.u.u.u.g.u.u.u.u.g.u.u.u.u.g.u.u.g.u.u.u.g.u.u.Q j.&.&.&.&.&.&.&.&.&.&.&.&.&.&.&.&.&.&.i.&.&.&.&.&.&.&.&.&.&.&.i.&.&.&.&.&.&.&.i.i.&.&.&.&.$.N.pXz.z.z.M.M.z.z.z.M.z.z.M.M.z.z.M.z.z.N.z.z.z.z.z.z.z.z.z.z.z.z.z.=.fXO.i s s d d d (  .X.~.o 8 0 0 0 6 0XFX0X6 0 0 0 8 * r B B B ..q.q.] = 2 N n n ;.4X4X4X8 = 1 l.c.v.c.k E.= E.Q.x.x.1 ",
"&.i.&.&.&.%.=.;X=.a.=.k.! f.a.a.a.a.a.a.a.h.f.a.a.a.a.a.h.a.a.a.a.h.f.a.a.f.h.s.f.A.A.G.F.h.h.f.h.a.a.a.a.a.a.a.a.a.a.a.a.a.a.a.a.a.a.a.h.a.a.a.a.s.d.=XS.p.u.u.g.g.j.C.'.n.n.g.g.u.u.u.u.u.u.g.u.u.u.u.g.u.u.u.u.g.u.u.u.u.u.u.g.u.u.k.E %.&.&.&.&.&.&.&.&.&.&.&.&.&.&.&.&.&.i.&.&.&.&.&.&.&.&.&.&.&.i.&.&.&.&.&.&.&.i.i.&.&.&.&.#.pX~.&.z.z.M.M.z.z.z.M.z.z.M.M.z.z.M.z.z.N.z.z.z.z.z.z.z.z.z.z.z.z.z.&.fXO.8 s s d d d ( _ X.~.o 8 0 0 0 6 0XFX0X6 0 0 0 8 * r B B B ..4.q.] = 2 N n n ;.4X4X4X8 = 8 k a d a p ] 8 | [ k k 8 ",
"&.i.&.&.&.| =X=X&.a.=.! k.f.a.a.a.a.a.a.a.h.f.a.a.a.a.a.h.a.a.a.a.h.f.a.a.f.h.s.f.A.A.G.F.h.h.f.h.a.a.a.a.a.a.a.a.a.a.a.a.a.a.a.a.a.a.a.h.a.a.a.a.a.d.S.-Xp.u.u.g.g.j.C.'.n.n.g.g.u.u.u.u.u.u.g.u.u.u.u.g.u.u.u.u.g.u.u.u.u.u.u.g.u.u.g.Q u.&.&.&.&.&.&.&.&.&.&.&.&.&.&.&.&.&.i.&.&.&.&.&.&.&.&.&.&.&.i.&.&.&.&.&.&.&.i.i.&.&.&.&.&.pXM.z.z.z.M.M.z.z.z.M.z.z.M.M.z.z.M.z.z.N.z.z.z.z.z.z.z.z.z.z.z.z.z.&.fXO.8 s s d d d ( _ X.~.o 8 0 0 0 6 0XFX0X6 0 0 0 8 * r B B B ..q.q.] = 2 N n n ;.4X4X4X8 = 0 8 8 8 8 0 8 0 6 8 8 8 0 ",
"&.i.&.&.&.&.;X=.=.=.j.! a.h.a.a.a.a.a.a.a.h.f.a.a.a.a.a.h.a.a.a.a.h.f.a.a.f.h.s.f.A.A.G.F.h.h.f.h.a.a.a.a.a.a.a.a.a.a.a.a.a.a.a.a.a.a.a.h.a.a.a.a.a.s.d.-XS.p.u.g.g.j.C.'.n.n.g.g.u.u.u.u.u.u.g.u.u.u.u.g.u.u.u.u.g.u.u.u.u.u.u.g.u.u.g.E E %.&.&.&.&.&.&.&.&.&.&.&.&.&.&.&.&.i.&.&.&.&.&.&.&.&.&.&.&.i.&.&.&.&.&.&.&.i.i.&.&.&.#.~.pX&.z.z.z.M.M.z.z.z.M.z.z.M.M.z.z.M.z.z.N.z.z.z.z.z.z.z.z.z.z.z.z.z.&.fXO.8 s s d d d ( _ X.~.o 8 0 0 0 6 0XFX0X6 0 0 0 8 * r B B B ..q.q.] = 2 N n n ;.4X4X4X8 = 8 8 8 8 8 8 8 8 8 8 8 8 8 ",
"&.i.&.&.%.D.=X&.a.=.! k.a.h.a.a.a.a.a.a.a.h.f.a.a.a.a.a.h.a.a.a.a.h.f.a.a.f.h.s.f.A.A.G.F.h.h.f.h.a.a.a.a.a.a.a.a.a.a.a.a.a.a.a.a.a.a.a.h.a.a.a.a.a.a.d.D.=Xp.u.g.g.j.C.'.n.n.g.g.u.u.u.u.u.u.g.u.u.u.u.g.u.u.u.u.g.u.u.u.u.u.u.g.u.u.g.u.Q p.&.&.&.&.&.&.&.&.&.&.&.&.&.&.&.&.i.&.&.&.&.&.&.&.&.&.&.&.i.&.&.&.&.&.&.&.i.i.&.&.&.$.pXR.z.z.z.z.M.M.z.z.z.M.z.z.M.M.z.z.M.z.z.N.z.z.z.z.z.z.z.z.z.z.z.z.z.&.uXO.8 s s d d d ( _ X.~.o 8 0 0 0 6 0XFX0X6 0 0 0 8 * r B B B ..4.q.] = 2 N n n ;.4X4X4X8 * = = = = = = = = = = = = = ",
"&.i.&.&.&.;Xs.=.=.a.! a.a.h.a.a.a.a.a.a.a.h.f.a.a.a.a.a.h.a.a.a.a.h.f.a.a.f.h.s.f.A.A.G.F.h.h.f.h.a.a.a.a.a.a.a.a.a.a.a.a.a.a.a.a.a.a.a.h.a.a.a.a.a.a.a.a.-Xs.u.g.g.j.C.'.n.n.g.g.u.u.u.u.u.u.g.u.u.u.u.g.u.u.u.u.g.u.u.u.u.u.u.g.u.u.g.u.E k.%.&.&.&.&.&.&.&.&.&.&.&.&.&.&.&.i.&.&.&.&.&.&.&.&.&.&.&.i.&.&.&.&.&.&.&.i.i.&.&.#.R.pXz.z.z.z.z.M.M.z.z.z.M.z.z.M.M.z.z.M.z.z.N.z.z.z.z.z.z.z.z.z.z.z.z.z.&.uXO.8 s s d d d ( _ X.~.o 8 0 0 0 6 0XFX0X6 0 0 0 8 * r B B B ..q.q.] = 2 N n n ;.4X4X4X8 = 8 8 8 8 8 8 8 8 8 8 8 8 8 ",
"&.i.&.%.D.;X&.a.=.E k.a.a.h.a.a.a.a.a.a.a.h.f.a.a.a.a.a.h.a.a.a.a.h.f.a.a.f.h.s.f.A.A.G.F.h.h.f.h.a.a.a.a.a.a.a.a.a.a.a.a.a.a.a.a.a.a.a.h.f.a.a.a.a.a.s.d.D.=Xp.g.g.j.C.'.n.n.g.g.u.u.u.u.u.u.g.u.u.u.u.g.u.u.u.u.g.u.u.u.u.u.u.g.u.u.g.u.u.Q &.&.&.&.&.&.&.&.&.&.&.&.&.&.&.&.i.&.&.&.&.&.&.&.&.&.&.&.i.&.&.&.&.&.&.&.i.i.&.&.#.pX~.b.z.z.z.z.M.M.z.z.z.M.z.z.M.M.z.z.M.z.z.N.z.z.z.z.z.z.z.z.z.z.z.z.z.&.uXO.8 s s d d d ( _ X.~.o 8 0 0 0 6 0XFX0X6 0 0 0 8 * r B B B ..q.q.] = 2 N n n ;.4X4X4X8 = 0 0 0 0 0 8 0 0 0 0 0 0 0 ",
"&.i.&.%.;XS.=.=.a.! a.a.a.h.a.a.a.a.a.a.a.h.a.a.a.a.a.a.h.a.a.a.a.h.a.a.a.f.f.s.f.A.A.G.F.h.h.f.h.a.a.a.a.a.a.a.a.a.a.a.a.a.a.a.a.a.a.a.h.a.a.a.a.a.a.a.a.a.-Xa.g.g.j.C.'.n.n.d.g.u.u.u.u.u.u.g.u.u.u.u.g.u.u.u.u.g.u.u.u.u.u.u.g.u.u.g.u.$.E k.%.&.&.&.&.&.&.&.&.&.&.&.&.&.&.i.&.&.&.&.&.&.&.&.&.&.&.i.&.&.&.&.&.&.&.i.i.&.$.z.pXz.M.z.z.z.z.M.z.z.z.z.M.z.z.M.M.z.z.M.z.z.M.z.z.z.z.z.z.z.z.z.z.z.z.z.&.uXq.6 s f d d d ( _ X.~.o 8 0 0 0 6 0XFX0X6 0 0 0 8 * r B B B ..q.q.] = 2 N n n ;.4X4X4X8 = 0 8 p 0 p p 8 p 8 0 8 8 8 ",
"i.b.p.S.;Xd.f.=.k.E f.f.f.h.f.f.f.f.f.f.f.h.h.f.f.f.f.f.h.f.f.f.f.h.h.f.f.h.h.f.h.A.A.G.F.h.h.h.m.f.f.f.f.f.f.f.f.f.f.f.f.f.f.f.f.f.f.f.h.f.f.f.f.f.f.f.f.d.=XD.g.g.j.C.'.n.n.g.g.g.u.u.u.u.u.g.u.u.u.u.g.g.u.u.g.g.u.u.g.g.u.u.g.u.u.g.g.u.j.! &.i.i.i.i.i.i.i.i.i.i.i.i.i.i.z.i.i.i.i.i.i.i.i.i.i.i.z.i.i.i.i.i.i.i.i.i.i.$.pXpXi.N.M.M.M.M.M.M.M.M.M.N.M.M.M.M.M.M.N.M.M.N.M.M.M.M.M.M.M.M.M.M.M.M.M.d.uXq.0 d d ( ( ( _  .>.~.o 8 0 0 0 6 0XFX0X6 0 0 0 8 * r B B B ..q.q.] = 2 N n n ;.4X4X4X8 = 6 [ E.v.E.x.'.a | Q.2.p a ",
"i.b.p.;XD.d.f.f.! h.f.f.f.h.h.f.f.f.f.f.f.h.h.f.f.f.f.h.h.f.f.f.f.h.h.f.f.h.h.h.h.A.A.G.F.h.h.h.m.f.f.f.f.f.f.f.f.f.f.f.f.f.f.f.f.f.f.f.h.h.f.f.f.f.f.f.f.f.h.-Xg.g.j.C.'.n.n.g.n.g.u.g.g.g.g.g.u.g.g.u.g.g.u.u.g.g.u.u.g.g.u.g.g.d.u.g.g.g.i.Q j.&.i.i.i.i.i.i.i.i.i.i.i.i.i.z.i.i.i.i.i.i.i.i.i.i.i.z.i.i.i.i.i.i.i.z.i.i.i.pXN.M.N.M.M.M.M.N.M.M.M.M.N.M.M.M.M.M.M.N.M.M.N.M.M.M.M.M.M.M.M.M.M.M.M.M.d.uXtXp ( d ( ( (  . .>.~.o 8 0 0 0 6 0XFX0X6 0 0 0 8 * r B B B ..4.q.] = 2 N n n ;.4X4X4X8 = 1 l.Q.c.Q.z E.1 Q.8 _.c.l.",
"&.i.f.;X=.=.=.k.E a.a.a.a.h.a.a.a.a.a.a.a.h.a.a.a.a.a.a.h.a.a.a.a.h.a.a.a.f.f.s.f.A.A.G.F.h.h.f.h.a.a.a.a.a.a.a.a.a.a.a.a.a.a.a.a.a.a.a.h.a.a.a.a.a.a.a.a.s.u.=XD.p.j.C.'.g.n.d.g.u.u.u.u.u.u.g.u.u.u.u.g.u.u.u.u.g.u.u.u.u.u.u.g.u.u.g.u.u.u.j.Q %.&.&.&.&.&.&.&.&.&.&.&.&.&.i.&.&.&.&.&.&.&.&.&.&.&.i.&.&.&.&.&.&.&.i.i.#.~.pX&.z.M.z.z.z.z.M.z.z.z.z.M.z.z.M.M.z.z.M.z.z.M.z.z.z.z.z.z.z.z.z.z.z.z.z.&.iXtX6 s f d d d ( _ X.~.o 8 0 0 0 6 0XFX0X6 0 0 0 8 * r B B B ..q.q.] = 2 N n n ;.4X4X4X8 = 1 3.l.l.3.d E.= c.E.c.E./.",
"&.p.=XD.&.a.=.! j.a.a.a.a.h.a.a.a.a.a.a.a.h.f.a.a.a.a.a.h.a.a.a.a.h.f.a.a.f.h.s.f.A.A.G.F.h.h.f.h.a.a.a.a.a.a.a.a.a.a.a.a.a.a.a.a.a.a.a.h.f.a.a.a.a.a.a.a.a.a.S.:Xg.j.C.'.n.n.g.g.u.u.u.u.u.u.g.u.u.u.u.g.u.u.u.u.g.u.u.u.u.u.u.g.u.u.g.u.u.u.u.Q j.&.&.&.&.&.&.&.&.&.&.&.&.&.i.&.&.&.&.&.&.&.&.&.&.&.i.&.&.&.&.&.&.&.i.i.#.pXR.z.z.M.z.z.z.z.M.M.z.z.z.M.z.z.M.M.z.z.M.z.z.N.z.z.z.z.z.z.z.z.z.z.z.z.z.&.iXtX8 s s d d d (  .X.~.o 8 0 0 0 6 0XFX0X6 0 0 0 8 * r B B B ..q.q.] = 2 N n n ;.4X4X4X8 = 8 a p p 0 0 a 8 0 { 8 k z ",
"%.f.;X=.a.=.k.! a.a.a.a.a.h.f.h.f.a.a.a.a.h.f.a.a.a.a.a.h.a.a.a.a.h.f.h.f.f.f.s.f.A.A.G.F.h.h.f.h.a.a.a.a.a.a.h.f.f.a.a.a.a.a.a.a.a.a.a.h.a.a.a.a.a.a.h.f.f.s.d.=XD.p.C.'.n.n.g.g.u.u.u.u.u.u.g.u.u.u.u.g.u.u.u.u.g.u.u.u.u.u.u.g.u.u.g.g.u.u.u.k.E %.&.&.&.&.&.&.&.&.&.&.&.&.i.i.i.i.&.&.&.&.&.&.&.&.i.&.&.&.&.&.&.&.i.i.R.pX&.z.z.M.z.z.z.z.M.M.z.z.z.M.z.z.M.N.z.M.M.z.z.N.z.z.z.z.z.z.z.z.z.z.z.z.z.&.iXtX8 s s d d d ( _ X.~.o 8 0 0 0 6 0XFX0X6 0 0 0 8 * r B B B ..q.q.] = 2 N n n ;.4X4X4X8 = 0 0 0 0 0 0 8 0 0 6 0 8 8 ",
"| =XD.&.a.=.! k.a.a.a.a.a.h.K.h.K.h.a.a.a.h.f.a.a.a.a.a.h.a.a.a.a.f.H.m.h.K.f.s.f.A.A.G.F.h.h.f.h.a.a.a.a.a.m.H.m.K.a.a.a.a.a.a.a.a.a.a.h.a.a.a.a.a.h.H.h.K.a.a.A.:Xu.C.'.n.n.g.g.u.u.u.u.u.g.C.n.C.u.u.g.u.u.u.u.g.u.u.u.u.u.u.g.u.u.C.g.C.g.u.u.Q u.&.&.&.&.&.&.&.&.&.&.&.&.N.n.b.B.&.&.&.&.&.&.&.&.i.&.&.&.&.&.&.$.M.n.pX_.z.z.z.M.z.z.z.z.M.M.z.z.z.M.z.z.N.R.R.!.N.z.z.N.z.z.z.z.z.z.z.z.z.z.z.z.z.&.iXtX8 s s d d d ( _ X.~.o 8 0 0 0 6 0XFX0X6 0 0 0 8 * r B B B ..q.q.] = 2 N n n ;.4X4X4X8 = 6 6 6 6 6 6 6 6 6 6 6 6 6 ",
"&.;X=.=.=.j.! a.a.a.a.a.a.h.K.a.m.h.a.a.a.h.f.a.a.a.a.a.h.a.a.a.a.h.K.a.h.H.f.s.f.A.A.G.F.h.h.f.h.a.a.a.a.a.K.h.f.K.a.a.a.a.a.a.a.a.a.a.h.a.a.a.a.a.H.h.m.P.a.s.h.:XA.C.].n.n.g.g.u.u.u.u.u.g.C.u.C.g.u.g.u.u.u.u.g.u.u.u.u.u.u.g.u.u.C.u.V.n.u.u.E E %.&.&.&.&.&.&.&.&.&.&.&.B.i.i.b.$.&.&.&.&.&.&.&.i.&.&.&.&.&.&.&.n.N.pX!.z.z.z.M.z.z.z.z.M.M.z.z.z.M.z.z.R.N.M.).N.z.z.N.z.z.z.z.z.z.z.z.z.z.z.z.z.&.iXtX8 s s d d d ( _ X.~.o 8 0 0 0 6 0XFX0X6 0 0 0 8 * r B B B ..4.q.] = 2 N n n ;.4X4X4X8 = = = = = = = = = = = = = = ",
"D.=X&.a.=.! k.a.a.a.a.a.a.h.h.m.h.f.a.a.a.h.f.a.a.a.a.a.h.a.a.a.a.f.h.m.H.m.f.s.f.A.A.G.F.h.h.f.h.a.a.a.a.a.h.H.h.h.a.a.a.a.a.a.a.a.a.a.h.a.a.a.a.a.f.H.f.h.a.a.h.D.=XC.].n.n.g.g.u.u.u.u.u.u.C.g.n.u.u.g.u.u.u.u.g.u.u.u.u.u.u.g.u.u.n.n.g.g.u.u.u.Q p.&.&.&.&.&.&.&.&.&.&.&.b.n.z.i.&.&.&.&.&.&.&.&.i.&.&.&.&.&.&.&.u.pXpXM.z.z.z.M.z.z.z.z.M.M.z.z.z.M.z.z.M.R.M.N.M.z.z.N.z.z.z.z.z.z.z.z.z.z.z.z.z.&.iXtX8 s s d d d ( _ X.~.o 8 0 0 0 6 0XFX0X6 0 0 0 8 * r B B B ..q.q.] = 2 N n n ;.4X4X4X8 = 0 0 0 0 0 6 : : 6 8 p 0 0 ",
";XA.d.=.s.! a.a.a.a.a.a.a.h.a.a.a.a.a.a.a.h.f.a.a.a.a.a.h.a.a.a.a.h.a.a.a.f.h.s.f.A.A.G.F.h.h.f.h.a.a.a.a.a.a.a.a.a.a.a.a.a.a.a.a.a.a.a.h.a.a.a.a.a.a.a.a.a.a.a.h.h.-XP.'.n.n.g.g.u.u.u.u.u.u.g.u.u.u.u.g.u.u.u.u.g.u.u.g.u.u.u.g.u.u.g.u.u.u.u.u.u.E E %.&.&.&.&.&.&.&.&.&.&.i.&.&.&.&.&.&.&.&.&.&.&.i.&.&.&.&.&.&.&.z.pXz.z.z.z.z.M.z.z.z.z.M.M.z.z.z.M.z.z.M.b.z.z.M.z.z.N.z.z.z.z.z.z.z.z.z.z.z.z.z.&.~.iX8 s s d d d ( _ X.~.o 8 0 0 0 6 0XFX0X6 0 0 0 8 * r B B B ..q.q.] = 2 N n n ;.4X4X4X8 = 0 0 0 8 8 5.t.t.w.p 6 0 0 ",
"=Xb.J.B.U.E f.L.f.a.K.H.a.H.h.K.H.a.m.L.a.f.K.H.L.a.a.L.m.a.K.K.a.h.m.H.K.a.h.L.h.h.P.G.U.h.f.L.K.a.m.L.a.f.H.m.L.a.a.L.h.a.H.H.L.m.a.H.K.a.h.L.f.a.K.h.L.h.a.K.K.j.D.:X'.V.g.n.V.u.u.V.g.u.m.g.V.n.u.m.C.u.g.C.B.V.u.g.V.g.u.C.n.$.n.n.C.m.u.n.V.u.u.! n.V.&.&.V.b.#.B.B.#.z.n.n.B.#.i.V.i.$.B.M.V.i.$.B.N.#.b.V.&.$.pXpXR.M.z.!.N.-.R.R.!.N.-.R.R.-.M.!.M.z.R.N.!.M.-.R.R.-.N.R.R.R.-.N.!.N.z.z.z.z.z.&.~.dX8 s s d d d (  .X.~.o 8 0 0 0 6 0XFX0X6 0 0 0 8 * r B B B ..q.q.] = 2 N n n ;.4X4X4X8 = 8 0 6 l AXDXAX0XDXDX5.6 0 ",
"=.n.J.K.U.a.h.P.h.a.L.H.a.H.m.K.K.a.m.L.a.f.L.K.L.a.a.P.m.a.K.L.a.h.H.H.L.a.h.P.h.h.P.G.U.h.s.P.K.a.m.L.a.f.K.m.P.a.a.L.m.a.K.K.L.m.a.K.L.a.h.P.f.a.K.h.P.h.a.L.K.s.K.,X].V.i.C.V.u.u.V.n.$.C.g.V.n.$.C.V.u.g.V.C.V.u.g.L.g.u.V.m.$.n.n.C.C.$.n.V.u.i.U.k.R.&.&.R.b.#.B.V.#.b.N.n.V.#.i.!.i.$.B.N.R.i.#.V.B.#.b.R.&.&.pXR.!.z.z.).N.-.R.R.!.R.-.R.!.-.M.).M.z.R.N.).M.-.!.R.-.R.R.!.R.-.N.).R.z.z.z.z.z.&.~.dX8 s f d d d ( _ X.~.o 8 0 0 0 6 0XFX0X6 0 0 0 8 * r B B B ..q.q.] = 2 N n n ;.4X4X4X8 = 0 8 l DX0X4 o O = w.FX5.6 ",
"$.m.J.F.U.=.h.P.h.a.L.H.a.H.m.K.K.a.m.L.a.f.L.H.L.a.a.L.m.a.K.L.a.h.H.H.L.a.h.P.h.h.P.G.U.h.s.P.K.a.m.L.a.f.K.m.L.a.a.L.m.a.K.H.L.m.a.K.L.a.h.P.f.a.K.h.L.h.a.L.K.s.C.:X,X!.d.C.V.u.u.V.n.u.C.g.V.n.$.C.V.u.g.C.C.V.u.g.V.g.u.V.m.$.n.n.C.C.$.n.V.u.i.C.[.R.&.&.R.b.#.B.B.#.b.N.n.V.#.i.R.i.$.B.N.R.i.#.V.B.#.b.R.#.R.pXM.).z.z.).N.-.R.R.!.R.-.R.!.-.M.).M.z.R.N.).M.-.!.R.-.R.R.!.R.-.N.!.R.M.M.M.M.M.b.~.dXa ( d ] ( (  . .>.~.o 8 0 0 0 6 0XFX0X6 0 0 0 8 * r B B B ..4.q.] = 2 N n n ;.4X4X4X8 = p 6 qXAXo O = = =   w.DXa ",
"$.m.J.! L.a.h.P.h.a.L.H.a.H.m.K.K.a.m.L.a.f.L.H.L.a.a.L.m.a.K.L.a.h.H.H.L.a.h.P.h.h.P.G.U.h.s.P.K.a.m.L.a.f.K.m.L.a.a.L.m.a.K.H.L.m.a.K.L.a.h.P.f.a.K.h.L.h.a.L.K.s.K.P.,XL.i.C.V.u.u.V.n.$.C.g.V.n.$.C.V.u.g.C.C.V.u.g.V.g.u.V.m.$.n.n.C.C.$.n.V.u.u.V.! P.&.&.R.b.#.B.B.#.b.N.n.V.#.i.R.i.$.B.N.R.i.#.V.B.#.b.R.#.pX/.N.).z.z.).N.-.R.R.!.R.-.R.!.-.M.).M.-.R.N.).M.-.!.R.-.R.R.!.R.-.N.!.R.M.M.M.M.M.b.~.dXh ( d ] ] ]  . .T.~.o 8 0 0 0 6 0XFX0X6 0 0 0 8 * r B B B ..q.q.] = 2 N n n ;.4X4X4X8 = 8 a DX5.O = = = = = 1 DXw.",
"=.B.F.U.L.a.h.P.h.a.L.H.a.H.m.K.K.a.m.L.a.f.L.H.L.f.a.L.m.a.K.L.a.m.H.H.L.a.h.P.h.h.P.G.U.h.f.P.K.a.m.L.a.h.K.m.L.a.f.L.m.a.K.H.L.m.a.K.L.a.h.P.h.a.K.h.L.h.a.L.K.s.K.P.,XI.i.C.V.u.u.V.n.u.C.g.V.n.u.C.V.u.g.C.C.V.u.g.V.g.u.V.m.$.n.n.C.C.u.n.V.u.i.V.C.U.&.&.R.b.#.B.V.#.b.N.n.V.#.i.R.i.$.B.N.R.z.#.V.B.#.b.V.M.pXR.N.).z.z.).N.-.R.R.!.R.-.R.!.-.M.).M.z.R.N.).M.-.!.R.-.R.R.!.R.-.N.).R.z.z.z.z.z.&.(.fXp s i d d d ( _ X.~.o 8 0 0 0 6 0XFX0X6 0 0 0 8 * r B B B ..q.q.] = 2 N n n ;.4X4X4X8 = 6 ' DX4 o = = . X = O 0Xt.",
"B.J.U.K.L.m.K.L.H.H.L.K.m.L.h.K.L.m.L.L.m.K.K.H.L.m.K.L.K.H.L.L.m.L.m.H.L.m.L.L.K.P.P.G.U.K.K.P.L.m.L.L.m.L.H.m.L.m.K.L.K.H.L.H.L.K.H.L.L.m.L.L.H.K.K.h.L.H.H.L.L.K.P.P.,X;XV.V.V.n.C.V.C.n.V.g.V.C.n.V.V.n.V.C.C.V.n.C.V.n.m.V.C.n.V.g.C.V.n.V.V.n.C.C.B.U.n.N.V.N.M.V.V.b.V.b.n.R.b.B.R.N.N.V.N.R.N.N.V.B.M.V.B.pXpXN.N.!.R.R.!.R.R.!.R.!.R.R.!.!.R.R.!.R.R.R.N.!.R.R.!.R.R.!.R.!.!.R.!.!.R.z.z.z.z.z.i.T.dXa s s d d d (  .X.~.o 8 0 0 0 6 0XFX0X6 0 0 0 8 * r B B B ..q.q.] = 2 N n n ;.4X4X4X8 = 8 ' DXl o = . Q.}   o AXt.",
"J.P.U.L.P.K.L.L.K.L.P.L.K.P.h.L.L.K.L.L.H.L.L.K.P.H.L.P.K.K.P.L.K.P.m.H.L.H.L.P.L.P.P.G.U.L.P.P.L.K.P.L.H.L.K.m.P.H.L.P.K.K.P.H.L.L.K.P.L.K.L.L.K.L.L.h.P.K.L.P.L.K.P.P.].:XI.!.L.B.V.V.V.C.V.g.V.V.C.V.V.C.V.C.C.V.C.V.V.C.V.V.V.C.L.g.V.V.C.V.V.C.V.V.B.F.! R.R.B.N.R.V.N.!.n.N.R.N.R.R.N.V.R.N.R.B.B.R.V.N.R.!.pX).R.N.).R.!.).!.R.).R.!.!.R.).!.R.!.!.R.!.!.N.).R.!.).!.R.).R.!.!.R.).).R.z.z.z.z.z.z.R.fXd s s d d d ( _ X.~.o 8 0 0 0 6 0XFX0X6 0 0 0 8 * r B B B ..q.q.] = 2 N n n ;.4X4X4X8 = 8 8 DXw.  1   W.IXo 4 DX5.",
"B.U.k.m.H.h.H.H.m.m.H.m.m.K.h.m.H.m.H.H.h.H.H.m.H.m.H.H.H.m.H.H.h.K.h.h.H.m.K.H.H.K.L.G.U.K.K.K.K.m.H.H.m.H.m.h.H.m.H.H.m.m.H.h.H.m.m.H.K.m.H.H.m.H.H.h.H.m.m.H.K.K.K.P.].I.;XC.C.n.n.m.n.n.m.g.n.n.n.n.m.n.n.n.n.C.g.n.C.n.n.m.n.g.m.g.n.n.g.n.n.g.n.n.g.n.! C.N.b.b.N.n.b.N.b.b.N.b.n.N.b.b.n.b.N.b.n.N.n.b.g.pXpXN.R.N.R.N.R.R.R.R.R.N.R.R.R.R.R.N.R.R.N.R.R.M.R.N.R.R.R.R.R.N.R.R.N.R.R.N.z.z.z.z.z.z.R.fXh s s d d d (  .X.~.o 8 0 0 0 6 0XFX0X6 0 0 0 8 * r B B B ..q.q.] = 2 N n n ;.4X4X4X8 = p 6 w.DX' o = . /.k 0XAX8 ",
"j.! a.a.a.a.a.a.a.a.a.a.a.h.a.a.a.a.a.a.a.f.a.a.a.a.a.a.h.a.a.a.a.f.a.a.a.f.f.a.f.A.A.G.F.h.h.s.h.a.a.a.a.a.a.a.a.a.a.a.a.a.a.a.a.a.a.a.h.a.a.a.a.a.a.a.a.a.a.a.h.h.s.K.].g.:XS.i.u.u.u.u.u.u.g.u.u.u.u.u.u.u.u.u.u.u.u.u.u.u.u.g.u.u.g.u.u.u.u.u.u.u.u.u.$.E E %.&.&.&.&.&.$.i.&.#.&.&.&.&.&.&.&.&.&.i.$.$.&.&.pXM.-.M.b.z.z.z.z.z.M.z.z.z.z.M.z.z.z.z.M.z.z.z.M.z.z.M.z.z.N.z.z.z.z.z.z.z.z.z.z.z.z.z.z.R.gXh s s d d d ( _ X.~.o 8 0 0 0 6 0XFX0X6 0 0 0 8 * r B B B ..q.q.] = 2 N n n ;.4X4X4X8 = 0 0 6 t.DX8 = 1   w.DXl 8 ",
"! k.f.h.h.f.a.a.a.a.a.a.a.h.h.f.h.a.a.a.a.h.f.a.a.a.a.a.h.h.f.h.a.h.f.a.a.f.h.s.f.A.A.G.F.h.h.f.h.f.f.h.f.f.a.a.a.a.a.a.a.a.a.a.a.a.a.a.h.f.h.h.f.h.a.a.a.a.a.a.h.h.h.L.].m.D.:Xg.d.u.u.u.u.u.g.g.u.i.u.g.u.u.u.u.g.u.u.g.u.u.u.g.u.u.g.u.u.u.u.u.u.u.u.u.u.u.Q p.&.&.&.&.&.&.i.i.i.&.&.&.&.&.&.&.&.&.i.i.z.#.R.pX&.z.M.M.z.z.z.z.z.M.M.M.z.z.M.M.z.z.z.M.z.z.M.M.z.z.M.z.z.N.M.z.M.z.z.z.z.z.z.z.z.z.z.z.R.gX] f s d ( (  . .X.~.o 8 0 0 0 6 0XFX0X6 0 0 0 8 * r B B B ..q.q.] = 2 N n n ;.4X4X4X8 = 0 0 8 0 ' 0 0 0 0 l l 6 0 ",
"! f.f.V.V.m.a.a.a.a.a.a.a.h.m.V.C.h.a.a.a.h.f.a.a.a.a.a.h.V.m.V.f.h.f.a.a.f.h.s.f.A.A.G.F.h.h.f.h.m.B.V.V.m.a.a.a.a.a.a.a.a.a.a.a.a.a.a.h.f.V.V.V.V.h.a.a.a.a.a.h.m.V.L.'.L.m.:XA.p.u.u.u.u.u.g.C.n.C.C.C.u.u.u.u.g.u.u.u.u.u.u.g.u.u.g.n.n.n.u.u.u.u.u.u.u.&.E k.%.&.&.&.&.&.i.i.N.N.i.&.&.&.&.&.&.&.i.z.R.b.pXR.z.z.M.M.z.z.z.z.z.M.R.R.N.z.M.M.z.z.z.M.z.z.M.M.z.z.M.z.z.M.N.R.R.!.M.z.z.z.z.z.z.z.z.z.M.gX] d s d ( l.l.v.T.~.o 8 0 0 0 6 0XFX0X6 0 0 0 8 * r B B B ..q.q.] = 2 N n n ;.4X4X4X8 = 0 0 0 0 6 0 0 0 0 8 8 0 8 ",
"k.f.h.V.B.m.a.a.a.a.a.a.a.h.h.V.C.h.a.a.a.h.f.a.a.a.a.a.h.m.V.B.f.h.f.a.a.f.h.s.f.A.A.G.F.h.h.f.h.h.B.C.V.m.a.a.a.a.a.a.a.a.a.a.a.a.a.a.h.h.V.m.V.V.h.a.a.a.a.a.h.h.!.L.'.L.n.D.:Xp.u.u.u.u.u.g.n.V.C.C.C.u.u.u.u.g.u.u.u.u.u.u.g.u.u.g.g.n.!.u.u.u.u.u.u.u.u.u.Q &.&.&.&.&.&.i.z.N.!.i.&.&.&.&.&.&.&.i.i.N./.pXi.z.z.M.M.z.z.z.z.z.M.N.!.!.z.M.M.z.z.z.M.z.z.M.M.z.z.M.z.z.M.M.R.N.Q.R.z.z.z.z.z.z.z.z.z.M.gX .d s d  .3...Y.~.~.o 8 0 0 0 6 0XFX0X6 0 0 0 8 * r B B B ..4.q.] = 2 N n n ;.4X4X4X8 = 0 0 0 0 p 0 8 8 0 p 0 8 0 ",
"a.f.h.n.h.f.a.a.a.a.a.a.a.h.n.h.n.a.a.a.a.h.a.a.a.a.a.a.h.h.h.n.a.h.a.a.a.f.f.s.f.A.A.G.F.h.h.f.h.f.f.h.h.h.a.a.a.a.a.a.a.a.a.a.a.a.a.a.f.h.n.h.h.n.a.a.a.a.a.a.h.m.h.L.].m.m.h.;Xa.u.u.u.u.u.g.g.g.g.g.g.u.u.u.u.g.u.u.u.u.u.u.g.u.u.g.u.i.g.u.u.u.u.u.u.u.u.$.Q k.%.&.&.&.&.i.z.z.i.i.&.&.&.&.&.&.&.i.z.p.pXR.-.z.z.M.z.z.z.z.z.z.M.M.M.M.z.M.z.z.z.z.M.z.z.M.M.z.z.M.z.z.M.z.z.M.M.M.z.z.z.z.z.z.z.z.z.M.gX .d f d  . .}  .T.~.o 8 0 0 0 6 0XFX0X6 0 0 0 8 * r B B B ..q.q.] = 2 N n n ;.4X4X4X8 = 0 0 0 0 6 6 p a 8 : 8 0 8 ",
"f.h.f.f.f.f.h.f.h.h.h.h.f.h.f.f.f.f.h.h.f.h.h.f.h.h.f.h.h.f.f.f.f.h.h.f.f.h.h.h.h.A.A.G.F.A.h.h.H.f.f.f.f.f.h.f.h.h.h.h.h.h.h.h.h.h.h.f.h.f.f.f.f.f.f.h.h.h.h.h.A.h.h.K.].H.H.h.D.=Xp.d.d.d.d.g.u.d.d.u.g.g.d.d.g.g.d.d.g.g.d.d.g.d.d.g.d.d.d.d.d.d.d.d.d.d.d.u.j.! i.i.i.i.i.b.i.&.i.i.i.i.i.i.i.i.i.b.$.N.pXb.M.M.M.N.M.M.M.M.M.M.N.M.M.M.M.N.M.M.M.M.N.M.M.M.N.M.M.N.M.M.N.M.M.M.M.M.M.M.M.M.M.M.M.M.M.M.jX..h d ( d d ( _ X.~.o 8 0 8 0 6 AXGX0X6 0 8 0 8 * r B B B ..4.q.] = 2 N n n ;.4X4X4X8 = 0 0 0 6 5.0XDXDXAXw.8 8 0 ",
"g g g g g g g g g g g g g g g g g g g g g g g g g g g g g g g g g g g g g g g g g g g g g g g g g g g g g g g g g g g g g g g g g g g g g g g g g g g g g g g g g g g g g g g g g m a g g g g g g g g g g g g g g g g g g g g g g g g g g g g g g g g g g g g g g u g a d d a a d d d a a a a a a a a d a ]  .d h h h h h h h h h h h h h h h h h h h h h h h h h h h h h h h h h h h h h h h h h h h h h h  .d a p p p p p p p p = 8 0 0 0 8 w.t.w.8 0 0 0 8 * r B B B ..q.q.] = 2 N n n ;.4X4X4X8 = 0 0 6 w.FXqX5.5.w.DXAXp 8 ",
"* * * * * * * * * * * * * * * * * * * * * * * * * * * * * * * * * * * * * * * * * * * * * * * * * * * * * * * * * * * * * * * * * * * * * * * * * * * * * * * * * * * * * * * * * * * * * * * * * * * * * * * * * X * * * * * * * * * * * * * * * * * * * * * * * * * = * * = * * * * * * * * * * * * * = o o * * * o o * * o o o o o o o o o o o o o o o o o o o o o o o o o o o o o o o o o o o o o o o * o * * = = = = = = = = = 8 0 8 0 p : 6 6 p 8 8 0 8 * r N N N } ..X.( = 2 N C n ` 4X4X+.8 = p 6 5.FX5.  O O + 4 wX5.8 ",
"0 0 0 0 0 0 0 0 0 0 0 0 0 0 0 0 0 0 0 0 0 0 0 0 0 0 0 0 0 p 0 p 0 0 0 0 0 0 0 0 0 0 0 0 0 0 0 0 0 0 0 0 0 0 0 0 0 0 0 0 0 0 0 0 0 0 0 0 0 0 0 p p p p p p p p p p p p p p p 0 0 0 p a a a a a a a a a a a a a p 0 = 8 p 0 p p p p p p p p p p p p p p p p p p p p p 0 p 6 = p 0 0 0 0 0 0 0 0 0 0 0 0 0 0 0 p 0 0 p 6 = p p a a a a a a a a a a a a a a a a a a a a a a a a a a a a a a a a a a a a a a a a d a a a a a a a a p 8 = 8 0 8 E.E.p Q.E.Q.l.6 p 8 = 8 8 2 8 8 8 2 8 = 6 p 8 4 8 8 8 8 6 = 0 8 AXt.  = = X _.sX* w.l ",
"= = = = = = = = = = = = = = = = = = = = = = 8 0 8 0 8 8 8 6 8 8 0 0 0 0 0 0 0 0 0 0 8 = = = = = = = = = = = = = = = = = = 1 = = = = 1 0 0 8 k z k z z z z k z z z z z z k z p 0 6 r.CXZXZXZXZXZXZXZXZXZXZXZXCX9X8 = 6 0 z z z k z z z z z z z z z z z z z z z z k z d 8 1 = 0 8 0 0 0 0 0 0 0 0 0 0 0 0 0 0 0 0 8 0 1 = 8 d z a d d d d d d d d d d d d d d d d d d a a d d a d a d d d d d d d d d d d d d d d d d d d d d z p 8 = 8 8 d c.x.3.l.'.c.c.8 0 8 = 8 8 M j m 2 M a = 6 8 t m m 0 t t 2 = 8 l DX' O = . l.PXz o 0.5.",
"* * = X * X X o = = = = = = = = = = o = = * 8 0 0 8 a k p ] 0 z 6 8 1 8 1 8 6 8 6 8 8 o * * = . = = o * = o * = = = = = = = * = = o 1 0 0 8 k p 8 8 8 8 8 0 8 8 8 8 8 8 8 k a 8 6 9Xe.9.e.9.9.9.9.9.9.9.9.9.e.9X8 = 6 0 z 8 8 0 8 8 8 8 8 8 8 8 8 8 0 8 8 8 8 8 8 a k 8 1 = 0 8 0 0 0 0 0 0 0 0 0 0 0 0 0 0 0 0 8 0 1 = 8 d a 8 8 8 8 8 8 8 8 8 8 8 8 8 8 8 8 8 0 8 p a 8 8 p 8 p 8 8 8 8 8 8 8 8 8 8 8 8 8 8 8 8 8 8 8 8 8 k a 8 = 8 0 8 E.Q.l.!.!.Q.x.6 p 8 = 0 g M j M a D.g = 2 r t N m 9 t N 2 = 6 ' DX4 o = * 8 = . = 1.5.",
"X c.z 6 6 p p 0 * = = = = = = = = = = sX... 8 0 0 8 /.2.E.x.0 /.l.z v.a v.] 3.!.x.k = [ !.[ 8 p z | o d !.3.Q.| X = = = = 1 . Y.aXX 1 0 0 8 k 0 } l.3.3.v.] k | | l.3.| p d a 8 6 9Xe.e.e.9Xe.e.9X9Xe.9Xe.e.e.9X8 = 6 0 z 8 3.| x.l.3.l.| l.} v.k | } v.| k | Y.} 0 k 8 1 = 0 8 0 0 0 0 0 0 0 0 0 0 0 0 0 0 0 0 8 0 1 = 8 d a 8 0 0 0 0 0 0 0 0 0 0 0 0 0 0 0 6 } [ } Y.W.[ 3.Y.[ 8 0 0 0 0 0 0 0 0 0 0 0 0 0 0 0 0 0 0 0 8 k a 8 = 8 0 8 a a p a 0 a p 8 0 8 = 8 p j a g g M g = 6 0 t m r 9 m t 2 = 8 l DX5.O = = * * = = 0.' ",
"c.E.!./._.3.!.E.= = = = = = = = = = 8 Y.} o 8 0 0 8 3.Q.Q.o 0 !.!._.c.'.c.Q.!._.| a * l./.l.E.!.c.'.0 z '.l.l.p X = = = = 1 * 3.x.2 = 0 0 8 z 8 l.x.Y.Y.Y.] | W.E.l.3.W.6 k a 8 6 9Xe.9Xe.9Xe.e.e.9Xe.ZXe.e.e.9X8 = 6 0 z 8 3.| | x.3.W.x.x.l.] 3.} x.Y.v.z } 3.z 0 k 8 1 = 0 8 0 0 0 0 0 0 0 0 0 0 0 0 0 0 0 0 8 0 1 = 8 d a 8 0 0 0 0 0 0 0 0 0 0 0 0 0 0 0 6 } ] k l.Y.Q.l.aXa 8 0 0 0 0 0 0 0 0 0 0 0 0 0 0 0 0 0 0 0 8 k a 8 = 8 0 0 8 6 8 p p 8 8 0 0 8 = 8 8 8 8 8 0 8 0 = 6 0 i 8 8 8 i 8 6 = 0 6 0X0XO = = = = O 5 w.p ",
"Y.E.Q.E.Y.d 3.l.8 * = = = = = = = = = sX3.. 8 0 0 8 l.E.c.c.8 E.E.v.E.l.!.2.E.!.x.z o l.k a Q.] E.'.d k _.l.l.p o = = = = 1 . W.aXX 1 0 0 8 k 0 } a } 3.v.[ ] x.3.3.l.| a d a 8 6 9Xe.e.e.9X9Xe.e.9Xe.9Xe.9Xe.9X8 = 6 0 z 8 } 3.] 3.| 3.3.3.} x.k ] Y.] k x.3.| d p k 8 1 = 0 8 0 0 0 0 0 0 0 0 0 0 0 0 0 0 0 0 8 0 1 = 8 d a 8 0 0 0 0 0 0 0 0 0 0 0 0 0 0 0 8 ] Y.3.x.z x.3.| l.} | z 8 0 0 0 0 0 0 0 0 0 0 0 0 0 0 0 0 8 k a 8 = 8 0 0 8 p E.!.Q.l.6 0 0 8 = 8 8 | ] | 8 v.k = 6 8 ) o.o.i ) o.6 = 0 8 ' DXt.= = = o 5 w.' 8 ",
"= z = a 8 = 6 6 = = = = = = = = = = X i = * 8 0 0 8 a 8 8 a 8 8 0 8 p 6 p 8 p 8 p p 6 6 = = 8 6 8 1 8 = z 6 6 = = = = = = 1 * 1 8 X 1 0 0 8 k p 8 8 8 8 0 0 6 8 8 8 8 8 8 d a 8 6 9Xe.7.9.9.9.9.9.9.9.7.9.7.e.9X8 = 6 0 z 8 p 8 8 8 p 6 8 p 8 0 8 p 8 8 8 p 0 8 8 p k 8 1 = 0 8 0 0 0 0 0 0 0 0 0 0 0 0 0 0 0 0 8 0 1 = 8 d a 8 8 8 8 8 8 8 8 8 8 8 8 8 8 8 8 8 8 p p 8 8 6 8 8 8 8 8 8 8 8 8 8 8 8 8 8 8 8 8 8 8 8 8 8 8 8 k a 8 = 8 0 0 6 c.Q.Q._.E.6 0 0 8 = p k } k | 8 | p = 6 ) o.+.o.s o.o.6 = 8 p 6 5.0Xp 6 6 6 ' 5.8 0 ",
"= X = X * = * * = = = = = = = = = = = * = = 8 0 8 0 8 0 0 8 0 8 8 0 8 0 8 0 8 0 8 0 8 * = = * = * = * = . * = = = = = = = 1 = = * = 1 0 0 8 k z k k k k k k k k k k k k k z a 0 6 9XCXZXCXCXCXCXCXCXCXCXCXZXCX9X8 = 6 0 z z k k k k k k k k k k k k k k k k k k k z k 8 1 = 0 8 8 8 8 8 8 8 8 8 8 8 8 8 8 8 8 8 8 0 1 = 8 d z a a a a a a a a a a a a a a a a a a a a a a a a a a a a a a a a a a a a a a a a a a a a a a a z p 8 = 8 0 0 6 v.Q.!./.c.8 0 0 8 = 8 0 d a d a d 8 = 1 0 ) ) s s o.) 6 = 8 8 0 8 6 8 0 0 0 8 8 8 0 ",
"0 0 0 0 0 0 0 0 0 0 0 0 0 0 0 0 0 0 0 0 0 0 0 0 0 0 0 0 0 0 0 0 0 0 0 0 0 0 0 0 0 0 0 0 0 0 0 0 0 0 0 0 p 0 0 0 0 0 0 0 0 0 0 0 0 0 0 0 0 0 p a a a a a a a a a a a a a a p 0 0 0 a l l l l l l l l l l l l l l 0 = 8 p p a a a a a a a a a a a a a a a a a a a a a p p 1 = p 0 0 0 0 0 0 0 0 0 0 0 0 0 0 0 0 0 0 p 6 = p p d d d d d d d d d d d d d d d d d d d d d d d d d d d d d d d d d d d d d d d d d d d d d d d d a p 8 = 8 p 0 0 p z a ] a 0 0 p 8 = 0 0 8 0 8 0 8 p = 6 p 8 8 0 0 w 0 8 = 0 0 0 p p 0 0 0 0 0 p 0 0 ",
"= = = = = = = = = = = = = = = = = = = = = = = = = = = = = = = = = = = = = = = = = = = = = = = = = = = = = = = = = = = = = = = = = = = = = = = = = = = = = = = = = = = = = = = = = = o o o o o o o o o o o o o = = * = = = = = = = = = = = = = = = = = = = = = = = = = = * * = = = = = = = = = = = = = = = = = = = = * * = = = = = = = = = = = = = = = = = = = = = = = = = = = = = = = = = = = = = = = = = = = = = = = = = = = = = o = = = = = o = o = = = = = o = = = = = = = = * * = = = = = = = = * = = = = = = = = = = = = = ",
"p p p p p p p p p p p p p p p p p p p p p p p p p p p p p p p p p p p p p p p p p p p p p p p p p p p p p p p p p p p p p p p p p p p p p p p p p p p p p p p p p p p p p p p p p p p p p p p p p p p p p p p p p p p p p p p p p p p p p p p p p p p p p p p p p p p p p p p p p p p p p p p p p p p p p p p p p p p p p p p p p p p p p p p p p p p p p p p p p p p p p p p p p p p p p p p p p p p p p p p p p p p p p p p p p p p p p p p p p p p p p p p p p p p p p p p p p p p p p p p p p p p p p p p p p p p p p p p p ",
"{ { { { { { { { { { { { { { { { { { { { { { { { { { { { { { { { { { { { { { { { { { { { { { { { { { { { { { { { { { { { { { { { { { { { { { { { { { { { { { { { { { { { { { { { { { { { { { { { { { { { { { { { { { { { { { { { { { { { { { { { { { { { { { { { { { { { { { { { { { { { { { { { { { { { { { { { { { { { { { { { { { { { { { { { { { { { { { { { { { { { { { { { { { { { { { { { { { { { { { { { { { { { { { { { { { { { { { { { { { { { { { { { { { { { { { { { { { { { { { { { { { { { { { { { { { { { { { { { ",
"[ [ [ [ [ [ [ [ [ [ [ [ [ [ [ [ [ [ [ [ [ [ [ [ [ [ [ [ [ [ [ [ [ [ [ [ [ [ [ [ [ [ [ [ [ [ [ [ [ [ [ [ [ [ [ [ [ [ [ [ [ [ [ [ [ [ [ [ [ [ [ [ [ [ [ [ [ [ [ [ [ [ [ [ [ [ [ [ [ [ [ [ [ [ [ [ [ [ [ [ [ [ [ [ [ [ [ [ [ [ [ [ [ [ [ [ [ [ [ [ [ [ [ [ [ [ [ [ [ [ [ [ [ [ [ [ [ [ [ [ [ [ [ [ [ [ [ [ [ [ [ [ [ [ [ [ [ [ [ [ [ [ [ [ [ [ [ [ [ [ [ [ [ [ [ [ [ [ [ [ [ [ [ [ [ [ [ [ [ [ [ [ [ [ [ [ [ [ [ [ [ [ [ [ [ [ [ [ [ [ [ [ [ [ [ [ [ [ [ [ [ [ [ [ [ [ [ [ [ [ [ [ [ [ [ [ [ [ [ [ [ [ [ [ [ [ [ [ [ [ [ [ [ [ [ [ ",
"[ [ [ [ [ [ [ [ [ [ [ [ [ [ [ [ [ [ [ [ [ [ [ [ [ [ [ [ [ [ [ [ [ [ [ [ [ [ [ [ [ [ [ [ [ [ [ [ [ [ [ [ [ [ [ [ [ [ [ [ [ [ [ [ [ [ [ [ [ [ [ [ [ [ [ [ [ [ [ [ [ [ [ [ [ [ [ [ [ [ [ [ [ [ [ [ [ [ [ [ [ [ [ [ [ [ [ [ [ [ [ [ [ [ [ [ [ [ [ [ [ [ [ [ [ [ [ [ [ [ [ [ [ [ [ [ [ [ [ [ [ [ [ [ [ [ [ [ [ [ [ [ [ [ [ [ [ [ [ [ [ [ [ [ [ [ [ [ [ [ [ [ [ [ [ [ [ [ [ [ [ [ [ [ [ [ [ [ [ [ [ [ [ [ [ [ [ [ [ [ [ [ [ [ [ [ [ [ [ [ [ [ [ [ [ [ [ [ [ [ [ [ [ [ [ [ [ [ [ [ [ [ [ [ [ [ [ [ [ [ [ [ [ [ [ [ [ [ [ [ [ [ [ [ [ [ ",
"[ [ [ [ [ [ [ [ [ [ [ [ [ [ [ [ [ [ [ [ [ [ [ [ [ [ [ [ [ [ [ [ [ [ [ [ [ [ [ [ [ [ [ [ [ [ [ [ [ [ [ [ [ [ [ [ [ [ [ [ [ [ [ [ [ [ [ [ [ [ [ [ [ [ [ [ [ [ [ [ [ [ [ [ [ [ [ [ [ [ [ [ [ [ [ [ [ [ [ [ [ [ [ [ [ [ [ [ [ [ [ [ [ [ [ [ [ [ [ [ [ [ [ [ [ [ [ [ [ [ [ [ [ [ [ [ [ [ [ [ [ [ [ [ [ [ [ [ [ [ [ [ [ [ [ [ [ [ [ [ [ [ [ [ [ [ [ [ [ [ [ [ [ [ [ [ [ [ [ [ [ [ [ [ [ [ [ [ [ [ [ [ [ [ [ [ [ [ [ [ [ [ [ [ [ [ [ [ [ [ [ [ [ [ [ [ [ [ [ [ [ [ [ [ [ [ [ [ [ [ [ [ [ [ [ [ [ [ [ [ [ [ [ [ [ [ [ [ [ [ [ [ [ [ [ [ ",
"{ { { { { { { { { { { { { { { { { { { { { { { { { { { { { { { { { { { { { { { { { { { { { { { { { { { { { { { { { { { { { { { { { { { { { { { { { { { { { { { { { { { { { { { { { { { { { { { { { { { { { { { { { { { { { { { { { { { { { { { { { { { { { { { { { { { { { { { { { { { { { { { { { { { { { { { { { { { { { { { { { { { { { { { { { { { { { { { { { { { { { { { { { { { { { { { { { { { { { { { { { { { { { { { { { { { { { { { { { { { { { { { { { { { { { { { { { { { { { { { { { { { { { { { { { { { { { { { { ",
"] ] ] ] z z ] ] z z z z z z z z z z z z z z z z z z z z z z z z z z z z ] ] z z z z z z z z z z z z z z z z z z z z z z z z z z z z z z z z z z z z z ] ] ] ] ] ] ] ] ] ] ] ] ] ] ] ] ] ] ] ] ] ] ] ] ] ] ] ] ] ] ] ] z z z z z z z z z z z z z z z z z z z z z z z z z z z z z z z z z z z z z z z z z z z z z z z z z z z z z z z z z z z z z z z z z z z z z z z z z z z z z z z z z z z z z z z z z z z z z z z z z z z z z z z ] ] z z z z z z z z z z z z z z z z z z z z z z z z z z z z z ] z z z z z z z z z z z z z z ",
"8 8 8 8 = 8 0 0 q q q q q q q q q q q q q q q q q q q q q q q q q q q q 0 0 1 . = = = = = = = = = = = = = = = 1 1 1 = = = = = = = = = = = = = = = * 8 0 0 q q q q q q q q q q q q q q q q q q q q q q q q q q q q 8 0 * * = = = = = = = = = = = = = = 1 1 1 = = = = = = = = = = = = = = = X * = = = = = = = = = = = = = = = 1 1 = = = = = = = = = = = = = = = . = = = = = = = = = = = = = = = 1 1 1 = = = = = = = = = = = = = = = = 8 8 a a a a a a a a a a a a a a a a a a a a a a a a a a a a 0 0 * X = = = = = = = = = = = = ",
"0 0 0 8 = 8 0 >X<X<X<X<X<X<X<X<X<X<X<X<X<X<X<X<X<X<X<X<X<X<X<X<X<X<X<X<X>X3 6 X = 6 p 0 i i i i i i i i i i i 8 8 8 i i i i i i i i i i i 0 p 2 = = 8 q U 1XU U U U U U U U U U U U U U U U U U U U U U U U U U 1XA i = * = 8 p 0 i i i i i i i i i i 8 8 8 8 i i i i i i i i i i 0 p 8 = X * = 8 p 0 i i i i i i i i i i 0 8 8 0 i i i i i i i i i i 0 p 2 = X = 1 p i i i i i i i i i i i i 8 8 8 i i i i i i i i i i 0 p i = = = 6 X.cXxXxXxXxXxXxXxXxXxXxXxXxXxXxXxXxXxXxXxXxXxXxXxXxXxXxXcX(.1 = * = 8 p 0 i i i i i i i i ",
"0 0 0 8 = 8 p <X}.}.}.}.}.}.}.}.}.}.}.}.}.}.}.}.}.}.}.}.}.}.}.}.}.}.}.}.>X3 6 X = 8 8 = = = = = = = = = = = = 6 i p = = = = = = = = = = = = 8 2 = = 8 q 1XJ J J J J J J J J J J J J J T J J J J J J J J J J J Z U Y , = * = 0 2 = = = = = = = = = = = 2 8 8 2 = = = = = = = = = = = 8 8 = X * = 8 2 = = = = = = = = = = = 2 i p = = = = = = = = = = = = 8 2 = X = 1 i = = = = = = = = = = = = 8 8 i = = = = = = = = = = = 1 i = = = 1 T.xXtXyXyXyXyXyXyXyXyXyXyXyXuXfXfXyXyXyXyXyXyXyXyXyXyXtXhXiX# = * = 8 2 = = = = = = = = = ",
"0 0 0 8 = 8 p <X}.}.}.}.}.}.}.}.}.}.}.{. X<X X}.}.}.}.}.}.}.}.}.}.}.}.}.>X3 6 X = 8 8 = = = = = = = = = = = = 3.] d 1 = = = = = = = = = = = 8 2 = = 8 q U J J J J J J J J J J J J I U I T J J J J J J J J J J Z I Y , = * = 8 2 = = = = = = = = = 1 = ] ..} i = = = = = = = = = = = 8 8 = X * = 8 2 = = = = = = = = = 1 = ] 3.] 2 = = = = = = = = = = = 8 2 = X = 1 0 = = = = = = = = = = = = ....( = = = = = = = = = = = 1 0 = = = 1 >.xXtXyXyXyXyXyXyXyXyXyXyXuXcXhXfXyXyXyXyXyXyXyXyXyXyXtXhXiX# = * = 8 6 = = = = = = = = = ",
"0 0 0 8 = 8 p <X}.}.}.}.}.}.}.}.}.}.}.}. X X}.}.}.}.}.}.}.}.}.}.}.}.}..X>X3 6 X = 8 8 = = = = = = = = = = = =  .( ( = 1 = = = = = = = = = = 8 2 = = 8 q U J J J J J J J J J J J J I I I J J J J J J J J J J J Z U Y , = * = 8 2 = = = = = = = = = 1 = ( ]  .8 = = = = = = = = = = = 8 8 = X * = 8 2 = = = = = = = = = 1 = ( k ( i = = = = = = = = = = = 8 2 = X = 1 0 = = = = = = = = = = = =  .( ] = = = = = = = = = = = 1 0 = = = 1 >.xXtXyXyXyXyXyXyXyXyXyXyXfXhXfXuXyXyXyXyXyXyXyXyXyXyXtXhXiX# = * = 8 6 = = = = = = = = = ",
"0 0 0 8 = 8 a <X}.{.{.{.{.{.{.{.{.{.{.{.{.{.{.{.{.{.{.{.{.{.{.{.{.{.{.}.>X3 6 X = 8 8 = = = = = = = = = = = = = = 2 = = = = = = = = = = = = 8 2 = = 8 q U Z Z Z Z Z Z Z Z Z Z Z Z Z Z J Z Z Z Z Z Z Z Z Z Z J Z I Y , = * = 8 1 = = = = = = = = = = = = = = = = = = = = = = = = = = 6 8 = X * = 8 1 = = = = = = = = = = = = = 1 = = = = = = = = = = = = 8 2 = X = 1 0 = = = = = = = = = = = = = = = = = = = = = = = = = = = 0 = = = 1 T.xXtXtXtXtXtXtXtXtXtXtXtXtXtXtXtXtXtXtXtXtXtXtXtXtXtXtXhXiX# = * = 8 2 = = = = = = = = = ",
"0 0 0 8 = 8 0 <X<X<X<X<X<X<X<X<X<X<X<X<X<X<X<X<X<X<X<X<X<X<X<X<X<X<X<X<X>X3 6 X = 6 p 8 8 8 8 8 8 8 8 8 8 8 8 0 8 8 8 8 8 8 8 8 8 8 8 8 8 8 p 2 = = 8 q 1X1XU U U U U U U U U U U U U U U U U U U U U U U U 1XU 1XA i = * = 8 p 8 8 8 8 8 8 8 8 8 8 8 8 0 0 8 8 8 8 8 8 8 8 8 8 8 8 p 8 = X * = 8 p 8 8 8 8 8 8 8 8 8 8 8 8 8 8 8 8 8 8 8 8 8 8 8 8 8 8 p 2 = X = 1 p 8 8 8 8 8 8 8 8 8 8 8 8 8 8 8 8 8 8 8 8 8 8 8 8 8 8 i p = = = 6 X.cXxXcXcXcXcXcXcXcXcXcXcXcXcXcXcXcXcXcXcXcXcXcXcXcXcXxXcXtX1 = * = 8 p 8 8 8 8 8 8 8 8 8 ",
"0 0 0 8 = 8 0 j m m m m m m m m m m m m m m m m m m m m m m m m m m m m j 0 1 X = = 2 2 2 2 2 2 2 2 2 2 2 2 2 2 2 2 2 2 2 2 2 2 2 2 2 2 2 2 2 = = = 8 0 y u u u u u u u u u u u u u u u u u u u u u u u u u u u u q 0 * * 1 1 2 2 2 2 2 2 2 2 2 2 2 2 2 2 2 2 2 2 2 2 2 2 2 2 2 2 2 2 = = X * 1 1 2 2 2 2 2 2 2 2 2 2 2 2 2 2 2 2 2 2 2 2 2 2 2 2 2 2 2 2 = = X = = 1 2 2 2 2 2 2 2 2 2 2 2 2 2 2 2 2 2 2 2 2 2 2 2 2 2 2 2 1 = = = 8 p  . . . . . . . . . . . . . . . . . . . . . . . . . . . .a 0 = * 1 1 2 2 2 2 2 2 2 2 2 2 ",
"0 0 0 8 = 8 0 2 3 3 3 3 3 3 3 3 3 3 3 3 3 3 3 3 3 3 3 3 3 3 3 3 3 3 3 3 8 0 1 X = = = = = = = = = = = = = = = = = = = = = = = = = = = = = = = = = = 8 0 8 8 8 8 8 8 8 8 8 8 8 8 8 8 8 8 8 8 i i i i i i i i 8 8 8 8 0 * * 1 = = = = = = = = = = = = = = = = = = = = = = = = = = = = = = 1 X * 1 = = = = = = = = = = = = = = = = = = = = = = = = = = = = = = = X = = = = = = = = = = = = = = = = = = = = = = = = = = = = = = = = = = 0 8 6 6 6 6 6 6 6 6 6 6 6 6 6 6 6 6 6 6 6 6 6 6 6 6 6 6 6 6 8 p = * 1 = = = = = = = = = = = ",
"0 0 0 8 = 8 0 0 0 0 0 0 0 0 0 0 0 0 0 0 0 6 6 0 0 0 0 0 0 0 0 0 0 0 0 0 0 0 1 X = = = = = = = = = = = = = = = = = = = = = = = * = = = = = = = = = = 8 0 0 0 0 0 i i i 0 0 0 0 0 0 0 0 0 0 0 8 6 6 6 0 8 6 8 0 0 0 0 0 * * 1 = = 1 = = = = = = = = = = = = = = = = = = = = = = = = = = = 1 X * 1 = = 1 = = * = = = = = = = = = = = = = = = = = = = = = = = = = X = = = = 1 = * * * = 1 = = = = = = = = = * = = = = = * = = = = = = = 0 0 0 p p 6 7 7 8 p p 0 0 0 0 0 0 0 0 p 8 6 0 6 8 8 p 0 0 0 0 0 = * 1 = = = = * * * = 1 = = ",
"0 0 0 8 = 8 0 8 0 0 0 0 0 0 0 0 0 0 0 0 6 l.l.6 0 0 0 0 0 0 0 0 0 0 0 0 8 0 1 X = = = = = 6 w w 6 = = = = = = = = = = = = k k } = k ] = = = = = = = 8 0 8 0 i 0 & & & 0 i 0 0 0 0 0 0 0 0 8 a v.3.c.p z c.a 8 0 0 8 0 * * 1 = 1 = = 8 0 0 2 = = = = = = = = = = = a ] ] k k ] = = = = = 1 X * 1 = 1 = = l 2.l 2 = = = = = = = = = = = d d z k ] a = = = = = = X = = = 1 = 6 ' } k 2 = 1 = = = = = = = = ] a } a ] k | a = = = = = = 0 0 0 8 6  .O.+.o.8 8 0 0 0 0 0 0 0 0 8 z x.p 3.| | 6 0 0 0 8 0 = * 1 = = = = g #.x 9 * = = ",
"0 0 0 8 = 8 0 8 0 0 0 0 0 0 0 0 0 0 0 8 a E.E.a 8 0 0 0 0 0 0 0 0 0 0 0 8 0 1 X = = = = q r w w r r 1 = = = = = = = = = p Y.3.| d } | 8 = = = = = = 8 0 0 i & A & & A A y i 0 0 0 0 0 0 0 8 z sXQ./.k 1 E.{ 6 0 0 8 0 * * 1 = = 8 2.y 1 0 y 0 = = = = = = = = = = = | x.| 8 3.2 = = = = 1 X * 1 = = 8 5.5.' l l p = = = = = = = = = 1 c.] ] 3.a | * 1 = = = = X = = 1 = k 4.2.} 4.4.d = 1 = = = = = = = 3.] l.[ W.a | d = = = = = = 0 0 0 6 yXbXO.+.4X4Xi 8 0 0 0 0 0 0 0 8 a /.x._.l.E.1 p 0 0 8 0 = * 1 = = 8 d.d.*.$.m.#.= = ",
"0 0 0 8 = 8 0 8 0 0 0 0 0 0 0 0 0 0 0 8 a E.!.a 8 0 0 0 0 0 0 0 0 0 0 0 8 0 1 X = = = w r X . . . w r = = = = = = = 1 = } W.v.| ] } 3.8 = = = = = = 8 0 i 7 A   * - - % A q 8 0 0 0 0 0 0 6 ] '.x.l.E.[ Q.p 8 0 0 8 0 * * 1 = 1 2.y d f   o y 8 = = = = = = = 1 = k 3.6 3.3.[ = 1 = = = 1 X * 1 = 1 4.l + 6 } . l 0 = = = = = = = = 6 l.3.] l.3.a = = = = = = X = 1 = a Y.2     + p 2.1 = = = = = = 1 * [ a k Y.v.[ } = 1 = = = = = 0 p 6 yXhX* c.g   +.4X8 0 0 0 0 0 0 0 8 a Q.'.sX2.x.6 p 0 0 8 0 = * 1 = = n.x       o h.M * ",
"0 0 0 8 = 8 0 8 0 0 0 0 0 0 0 0 0 0 0 0 6 | | 8 0 0 0 0 0 0 0 0 0 0 0 0 8 0 1 X = = 6 u . +   X . . r w = = = = = = = = = p d ] p d k = = = = = = = 8 0 i J & T.k o = - & A i 0 0 0 0 0 0 8 a l.| l.] l.c.a 8 0 0 8 0 * * 1 * z 2.+ v.aX  . = y = = = = = = = 1 = k [ k k ] ] = = = = = 1 X * 1 = ' 5.  + Y.aX+ = l = = = = = = = = = d k k k | d = = = = = = X = 1 = 4.l   X * /.| = l = = = = = = = = p p ] a ] a i = = = = = = = 0 8 ( bXi + PX/.  o 4Xo.7 0 0 0 0 0 0 8 ] l.p [ k z 8 0 0 0 8 0 = * 1 * x d.  X X X . : m.6 ",
"0 0 0 8 = 8 0 8 0 0 0 0 0 0 0 0 0 0 0 8 0 6 6 0 8 0 0 0 0 0 0 0 0 0 0 0 8 0 1 X 1 = w w 8 Y.d   X . w w = = = = = = = = = = = = = * * 1 = = = = = = 8 0 q I % sXLX= = = # A 8 0 0 0 0 0 0 0 8 6 6 6 8 6 1 8 0 0 0 8 0 * * 1 * 2.l   = ] . X . y 2 = = = = = = = = = * = = X o = = = = = 1 X * 1 * 5.l . . f f . X l 2 = = = = = = = = = * = * X * = = = = = = X = = 2 4.= .   f /.= * l = = = = = = = = = = * = * * = 1 = = = = = = p 6 O.gXO X ] ] * O +.+.7 i 0 0 0 0 8 8 8 6 8 8 8 8 0 8 0 0 8 0 = * 1 * &.x   X . *     d.a ",
"0 0 0 8 = 8 0 8 0 0 0 0 0 0 0 0 0 0 8 0 8 a p p 0 8 0 0 0 0 0 0 0 0 0 0 8 0 1 X 1 = q m d /.]   X . w q = = = = = = = = = = 6 = 8 8 8 = = = = = = = 8 0 q I %   8 = = - % A 8 0 0 0 0 0 0 0 8 p p 8 8 8 0 0 8 0 0 8 0 * * 1 * 2.l   X   X X . y 6 = = = = = = = = = 1 1 = i 8 1 = = = = 1 X * 1 * 5.l   X     X . l 2 = = = = = = = = = 6 = 6 i 8 = = = = = = X = = 2 4.= . X .     = l = = = = = = = = = = 6 = 8 8 8 = = = = = = = p 6 X.gX. = . . = O +.+.7 i 0 0 0 8 0 p 8 8 8 0 8 0 8 8 8 0 8 0 = * 1 * $.x   X   Q.Q.. d.a ",
"0 0 0 8 = 8 0 8 0 0 0 0 0 0 0 0 0 6 [ Q.!.!.6 | Q.a 8 0 0 0 0 0 0 0 0 0 8 0 1 X 1 = 6 k.o +   X . . r 6 = = = = = = = = = [ 3.k v.Y.d = 1 = = = = = 8 0 i T A - o = = - & A i 0 0 0 0 0 0 0 8 [ Q.k E.x.v.1 0 0 0 8 0 * * 1 = l 2.  X X X . = y = = = = = = = = = 8 3.} ] Y.v.1 = = = = 1 X * 1 = l 5.  . X X . = l = = = = = = = 1 = d l.] | Y.| * 1 = = = = X = 1 = 4.k   X X X . i a = = = = = = = = = ] 3.k v.Y.d = 1 = = = = = 0 8 d bXs   = = = o 4Xo.7 0 0 0 0 8 k Q.z E.c.!.c.E.E.E.8 0 8 0 = * 1 * x d.  X . 8 x.9 f.6 ",
"0 0 0 8 = 8 0 8 0 0 0 0 0 0 0 0 0 6 | sXx.E.z 1 E.a 8 0 0 0 0 0 0 0 0 0 8 0 1 X = 1 * x W = . . . w r = = = = = = = = = 8 3.= x.3.l.i = = = = = = = 8 0 i y 1X& - = - % A 0 8 0 0 0 0 0 0 0 8 p Q.Q._.2.c.1 p 0 0 8 0 * * 1 = = 2.z . X . * y 8 = = = = = = = 1 * ] k a Y.3...= 1 = = = 1 X * 1 = = 4.' . X . * l 8 = = = = = = = 1 * 3.2 | v.l.] * 1 = = = = X = 1 = p W.p . X . 2 l 2 = = = = = = = = 8 3.= x.3.l.i = = = = = = = 0 p 6 tXbXi o = o +.4X8 0 0 0 0 0 0 6 l.E.sXQ.c._.E./.x.z 8 0 0 = * 1 = = d.$.. X     j g = ",
"0 0 0 8 = 8 0 8 0 0 0 0 0 0 0 0 0 6 2._.l.E.x.!.Q.8 0 0 0 0 0 0 0 0 0 0 8 0 1 X = = = = x 9 * = = w = = = = = = = = = = = | | } ] [ 6 = = = = = = = 8 0 0 i A A , 6 8 & 7 i 0 0 0 0 0 0 0 0 8 [ Q.!._.| l.6 0 0 0 8 0 * * 1 = = 8 z = = = 6 8 = = = = = = = = = = p 3.| [ ] ] = 1 = = = 1 X * 1 = = 8 ' = = = 2 8 = = = = = = = = 1 = ] 3.} ] [ a = 1 = = = = X = = 1 = k k * = = p 8 = = = = = = = = = = | | } ] } 6 = = = = = = = 0 0 0 6 tX .1 6 i +.i 8 0 0 0 0 0 6 2.'.l.'.Q.Q.Q.Q.Q.!.p 8 0 0 = * 1 = = 6 #.= = = 8 9 = = ",
"0 0 0 8 = 8 0 8 0 0 0 0 0 0 0 0 0 8 p z k z a z ] p 8 0 0 0 0 0 0 0 0 0 8 0 1 X = = = = * = 1 1 = = = = = = = = = = = = = 2 a = 6 6 1 = = = = = = = 8 0 8 0 i i 0 0 0 i 8 0 0 0 0 0 0 0 0 0 8 k z 1 0 p p 8 0 0 0 8 0 * * 1 = = = = = 1 1 = = = = = = = = = = = = = i 8 = 6 2 = = = = = 1 X * 1 = = = = = 1 1 = = = = = = = = = = = = = a 2 1 6 2 = = = = = = X = = = 1 = = 1 = = = = = = = = = = = = = = 2 a = 6 6 1 = = = = = = = 0 0 0 0 6 8 p 0 0 7 8 0 0 0 0 0 0 8 a [ 0 8 a k a d a d 8 0 8 0 = * 1 = = = * = 1 1 = = = = ",
"0 0 0 8 = 8 0 0 0 0 0 0 0 0 0 0 0 0 0 8 8 8 0 8 8 0 0 0 0 0 0 0 0 0 0 0 0 0 1 X = = 1 1 6 1 1 1 1 1 1 1 1 1 1 1 1 1 1 1 1 = = 1 = = 1 1 1 1 1 = = = 8 0 0 0 0 0 0 0 0 0 0 0 0 0 0 0 0 0 0 0 0 8 8 0 0 0 0 0 0 0 0 0 0 * * 1 1 1 1 1 1 1 1 1 1 1 1 1 1 1 1 1 1 1 1 1 = = 1 1 1 1 1 1 1 1 = X * 1 1 2 2 2 2 2 2 2 2 2 2 2 2 2 2 2 2 2 2 2 = 1 2 1 2 2 2 2 2 = = X = = 2 2 2 2 2 2 2 2 2 2 2 2 2 2 2 2 2 2 2 2 = 2 2 2 2 2 2 2 2 = = = 0 0 p p a p p p p p p p p p p p p p 0 8 p p p 8 p 0 p 0 p p 0 0 = * 1 = > > > > > > > > > > ",
"0 0 0 8 = 8 0 3 3 3 3 3 3 3 3 3 3 3 3 3 3 3 3 3 3 3 3 3 3 3 3 3 3 3 3 3 3 0 1 X 1 = ; ; ; ; ; ; ; ; ; ; ; ; ; ; ; ; ; ; ; ; ; ; ; ; ; ; ; ; ; = = = 8 0 , , , , , , , , , , , , , , , , , , , , , , , , , , , , , 8 0 * * 1 = = = = = = = = = = = = = = = = = = = = : = = = = = = = = = 1 X * 1 = O O O O O O O O O O O O O O O O O O O @ O O O O O O O O = = . = = O O O O O O O O O O O O O O O O O O O O @ O O O O O O O O 1 = = 0 8 # # # # # # # # # # # # # # # # # # # # # # # # # # # # 6 p = * 1 * * # # # # # # # # # ",
"0 0 0 8 = 8 0 {.%X%X%X%X%X%X%X%X%X%X%X%X%X%X%X%X%X%X%X%X%X%X%X%X%X%X%X%XV 8 6 X = w v v v v v v v v v v v v v v v v v v v v v v v v v v v v v 6 = = 8 0 Y Y Y Y Y Y Y Y Y Y Y Y Y Y Y Y Y Y Y Y Y Y Y Y Y Y Y Y Y u i * * = 5 F F F F F F F F F F F F F F F F F F F F F F F F F F F F 5 = X * = / 7.0.0.0.0.0.0.0.0.0.0.0.0.0.0.0.0.0.0.0.0.0.0.0.0.0.0.0.3 = X = 1 8.7X7X7X7X7X7X7X7X7X7X7X7X7X7X7X7X7X7X7X7X7X7X7X7X7X7X7X0.= = = 6 ] uXuXuXuXuXuXuXuXuXuXuXuXuXuXuXuXuXuXuXuXuXuXuXuXuXuXuXuXX.6 = * 1 ` @.@.@.@.@.@.@.@.@.@.",
"0 0 0 8 = 8 p <X X X X X X X X X X X X X X X X X X X X X X X X X X X X<X>X3 6 X ; b #Xc L L L L L L L L L L L L P P L L L L L L L L L L L P #Xw - = 8 q 1XI I I I I I I I I I I I I I I I I I I I I I I I I I T 1XY , = * : D D D D D D D D D D D D D D D D D D D D D D D D D D D D 6.F = X * @ 9.9X9.9.9.9.9.9.9.9.9.9.9.e.9.9.9.9.9.9.9.9.9.9.9.9.9.9.9X4 = X = 2 nXeXeXeXeXeXeXeXeXeXeXeXeXeXeXeXeXeXeXeXeXeXeXeXeXeX8XeXeXo = = 1 T.cXfXhXhXhXhXhXhXhXhXhXhXhXhXhXhXhXhXhXhXhXhXhXhXhXhXfXcXiX# = = # @.*X*X*X*X*X*X*X*X*X*X",
"0 0 0 8 = 8 a >X{.{.{.{.{.{.{.{.{.{.{.{..X.X@X}.{.{.{.{.{.{.{.{.{.{.{.}.>X3 6 X ; b L c c c c c c c c c c c c c P P c c c c c c c c c c c c L w - = 8 q U Z Z Z Z Z Z Z Z Z Z Z J T T I J Z Z Z Z Z Z Z Z Z J Z I Y , = * : D D S S S S S S S S S S S D D D D S S S S S S S S S S S D F = X * @ 7.9.<.<.<.<.<.<.<.<.<.<.7.9.9.e.<.<.<.<.<.<.<.<.<.<.<.<.9X4 = X = 3 eX8.8.8.8.8.8.8.8.8.8.8.7X8XeX8X8.8.8.8.8.8.8.8.8.8.8.7XeX= = = 1 >.xXtXtXtXtXtXtXtXtXtXtXtXfXfXhXfXtXtXtXtXtXtXtXtXtXtXtXhXiX# = * 1 @.*X@.@.@.@.@.@.@.@.@.",
"0 0 0 8 = 8 p <X}.}.}.}.}.}.}.}.}.}.}.}. X X<X<X{.}.}.}.}.}.}.}.}.}.{..X>X3 6 X ; b L c c c c c c c c c c c P P L L c c c c c c c c c c c c L w - = 8 q U J J J J J J J J J J J T I I 1XT J J J J J J J J J J Z U Y , = * : D D S S S S S S S S S S S D D D D S S S S S S S S S S S D F = X * @ 9.9.<.7.7.7.7.7.7.7.7.<.9.9.9.9X9.<.7.7.7.7.7.7.7.7.7.<.9X4 = X = 3 eX7X7X7X7X7X7X7X7X7X7X7X8XeXeXnX7X7X7X7X7X7X7X7X7X7X7X8XeX= = = 1 >.xXtXyXyXyXyXyXyXyXyXyXyXhXhXxXxXyXyXyXyXyXyXyXyXyXyXtXhXiX# = * # @.*X@.@.@.@.@.@.@.@.@.",
"0 0 0 8 = 8 a >X{.{.{.{.{.{.{.{.{.{.{.{.}.}.{.}.{.{.{.{.{.{.{.{.{.{.{.}.>X3 6 X ; b L c c c c c c c c c c c c c c c c c c c c c c c c c c c L w - = 8 q U Z Z Z Z Z Z Z Z Z Z Z Z J J J J Z Z Z Z Z Z Z Z Z J Z I Y , = * : D D S S S S S S S S S S S S S S S S S S S S S S S S S S D F = X * @ 7.7.<.<.<.<.<.<.<.<.<.<.<.7.<.<.<.<.<.<.<.<.<.<.<.<.<.<.9X4 = X = 3 eX8.8.8.8.8.8.8.8.8.8.8.7X7X8.7X8.8.8.8.8.8.8.8.8.8.8.7XeX= = = 1 >.xXtXtXtXtXtXtXtXtXtXtXtXyXyXyXyXtXtXtXtXtXtXtXtXtXtXtXhXiX# = * 1 @.*X@.@.@.@.@.@.@.@.@.",
"8 0 0 8 = 8 p <X@X X X X X X X X X X X X X X X X X X X X X X X X X X X<X>X3 6 X ; b #XP L L L L L L L L L L L P L P L L L L L L L L L L L P #Xw - = 8 q 1XI I I I I I I I I I I I I I I I I I I I I I I I I I T 1XY , = * : D D D D D D D D D D D D D D D D D D D D D D D D D D D D 6.F = X * @ 9.9X9.e.e.e.e.e.e.e.e.e.e.9.9.9.9.e.e.e.e.e.e.e.e.e.e.9.9X4 = X = 2 nXeXeXeXeXeXeXeXeXeXeXeXeXeXeXeXeXeXeXeXeXeXeXeXeXeXeXeXeXo = = 1 T.cXhXhXhXhXhXhXhXhXhXhXhXhXhXhXhXhXhXhXhXhXhXhXhXhXhXhXcXiX# = = # @.*X*X*X*X*X*X*X*X*X*X",
"8 0 0 8 = 8 0 V %X{.{.{.{.{.{.{.{.{.{.{.%X%X%X{.{.{.{.{.{.{.{.{.{.{.{.%XV 8 6 X = w v v v v v v v v v v v v v v v v v v v v v v v v v v v v v 6 = = 8 0 Y Y Y Y Y Y Y Y Y Y Y Y Y Y Y Y Y Y Y Y Y Y Y Y Y Y Y Y Y u i * * = 5 F F F F F F F F F F F F F F F F F F F F F F F F F F F F 3 = X * = / 7.0.7.7.7.7.7.7.7.7.7.7.0.0.0.7.7.7.7.7.7.7.7.7.7.7.7.0.3 = X = 1 8.7X7X7X7X7X7X7X7X7X7X7X7X7X7X7X7X7X7X7X7X7X7X7X7X7X7X7X0.= = = 8 ] uXuXuXuXuXuXuXuXuXuXuXuXuXuXuXuXuXuXuXuXuXuXuXuXuXuXyXuXX.6 = * 1 ` @.@.@.@.@.@.@.@.@.@.",
"6 0 0 8 = 8 0 4 4 4 4 4 4 4 4 4 4 4 4 4 4 3 3 4 4 4 4 4 4 4 4 4 4 4 4 4 4 0 1 X = = ; ; ; ; ; ; ; ; ; ; ; ; ; ; ; ; ; ; ; ; ; ; ; ; ; ; ; ; ; = = = 8 0 s s s s s s s s s s s s s s , i s s s s s s s s s s s s s i 0 * * 1 : > > > > > > > > > > > > > = > > > > > > > > > > > > > > = 1 X * 1 : : : : : : : : : : : : : : O : : : : : : : : : : : : : : = = X = = @ @ @ @ @ @ @ @ @ @ @ @ @ @ O @ @ @ @ @ @ @ @ @ @ @ @ @ @ = = = 0 8 6 6 6 6 6 7 7 6 7 6 6 6 6 # 1 6 6 6 7 7 7 6 6 6 6 6 6 6 8 p = * 1 1 3 3 3 3 3 3 3 3 3 3 ",
"8 0 0 8 = 8 0 z z h h a d a a d a h z h z a z z h h a a a d d a h h h z z 0 1 X = 8 p 8 8 8 8 8 8 8 8 8 8 8 0 0 6 a 8 8 8 8 8 8 8 8 8 8 8 8 a 2 = = 8 p z h k g a g a a a a g k h z 0 z k h h a a a a g a h k g z d 8 * * = p 0 8 8 8 8 8 8 8 8 8 8 8 p 2 p 8 8 8 8 8 8 8 8 8 8 8 8 p 8 = X * = i i 8 8 8 8 8 8 8 8 8 8 8 p 2 p 8 8 8 8 8 8 8 8 8 8 8 8 p 2 = X = 1 p i i 8 8 8 8 8 8 8 i 8 i i 2 a 8 i 8 8 8 8 8 8 8 i i i p = = = 8 a ] d k d d d d d d d k d ] d k ] d k d d d d d d k k d ] k 8 = * = i i 8 8 8 8 8 8 8 8 8 ",
"0 8 0 8 = 8 p k 8 8 p | } | k z 3.0 8 8 k p k 8 8 p } | [ k 3.l.] 6 8 8 k 0 1 X = 8 8 = = i d d d 8 d f = = 1 8 2 8 = = i d k i f ] ( 2 = = 8 2 = = 8 p k 8 8 a | } | k ] ..8 8 8 k p k 8 8 p } | [ k 3.l.z 6 8 a d 8 * * = 8 1 = 2 d d k 8 p ( = = = 8 1 8 = = 2 d d f i ( ] i = = 6 8 = X * = 8 1 = 2 d d k 8 p ( = = = 8 1 8 = = i d k i f ] ( 2 = = 8 2 = X = 1 8 = = i d d d 8 d f = = 1 8 2 8 = = f d d 8 d ] d = = = 0 = = = 8 a a 8 8 } [ | ] a 3.d 8 8 a a a a 8 0 } | } k 3.l.] 6 8 a d 8 = * = 8 2 = 2 d d k i i ( = ",
"8 0 0 8 = 8 p z 0 0 p v.v.3.l.| 3.k 8 8 k p k p 8 0 Y.Q.l.| } c.[ 8 0 p z 0 1 X = 8 8 = = i ..d  .k k ( 1 = 2 8 2 8 = = p 3...( d d } 6 = = 8 2 = = 8 p z 0 8 p x.l.l.l.| 3.d 8 0 z p z 0 8 p W.Q.l.| } Y.] 8 8 a d 8 * * = 8 2 = 2  .] ] ] d ( 8 = = 0 1 0 1 = 2 ..3.] k d } f = = 8 8 = X * = 8 2 = 2  .] ] ] d ( 8 = = 0 1 0 1 = p 3...( d d } 8 = = 8 2 = X = 1 0 = = i | d  .k k ( 1 = 2 8 2 8 = = ( 4.} ( d ] ] = = 1 i = = = 8 a d 8 8 } Y.| x.| 3.} 8 8 d a a a 8 0 Y.Q.l.| } x.} 8 8 a d 8 = * = 8 6 = 1 ] ] ( ] d ( i ",
"0 0 0 8 = 8 p k 8 8 0 } | } } } | 0 8 8 k p k 0 8 8 ] [ ] [ a } ] 8 8 0 k 0 1 X = 8 8 = = 8 d d f d d f = = 2 8 2 8 = = 2 d i d i 8 d 6 = = 8 2 = = 8 p k 8 8 p } | } } } | 8 8 8 k p k 0 8 0 [ [ [ ] a } z 8 8 a d 8 * * = 8 2 = 1 d d d d d d = = = 0 1 0 = = = f f f f 8 d i = = 8 8 = X * = 8 2 = 1 d d d d d d = = = 0 1 0 = = 2 d i d i 8 d 6 = = 8 2 = X = 1 0 = = 8 d d f d d f = = 2 8 2 8 = = i d i d 8 p d = = 1 0 = = = 8 a d 8 8 ] } } [ [ | a 8 8 a a a a 8 8 ] [ ] [ a } ] 8 8 a d 8 = * = 8 2 = = d d d d d d = ",
"0 0 0 8 = 8 p z 0 0 p 8 8 8 8 8 8 0 p 0 z p z p 0 p 8 8 8 8 0 8 8 p 0 p z 0 1 X = 8 8 = 1 1 = = = = = = 1 = 6 8 2 0 = 1 = = = = = = = 1 1 = i 2 = = 8 p z 0 p p 8 8 8 8 8 8 0 p 0 z p z p 0 0 8 8 8 8 0 8 0 p 8 d d 8 * * = 0 6 = 1 = = = = = = 1 1 = p 1 i 1 1 1 = = = = = = = 1 = 8 8 = X * = 0 6 = 1 = = = = = = 1 1 = p 1 i 1 1 = = = = = = = 1 1 = i 2 = X = 1 p 1 1 1 = = = = = = 1 = 6 8 2 0 = 1 = = = = = = = 1 1 2 p = = = 8 a k 8 p 0 8 8 8 8 8 0 p 8 d a d a 0 p 8 8 8 8 0 8 8 p 0 a d 8 = * = 8 6 = 1 = = = = = = 1 ",
"0 0 0 8 = 8 0 k z k z z z z z z z z z z z 0 k z k z z z z z z z z z k z k 0 1 X = 2 p 0 0 i i i i i i i 0 0 p 8 1 p 0 0 i i i i i i i i 0 0 p 1 = = 8 0 z z z z z z z z z z z z z z 0 k z k z z z z z z z z z k z a 0 * * = 8 p 0 0 i i i i i i 0 0 i i = 8 i 0 0 i i i i i i i 0 0 p 6 = X * = 8 p 0 0 i i i i i i 0 0 i i = 8 i 0 i i i i i i i i 0 0 p 1 = X = 1 0 i 0 i i i i i i i 0 0 p 8 1 p 0 0 i i i i i i i 0 0 i 8 = = = 8 a z k z z z z z z z z z k z p a z k z z z z z z z z z k z a 0 = * = 8 p 0 0 i i i i i i 0 ",
"0 0 0 8 = 8 0 8 0 0 0 0 0 0 0 0 0 0 0 0 0 0 0 0 0 0 0 0 0 0 0 0 0 0 0 0 8 0 1 X = = = = = = = = = = = = = = = = = = = = = = = = = = = = = = = = = = 8 0 8 0 0 0 0 0 0 0 0 0 0 0 0 0 0 0 0 0 0 0 0 0 0 0 0 0 0 0 0 8 0 * * 1 = = = = = = = = = = = = = = = = = = = = = = = = = = = = = = 1 X * 1 = = = = = = = = = = = = = = = = = = = = = = = = = = = = = = = X = = = = = = = = = = = = = = = = = = = = = = = = = = = = = = = = = = 0 8 0 0 0 0 0 0 0 0 0 0 0 0 0 0 0 0 0 0 0 0 0 0 0 0 0 0 0 0 8 0 = * 1 = = = = = = = = = = = ",
"0 0 0 8 = 8 0 1 1 1 = 1 1 = 1 1 1 1 = 1 1 = = = = = = = = = = 6 = 1 1 = 6 p 1 X 1 = * * * * * * * * * * * * * * * * * * * * * * X * * * * * * = = = 8 0 1 1 1 = 1 1 = 1 1 1 1 = 1 1 = = = = = = = = = 1 6 = 1 1 = 8 p * * 1 = * * * * * * * * * * * * * * * * * * * * * * * * * * * X = 1 X * 1 = * * * * * * * * * * * * * * * * * * * * * X * * * * * * = = . = = * * * * * * * * * * * * * * * * * * * * * * * * * * * * * 1 = = 0 8 = 1 = = 1 1 1 = 1 1 1 = 1 1 = = = = = = = = 1 6 = 1 1 = 8 p = * 1 = * * * * * * * * * * ",
"0 8 0 8 = 8 0 = . * * o X = = * * * = * * * = = = = = = = = = = = X . * = p 1 X 1 = .   . . . . . . . . . . . . . . . . . . . . . X X .   . X = = = 8 0 = . * * o X = = * * * = * * * = = = = = = = * = = * . X * 6 p * * 1 *   . . . . . . . . . . . . . . . . . . . . . X X .   . . = 1 X * 1 *   . . . . . . . . . . . . . . . . . . . . . X X .   . X = = . = = X   . . . . . . . . . . . . . . . . . . . . . X . .   . X 1 = = 0 8 o . * * X * * = * * * * * * = = = = = = = * = = * . X * 6 p * * 1 *   . . . . . . . . . ",
"8 0 0 8 = 8 0 = 3.0 = 8 p * * = = = = * { a X = = = = = = = = 1 . ../.X = p 1 X 1 * = k X X 6 * X . * * X X * k . X X X X X X X . * . = W.2 . = = = 8 0 = l.8 = 8 p * * = = = = * { p o = = = = = = = = = X /.3.. 8 p * * 2 . a i . * 8 . . X * * X X 8 a   X X X X X X . X * . 4._   = 1 X * 2 . a i . * 8 . . X * * X X 8 a   X X X X X X . * . = W.2 . = = . = = X ] = X = 1 . . X X * X . d = . X X X X X X X *   ( T.. * 1 = = 0 6 8 3.= = a 6 = o 1 = = = = 3.= = = = = = = = = 1 . /.x.. 8 p * * 2 X p a . * 8 . . . * * ",
"d 8 0 8 = 8 p * l.x.E.E.E.E.!.c.l.Q.k c.Q.p X = = = = = = = = 1 o ..W.8 = p 1 X 1 * = } | } l.[ 3.3.] | [ i 3.} . X X X X X X X . * . i 3.i . = = = 8 0 = v.x.E.E.E.E.!.x.v.Q.d c.!.0 o = = = = = = = = = 2 Y.3.o 6 p * * 2 . d } ..} 3.} 3.| k l.a k l.a   X X X X X X . X X * .._ . = 1 X * 2 . d } ..} 3.} 3.| k l.a k l.d   X X X X X X . * . i 3.i . = = . = 1 . ] } | | | | 3.} ] 3.8 } 3.= . X X X X X X . * . ( ..= X 1 = = 0 6 0 c.Y.c.Q.x.!.!.l.E.x.z !.c.* = = = = = = = = = = Y.v.* 6 p * * 2 . a } | } 3.} 3.| k l.",
"z 8 0 8 = 8 p * x.E.| !.x._.Q.| | l.Q._.'.p X = = = = = = = = 1 . x.sX= = p 1 X 1 * = 3.] ] | | l.3.i ] ] l.Y.| . X X X X X X X . * . 8 ^.i . = = = 8 0 = c.c.| !.x._.Q.{ 3.l.Q.'.'.8 o = = = = = = = = = = aXY.. 8 p * * 2 . d 3.d | [ v.l.} a ] | v.W.a   X X X X X X . X X . T...  = 1 X * 2 . d 3.d | [ v.l.} p ] | v.W.a   X X X X X X . * . 8 ^.i . = = . = 1 . } | d 3.[ x.l.d k ] 3.x.c.= . X X X X X X . *    .W.* X 1 = = 0 6 0 !.l.l.E.E./.Q.k l.v.Q.sXE.X = = = = = = = = = o aXW.. 6 p * * 2 . a 3.k | } l.l.} p ] ",
"0 8 0 8 = 8 0 = ] k 8 a z z z 8 0 p z [ k 1 * = = = = = = = = 1 o i ] X 1 p 1 X 1 = = d 2 = i i p 8 = 2 2 a a 8 . X X X X X X X . X X X d X . = = = 8 0 = [ d 8 d z z k 8 p p z [ k = = = = = = = = = = 1 X ] a X 8 p * * 2 X 8 a = 2 p i p = = 2 8 d p = . X X X X X X . X * . f 2 . = 1 X * 2 X 8 a = 2 p i p = = 2 8 d p = . X X X X X X . X X X d X . = = . = = X a 8 = 8 i i i = = = p a i * . X X X X X X X * . = s . * 1 = = 0 6 8 { p p z k z a 6 p p [ ] a = = = = = = = = = 1 X ] a X 6 p * * 2 X 8 a = 2 p i p 2 = 2 ",
"8 0 0 8 = 8 0 = . X o X X X X o o o . . X * = = = = = = = = = = = o X = = p 1 X 1 = .   . . . . . . . . .     . . . . . . . . . . X X .   . X = = = 8 0 = . X o X X X X * o o . . X * = = = = = = = = = = = X o = 6 p * * 1 *     . .   . . . . . .     . X . . . . . . . X X .   . . = 1 X * 1 *     . .   . . . . . .     . X . . . . . . . X X .   . X = = . = = X   . . .   . . . . .       . . . . . . . . . * X .   . X 1 = = 0 8 o . X o X X X X * o o . . X = = = = = = = = = = = X o = 6 p * * 1 *     . .   . . . . . ",
"0 0 0 8 = 8 0 8 8 8 8 8 8 8 8 8 8 8 8 8 8 8 8 8 8 8 8 8 8 8 8 8 8 8 8 8 8 0 1 X = = = = = = = = = = = = = = = = = = = = = = = = = = = = = = = = = = 8 0 8 8 8 8 8 8 8 8 8 8 8 8 8 8 8 8 8 8 8 8 8 8 8 8 8 8 8 8 8 8 0 * * 1 = = = = = = = = = = = = = = = = = = = = = = = = = = = = = = 1 X * 1 = = = = = = = = = = = = = = = = = = = = = = = = = = = = = = = X = = = = = = = = = = = = = = = = = = = = = = = = = = = = = = = = = = 0 8 8 8 8 8 8 8 0 8 8 8 8 8 8 8 8 8 8 8 8 8 8 8 8 8 8 8 8 8 8 0 = * 1 = = = = = = = = = = = ",
"0 0 0 8 = 8 0 0 0 0 0 3 3 0 8 3 8 0 0 0 0 0 0 0 0 0 0 0 3 3 0 8 4 0 0 0 0 0 1 X = = = 1 = * = = * = 1 = = = = = = = = = 1 = - 1 = = = 1 = = = = = = 8 0 0 0 0 i i 0 i i 0 0 0 0 0 0 0 0 0 0 0 i i i 0 i i 0 0 0 0 0 0 * * 1 = = 1 = = 1 = = = 1 = = = = = = = = 1 = = = 1 = = 1 = = = = = X * 1 = = 1 = = 1 = = = 1 = = = = = = = = 1 = = 1 = = = 1 = = = = = X = = = 1 = = = 1 = = 1 = = = = = = = = 1 1 = = 1 = = 1 = = = = = = = 0 0 0 p 8 # 8 0 6 6 p 0 0 0 0 0 0 0 0 p 8 # 8 p 7 8 p 0 0 0 0 0 = * 1 = = 1 = * 1 = * = 1 = ",
"6 8 0 8 = 8 0 8 8 0 3 N .X X X{.9 8 0 8 8 8 8 8 8 0 8 8 V  X|.C N 4 0 8 8 0 1 X = = = = 6 M W W R q = = = = = = = = = = * q R R r q 1 = = = = = = = 8 0 0 8 8 A T I T A i 0 8 8 8 8 8 8 8 0 i q Y I A A y i 0 8 8 8 0 * * 1 = = = a 2.2.2.G 1 = = = = = = = = 1 = 6 2.2.l q 6 = = = = = 1 X * 1 = = = a 5.5.5.2.2 = = = = = = = = 1 = p 5.5.l p 1 = = = = = = X = = = = = ] 4.4.4.' = = = = = = = = = = = ' 4.} a p = = = = = = = = 0 8 p 6 d yXhXbXgXX.6 p 8 8 8 8 8 8 p 6 f yXhX5X4X) 7 0 8 8 8 0 = * 1 = = * a i.n.n.$.6 = = ",
"c.0 0 8 = 8 0 8 0 3 V oXC e m |. X9 8 0 0 0 0 0 0 8 8 .X.XN e e n C 8 0 8 0 1 X = = = 8 j.M 6 6 r W r = 1 = = = = = 1 = x W r 6 = w r 6 = = = = = = 8 0 8 8 T T & % & I Z i 0 0 0 0 0 0 0 8 y I Z & 7 & A & i 0 0 8 0 * * 1 1 = l 2.q 1 2 z 2.1 = = = = = = = = 8 2.z 6 1 1 y 8 = = = = 1 X * 1 1 = z 4.p 2 2 ' 5.1 = = = = = = 1 = l 4.l 2 = 4 l 2 = = = = = X = 1 = = 4.4.i 2 i 4.} = 1 = = = = = = = 2.4.p 2 1 l a = = = = = = = 0 0 6 _ bXtX) ) O.bXO.6 p 0 0 0 0 0 8 ( bXyX_ ) +.5Xo.7 i 0 8 0 = * 1 = * x m.g 6 8 M n.6 = ",
"Q.k 8 8 = 8 0 0 3 m oX> * . * ' C C 4 0 0 0 0 0 0 3 {..X+ s LX3 * n m 4 0 0 1 X = = = W r + . + i 9 u 1 = = = = = = = 8 j.6 + /. .+ w r = = = = = = 8 0 i Z T - - . s ] A y i 0 0 0 0 0 0 8 T A + W.sX  % A 0 8 0 8 0 * * 1 = 0 2.=     . s q q = = = = = = = = 2.l + ..W.+ = y 1 = = = 1 X * 1 = p 4.=     . f p l = = = = = = = 8 4.2 + /. .+ 4 l = = = = = X = 1 * } 4.  .   = p l 8 = = = = = 1 * ] 4.  = aX=   l p = = = = = = 0 0 6 hX>.+ o   g o.5Xs 8 0 0 0 0 0 6 gXtX+ v.sX+ , 5Xs 8 0 8 0 = * 1 = 8 m.:     . s g j = ",
"x.l.p 8 = 8 0 0 3 }.|.* : * LXsXO n 9 8 0 0 0 0 8 8  Xm . h sX6 * e C 4 8 0 1 X 1 = q W . X   ..sX- w w = = = = = 1 * M M     W.]   X r 6 = = = = = 8 0 8 I & - o d IXT.$ A i 0 0 0 0 0 i u I =   E.sX  - & & i 0 8 0 * * 1 * 2.l   X . /./.  y 2 = = = = 1 = p 2.X   | W.  . 8 8 = = = 1 X * 1 * 2.l   X . /./.  l 2 = = = = 1 * } '     W.]   X l 2 = = = = X = = = 4.8 . . 8 sX} X l = = = = = = = 4.i   2 /.=   1 l = = = = = = p 6 X.bXo = . E.IXq +.+.7 i 0 0 0 6  .bX=   x.sX. O +.+.7 i 8 0 = * 1 * #.*.  o . /./.. j 6 ",
"6 k 0 8 = 8 0 0 3 .XN * = = l.= * C e 8 0 0 0 0 8 r  X> * = = = * < n 8 8 0 1 X 1 * g R . X   d 8   w q = = = = = 1 * R r   X X X X . r 6 = = = = = 8 8 q I % = o a | . % A 0 0 0 0 0 0 i A J - = = = = - & A i 0 8 0 * * 1 * 2.p . X X ] X . y 6 = = = = 1 = l 2.. X X X X . 2 0 = = = 1 X * 1 * 5.l   X X ] X . l 2 = = = = 1 * 2.l   X X X X . p 8 = = = = X = = 2 4.= . . 2 d   = l = = = = = = 1 4.1 . X X X . * l = = = = = = p 6 O.gX. = X } d   +.+.7 i 0 0 p 6 X.gXo = = = = o +.+.7 i 8 0 = * 1 * &.j   X . ] * . g 8 ",
"0 8 0 8 = 8 0 0 3 }.V . = = . * : n r 8 0 0 0 0 8 0  Xm * = = = * e C 4 8 0 1 X 1 = q W . X X   . . w w = = = = = 1 * M M   X . X . X r 6 = = = = = 8 0 8 I 7 - = o . - % A i 0 0 0 0 0 i u I * = = = = - & & i 0 8 0 * * 1 * 2.l   X .   . X y 2 = = = = 1 = p 2.. X X . X . 8 0 = = = 1 X * 1 * 2.l   X .   . X l 2 = = = = 1 * 2.'   X . X . X l 2 = = = = X = = = 4.2   X .   . 1 l = = = = = = = 4.8   X . X . = l = = = = = = p 6 X.hXo = = . * O +.+.7 i 0 0 0 6  .bX= * = = = O +.+.7 i 8 0 = * 1 * #.*.+ X .   . X j 6 ",
"0 0 0 8 = 8 0 0 3 N oX> * = = * C C 4 0 0 0 0 0 0 3 {..X* = = = * n N 4 0 0 1 X = = = W r   X X . o u 6 = = = = = = = q k.: . X X . w r = = = = = = 8 0 i Z T * = = = = A & i 0 0 0 0 0 0 8 I A * = = * # A q 8 0 8 0 * * 1 = 0 2.= . X X . 6 q = = = = = = = = 2.l   X X . * y 1 = = = 1 X * 1 = p 4.= . X X . 3 l = = = = = = = p 4.1 . X X . 3 l = = = = = X = 1 * } 4.. . X X . l i = = = = = 1 * ] 4.. . X . . a p = = = = = = 0 0 8 bXO.  = = o , 5Xs 8 0 0 0 0 0 6 hXtX  = = o , 5X) 8 0 8 0 = * 1 = 9 m.: . X X . 9 j = ",
"8 0 0 8 = 8 0 8 0 3 {. X= = * e |.9 8 0 0 0 0 0 0 8 8  XV * : = C C 8 0 8 0 1 X = 1 = q k.6 . X * r w = = = = = = = 1 * x W * X X 6 r 6 = = = = = = 8 0 8 8 I A - = = & A i 0 0 0 0 0 0 0 i y U & - = 1 A & i 0 0 8 0 * * 1 1 = z 2.X X X 1 y 1 = = = = = = 1 = 0 2.6 . X * y 8 = = = = 1 X * 1 1 = ' 5.X X X 2 l 2 = = = = = = 1 = ' 5.X X X 1 l 2 = = = = = X = 1 = = 4.' . X X p a = = = = = = = = = 4.} . X X p l = = = = = = = 0 p 6  .bX_ o = = 4Xo.7 i 0 0 0 0 p 6 _ bXo.o = = 4X+.7 i 0 8 0 = * 1 = * x f.* X X : j 6 = ",
"0 0 0 8 = 8 0 8 0 8 8 m 0 0 0 r 9 8 0 0 0 0 0 0 0 0 8 a j 8 0 0 t 0 8 0 8 0 1 X = = = = 8 6 = 1 1 6 = = = = = = = = = = = 9 1 = = 6 6 = = = = = = = 8 0 0 8 q y 8 0 p q 0 8 0 0 0 0 0 0 0 0 i y q 8 0 0 q i 0 0 0 8 0 * * 1 = = = 0 1 = = 2 2 = = = = = = = = 1 = 8 6 = 1 1 6 = = = = = 1 X * 1 = = = p 1 = = 2 2 = = = = = = = = = = p 1 = = 2 2 = = = = = = X = = = = 2 i = 1 = 8 = = = = = = = = = = 2 i = 1 = 8 1 = = = = = = = 0 8 p 6 ( d 8 0 p ) 8 0 0 0 0 0 0 8 p 6 ( d 8 0 p ) 8 0 0 0 8 0 = * 1 = = = 0 1 = = 6 6 = = ",
"0 0 0 8 = 8 0 8 8 0 8 1 0 6 6 2 2 0 8 0 0 0 0 0 0 8 0 2 2 0 6 6 2 8 0 8 8 0 1 X = = = = * = = * = * = = = = = = = = = = = * = = = = * = = = = = = = 8 0 8 0 6 6 0 6 6 2 8 0 8 0 0 0 0 0 0 0 8 = 8 8 6 8 2 8 0 0 0 8 0 * * 1 = = = X = = = = = = = = = = = = = = = * = = * = * = = = = = 1 X * 1 = = = X = = = = * = = = = = = = = = = X = = = = * = = = = = = X = = = 1 * * = * = * = = = = = = = = = 1 = * 1 * = * = = = = = = = = 0 0 0 0 = 6 8 6 6 6 8 0 0 0 0 0 0 0 0 0 1 6 8 6 6 1 8 0 0 0 8 0 = * 1 = = = X = = = = * = = ",
"0 0 0 8 = 8 0 8 0 8 [ c.8 2.l.l.l.8 0 0 0 0 0 0 0 0 8 l.l.6 c.{ c.] 8 0 8 0 1 X = = = 2 | i 8 | a | 2 = = = = = = = = = p | = d ] k ] = = = = = = = 8 0 0 8 l.l.6 c.{ c.] 8 0 0 0 0 0 0 0 8 p E.z a c.[ c.p 8 0 0 8 0 * * 1 = = a | = k ] k ] = = = = = = = = = 1 | p 6 | a | 2 = = = = 1 X * 1 = = a | = k ] k ] = = = = = = = = = p | = d ] k ] = = = = = = X = = = = ] ] = } d } a = = = = = = = = = ] ] * [ d [ a = = = = = = = 0 0 8 p E.z a c.[ Y.a 8 0 0 0 0 0 0 8 0 Y.] p c.[ Y.a 8 0 0 8 0 = * 1 = = p | = d ] k ] = = ",
"0 0 0 8 = 8 0 8 0 8 c.E.{ x.Q./.c.d 8 0 0 0 0 0 0 8 d E.c.{ c.'.E.c.8 0 8 0 1 X = 1 * d | ] k | Y.} k * 1 = = = = = 1 = } | d ] 3.x.} i = = = = = = 8 0 8 d E.c.{ c.'.E.c.8 0 0 0 0 0 0 0 6 | E.l.3.E.'.c.3.6 0 0 8 0 * * 1 = = } | d [ 3.v.} 8 = = = = = = 1 * d | ] k | Y.} k * 1 = = 1 X * 1 = = } | d [ 3.v.} 8 = = = = = = 1 = } | d ] 3.x.} i = = = = = X = 1 = 8 | } d } x.| } = 1 = = = = = = 6 | } d } x...} = = = = = = = 0 0 6 | E.l.3.E.'.c.3.6 0 0 0 0 0 0 6 { E.l.| c.'.c.l.6 0 0 8 0 = * 1 1 = [ | d ] 3.x.} i = ",
"0 0 0 8 = 8 0 8 0 8 x.!.v.c.Q./.E.a 8 0 0 0 0 0 0 8 a E.E.l.E._.!.c.6 0 8 0 1 X = 1 = d 3.| ] | x.| k * 1 = = = = = 1 = ] 3.[ } l.v.| 8 = = = = = = 8 0 8 a E.E.l.E._.!.c.6 0 0 0 0 0 0 0 6 { !.c.v.E.'.E.2.6 0 0 8 0 * * 1 1 = [ 3.] } l.l.| 8 = = = = = = 1 = d 3.| ] | x.| k * 1 = = 1 X * 1 1 = [ 3.] } l.l.| 8 = = = = = = 1 = ] 3.[ } l.v.| 8 = = = = = X = 1 = 6 | ..] | x.3.} = 1 = = = = = = 2 | 3.] | x.3.} = = = = = = = 0 0 6 { !.c.v.E.'.E.2.6 0 0 0 0 0 0 6 [ !.E.v.E.'.E.l.6 0 0 8 0 = * 1 1 = ] 3.[ } 3.v.| 8 = ",
"0 0 0 8 = 8 0 8 0 8 z l.z { | [ | 8 0 0 0 0 0 0 0 0 8 | 2.z 3.z l.z 8 0 8 0 1 X = = = = ] a p ] i ] 1 = = = = = = = = = 8 ] p d k a k = = = = = = = 8 0 0 8 | 2.z 3.z l.z 8 0 0 0 0 0 0 0 8 0 l.[ z l.z l.p 8 0 0 8 0 * * 1 = = i ] p d d a d = = = = = = = = = = ] a p ] i ] 1 = = = = 1 X * 1 = = i ] p d d a d = = = = = = = = = 8 ] p d k a k = = = = = = X = = = = d k i k p z i = = = = = = = = = d k i k a k p = = = = = = = 0 0 8 0 l.[ z l.z l.p 8 0 0 0 0 0 0 0 8 l.{ z l.z l.p 8 0 0 8 0 = * 1 = = 8 ] p d k a k = = ",
"0 0 0 8 = 8 0 8 8 0 8 6 8 6 6 6 6 0 8 0 0 0 0 0 0 8 0 6 6 8 6 8 6 8 0 0 8 0 1 X = = = = * = = * = * = = = = = = = = = = = * = = = = = = = = = = = = 8 0 8 0 6 6 8 6 8 6 8 0 0 0 0 0 0 0 0 0 8 6 6 8 6 8 1 8 0 0 0 8 0 * * 1 = = = * = = = = = = = = = = = = = = = * = = * = * = = = = = 1 X * 1 = = = * = = = = = = = = = = = = = = = * = = = = = = = = = = = X = = = = = = = * = * = = = = = = = = = = = * = * = * = = = = = = = = 0 0 0 8 6 6 8 6 8 1 8 0 0 0 0 0 0 0 0 0 6 6 8 6 8 1 8 0 0 0 8 0 = * 1 = = = * = = = = = = = ",
"0 0 0 8 = 8 0 8 0 8 0 0 0 p p 0 0 8 0 0 0 0 0 0 0 0 8 0 0 0 p 0 0 0 8 0 8 0 1 X = = = = 1 1 1 1 1 1 = = = = = = = = = = = 1 1 1 1 1 1 = = = = = = = 8 0 8 8 0 0 0 p 0 0 0 0 0 0 0 0 0 0 0 0 0 0 0 0 p 0 0 0 0 0 0 8 0 * * 1 = = = 1 1 1 1 1 1 = = = = = = = = = = 1 1 1 1 1 1 = = = = = 1 X * 1 = = = 1 1 1 1 1 1 = = = = = = = = = = 1 1 1 1 1 1 = = = = = = X = = = = 1 1 1 1 1 1 = = = = = = = = = = 1 1 1 1 1 1 = = = = = = = = 0 0 0 0 0 0 0 p 0 0 0 0 0 0 0 0 0 0 0 0 0 0 0 p 0 0 0 0 0 0 8 0 = * 1 = = = 1 1 1 1 1 1 = = ",
"0 0 0 8 = 8 0 8 0 0 0 0 8 3 2 8 0 0 0 0 0 0 0 0 0 0 0 0 0 8 9 8 0 0 0 0 8 0 1 X = = = = = = = = = = = = = = = = = = = = = 1 = = = = = = = = = = = = 8 0 8 8 0 0 2 3 2 0 0 8 0 0 0 0 0 0 0 0 0 0 8 8 9 8 0 0 0 0 0 8 0 * * 1 = = = = = = = = = = = = = = = = = = = 1 = = = = 1 = = = = = 1 X * 1 = = = = = = = = = = = = = = = = = = = 1 = = = = = = = = = = = X = = = = = = = = = = = = = = = = = = = = = = = = = = = = = = = = = = 0 0 0 0 0 8 2 3 8 0 0 0 0 0 0 0 0 0 0 0 0 8 8 9 8 0 0 0 0 0 8 0 = * 1 = = = = = = = = = = = ",
"0 0 0 8 = 8 0 8 8 0 8 3 j =.*.0 2 0 0 0 0 0 0 0 0 0 0 8 8 5 F 5 8 8 0 0 8 0 1 X = = = = = 1 9 9 6 = = = = = = = = = = = = = 6 0 0 1 = = = = = = = = 8 0 8 0 2 2 m =.m 2 8 0 8 0 0 0 0 0 0 0 0 9 0 F F l 9 0 0 0 0 8 0 * * 1 = = = = 6 9 9 = = = = = = = = = = = = = 1 0 0 2 = = = = = = 1 X * 1 = = = = 6 9 9 = = = = = = = = = = = = = 6 0 0 1 = = = = = = = X = = = = = = 8 9 8 = = = = = = = = = = = = = 8 0 8 = = = = = = = = = 0 0 0 0 3 p *.=.g 3 8 0 0 0 0 0 0 0 0 0 9 0 F F l 9 8 0 0 0 8 0 = * 1 = = = = 6 9 9 = = = = ",
"0 0 0 8 = 8 0 8 0 8 0 &X,X*X,X,X*.2 0 0 0 0 0 0 0 0 8 5 6.6.6.2X6.p 8 0 8 0 1 X = = = = g M m m M j = = = = = = = = = = = l G l l G 0 = = = = = = = 8 0 0 2 j ,X,X*X,X,Xg 8 0 0 0 0 0 0 0 0 9 F 2X6.6.2X6.8 0 0 0 8 0 * * 1 = = = j M m m M 9 = = = = = = = = = = q G l l G l = = = = = 1 X * 1 = = = j M m m M 9 = = = = = = = = = = l G l l G 0 = = = = = = X = = = = 8 M M m M M 6 = = = = = = = = = 6 l G l G G 6 = = = = = = = 0 0 0 3 :.,X,X,X,X:.8 8 0 0 0 0 0 0 0 9 F 2X6.6.2X6.8 8 0 0 8 0 = * 1 = = = j M m m M 9 = = ",
"0 0 0 8 = 8 0 0 0 8 ,X&X: .   m &Xj 8 0 0 0 0 0 0 8 l 2XF = * = D 2X0 8 0 0 1 X = = = g M : . . o m x = = = = = = = = = l l X . . 2 G 0 = 1 = = = = 8 0 8 j ,X:.* X = :.,Xa 8 0 0 0 0 0 0 9 F 2X5 * = 3 6.6.9 0 0 8 0 * * 1 = = M j X . . : M 9 = = = = = = 1 = q G 1 . . = l l = = = = 1 X * 1 = = m j X . . : M 9 = = = = = = = = l l X . . 2 G 0 = 1 = = = X = 1 = 6 M 9 . . . 9 M 6 = = = = = = = 2 G 0 . . X q G 2 = = = = = = 0 0 3 :.,Xj X X > *X&X2 0 0 0 0 0 0 9 F 2X5 * = 3 6.6.8 0 0 8 0 = * 1 = = x j o . . : M a = ",
"0 0 0 8 = 8 0 0 3 =.,X. * X _.`.> :.8 0 0 0 0 0 0 > 6.D O = =   + 6.6.> 0 0 1 X = = 1 M : . X . * 2 j 6 = = = = = = = 0 G . . X   + 1 G = = = = = = 8 0 3 *X:.+ = = = 3 &X:.3 0 0 0 0 0 8 p 2X5 O = o + . 2XF 8 0 8 0 * * 1 = a m . . X . = 9 j = = = = = = = 1 G 1 . X . +   G 8 = = = 1 X * 1 = a m . . X . = 9 j = = = = = = = 0 G . . X   + 1 G = = = = = X = 1 = x r   X . . 2 j r = = = = = 1 = l y   X X + + y l = 1 = = = = 0 8 a ,Xj   = o 2 a *Xj 2 0 0 0 0 8 0 2X5 O = * +   2XF 8 0 8 0 = * 1 = 9 M . . X . = 9 j = ",
"0 0 0 8 = 8 0 0 3 *X:.. = 8 LX} X :.g 8 0 0 0 0 8 p 2X3 = = = /.aX5 6.8 0 0 1 X 1 = 9 m . X   d sX..O 9 = = = = = 1 = l q . X   ( /.f y 8 = = = = = 8 8 a ,X9 * = 2 PXsX> :.8 0 0 0 0 0 9 F 6.* = X a sXY.D F > 0 8 0 * * 1 = x 9 . X   Y.sX6 : 6 = = = = = = 0 l . X . 8 W.} 7 y = 1 = 1 X * 1 = x 9 . X   Y.sX6 : 6 = = = = 1 = l y . X   ( /.f y 8 = = = = X = = 1 M = . . * aX/.O w = = = = = = = G 1 . X . 3.W.2 l = = = = = = 0 3 =.,XX = . } IXW.e m 3 0 0 0 0 8 F 6.= = o p sXR.S 1.> 0 8 0 = * 1 * j r . X   v.sXi @ 6 ",
"0 0 0 8 = 8 0 0 3 *X=.. = = o X = :.j 8 0 0 0 0 8 p 2X3 = = = _./.3 S 0 8 0 1 X 1 = 9 j . X . 6 d . : w = = = = = 1 = l 0 . X    .W.i # 2 = = = = = 8 8 a ,X9 * = 1 | = < :.8 0 0 0 0 0 > F 6.O = X k sXv.$ F 9 0 8 0 * * 1 = m 9 . X . d 6 . w 6 = = = = 1 = 0 l . X   i W.] o 6 = = = 1 X * 1 = m 9 . X . d 6 . w 6 = = = = 1 = l 0 . X    .W.i # 2 = = = = X = = 6 M = . . * d * o w = = = = = = 1 G = . X . x.x.= 1 1 = = = = = 0 3 =.*X. = X a { . m N 3 0 0 0 0 9 F 6.* = X a sXx.$ F 9 0 8 0 = * 1 * j 9 . X . f 8 . w 6 ",
"0 0 0 8 = 8 0 0 3 :.&X+ = = = * > :.0 8 0 0 0 0 0 8 6.F O = =   + 5 F 9 8 0 1 X = = 8 M X . X .   . w 6 = = = = = 1 = l l   X X   + . 7 1 = = = = = 8 0 2 ,X;.  = = . . m :.2 0 0 0 0 0 8 l 2X1 * = o +   S 5 9 0 8 0 * * 1 = j j   X X   . o w = = = = = = = 6 G X . X . +   1 2 = = = 1 X * 1 = j j   X X     o w = = = = = 1 = y l   X X   + . 7 1 = = = = X = 1 = M 9   X .   . : w = = = = = = = l 8   X X   + o 7 = = = = = = 0 8 j ,X> X = o . X N m 2 0 0 0 0 8 p 2X3 o = * +   S 5 9 0 8 0 = * 1 = g j   X X     o w = ",
"0 0 0 8 = 8 0 0 8 a ,X:.X = = = :.m 3 0 0 0 0 0 0 9 F 2X3 * = = 3 D 4 8 8 0 1 X = = = j m . . X X : w = = = = = = = = 1 G 0 . . X X 1 2 = = = = = = 8 0 3 =.,Xt X = * < :.r 8 0 0 0 0 0 0 > 6.6.= * = = 5 D 8 0 0 8 0 * * 1 = 6 M 9 . . X X w 6 = = = = = = 1 = l l . . X X 1 7 = = = = 1 X * 1 = 6 M 9 . . X X w 6 = = = = = = = 1 G 0 . . X X 1 2 = = = = = X = 1 = 9 M = . . X o w 6 = = = = = = = 8 G 1 . . X * 7 1 = = = = = = 0 0 3 &X*X= * = * m :.8 0 0 0 0 0 0 > 6.6.= * = = 5 D 0 8 0 8 0 = * 1 = 1 M 9 . . X X > w = ",
"0 0 0 8 = 8 0 8 0 3 *.&X6 6 1 j N 8 0 0 0 0 0 0 0 0 > 1.D > 2 6 F 5 9 0 8 0 1 X = = = = m 8 * * = w = = = = = = = = = = 8 l = * * 1 7 = = = = = = = 8 0 0 3 :.:.1 6 2 N m 2 0 0 0 0 0 0 0 8 0 6.5 : 1 8 F 0 8 0 0 8 0 * * 1 = = 9 x = * * : w = = = = = = = = = = l 6 * * = 7 1 = = = = 1 X * 1 = = 9 x = * * : w = = = = = = = = = 8 l = * * 1 7 = = = = = = X = = = = j g * * * w 6 = = = = = = = = = l l * * * 2 2 = = = = = = = 0 0 8 0 *Xm 1 1 8 :.r 8 0 0 0 0 0 0 8 8 6.F : 1 8 F 4 8 0 0 8 0 = * 1 = = 8 m = * * : w = = ",
"0 0 0 8 = 8 0 8 8 0 8 8 0 0 0 0 8 8 0 0 0 0 0 0 0 0 0 8 8 0 0 0 8 8 0 0 8 0 1 X = = = = = = = = 1 = = = = = = = = = = = = = 1 = 1 = = = = = = = = = 8 0 8 0 2 8 0 0 p 8 8 0 8 0 0 0 0 0 0 0 8 8 0 0 0 0 8 8 0 0 0 8 0 * * 1 = = = = 1 = 1 = = = = = = = = = = = = = = 1 = 1 = = = = = = 1 X * 1 = = = = 1 = 1 = = = = = = = = = = = = = 1 = 1 = = = = = = = = X = = = = = = = = 1 = = = = = = = = = = = = = 1 = 1 = = = = = = = = = 0 0 0 8 2 0 0 0 0 8 8 0 0 0 0 0 0 0 0 8 8 0 0 0 0 8 0 0 0 0 8 0 = * 1 = = = = 1 = 1 = = = = ",
"0 0 0 8 = 8 0 8 0 0 0 8 8 0 p 8 8 0 0 0 0 0 0 0 0 0 0 8 8 0 0 8 p 8 0 0 8 0 1 X = = = = 8 = = = = 2 = = = = = = = = = = = = = 2 = 2 = = = = = = = = 8 0 0 8 a p 8 p 8 p p 8 0 0 0 0 0 0 0 0 0 8 8 p 8 p 8 8 0 0 0 8 0 * * 1 = = 1 8 = 2 = = 2 = = = = = = = = = = = = = 1 = 1 = = = = = 1 X * 1 = = 2 2 = 2 = 1 1 = = = = = = = = = = = = 1 = 1 = = = = = = = X = = = = 8 = = = = 2 = = = = = = = = = = = = = 2 = 2 = = = = = = = = 0 0 8 0 a 8 p 8 8 p 8 0 0 0 0 0 0 0 0 0 8 8 8 p 8 p 8 0 0 0 8 0 = * 1 = = 2 6 = 2 = 1 1 = = ",
"8 0 0 8 = 8 0 8 0 8 8 Q.a c.E.] Q.6 0 0 0 0 0 0 0 0 6 { E.l.Q.E.E.0 8 0 8 0 1 X = = = = ] 3.3.[ 6 v.k = 1 = = = = = = = 1 l.k l.} l.p = = = = = = = 8 0 0 8 [ !.E.Q.p E.E.8 0 0 0 0 0 0 0 0 6 E.l.E.E.Q.l.6 0 0 0 8 0 * * 1 = = 8 | | l.p d v.8 = = = = = = = = = d | ] 3.| ..= = = = = 1 X * 1 = = a 3.| 3.2 | | = = = = = = = = 1 * | ] | | 3.] = 1 = = = = X = = = = ] 3.3.[ 6 v.k = 1 = = = = = = = 1 l.k l.} l.p = = = = = = = 0 0 8 a E.E.Q.[ { _.z 8 0 0 0 0 0 0 0 6 [ !.l.Q.E.!.p 8 0 0 8 0 = * 1 = = p 3.| 3.2 } 3.= = ",
"6 0 0 8 = 8 0 8 0 6 v.sXd x.'.'./.8 0 0 0 0 0 0 0 0 8 d !.v.E._.v.z 8 0 8 0 1 X = = = = 6 v.[ [ k [ } = 1 = = = = = = 1 = } | k W.] ] * 1 = = = = = 8 0 0 0 6 E.!.v.3.v.c.k 8 0 0 0 0 0 0 0 6 | Q.2.'.c.c.8 0 0 0 8 0 * * 1 = 1 * d v.] ] ] } k * 1 = = = = = = = 8 3.] | x.] p = = = = 1 X * 1 = = = | 3.] k ] } i = = = = = = = 1 = d 3.k Y.} } = = = = = = X = = = = 2 v.[ [ k [ } = 1 = = = = = = 1 = } ..k W.] ] * 1 = = = = = 0 0 0 6 [ _.l.l.l.x.l.1 p 0 0 0 0 0 0 8 a !.x.c.'.l.[ 6 0 0 8 0 = * 1 = 1 = } 3.] k ] } p = ",
"6 0 0 8 = 8 0 8 0 8 3.'.x.| /.c._.8 0 0 0 0 0 0 0 0 8 a x.v.Q.!.!.p 8 0 8 0 1 X = = = = x.} 3.3.] l.] = 1 = = = = = = 1 * ] ] l.| l.a = 1 = = = = = 8 0 0 1 c.Q.x.Q.l.E.!.0 8 0 0 0 0 0 0 0 6 [ l.E.!.Q.x.6 0 0 0 8 0 * * 1 = = a Y.] l.} [ v.p = = = = = = = = = 6 [ ] l.3.3.2 = = = = 1 X * 1 1 * } l.[ l.] | 3.= = = = = = = = 1 = a ] | 3.l.[ = 1 = = = = X = = = = x.} ..3.z l.] = 1 = = = = = = 1 * ] ] l.| l.a = 1 = = = = = 0 0 8 z '.l.Q.c.v./.] 6 0 0 0 0 0 0 0 8 p x.l.Q.!.Q.a 8 0 0 8 0 = * 1 1 * [ v.] l.] | 3.2 = ",
"8 0 0 8 = 8 0 8 0 0 6 8 a d p 1 8 8 0 0 0 0 0 0 0 0 0 0 0 p a p a 8 0 0 8 0 1 X = = = = 0 8 8 6 1 8 1 = = = = = = = = = = 2 = 8 = 8 = = = = = = = = 8 0 0 8 a z a a p a a 8 0 0 0 0 0 0 0 0 8 p 8 a p a p 8 0 0 0 8 0 * * 1 = = 2 p 8 8 2 2 8 = = = = = = = = = = = 1 2 8 2 8 = = = = = 1 X * 1 = = 8 i 6 8 2 6 6 = = = = = = = = = = 1 = 8 1 8 2 = = = = = = X = = = = 8 8 8 6 1 8 1 = = = = = = = = = = 2 = 8 = 8 = = = = = = = = 0 0 8 p z a a a p d 8 0 0 0 0 0 0 0 0 0 0 p p a 0 a 8 0 0 0 8 0 = * 1 = = 8 i 6 8 2 6 8 = = ",
"0 8 0 8 = 8 0 8 0 8 0 0 8 8 8 p 0 0 0 0 0 0 0 0 0 0 0 8 8 8 8 8 8 0 8 0 8 0 1 X = = = = = = = = = = = = = = = = = = = = = = = = = = = = = = = = = = 8 0 8 0 8 8 8 8 8 8 8 0 0 0 0 0 0 0 0 0 0 8 0 8 8 8 8 0 0 0 0 8 0 * * 1 = = = = = = = = = = = = = = = = = = = = = = = = = = = = = = 1 X * 1 = = = = = = = = = = = = = = = = = = = = = = = = = = = = = = = X = = = = = = = = = = = = = = = = = = = = = = = = = = = = = = = = = = 0 0 0 8 8 8 8 8 8 8 0 0 0 0 0 0 0 0 0 0 0 8 8 8 8 8 0 8 0 0 8 0 = * 1 = = = = = = = = = = = ",
"0 0 0 8 = 8 0 8 0 0 0 0 p p p p 0 0 0 0 0 0 0 0 0 0 0 0 0 0 0 0 0 0 0 0 8 0 1 X = = = = = 1 1 1 = = = = = = = = = = = = = = 1 1 1 1 = = = = = = = = 8 0 8 0 0 p p p p p 0 0 0 0 0 0 0 0 0 0 0 0 0 0 0 0 0 0 0 0 0 8 0 * * 1 = = = = 1 1 1 = = = = = = = = = = = = = 1 1 1 1 = = = = = = 1 X * 1 = = = = 1 1 1 1 = = = = = = = = = = = = 1 1 1 1 = = = = = = = X = = = = = 1 1 1 1 = = = = = = = = = = = = 1 1 1 1 1 = = = = = = = = 0 0 0 0 0 p p p p 0 0 0 0 0 0 0 0 0 0 0 0 p p p p 0 8 0 0 0 8 0 = * 1 = = = = 1 1 1 1 = = = ",
"0 0 0 8 = 8 0 8 0 8 p 8 1 1 1 1 p 0 0 0 0 0 0 0 0 0 0 0 3 3 3 3 3 0 0 0 8 0 1 X = = = = = = * * = = = = = = = = = = = = 1 = * * * = = = = = = = = = 8 0 8 0 p 2 1 1 1 2 p 8 0 0 0 0 0 0 0 0 0 0 i , , i 8 0 0 0 0 8 0 * * 1 = = = = = * * = = = = = = = = = = = = = = * * = = 1 = = = = 1 X * 1 = = = = = * * = = = = = = = = = = = 1 = = * * = = = = = = = = X = = = = = = * * * = = = = = = = = = = = 1 = * * * = 1 = = = = = = = 0 0 8 0 0 1 1 1 1 8 p 8 0 0 0 0 0 0 8 0 0 6 # # # 8 p 8 0 0 8 0 = * 1 = = = = = * * = = = = ",
"0 0 0 8 = 8 0 8 8 p 2 h ,.mXmX;.1 8 0 0 0 0 0 0 0 0 0 3 m {.}.{.m 3 0 0 8 0 1 X = = = = = a x [ h 1 = = = = = = = = = 1 = 6 x R R r = = = = = = = = 8 0 0 0 1 ;.6XmX6X` 1 p 8 0 0 0 0 0 0 0 8 8 A Y Y A 0 i 0 0 0 8 0 * * 1 = = = 6 h [ x a = = = = = = = = = = = = l 2.2.l 1 = 1 = = = 1 X * 1 = = = 6 h [ x a = = = = = = = = = 1 = 2 z 5.2.l = = = = = = = X = = = = = 8 x [ x 8 = = = = = = = = = = = p } 3.} p = 1 = = = = = = 0 0 0 8 6 ,.mXmX,.a 2 p 8 0 0 0 0 0 0 8 6 X.yXfXtXf 6 p 8 0 8 0 = * 1 = = = 1 h [ x a = = = ",
"0 0 0 8 = 8 0 8 p 2 ;.VXmX,.,.VXmX8 0 0 0 0 0 0 0 0 3 V oX|.B |.oXB 3 0 8 0 1 X = = = = { *.a a [ %.8 = = = = = = = 1 = q W M r u W R = = = = = = = 8 0 0 2 ,.VX,.,.mXBX,.1 p 0 0 0 0 0 0 8 0 T I A A T I y i 0 0 8 0 * * 1 = = 0 %.x 9 g #.x = = = = = = = = = 1 2.2.l l 2.2.8 = 1 = = 1 X * 1 = = 0 %.x 9 g #.x = = = = = = = 1 = p 4.2.l l 5.5.= = = = = = X = = = = h %.g 9 h &.a = = = = = = = 1 = ' 4.] l } Y.' = 1 = = = = = 0 0 8 p mXmX,.,.mXVX` 2 p 0 0 0 0 0 8 8 gXhX>.O.gXbX .6 p 0 8 0 = * 1 = = 8 %.x 9 g #.[ = = ",
"0 0 0 8 = 8 0 0 8 h VX;.+   + X mX6X1 p 0 0 0 0 0 3 B oX> . * * e oXm 3 0 0 1 X = = = [ x .   . + 9 %.= = = = = = = = 6 W r       . R M * 1 = = = = 8 p 1 ,.VX> +   + < BX;.2 p 0 0 0 0 0 i Y J - - - - A I 8 8 0 8 0 * * 1 = 6 %.8   .     *.x = = = = = = 1 = 2.G     .   l 2.= = = = 1 X * 1 = 6 %.8   .     [ x = = = = = = = 2 4.l       . 5.2.= 1 = = = X = 1 = a #.*   . + o &.0 = = = = = 1 = d 4.=       = Y.a = 1 = = = = 0 p 1 mXmX  +   + ,.VX8 8 0 0 0 0 p 6 yXgX.     + O.bXp 8 0 8 0 = * 1 = 1 %.9   .   + x x = ",
"0 0 0 8 = 8 0 p 1 6XmX+ : = > . f VXa 8 0 0 0 0 0 3  XN * : = o * V }.3 0 0 1 X = = 8 #.X . X X f i j a = = = = = 1 * x M   X X . . = W 6 = = = = = 8 0 2 mX;.+ > = d l ,.mX1 p 0 0 0 0 i y I = * = o o - T A i 0 8 0 * * 1 * h x   X X = d 8 x 1 = = = = = = 8 2.X . X . .   2.l = 1 = 1 X * 1 * h x   X X = d 8 x 1 = = = = 1 = ' 5.  X X . . = 4.2 = = = = X = 1 = #.8   X X 8 s 9 x = = = = = = = 4.d   * X .   l 4.= 1 = = = = 0 6 ` VX> o = = = + mX,.1 p 0 0 0 8 ( bXi o = * =   gX(.1 p 8 0 = * 1 = h x   X X = d 8 x 6 ",
"0 0 0 8 = 8 0 p 1 mX,.  = = . * * mX;.2 0 0 0 0 8 r  X> * = 6 d   m  X8 8 0 1 X 1 = a [ . X   d sX3.o 9 = = = = = 1 * R r   X . i X   R q = = = = = 8 8 d VX9 * * 6 PXsX< ,.8 0 0 0 0 0 i A T - = o p 0   A Z , 0 8 0 * * 1 = [ 9 . X   Y.sXi > 6 = = = = 1 = l 2.. X . 2 2 + l G * 1 = 1 X * 1 = [ 9 . X   Y.sXi > 6 = = = = 1 * 2.l   X . i X   5.a = 1 = = X = = 6 #.= . . = aX/.* 9 = = = = = = 1 4.1 . . * i   1 4.1 = = = = = p 1 ,.mX. = = * o   ,.mX# p 0 0 p 6 X.gXo = o p a + >.fX# p 8 0 = * 1 * [ a . X   x.sXf : 6 ",
"0 0 0 8 = 8 0 p 1 mX,.  * d sX6 = VX` 2 0 0 0 0 8 9  Xe * o p PX/.e  X3 0 0 1 X 1 = a [ . X . * =   6 8 = = = = = 1 * M u   o   W.aX= W q = = = = = 8 8 a VXf X = = 8   < ,.8 0 0 0 0 0 i A T - = . v.IX .Z Z , 0 8 0 * * 1 * [ a   X . = . . 9 6 = = = = 1 = a 2.. X   ] sXf l G * 1 = 1 X * 1 * [ a   X . = . . 9 6 = = = = 1 * 2.l   X   W.aX= 5.p = = = = X = = 1 #.= . X X =   = 9 = = = = = = = 4.2 . . = aXY.2 4.= = = = = = p 1 ;.mX. = . sXQ.+ 6X6X# p 0 0 p 6 X.hXo = . | IX{ tXyX# p 8 0 = * 1 * x g   X . = X . 9 6 ",
"0 0 0 8 = 8 0 p 1 ,.VX. * o sX4.;.VX6 0 0 0 0 0 0 3 .X|.. = X a } |.{.3 0 0 1 X = = 1 %.> . X . . X 9 6 = = = = = 1 = r W . . X X ( 9 R 1 = = = = = 8 p 1 mX6X+ = = * . ,.;.2 0 0 0 0 0 8 0 I & - = . } k J u i 0 8 0 * * 1 = a #.. . X . . = 9 = = = = = = = 2 2.6   X   d i G p = = = 1 X * 1 = a #.. . X . . = 9 = = = = = 1 = l 4.. . X X d p 5.1 = = = = X = 1 = [ g   X . . . 6 8 = = = = = 1 * 2.}   X . 2 d k } = 1 = = = = 0 8 a VX;.  X 3.sX> VX;.2 0 0 0 0 8 0 bXX.  = . ] k gXX.6 p 8 0 = * 1 = a #.. . X . . = 9 = ",
"0 0 0 8 = 8 0 0 0 2 mXmXX * o ` VX;.2 p 0 0 0 0 0 8 t oXB * = X C n 8 8 8 0 1 X = = = a &.= . X X 9 9 = = = = = = = = = R R . X . O r 6 = = = = = = 8 p 6 h BX,.. = o ;.,.p 8 0 0 0 0 0 0 i A U % * = . & & i 0 0 8 0 * * 1 = = *.x . X . = 9 6 = = = = = = 1 = l 2.1 . X   7 0 = = = = 1 X * 1 = = *.x . X . = 9 6 = = = = = = = = 5.5.. X . . l 2 = = = = = X = 1 = 6 &.9 . X X : 9 = = = = = = = = 2 Y.k . X . = l = = = = = = = 0 p 1 ,.BXf o X . mXmX1 p 0 0 0 0 p 6 X.bX) o = . +.+.6 0 0 8 0 = * 1 = = [ [ . . X * 9 6 = ",
"0 0 0 8 = 8 0 8 0 8 a ,.8 8 6 ` ;.2 p 0 0 0 0 0 0 0 3 m N 3 8 0 m r 8 0 8 0 1 X = = = = a 8 = = = 8 = 1 = = = = = = = = 1 g 1 = = 6 w = = = = = = = 8 0 p 1 ;.;.2 8 8 ;.d 8 0 0 0 0 0 0 0 0 i A y 8 8 0 & 0 0 0 0 8 0 * * 1 = = 2 g = = = 6 6 = 1 = = = = = = = = l 8 = = 2 8 = = = = = 1 X * 1 = = 6 a = = = 6 6 = = = = = = = = = 1 l 1 = = 8 8 = = = = = = X = = = = 0 a = = = 8 1 = = = = = = = 1 = i k = = = i 2 = = = = = = = 0 0 0 2 ,.` 2 8 p ;.0 8 0 0 0 0 0 0 p 6 X. .6 8 p o.p 0 0 0 8 0 = * 1 = = 1 g = = = 6 6 = = ",
"0 0 0 8 = 8 0 8 8 0 8 1 8 0 6 6 1 8 0 0 0 0 0 0 0 8 0 3 3 8 0 6 3 2 0 0 8 0 1 X = = = = X = = = = * = = = = = = = = = = = * = 1 = = * = = = = = = = 8 0 8 p 1 1 0 8 p 1 8 6 8 0 0 0 0 0 0 0 0 i 6 0 8 6 8 6 0 8 0 8 0 * * 1 = = = X = = 1 = = = = = = = = = = = 1 = * = = * = * = = = = 1 X * 1 = = * * = = 1 * = = = = = = = = = = = = = 1 = = = = = = = = = X = = = = * = = = = * = = = = = = = = = 1 = * = 1 = = * = = = = = = = 0 0 8 p 1 1 p 8 6 1 8 0 8 0 0 0 0 0 8 p 6 6 8 0 6 7 6 0 0 0 8 0 = * 1 = = = * = = 1 * = = = ",
"0 0 0 8 = 8 0 8 0 0 8 ] d 8 | d d k 8 0 0 0 0 0 0 0 0 8 [ a p | a | 8 0 8 0 1 X = = = 2 k 2 8 8 2 d 8 d = = = = = = = = = 8 a = d 8 d 8 = = = = = = 8 0 0 8 | z p z 8 | d | a 8 0 0 0 0 0 0 8 p { 8 z [ z [ 8 0 0 8 0 * * 1 = = p d = a = a p a p = = = = = = = = = a 8 2 d 8 d = = = = 1 X * 1 = = d p 1 p = d 8 d 6 = = = = = = = = 2 a = p a p a = = = = = X = = = 2 k 2 8 8 2 d 8 d = = = = = = = = = 8 a = d 8 d 8 = = = = = = 0 0 0 8 z | 8 z ] z k 8 0 0 0 0 0 0 0 0 8 ] d 0 | d | 8 0 0 8 0 = * 1 = = d a = p = d 8 d 8 ",
"0 0 0 8 = 8 0 8 0 0 1 !.3.0 sXk Q.l.1 p 0 0 0 0 0 0 6 ] '.a 3.Q./.!.[ 6 0 0 1 X = = = = } ] l.d k l.v.3.a = = = = = = = = x.] 8 3.v.l.[ = 1 = = = = 8 0 0 8 { E.c.E.d Q./.Q.l.6 0 0 0 0 0 0 1 c.Q.8 E.Q./.E.a 8 0 8 0 * * 1 = = 8 3.k x.1 | l.l.| = = = = = = 1 = a Y.6 k 3.v.3.a = 1 = 1 X * 1 = = d ..} | 8 3.v.3.] = 1 = = = = 1 * } l.= | l.l.| 6 = = = = X = 1 = = } ] l.d k l.v.3.a = = = = = = = = x.] 8 3.v.l.[ = 1 = = = = 0 0 0 8 a Q.k E._.E.c.1 p 0 0 0 0 0 0 8 z '.d | Q./.Q.{ 6 0 8 0 = * 1 = = a 3.] 3.6 3.v.3.] ",
"0 0 0 8 = 8 0 0 8 z { { l.8 { '.sXc.1 p 0 0 0 0 0 8 [ E./.x.l.c.'.v.3.1 0 0 1 X 1 = d a ] | W.] ] } Y.[ k * 1 = = = = 8 [ l.| ] ] Y.} } = 1 = = = = 8 8 k | | c.'./.| v.'.c.c.6 p 0 0 0 8 p 2.Q.Q.l.v.Q./.c.k 8 0 8 0 * * 1 = z a } l.W.d [ l.3.} 6 = = = = = = a | v.[ ] } Y.[ k * 1 = 1 X * = 8 k d } Y.l.k [ Y.} } * 1 = = = = 1 k 3.l.] ] 3.l.} 8 = = = = X = = d a ] | W.[ ] } Y.[ k * 1 = = = = 8 [ l.| ] ] Y.| } = 1 = = = = 0 8 0 l.] E.a !./.| v.1 p 0 0 0 0 0 8 ] E./.x.l.x.sXv.l.1 p 8 0 = * = 8 k d } c.x.d [ Y.} } ",
"0 0 0 8 = 8 0 8 0 0 8 ] | | x.| 2.| 6 0 0 0 0 0 0 0 8 a c.l.| E.2.E.a 8 0 0 1 X = = = p x.d k } k | k | 2 = = = = = = = = ] } d | ] | d = 1 = = = = 8 0 8 8 Q.v.[ c.{ E.3.E.] 8 0 0 0 0 0 0 8 [ E.2.l.c.v.x.8 0 0 8 0 * * 1 1 * } 3.p } k [ ] } ] = = = = = = = = 8 | ] k | k ..6 = = = 1 X * 1 = = l.[ a | d | k | a = = = = = = = = a | k ] } ] } = = = = = X = 1 = p x.d k } k | k | 2 = = = = = = = = ] } d | ] | d = 1 = = = = 0 0 0 6 x.!.2.v.x.] { 6 0 0 0 0 0 0 0 8 a c.v.| E.2.!.a 8 0 8 0 = * 1 = = 3.} p } d | z | a ",
"0 8 0 8 = 8 0 8 8 8 0 8 8 8 8 6 6 6 0 8 8 8 8 8 8 8 0 8 6 6 8 6 6 6 8 0 8 0 1 X = = = = = = * = = = = = = = = = = = = = = = = = = = = = = = = = = = 8 0 8 8 6 8 6 6 8 6 6 6 8 0 8 8 8 8 8 8 0 8 6 6 6 6 6 6 8 8 8 8 0 * * 1 = = = = = * = = = = = = = = = = = = = = = = = = = = = = = = = X * 1 = = = = = * = = = = = = = = = = = = = = = = = = = = = = = = = X = = = = = = * = = = = = = = = = = = = = = = = = = = = = = = = = = = 8 8 8 0 6 8 8 6 8 8 8 0 8 8 8 8 8 8 8 0 8 6 6 8 6 6 6 8 0 8 8 0 = * 1 = = = = = * = = = = = ",
"0 0 0 0 = 8 p 0 0 0 0 p p p p p p p 0 0 0 0 0 0 0 0 0 0 p p p p p p 0 0 0 p 2 . 1 = = 1 1 1 1 1 1 1 1 1 1 = = = = = = = = 1 1 1 1 1 1 1 = = = = = = 8 p 0 0 p p p p p p p p p 0 0 0 0 0 0 0 0 p p p p p p p 0 0 0 0 p * * 1 = = 1 1 1 1 1 1 1 1 1 = = = = = = = = 1 1 1 1 1 1 1 1 = = = 1 X * 1 = = 1 1 1 1 1 1 1 1 1 = = = = = = = = 1 1 1 1 1 1 1 = = = 1 = . = 1 = 1 1 1 1 1 1 1 1 1 1 = = = = = = = = 1 1 1 1 1 1 1 = = = 1 = = 0 0 0 0 p p p p p p p 0 0 0 0 0 0 0 0 0 0 p p p p p p 0 0 0 0 p = * 1 = = 1 1 1 1 1 1 1 1 1 ",
"1 1 1 1 = = 1 1 1 1 1 1 1 1 1 1 1 1 1 1 1 1 1 1 1 1 1 1 1 1 1 1 1 1 1 1 1 1 = X = = = = = = = = = = = = = = = = = = = = = = = = = = = = = = = = = = = 1 1 1 1 1 1 1 1 1 1 1 1 1 1 1 1 1 1 1 1 1 1 1 1 1 1 1 1 1 1 1 1 * * = = = = = = = = = = = = = = = = = = = = = = = = = = = = = = = = * * = = = = = = = = = = = = = = = = = = = = = = = = = = = = = = = = X = = = = = = = = = = = = = = = = = = = = = = = = = = = = = = = = = = 1 1 1 1 1 1 1 1 1 1 1 1 1 1 1 1 1 1 1 1 1 1 1 1 1 1 1 1 1 1 1 1 * * = = = = = = = = = = = = ",
"= = = = = = = = = = = = = = = = = = = = = = = = = = = = = = = = = = = = = = = 1 = = = = = = = = = = = = = = = = = = = = = = = = = = = = = = = = = = = = = = = = = = = = = = = = = = = = = = = = = = = = = = = = = = = = = = = = = = = = = = = = = = = = = = = = = = = = = = = = = = = = = 1 = = = = = = = = = = = = = = = = = = = = = = = = = = = = = = = = = 1 = = = = = = = = = = = = = = = = = = = = = = = = = = = = = = = = = = = = = = = = = = = = = = = = = = = = = = = = = = = = = = = = = = = = = = = = = = = = = = = 1 ",
"0 0 a z z z p 0 0 0 0 0 0 0 0 0 0 0 0 0 p a a a a 0 0 0 0 0 0 0 0 0 0 0 0 0 0 0 0 0 0 0 0 0 0 0 0 0 0 0 0 0 0 0 0 0 0 0 0 0 0 0 0 0 0 0 0 0 0 0 0 0 0 0 0 0 0 0 0 0 0 0 0 0 0 0 0 0 0 0 0 0 0 0 0 0 0 0 0 0 0 0 0 0 0 0 0 0 0 0 0 0 0 0 0 0 0 0 0 0 0 0 0 0 0 0 0 0 0 0 0 0 0 0 0 0 0 0 0 0 0 0 0 0 0 0 0 0 0 0 0 0 0 0 0 0 0 0 0 0 0 0 0 0 0 0 0 0 0 0 0 0 0 0 0 0 0 0 0 0 0 0 0 0 0 0 0 0 0 0 0 0 0 0 0 0 0 0 0 0 0 0 0 0 0 0 0 0 0 0 0 0 0 0 0 0 0 0 0 0 0 0 0 0 0 0 0 0 0 0 0 0 0 0 0 0 0 0 0 0 0 0 0 0 8 0 8 0 0 8 0 0 0 i ",
"0 8 | | { 3.d 8 0 8 p 8 8 8 8 8 8 0 0 8 p { 3.3.| 8 0 8 0 p 8 0 8 8 8 8 8 8 8 8 8 8 8 8 8 8 8 8 8 8 8 8 8 8 8 8 8 8 8 8 8 8 8 8 8 8 8 8 8 8 8 8 8 8 8 8 8 8 8 8 8 8 8 8 8 8 8 8 8 8 8 8 8 8 8 8 8 8 8 8 8 8 8 8 8 8 8 8 8 8 8 8 8 8 8 8 8 8 8 8 8 8 8 8 8 8 8 8 8 8 8 8 8 8 8 8 8 8 8 8 8 8 8 8 8 8 8 8 8 8 8 8 8 8 8 8 8 8 8 8 8 8 8 8 8 8 8 8 8 8 8 8 8 8 8 8 8 8 8 8 8 8 8 8 8 8 8 8 8 8 8 8 8 8 8 8 8 8 8 8 8 8 8 8 8 8 8 8 8 8 8 8 8 8 8 8 8 8 8 8 8 8 8 8 8 8 8 8 8 8 8 8 8 8 8 8 8 8 8 8 8 8 8 8 p d d a d z k k a 0 8 y ",
"0 8 { [ 3.| a 8 8 a 5.l 8 p l l p 8 0 8 p z ] l.z 0 8 0 ' ' p 8 a l l 8 0 0 0 0 0 0 0 0 0 0 0 0 0 0 0 0 0 0 0 0 0 0 0 0 0 0 0 0 0 0 0 0 0 0 0 0 0 0 0 0 0 0 0 0 0 0 0 0 0 0 0 0 0 0 0 0 0 0 0 0 0 0 0 0 0 0 0 0 0 0 0 0 0 0 0 0 0 0 0 0 0 0 0 0 0 0 0 0 0 0 0 0 0 0 0 0 0 0 0 0 0 0 0 0 0 0 0 0 0 0 0 0 0 0 0 0 0 0 0 0 0 0 0 0 0 0 0 0 0 0 0 0 0 0 0 0 0 0 0 0 0 0 0 0 0 0 0 0 0 0 0 0 0 0 0 0 0 0 0 0 0 0 0 0 0 0 0 0 0 0 0 0 0 0 0 0 0 0 0 0 0 0 0 0 0 0 0 0 0 0 0 0 0 0 0 0 0 0 0 0 0 0 0 0 0 0 0 8 p z [ [ ] 6 [ { p p 8 H ",
"0 8 { 3.z p a 8 0 p ' a 8 p a a p 8 0 8 a a a l.a p 8 8 l ' 0 8 p a p 8 0 0 0 0 0 0 0 0 0 0 0 0 0 0 0 0 0 0 0 0 0 0 0 0 0 0 0 0 0 0 0 0 0 0 0 0 0 0 0 0 0 0 0 0 0 0 0 0 0 0 0 0 0 0 0 0 0 0 0 0 0 0 0 0 0 0 0 0 0 0 0 0 0 0 0 0 0 0 0 0 0 0 0 0 0 0 0 0 0 0 0 0 0 0 0 0 0 0 0 0 0 0 0 0 0 0 0 0 0 0 0 0 0 0 0 0 0 0 0 0 0 0 0 0 0 0 0 0 0 0 0 0 0 0 0 0 0 0 0 0 0 0 0 0 0 0 0 0 0 0 0 0 0 0 0 0 0 0 0 0 0 0 0 0 0 0 0 0 0 0 0 0 0 0 0 0 0 0 0 0 0 0 0 0 0 0 0 0 0 0 0 0 0 0 0 0 0 0 0 0 0 0 0 0 0 0 0 8 0 [ z ] [ a z ] k 0 8 F ",
"0 8 z [ z k a 8 0 8 0 8 0 8 8 8 8 0 0 8 p k z [ d 0 0 8 8 0 8 0 8 8 8 0 0 0 0 0 0 0 0 0 0 0 0 0 0 0 0 0 0 0 0 0 0 0 0 0 0 0 0 0 0 0 0 0 0 0 0 0 0 0 0 0 0 0 0 0 0 0 0 0 0 0 0 0 0 0 0 0 0 0 0 0 0 0 0 0 0 0 0 0 0 0 0 0 0 0 0 0 0 0 0 0 0 0 0 0 0 0 0 0 0 0 0 0 0 0 0 0 0 0 0 0 0 0 0 0 0 0 0 0 0 0 0 0 0 0 0 0 0 0 0 0 0 0 0 0 0 0 0 0 0 0 0 0 0 0 0 0 0 0 0 0 0 0 0 0 0 0 0 0 0 0 0 0 0 0 0 0 0 0 0 0 0 0 0 0 0 0 0 0 0 0 0 0 0 0 0 0 0 0 0 0 0 0 0 0 0 0 0 0 0 0 0 0 0 0 0 0 0 0 0 0 0 0 0 0 0 0 0 8 a z 8 0 p a p 0 a 0 8 0 ",
"0 0 8 8 8 8 8 0 0 0 8 0 0 0 0 0 0 0 0 0 8 8 8 8 8 0 0 0 0 8 0 0 0 0 0 0 0 0 0 0 0 0 0 0 0 0 0 0 0 0 0 0 0 0 0 0 0 0 0 0 0 0 0 0 0 0 0 0 0 0 0 0 0 0 0 0 0 0 0 0 0 0 0 0 0 0 0 0 0 0 0 0 0 0 0 0 0 0 0 0 0 0 0 0 0 0 0 0 0 0 0 0 0 0 0 0 0 0 0 0 0 0 0 0 0 0 0 0 0 0 0 0 0 0 0 0 0 0 0 0 0 0 0 0 0 0 0 0 0 0 0 0 0 0 0 0 0 0 0 0 0 0 0 0 0 0 0 0 0 0 0 0 0 0 0 0 0 0 0 0 0 0 0 0 0 0 0 0 0 0 0 0 0 0 0 0 0 0 0 0 0 0 0 0 0 0 0 0 0 0 0 0 0 0 0 0 0 0 0 0 0 0 0 0 0 0 0 0 0 0 0 0 0 0 0 0 0 0 0 0 0 0 0 8 p 0 8 0 8 8 8 8 8 8 0 0 "
};
