/* XPM */
static char *mb_gate_mono[] = {
/* columns rows colors chars-per-pixel */
"256 256 256 2 ",
"   c #141B1E",
".  c #191A1E",
"X  c #16151A",
"o  c #0D1516",
"O  c #22171B",
"+  c #313519",
"@  c #161B22",
"#  c #1C1D23",
"$  c #191726",
"%  c #101621",
"&  c #221D23",
"*  c #2A1D28",
"=  c #311D2F",
"-  c #1F2025",
";  c #1D2429",
":  c #1D2A2B",
">  c #162627",
",  c #1C2C33",
"<  c #172934",
"1  c #1C3338",
"2  c #102B2E",
"3  c #212126",
"4  c #24262D",
"5  c #2B242C",
"6  c #26282F",
"7  c #292928",
"8  c #322227",
"9  c #32222D",
"0  c #3A232A",
"q  c #322A2D",
"w  c #3B2B2F",
"e  c #342E26",
"r  c #2B3429",
"t  c #39392B",
"y  c #252634",
"u  c #262A31",
"i  c #292B33",
"p  c #2C2D3A",
"a  c #292736",
"s  c #332332",
"d  c #3D2639",
"f  c #362936",
"g  c #22323B",
"h  c #2E313A",
"j  c #2C3235",
"k  c #3C3433",
"l  c #32343D",
"z  c #3C363A",
"x  c #3A3D3D",
"c  c #383935",
"v  c #18261D",
"b  c #4D2E2F",
"n  c #452B2D",
"m  c #43362B",
"M  c #4F352C",
"N  c #423C2E",
"B  c #4C3B2D",
"V  c #50372D",
"C  c #533A2E",
"Z  c #5E322D",
"A  c #4E2F30",
"S  c #42283B",
"D  c #4E3031",
"F  c #4C3F31",
"G  c #443937",
"H  c #523335",
"J  c #543B32",
"K  c #5C3C33",
"L  c #573939",
"P  c #522B38",
"I  c #64342D",
"U  c #69342D",
"Y  c #72342B",
"T  c #7A352A",
"R  c #643C39",
"E  c #783B34",
"W  c #4E1B33",
"Q  c #3C453B",
"!  c #3D493D",
"~  c #3A4536",
"^  c #354D35",
"/  c #235626",
"(  c #515211",
")  c #566719",
"_  c #574729",
"`  c #444333",
"'  c #4E4233",
"]  c #41493E",
"[  c #4B4A3D",
"{  c #474739",
"}  c #524334",
"|  c #5A4638",
" . c #47563A",
".. c #53532C",
"X. c #664639",
"o. c #795E3A",
"O. c #714A38",
"+. c #4F672F",
"@. c #6E6436",
"#. c #63661B",
"$. c #1C3946",
"%. c #163449",
"&. c #2C2C42",
"*. c #3A2A47",
"=. c #263648",
"-. c #343641",
";. c #373944",
":. c #393B46",
">. c #3B3D4A",
",. c #383748",
"<. c #283B53",
"1. c #373555",
"2. c #363766",
"3. c #581C46",
"4. c #6F1B53",
"5. c #472C44",
"6. c #542B44",
"7. c #423B45",
"8. c #433D49",
"9. c #4E3B4E",
"0. c #4B3447",
"q. c #533346",
"w. c #56344A",
"e. c #5B364B",
"r. c #503B4F",
"t. c #5B3949",
"y. c #483753",
"u. c #533D52",
"i. c #5A3B53",
"p. c #492D53",
"a. c #67354B",
"s. c #6B3156",
"d. c #4D3970",
"f. c #743364",
"g. c #164B51",
"h. c #26444D",
"j. c #3C4342",
"k. c #3D4C44",
"l. c #3E414D",
"z. c #394848",
"x. c #39584A",
"c. c #264854",
"v. c #3D4352",
"b. c #385854",
"n. c #2A5552",
"m. c #156B4A",
"M. c #386847",
"N. c #326A53",
"B. c #135869",
"V. c #265967",
"C. c #324F70",
"Z. c #06626B",
"A. c #0A6B77",
"S. c #346A67",
"D. c #2F6B73",
"F. c #434C42",
"G. c #4B4C42",
"H. c #43424C",
"J. c #454648",
"K. c #584845",
"L. c #485348",
"P. c #56544A",
"I. c #424453",
"U. c #4A4253",
"Y. c #464A5A",
"T. c #4A4D5C",
"R. c #474857",
"E. c #544155",
"W. c #5A435B",
"Q. c #57455A",
"!. c #4B5655",
"~. c #555754",
"^. c #654945",
"/. c #784946",
"(. c #76445A",
"). c #6E524C",
"_. c #496D4F",
"`. c #4B4D62",
"'. c #594A63",
"]. c #4E5162",
"[. c #4C546A",
"{. c #515465",
"}. c #535669",
"|. c #56596C",
" X c #595A6D",
".X c #595A73",
"XX c #4E5275",
"oX c #654B66",
"OX c #724464",
"+X c #6F5374",
"@X c #5D6176",
"#X c #4C6672",
"$X c #62667C",
"%X c #75666E",
"&X c #756847",
"*X c #8C3D36",
"=X c #A22021",
"-X c #824239",
";X c #894438",
":X c #944135",
">X c #984337",
",X c #955D39",
"<X c #A04B34",
"1X c #873567",
"2X c #9A3A74",
"3X c #912E6E",
"4X c #A5347A",
"5X c #933155",
"6X c #874D47",
"7X c #88534B",
"8X c #9A564C",
"9X c #95564B",
"0X c #985854",
"qX c #8A5252",
"wX c #A65D54",
"eX c #A5574D",
"rX c #A96356",
"tX c #B76559",
"yX c #B06B51",
"uX c #885074",
"iX c #AA466F",
"pX c #B2676C",
"aX c #94685E",
"sX c #C76B5D",
"dX c #CF7065",
"fX c #D05751",
"gX c #698E16",
"hX c #088553",
"jX c #4F9A4B",
"kX c #0C7387",
"lX c #30798B",
"zX c #337483",
"xX c #2B758C",
"cX c #346499",
"vX c #514C8D",
"bX c #68568F",
"nX c #4E6885",
"mX c #676B84",
"MX c #6F7392",
"NX c #5553A9",
"BX c #54428E",
"VX c #B63686",
"CX c #AA3AA3",
"ZX c #9C528D",
"AX c #C93192",
"SX c #058692",
"DX c #2E8599",
"FX c #0599A7",
"GX c #3195AC",
"HX c #36A2B8",
"JX c #36A3B9",
"KX c #23A1B9",
"LX c #2E9CC9",
"PX c #6F84A4",
"IX c #8C93B8",
"UX c #8CCB3D",
/* pixels */
"u u u u 6 4 6 4 6 4 7 4 4 7 6 6 4 6 4 4 4 4 4 4 4 4 4 4 4 4 4 4 4 4 4 4 4 4 4 4 4 4 4 4 4 4 4 4 4 4 4 4 4 4 4 4 4 4 4 4 4 4 4 4 4 4 4 4 4 4 4 4 4 4 4 4 4 4 4 4 4 4 4 4 4 4 4 4 4 4 4 4 4 4 4 4 4 4 4 4 4 4 4 4 4 4 4 4 4 4 4 4 4 4 4 4 4 4 4 4 4 4 4 4 4 4 4 4 4 4 4 4 4 4 4 4 4 4 4 4 4 4 4 4 4 4 4 4 4 4 4 4 4 4 4 4 4 4 4 4 4 4 4 4 4 4 4 4 4 4 4 4 4 4 4 4 4 4 4 6 3 4 4 4 4 4 4 4 4 6 3 3 3 3 4 3 3 6 4 4 4 4 4 4 3 - 4 6 6 4 - 4 6 4 4 3 3 4 3 3 6 4 4 6 3 6 3 3 6 3 6 4 6 3 3 6 4 4 4 4 4 3 6 6 4 4 6 4 4 6 4 4 3 4 6 4 ",
"& & & & 4 6 4 6 4 y %.<.<.%.4 4 6 4 6 4 4 4 4 4 4 4 4 4 4 4 4 4 4 4 4 4 4 4 4 4 4 4 4 4 4 4 4 4 4 4 4 4 4 4 4 4 4 4 4 4 4 4 4 4 4 4 4 4 4 4 4 4 4 4 4 4 4 4 4 4 4 4 4 4 4 4 4 4 4 4 4 4 4 4 4 4 4 4 4 4 4 4 4 4 4 4 4 4 4 4 4 4 4 4 4 4 4 4 4 4 4 4 4 4 4 4 4 4 4 4 4 4 4 4 4 4 4 4 4 4 4 4 4 4 4 4 4 4 4 4 4 4 4 4 4 4 4 4 4 4 4 4 4 4 4 4 4 4 4 4 4 4 4 4 4 4 4 4 6 4 -.i i l h u h p h 4 >.v.>.:.i >.-.4 p p i l u h -.I.i 4 4 p l.p 4 l i l.v.-.>.;.4 h h 4 ;.4 :.>.4 -.4 l 4 :.:.4 u l u l l ;.4 4 u u 4 i g 4 g u =.g 4 i ",
"V.V.V.V.i 4 6 4 $.S.jXUXUXjXn.g 4 6 4 4 4 4 4 4 4 4 4 4 4 4 4 4 4 4 4 4 4 4 4 4 4 4 4 4 4 4 4 4 4 4 4 4 4 4 4 4 4 4 4 4 4 4 4 4 4 4 4 4 4 4 4 4 4 4 4 4 4 4 4 4 4 4 4 4 4 4 4 4 4 4 4 4 4 4 4 4 4 4 4 4 4 4 4 4 4 4 4 4 4 4 4 4 4 4 4 4 4 4 4 4 4 4 4 4 4 4 4 4 4 4 4 4 4 4 4 4 4 4 4 4 4 4 4 4 4 4 4 4 4 4 4 4 4 4 4 4 4 4 4 4 4 4 4 4 4 4 4 4 4 4 4 4 4 4 4 4 4 4 u - $XI.Y..X`.l `.I.`.- I.@X>. X:.@X@X6 ].}.-.mX:.T.}.`.}.4 i |.`.-.i mXh Y..Xl.$X>.# ]..Xl mX>.}.].I.mXI.Y.R.].{.l.- ]..X:.|.@Xp 4 i u 3 h.D.u D.h.V.V.g V.",
"KXKXKXKXDXu 4 $._.UXjX . .UXUXV.g 4 6 4 4 4 4 4 4 4 4 4 4 4 4 4 4 4 4 4 4 4 4 4 4 4 4 4 4 4 4 4 4 4 4 4 4 4 4 4 4 4 4 4 4 4 4 4 4 4 4 4 4 4 4 4 4 4 4 4 4 4 4 4 4 4 4 4 4 4 4 4 4 4 4 4 4 4 4 4 4 4 4 4 4 4 4 4 4 4 4 4 4 4 4 4 4 4 4 4 4 4 4 4 4 4 4 4 4 4 4 4 4 4 4 4 4 4 4 4 4 4 4 4 4 4 4 4 4 4 4 4 4 4 4 4 4 4 4 4 4 4 4 4 4 4 4 4 4 4 4 4 4 4 4 4 4 4 4 4 4 4 6 3 }.|.|.`.[.p `.I.Y.. h ].4 `.;..X|.-.$XmXl.}..XY.].3 .Xu ;.`.;.T.I.MXR.h Y.l .Xl - R..X].|.{.-.i .X`.|.}.}.p l }.. l.mX4  X.Xh 4 i u 3 =.V.c.V.h.V.V.c.c.",
"V.V.V.GXKXh.; _.UX~ $ # $ # b.DXc.4 6 6 4 4 4 4 4 4 4 4 4 4 4 4 4 4 4 4 4 4 4 4 4 4 4 4 4 4 4 4 4 4 4 4 4 4 4 4 4 4 4 4 4 4 4 4 4 4 4 4 4 4 4 4 4 4 4 4 4 4 4 4 4 4 4 4 4 4 4 4 4 4 4 4 4 4 4 4 4 4 4 4 4 4 4 4 4 4 4 4 4 4 4 4 4 4 4 4 4 4 4 4 4 4 4 4 4 4 4 4 4 4 4 4 4 4 4 4 4 4 4 4 4 4 4 4 4 4 4 4 4 4 4 4 4 4 4 4 4 4 4 4 4 4 4 4 4 4 4 4 4 4 4 4 4 4 4 4 4 4 6 4 Y.}.}.I.v. X].-.@Xv.l ].l .X:..X].T.T.I..X:.].].]..X`.3 u }.}.].].l.[.>.Y.-.@X:.3 I.].}.Y.>.}.}.l.Y.>.@X;.|.|.;.4 ].Y.T.]. Xl 3 i u 3 =.c.V.c.h.V.V.g V.",
"& & O xXKX=.<.lX_.$ i 4 h.V.& xXV.g 4 6 4 4 4 4 4 4 4 4 4 4 4 4 4 4 4 4 4 4 4 4 4 4 4 4 4 4 4 4 4 4 4 4 4 4 4 4 4 4 4 4 4 4 4 4 4 4 4 4 4 4 4 4 4 4 4 4 4 4 4 4 4 4 4 4 4 4 4 4 4 4 4 4 4 4 4 4 4 4 4 4 4 4 4 4 4 4 4 4 4 4 4 4 4 4 4 4 4 4 6 6 6 6 6 6 6 6 6 6 6 6 6 6 6 6 6 6 6 6 6 6 6 6 6 6 6 6 6 6 6 6 6 6 6 6 6 6 6 6 6 6 6 6 6 6 6 6 6 6 6 6 6 6 6 6 6 6 6 6 6 6 i u u i 4 l i 4 l l u i i h u l p u 4 4 p u 6 i p l 4 6 4 u -.i i 3 i i i 6 l l 4 i u u i 4 p h 4 i 4 i 4 h h 4 i i 4 i p h 4 6 u u 6 u u u u u g i 4 u ",
"g g g DXKXh.4 V.KXD.3 6 g u & V.xXg 4 6 4 4 4 4 4 4 4 4 4 4 4 4 4 4 4 4 4 4 4 4 4 4 4 4 4 4 4 4 4 4 4 4 4 4 4 4 4 4 4 4 4 4 4 4 4 4 4 4 4 4 4 4 4 4 4 4 4 4 4 4 4 4 4 4 4 4 4 4 4 4 4 4 4 4 4 4 4 4 4 4 4 4 4 4 4 4 4 4 4 4 4 4 4 4 4 4 4 6 3 # # # # # # # # # # # # # # # # # # # # # # # # # # # # - - # # - - # # # - - # # # # # # # # # # # - # # # # # # # # # # # # # # - # # - # # # # # # # # # # # - # # # # # # 3 3 3 3 # 3 3 4 3 3 3 3 # - 3 3 3 3 3 3 - - 3 3 3 3 3 - # - # # - # # # - - - - - # # # # # # # - # ",
"KXKXKXKXKXg g xXKXDX& 4 4 u & V.D.g 4 6 4 4 4 4 4 4 4 4 4 4 4 4 4 4 4 4 4 4 4 4 4 4 4 4 4 4 4 4 4 4 4 4 4 4 4 4 4 4 4 4 4 4 4 4 4 4 4 4 4 4 4 4 4 4 4 4 4 4 4 4 4 4 4 4 4 4 4 4 4 4 4 4 4 4 4 4 4 4 4 4 4 4 4 4 4 4 4 4 4 4 4 4 4 4 4 4 6 3 # # # # # # # # # # # # # # # # # # # # # # # # # # # # # . X # # . @ # # # # @ # # # # # # # # # # # @ # # # # # # # # # # # # # # # # # # # # # # # # # # # # # # # # # # # # - - # & - - - - - - - - - - - - & & & - - - - - - - - # # @ . . . # . @ @ . X X . # @ . @ . # # # . ",
"DXDXDXxXc.& c.DXxXKXV.4 6 4 u xXV.i 4 6 4 4 4 4 4 4 4 4 4 4 4 4 4 4 4 4 4 4 4 4 4 4 4 4 4 4 4 4 4 4 4 4 4 4 4 4 4 4 4 4 4 4 4 4 4 4 4 4 4 4 4 4 4 4 4 4 4 4 4 4 4 4 4 4 4 4 4 4 4 4 4 4 4 4 4 4 4 4 4 4 4 4 4 4 4 4 4 4 4 4 4 4 4 4 4 6 3 # # # # . # # # # # # # # # # # # # # # # # # # # # # # # @ u -.@ o h 6 X . X # # # X X . X . X X . . X # # # # # # # # # # # # # # # # # # # # # # # # # # . # # # # # # # # # - - # ; / - - - - & & & & # - - # g.B.1 & - - - - - - # # # ; , , , @ i - 3 i p -.i # 4 u # 4 # # # ; ",
"4 4 4 3 3 u 4 4 xXKXKXKXV.& D.xXc.4 6 4 4 4 4 4 4 4 4 4 4 4 4 4 4 4 4 4 4 4 4 4 4 4 4 4 4 4 4 4 4 4 4 4 4 4 4 4 4 4 4 4 4 4 4 4 4 4 4 4 4 4 4 4 4 4 4 4 4 4 4 4 4 4 4 4 4 4 4 4 4 4 4 4 4 4 4 4 4 4 4 4 4 4 4 4 4 4 4 4 4 4 4 4 4 4 6 3 # # # # . 1 $.. # # # # # # # # # # # # # # # # # # # # # # # $X-.h Y.`.l.Y.l I..X{.X Y.Y.l R.>.R.I.>.l R. XT.X # # # # # # # # # # # # # # # # # # # # # . $.$.. # # # # # # # - - - & v / v & - # , 1 1 g.; # - - Z.A.g.O ; - - - - # # # . 1 D.D.V.o $XI.I.@X X>.$X].>.|.i T.i . # 1 ",
"6 6 6 6 6 6 4 =.GXV.DXKXxXD.xXc.u 4 6 4 4 4 4 4 4 4 4 4 4 4 4 4 4 4 4 4 4 4 4 4 4 4 4 4 4 4 4 4 4 4 4 4 4 4 4 4 4 4 4 4 4 4 4 4 4 4 4 4 4 4 4 4 4 4 4 4 4 4 4 4 4 4 4 4 4 4 4 4 4 4 4 4 4 4 4 4 4 4 4 4 4 4 4 4 4 4 4 4 4 4 4 4 4 6 3 # # # # # # V., . # # # # # # # # # # # # # # # # # # # # # # . ;.T.$X@X|.mX.XmXl l.:.@ |.l.mXI.$X.X|.Y.$X.X@Xp X # # # # # # # # # # # # # # # # # # # # # # ; V.# # # # # # # - - - - & / / / & - & $.B.B.A., & - - B.B.g.& ; - - - # # # # . 1 D.D.V.X T. X XT. X-.R. X|.{.4 T.i . # , ",
"4 4 6 4 4 4 6 4 4 u KXc.D.D.c.i 4 6 4 4 4 4 4 4 4 4 4 4 4 4 4 4 4 4 4 4 4 4 4 4 4 4 4 4 4 4 4 4 4 4 4 4 4 4 4 4 4 4 4 4 4 4 4 4 4 4 4 4 4 4 4 4 4 4 4 4 4 4 4 4 4 4 4 4 4 4 4 4 4 4 4 4 4 4 4 4 4 4 4 4 4 4 4 4 4 4 4 4 4 4 4 4 6 3 # # # # # # . : $.. # # # # # # # # # # # # # # # # # # # # # # # >.}.{.R.I.}.T.>.`.I.Y.. @X].T.p T.R.-. X}.I.I.R.X # # # # # # # # # # # # # # # # # # # # # . $., . # # # # # - - - - # ; / - / - - - & & & - # - - # g.B.1 & - - - # # # # # . 1 D.V.V.. >.}.{.l.|.>.I.p $X:.{.].# # . 1 ",
"6 6 6 6 6 6 6 6 4 u =.6 g =.4 4 6 6 6 6 6 6 6 6 6 6 6 6 6 6 6 6 6 6 6 6 6 6 6 6 6 6 6 6 6 6 6 6 6 6 6 6 6 6 6 6 6 6 6 6 6 6 6 6 6 6 6 6 6 6 6 6 6 6 6 6 6 6 6 6 6 6 6 6 6 6 6 6 6 6 6 6 6 6 6 6 6 6 6 6 6 6 6 6 6 6 6 6 6 6 6 6 3 # # # # # # # # # . # # # # # # # # # # # # # # # # # # # # # # # # i 3 . i - @ u # 4 3 3 - |.4 # # # u 4 3 . i # 4 # # # # # # # # # # # # # # # # # # # # # # # # . # # # # # - - - - - - - & - & - - - - ; - - - - - - & & & - - - # # # # # # # # # # # # # # # # 4 i # @ # @ u # @ # # - ",
"4 4 4 4 4 4 4 4 4 4 3 4 4 3 4 4 4 4 4 4 4 4 4 4 4 4 4 4 4 4 4 4 4 4 4 4 4 4 4 4 4 4 4 4 4 4 4 4 4 4 4 4 4 4 4 4 4 4 4 4 4 4 4 4 4 4 4 4 4 4 4 4 4 4 4 4 4 4 4 4 4 4 4 4 4 4 4 4 4 4 4 4 4 4 4 4 4 4 4 4 4 4 4 4 4 4 4 4 4 4 4 3 # # # # # # # # # # # # # # # # # # # # # # # # # # # # # # # # # # # . @ # . # # . # . @ . # u . # # # . . @ # . # . # # # # # # # # # # # # # # # # # # # # # # # # # # # # # - # # # # # # # - - - # # # # # # - # # # # - - - # # # # # # # # # # # # # # # # # # # . . # # # # . # # # # # ",
"# # # # # # # # # # # # # # # # # # # # # # # # # # # # # # # # # # # # # # # # # # # # # # # # # # # # # # # # # # # # # # # # # # # # # # # # # # # # # # # # # # # # # # # # # # # # # # # # # # # # # # # # # # # # # # # # # # # # # # # # # # # # # # # # # # # # # # # # # # # # # # # # # # # # # # # # # # # # # # # . # # # # # # # # # # # # # # # # # # # # # # # # # # # # # # # # # # # # # # # # # # # # # # # # # # # # # # # # # # # # # # # # # # # # # # # # # # # # # # # # # # # # # # # # # # # # # # # # ",
"l -.l l l l -.l l l l l l l l l l l l l l l l l l l l l l l l l l l l l l l l l l l l l l l l l l l l l l l l l l l l l l l l l l l l l l l l l l l l l l l l l l l l l l l l l l l l l l l l l l l l l l l l l l l l l l l l l l l l l l l l l l l l l l l l l l l l l l l l l l l l l l l l l l l l l l l l l l l l l l l l -.l l l l l l l l l l l l l l l l l l l l l l l l l l l l l l l l l l l l l l l l l l l l l l l -.l # 3 4 4 4 4 4 3 4 4 4 4 4 3 # 4 4 3 4 6 4 4 4 # - 4 3 4 4 4 4 4 3 # l -.l l l -.-.-.-.-.-.l l ",
">.;.>.I.>.I.;.>.:.I.>.:.:.:.:.:.:.:.:.:.:.:.:.:.:.:.:.:.:.:.:.:.:.:.:.:.:.:.:.:.:.:.:.:.:.:.:.:.:.:.:.:.:.:.:.:.:.:.:.:.:.:.:.:.:.:.:.:.:.:.:.:.:.:.:.:.:.:.:.:.:.:.:.:.:.:.:.:.:.:.:.:.:.:.:.:.:.:.:.:.:.:.:.:.:.:.:.:.:.:.:.:.:.:.:.:.:.:.:.:.:.:.:.:.:.:.:.:.:.:.:.:.:.:.:.:.:.:.:.:.:.:.:.:.:.:.:.:.:.:.:.:.:.:.:.:.:.:.:.:.:.:.:.:.:.:.:.:.:.:.:.:.:.:.:.:.:.:.:.:.:.:.:.:.:.:.:.:.:.:.:.:.:.:.:.:.:.:.:.:.:.:.:.:.:.:.:.:.-.# 4 6 6 4 h >.I.:.h 4 6 6 4 # 4 4 p i - 4 6 6 # 3 4 l i 3 4 3 4 3 # ;.;.>.I.>.l -.-.-.;.;.I.;.",
"mX-.@X`.}.mXY.@XT.mX@X}.T.`.l ;.;.;.;.;.;.;.;.;.;.;.;.;.;.;.;.;.;.;.;.;.;.;.;.;.;.;.;.;.;.;.;.;.;.;.;.;.;.;.;.;.;.;.;.;.;.;.;.;.;.;.;.;.;.;.;.;.;.;.;.;.;.;.;.;.;.;.;.;.;.;.;.;.;.;.;.;.;.;.;.;.;.;.;.;.;.;.;.;.;.;.;.;.;.;.;.;.;.;.;.;.;.;.;.;.;.;.;.;.;.;.;.;.;.;.;.;.;.;.;.;.;.;.;.;.;.;.;.;.;.;.;.;.;.;.;.;.;.;.;.;.;.;.;.;.;.;.;.;.;.;.;.;.;.;.;.;.;.;.;.;.;.;.;.;.;.;.;.;.;.;.;.;.;.;.;.;.;.;.;.;.;.;.;.;.;.;.;.;.;.;.;.;.-.# 4 6 6 4 ;.`.I.Y.-.4 6 6 4 # 6 3 ].R.I.l 4 6 # # :.}.].;.p T.T.# # -.>.mXY.I.].Y.].Y.l.`..X-.",
"@XI. XY.mXmX].MX@XmXT.$XmX].l :.;.;.;.;.;.;.;.;.;.;.;.;.;.;.;.;.;.;.;.;.;.;.;.;.;.;.;.;.;.;.;.;.;.;.;.;.;.;.;.;.;.;.;.;.;.;.;.;.;.;.;.;.;.;.;.;.;.;.;.;.;.;.;.;.;.;.;.;.;.;.;.;.;.;.;.;.;.;.;.;.;.;.;.;.;.;.;.;.;.;.;.;.;.;.;.;.;.;.;.;.;.;.;.;.;.;.;.;.;.;.;.;.;.;.;.;.;.;.;.;.;.;.;.;.;.;.;.;.;.;.;.;.;.;.;.;.;.;.;.;.;.;.;.;.;.;.;.;.;.;.;.;.;.;.;.;.;.;.;.;.;.;.;.;.;.;.;.;.;.;.;.;.;.;.;.;.;.;.;.;.;.;.;.;.;.;.;.;.;.;.;.:.-.# 4 6 6 3 >.T.3 {.-.4 6 6 4 # 6 3 l.}.|.T.3 u # . {.l R.@XI.$XI.# # ;.;.}..XmX X$X@X.X|.MX.X-.",
"].;. X@X.X`.$XI..X].l ].I.T.l ;.;.;.;.;.;.;.;.;.;.;.;.;.;.;.;.;.;.;.;.;.;.;.;.;.;.;.;.;.;.;.;.;.;.;.;.;.;.;.;.;.;.;.;.;.;.;.;.;.;.;.;.;.;.;.;.;.;.;.;.;.;.;.;.;.;.;.;.;.;.;.;.;.;.;.;.;.;.;.;.;.;.;.;.;.;.;.;.;.;.;.;.;.;.;.;.;.;.;.;.;.;.;.;.;.;.;.;.;.;.;.;.;.;.;.;.;.;.;.;.;.;.;.;.;.;.;.;.;.;.;.;.;.;.;.;.;.;.;.;.;.;.;.;.;.;.;.;.;.;.;.;.;.;.;.;.;.;.;.;.;.;.;.;.;.;.;.;.;.;.;.;.;.;.;.;.;.;.;.;.;.;.;.;.;.;.;.;.;.;.;.;.;.-.# 4 6 6 4 -.R.].MXI.3 6 6 4 # 6 3 Y.{.:.I.3 u # # -.|.T.I..XT.R.# # ;.:.{.@X}..XmXT.].$X$X}.-.",
":.;.:.>.;.:.:.;.:.:.:.:.:.:.:.:.:.:.:.:.:.:.:.:.:.:.:.:.:.:.:.:.:.:.:.:.:.:.:.:.:.:.:.:.:.:.:.:.;.:.:.:.:.:.:.:.:.:.:.:.:.:.:.:.:.:.:.:.:.:.:.:.:.:.:.;.:.:.:.:.:.:.:.:.:.:.:.:.:.:.:.:.:.:.:.:.:.:.:.:.:.;.;.:.:.:.:.:.:.:.:.:.:.:.:.:.:.:.:.:.:.:.:.:.:.:.:.:.:.:.:.:.:.:.:.:.:.:.:.:.:.:.:.:.:.:.:.:.:.:.:.:.:.:.:.;.;.:.:.:.:.:.:.:.:.:.:.:.:.:.:.:.:.:.:.:.:.:.:.:.:.:.;.;.:.:.:.:.:.:.:.:.:.:.:.:.:.:.:.:.:.:.:.:.:.:.:.:.l # 4 6 6 4 p l l >.l 4 6 6 4 # 4 6 u 6 4 4 4 6 # 3 4 i 6 4 i 4 i 3 # ;.:.l.;.;..X{.-.:.:.:.;.:.",
"i i i u i i i i i i i i i i i i i i i i i i i i i i i i i i i i i i i i i i i i i i i i i p i i c j i i i i i i i i i i i i i i i i i i i i i i i i j g i i i i i i i i i i i i i i i i i i i i i i i i i g =.i p p i i i i i i i i i i i i i i i i i i i i i i i i i i i i i i i i i i i i i i i i i i i i i i i i i -.,.i p i i i i i i i i i i i i i i i i i i i i p p p ,.l i i i i i i i i i i i i i i i i i i i i i i i h 7.# 4 6 4 6 4 3 3 - 4 6 4 6 4 # 4 6 4 4 6 6 4 6 # - u 4 4 6 4 6 6 3 # p p i p p h i p p p p p p ",
"# 4 # # # # # # # # # # # 4 # # # # # # # 4 - # # # @ @ ;   # # # ; @   @ # ; # # 3 3 # 3 q 8 9 @.t 7 7 3 # # # # # # # # # # # # # # # 4 - # 3 3 7 r m., : : - 4 # # # # # # # 4 3 # # # # # 4 # # ; : 6 g.Z., , u - # 3 3 # # 4 # # 6 # # # # # # # # # # # # # # # # # # # 4 - # # # # # # # # # # 4 # # # - ; , 2 C.XX4 a 4 - # 4 # # # # 4 3 # # - 4 # # 3 3 # 3 p a y OXw.5 5 3 # # # # # # # # # # # # # # # 4 3 3 5 5 5.OX  4 6 4 4 6 # @ # 6 4 4 6 4 # 4 6 6 6 6 6 4 6 # 3 6 4 6 6 6 4 6 3 # 4 4 4 4 4 4 4 4 4 4 4 4 4 ",
"- 6 3 - - - - - - - - - - 6 3 - - - - 3 # 4 3 - 3 # L 6X/./.7X6X7X6XX./.7X9X^.# 3 4 4 - 4 q q 9 ..t 7 7 3 3 - - - - - - - - - - - - 3 - 6 3 - 3 7 7 r m., : : ; 6 3 - - - - 3 # 4 3 - - - - 3 6 - - ; : u g.Z., 1 u ; - 4 4 # 3 6 - - i 3 - - - - - - - - - - - - - - - - 3 # 4 3 - - - - - - - - - 3 6 - 3 - ; : , 2 C.XX6 a 4 3 - 6 - - 3 # 4 3 - - 3 4 - - 4 4 # 3 p p y OXw.5 5 5 3 - - - - - - - - - - - - 3 # 4 4 5 5 s 5.OX  4 6 4 4 6 # # # 6 4 4 6 4 # 5 0 0 0 0 0 0 5 # - 9 0 0 0 0 0 0 3 # 6 6 6 6 u 6 4 4 4 u 6 6 6 ",
"# 6 3 - - - - - - - - - - 6 3 - - - - - # 4 3 # 3 # 9XX.K K D D D ^./.X.D L 9X# # 4 3 # 3 q q 9 ..t 7 7 3 3 - - - - - - - - - - - - - # 4 3 - 3 7 7 r m., : : ; 6 3 - - - - - # 4 3 # - - - - 6 - - ; : 6 g.Z., 1 u ; # 4 4 # 3 6 - # u 3 - - - - - - - - - - - - - - - - - # 4 3 - - - - - - - - - 3 6 # - - ; : , 2 C.XXy a 4 3 - 6 - - - # 4 3 # - 3 4 # # 4 4 # 3 p p y OXw.5 5 5 3 - - - - - - - - - - - - - # 4 3 4 5 s 5.OX  4 6 4 4 6 # . # 6 4 4 6 4 # 5 0 0 0 0 0 0 5 # - 9 0 0 0 0 0 0 3 # 4 6 6 6 3 4 g g u & 4 6 4 ",
"# 6 3 - - - - - - - - - - 6 3 - - - - - # 4 3 3 3 3 6Xn k w w w w k q q w w 0Xw # 4 3 # 3 q q 9 ..t 7 7 3 3 - - - - - - - - - - - - - # 4 3 - 3 7 7 r m., : : ; 6 3 - - - - - # 4 3 # - - - - 6 - - ; : 6 g.Z., 1 u ; # 4 4 # 3 6 - # u 3 - - - - - - - - - - - - - - - - - # 4 3 - - - - - - - - - 3 6 # - - ; : , 2 C.XXy a 4 3 - 6 - - - # 4 3 # - 3 4 # # 4 4 # 3 p p y OXw.5 5 5 3 - - - - - - - - - - - - - # 4 3 4 5 s 5.OX  4 6 4 6 4 D.DXD.4 6 4 6 4 # 5 0 0 0 0 0 0 5 # - 9 0 0 0 0 0 0 3 # 4 6 4 3 n.DXGXGXGXD.u 4 6 ",
"# 6 3 - - - - - - - - - - 6 3 - - - - - # 4 - @ @ # 7Xn G n w w w G n n n w /.8X6X4 4 # 3 q q 9 ..t 7 7 3 3 - - - - - - - - - - - - - # 4 3 - 3 7 7 r m., : : ; 6 3 - - - - - # 4 3 # - - - - 6 - - ; : 6 g.Z., 1 u ; # 4 4 # 3 6 - # u 3 - - - - - - - - - - - - - - - - - # 4 3 - - - - - - - - - 3 6 # - - ; : , 2 C.XXy a 4 3 - 6 - - - # 4 3 # - 3 4 # # 4 4 # 3 p p y OXw.5 5 5 3 - - - - - - - - - - - - - # 4 3 4 5 s 5.OX  4 6 4 6 3 lXJXlX3 6 4 6 4 # 5 0 0 0 0 0 0 5 # - 9 0 0 0 0 0 0 3 # 4 6 4 D.HXD.=.g c.GXDXg 4 ",
"# 6 3 - - - - - - - - - - 6 3 - - - - - # 4 n O.X./.9Xw G w w w w G n w w n k w 9Xq 3 # 3 q q 9 ..t 7 7 3 3 - - - - - - - - - - - - - # 4 3 - 3 7 7 r m., : : ; 6 3 - - - - - # 4 3 # - - - - 6 - - ; : 6 g.Z., 1 u ; # 4 4 # 3 6 - # u 3 - - - - - - - - - - - - - - - - - # 4 3 - - - - - - - - - 3 6 # - - ; : , 2 C.XXy a 4 3 - 6 - - - # 4 3 # - 3 4 # # 4 4 # 3 p p y OXw.5 5 5 3 - - - - - - - - - - - - - # 4 3 4 5 s 5.OX  4 6 4 6 3 lXHXlX3 6 4 6 4 # 5 0 0 0 0 0 0 5 # - 9 0 0 0 0 0 0 3 # u 3 V.HX=.X . . X # DXlX4 ",
"# 6 3 - - - - - - - - - - 6 3 - - - - - 3 ; 6X6XX.O.H w G w w w w G n w w n G w 6Xk ; # 3 q q 9 ..t 7 7 3 3 - - - - - - - - - - - - - # 4 3 - 3 7 7 r m., : : ; 6 3 - - - - - # 4 3 # - - - - 6 - - ; : 6 g.Z., 1 u ; # 4 4 # 3 6 - # u 3 - - - - - - - - - - - - - - - - - # 4 3 - - - - - - - - - 3 6 # - - ; : , 2 C.XXy a 4 3 - 6 - - - # 4 3 # - 3 4 # # 4 4 # 3 p p y OXw.5 5 5 3 - - - - - - - - - - - - - # 4 3 4 5 s 5.OX  4 6 4 6 3 lXHXlX3 6 4 6 4 # 5 0 0 0 0 0 0 5 # - 9 0 0 0 0 0 0 3 # 4 4 DXV.X # # # X o , GXh.",
"# 6 3 - - - - - - - - - - 6 3 - - - - - - ; 6XD q q w n G w w w w G n w w n G w 6Xw @ 3 3 q q 9 ..t 7 7 3 3 - - - - - - - - - - - - - # 4 3 - 3 7 7 r m., : : ; 6 3 - - - - - # 4 3 # - - - - 6 - - ; : 6 g.Z., 1 u ; # 4 4 # 3 6 - # u 3 - - - - - - - - - - - - - - - - - # 4 3 - - - - - - - - - 3 6 # - - ; : , 2 C.XX6 a 4 3 - 6 - - - # 4 3 # - 3 4 # # 4 4 # 3 p p y OXw.5 5 5 3 - - - - - - - - - - - - - # 4 3 4 5 s 5.OX  4 6 4 6 3 lXHXlX3 6 4 6 4 # 5 0 0 0 0 0 0 5 # - 9 0 0 0 0 0 0 3 # 4 g GXg . # # - I.T.6 DXD.",
"3 6 3 3 3 3 3 3 3 3 3 3 3 6 3 3 3 3 3 3 3 4 7XD w n n n G n n n n G n n n n G q 6X/.G - 5 q q 0 @.t 7 7 3 3 - - - - - - 3 3 - - 3 - 3 - 6 3 - 3 7 7 r m., : : ; 6 3 - - - - - # 4 3 - - - - 3 6 - - ; : u g.Z., 1 u ; - 4 4 # 3 6 - - i ; - - - - - - - - 3 3 3 3 3 3 3 3 3 3 6 3 3 3 3 3 3 3 3 3 3 3 6 3 3 3 3 : , < C.XXu a 6 3 3 6 3 3 3 3 6 4 3 3 3 6 - - 4 4 # 3 p p y OXw.5 5 5 3 - 3 3 3 3 3 3 3 3 3 3 3 3 & 6 4 5 s s 0.OX  4 6 4 6 3 lXHXlX3 6 4 6 4 # 5 0 0 0 0 0 0 5 # - 9 0 0 0 0 0 0 3 # 3 =.GX, . # . 4 MXPX:.g.c.",
"@ ; @ @ @ @ @ @ @ @ @ @ @ ; @ @ @ @ @ @ @ ; 7Xw q w w w k q w w q k w q q w k q D /.0X5 @ 6 3 5 ..r ; - - # 3 3 - # # # # # 3 5 # # # # 4 - # 3 7 7 r m., : : - 4 - # # # # # # 4 3 # # # # # 4 # - ; : 6 g.Z., , u - # 4 4 # # 5 O O 5 O O O O O O O O . .       @ % % @ @ @ ; @ @ @ @ @ @ @ @ @ @ @ ; @ @ @ @ > < 2 C.XX; y ; @ @ ; @ @ @ % > @ @   . 3 . . 3 4 # 3 p a y OXw.5 5 5 & #                           > > - 3 4 z OX@ 4 6 4 6 3 lXHXlX3 6 4 6 4 # 5 0 0 0 0 0 0 5 # - 9 0 0 0 0 0 0 3 # 4 i GXc.X # # # X X @ V.=.",
"8X0X8X8X8X8X8X8X8X8X8X8X8X0X8X8X8X8X8X8X8XwXsXwXwXwXwXwXwXwXwXwXwXwXwXwXwXwXwXwX8X7XrXwX9X9X7X7X0X/.X.L k 6 ; ; 4 i r r r t ' ' t r 7 4 a y 6 i i j c m.g g u u i 6 4 6 6 6 6 4 i u 4 6 6 6 6 i 4 6 u u j g.Z.g g g u 4 5 5 4 g =.$.g.B.B.B.B.B.B.B.Z.Z.B.V.!.~.)./.6X9X9X9X9X8X8X8X8X8X8X8X8X0X0X0X0X0X8X8X8X0X0X0X0XrXpX0X0X0X8X9X9X9X9X7X6X/./.L 0.1.2.<.&.l 6 # 6 -.l p +Xi.f f i ; 6 S 6.s.4.f.f.f.f.f.f.f.f.f.1Xf.1X1X1X3X1X  4 6 4 6 3 lXHXlX3 6 4 6 4 # 5 0 0 0 0 0 0 5 # - 9 0 0 0 0 0 0 3 # 6 & zXDX. @ # # # . $.V.u ",
"R X.R R R R R R R R R R R X.R R R R tX6X6X6X/.O./././././.O././.O./././.6X6XeXeXfXfX8XO.7XdXsXwXtXsXtXwXwXtX0XO.( / ( ( ( ) ..) ) ) ( ( ( r 4 4 7 r r m.1 g u 4 i 4 4 4 4 4 4 4 i 6 4 4 4 4 4 i 4 4 6 u j g.Z.u g g & 4 g.B.kXkXA.B.B.B.B.g.g.g.%.c. XaXpXpXrX0X7X/.).^.^.^.K.^.K.K.K.K.K.K.K.K.~.~.#XnXnX#XK.Z L K.| oX+Xt.^.K K OXZXZXZXuX(.qXqX0XtXdXZXZXvXNXNXvX&.i h p +Xr.f 6 f f.3X3Xf.4.4.6.6.6.6.6.6.6.6.6.6.6.6.6.e.f.f.  4 6 4 6 3 lXHXlX3 6 4 6 4 # 5 0 0 0 0 0 0 5 # - 9 0 0 0 0 0 0 3 # 6 4 g GXlX# # # # $.V.=.4 ",
"& 5 * & & & & & & & & & & 5 * & & 8 9Xn n b n n n n n n D n n n n D n n n n A n b I *X*XE L D A @.O./.% t ) o.eXyXO.3 v w m m m m e 7 + ( ( ( + 3 7 r m., : : - 4 - # # # # # # 4 3 # # # # # 4 # - ; : 6 g.Z., : u B.kXB.g.1 , u ; ; i ; 4 > 6 6XtX8XX.k u < 2 2 2 2 2 2 2 2 < 2 2 2 2 2 2 2 2 2 2 2 1 %.g.A.A.%.> 2 C.XX; - <.vXvX2.&.< < < , < < y f | 8XtX/.=.d.NXvXi y OXw.3 s.3X4.s 5 3 3 5 5 5 5 5 5 5 5 5 * s 5 s f f q.OX  4 6 4 6 3 lXHXlX3 6 4 6 4 # 5 0 0 0 0 0 0 5 # - 9 0 0 0 0 0 0 3 # 4 u 3 =.D.u 3 4 3 =.=.4 6 ",
"8 w 8 8 8 8 8 8 8 8 8 8 8 w 8 8 8 w 9XD A H H A H H D H H A H H A H H A A H H A b D D H *X>XU D o.| wX@.( + v v m 8XtXJ t m m m m m e w G q + ( ) r i m., : : ; 6 3 - - - - - # 4 3 # - - - 3 6 - - ; : u g.Z.; g.kXB.1 6 u : , g , , =., 2 7.tX9Xl 2 2 < , , , , , , , , , , g u , , , , , , , , , , g : 4 : g.kXB.> C.[.5 vXNX1.4 i y a a a p p a a a g < 0.tX8X; a vXNXa OX0.f.3Xd 5 5 s s s s s s s s s s s s s f s d d S w.OX  4 6 4 6 3 lXHXlX3 6 4 6 4 # 5 0 0 0 0 0 0 5 # - 9 0 0 0 0 0 0 3 # 4 4 6 4 3 4 6 6 6 4 4 6 6 ",
"8 w 8 8 8 8 8 8 8 8 8 8 8 w 8 8 8 w 9Xb b H H A A A A D H b A A b H D A b H H b b H H b b R <X*X)...@.rX7 v 3 3 v v X.sXO.e t m m m m m F t 3 3 + ) / m., : : ; 6 3 - - - - - # 4 3 # - - - - 6 - - ; : 6 g.B.g.kXg.; , g 1 , , g , , g 2 /.sXG 2 < , , , , , , , , , , , , , g , , , , , , , , , , , g , , , : , A.A.C.XXNXvXa y a &.a a a a p p a a p &.a , y 0XwXa p XXNXoX1X3Xf s s s s s s s s s s s s s s s 9 f s s d S w.OX  4 6 4 6 3 lXHXlX3 6 4 6 4 # 5 0 0 0 0 0 0 5 # - 9 0 0 0 0 0 0 3 # 4 6 4 6 6 6 6 6 4 6 6 6 4 ",
"8 w 8 8 8 8 8 8 8 8 8 8 8 w 8 8 8 n 9Xb b H H A A A A D H b A A b H D A b H H b b H H b H L H >X,X) ` 6XeXO.B B 7 e 7 7XdXwXO.m t m m m F m 7 7 7 r ) M.< : : ; 6 3 - - - - - # 4 3 # - - - - 6 - - ; : u 1 SXkX$.g 1 , g g , , g , , 1 /.tXj 2 u , , , , , , , , , , , , , , g , , , , , , , , , , , g , , , 1 1 , B.xXNXd.p &.p a &.a a a a p p a a a p a a p , 0X0X=.p C.ZX4Xd d d s s s s s s s s s s s s s s 9 f s s d S w.OX  4 6 4 6 3 lXHXlX3 6 4 6 4 # 5 0 0 0 0 0 0 9 # - 9 0 0 0 0 0 0 3 # 4 6 4 4 6 6 4 4 6 u 6 4 4 ",
"8 w 8 8 8 8 8 8 8 8 8 8 8 w 8 8 * n 9Xb b H H A A A A D H b A A b H D A b H H b b H H b H L H K ,XO.N F | 7X9XwXO.K 8X9XJ sXtX8XK t m m F m e 7 r r r ) / < : ; 6 3 - - - - - # 4 3 # - - - - 6 - - ; : 7 B.kX1 $.$., , g g , , g , 2 ).tXu < , , , , , , , , , , , , , , , , g , , , , , , , , , , , g , , , , 1 $.1 NXcXp &.&.a a &.a a a a p p a a a p a a p p , tX(.&.-.CXf.f S f s s s s s s s s s s s s s s 9 f s s d S w.OX  4 6 4 6 3 lXHXlX3 6 4 6 4 # 4 5 5 5 5 5 5 6 # - 9 0 0 0 0 0 0 3 # 4 6 6 6 3 3 6 u 3 & 6 6 4 ",
"8 w 8 8 8 8 8 8 8 8 8 8 8 w 8 8 8 H 7Xn A H H A A A A D H b A A b H D A b H H b b H H b H L L #.@.<XX.N m t e J 9X7XO.m e | tX/.wX| t m F m e 7 r r r m.) r : ; 6 3 - - - - - # 4 3 # - - - - 6 - - ; - $.SXZ.1 $.$., , g g , , g 2 G sXl < , , , , , , , , , , , , , , , , , g , , , , , , , , , , , g , , , , 1 2 vXNXxXV.f &.a a &.a a a a p p a a a p a a p p y -.sX7.f.CXNX5.d f s s s s s s s s s s s s s s 9 f s s d S w.OX  4 6 4 6 3 lXHXlX3 6 4 6 4 @ n =X=X=X=X=X=XZ > 3 e t t t t t t 3 # 4 6 6 3 =.lXGXGXDXV.4 4 6 ",
"8 w 8 8 8 8 8 8 8 8 8 8 8 5 & & # n 7Xn A H H A A A A D H b A A b H D A b H H b b H H b H L #...o.X.<XB m m m m t t t m m e /.rX| rXJ t F m t 7 r r t N./ ) : ; 6 3 - - - - - # q 4 # - - - - 6 - - ; : kXB.Z.$.$.$., , g g , , 1 u tXK.2 , , , , , , , , , , , , , , , , , , g , , , , , , , , , , , g , , , 1 < C.NXC.vXkX<.p p a &.a a a a p p a a a p a a p p a < ).tX3XOXbXBX0 d s s s s s s s s s s s s s s 9 f s s d S w.OX  4 6 4 6 3 lXHXlX3 6 4 6 4 @ n =X=X=X=X=X=XZ @ 3 t t t t t t t 3 # 4 6 3 V.HXlXc.c.D.GXlX6 4 ",
"8 w 8 8 8 8 8 8 8 8 8 8 0 /././.O.9X6Xn A H H A A A A D H A A A b H D A A H H b b H H M P _ #.K o.} E :Xt m m m m m m m m m e wX9XX.9Xe F m m r r r ` _., / / $ 6 3 - - - & & # w 5 # & # - - 6 - ; O A.B.g.A.1 $.$., , g g , , < 0X7X1 u , , , , , , , , , , , , , , , , , , g , , , , , , , , , , , g , , , , 1 NX<.C.XXc.kXp p a &.a a a a p p a a a &.a a p p a p =.tXqX+Xf.NX5.s s s s s s s s s s s s s s s 9 f s s d S w.OX  4 6 4 6 3 lXHXlX3 6 4 6 4 # 6 ^ ^ ^ ^ ^ ^ r # - t t t t t t t 3 # 6 3 c.HXc.X X X X , GXzX3 ",
"8 w 8 8 8 8 8 8 8 8 8 * H wXK R R R H b b H D b b b b A H b b b b H D b b D H b b H H b H #.| K o.X.B >XU t m m m m m m m m m m tXX.9XK N m m e 7 t ' _.r : ) r y & & & # ; : : c j : : - # & 5 # O g.A.1 g.A.1 $.$., , 1 , , 2 ^.tX< g , , , , , , , , , , , , , , , , , , , g , , , , , , , , , , , g , , , > vXvX%.C.vX&.kXV.5 a p a a a y p a y y a p y y p p y a p.4XrX+Xi.vXd.8 s 9 9 9 9 9 9 9 9 9 9 9 9 9 = f s s d d w.OX  4 6 4 6 3 lXHXlX3 6 4 6 4 # 7 t t t t t t q # - t t t t t t t 3 # 6 4 DXD.X # # # @ o $.GX=.",
"q w q q q q q q q q w 5 K 7Xw D A A H H H L H H H H H H L H H H H L H H H H L H H L H P #...K R o.X.} X.<XB N N N N N N N N F t /.rX/.6XN F F t r ' ' _.~ r ^ ( 5 1 $.n.m.m.m.m.M.N.m.m.m.m.m.$.: 4 kXg.g g.A.$.$.=.1 g g g 1 g tXJ.< =.g g g g g g g g g g g g g g g g g g g g g g g g g g g g g g g g g g , <.NX<.<.C.vX<.<.kX=.p -.p p p p &.&.p p p -.p p &.&.p g 3Xf.0XpXi.y.NXd f f f f f f f f f f f f f f s f f d S 5.e.OX  4 6 4 6 3 lXHXlX3 6 4 6 4 # 7 t t t t t t r # - t t t t t t t 3 # 4 g GX=.. # # # h -.3 DXV.",
"9 w q 9 9 9 9 9 9 9 0 5 R qXA H H H H H H L H H H H H H L H H H H L H H H H L H H H H } #.K K R o.X.} F *X*Xt B N N N N N N N B t wX8XwXX.m B B F ' ' _.~ r 7 / m.m.m.Q j : : i G k : 6 : 1 ^ n.m.A.A., j.n.A.$.$.=.1 , g g 2 qX0X2 g =.g , 1 1 1 1 1 1 1 1 1 1 1 1 1 1 1 1 , g g , 1 1 1 1 1 1 1 , g g , g : NXC.<.<.C.vX<.1.V.A.s -.p p p p &.p p p p &.p p &.&.a *.4X1.i.dXi.5.vXd.9 s s s s s s s s s s s s s s f f d S S e.OX  4 6 4 6 3 lXHXlX3 6 4 6 4 # 7 t t t t t t r # - t t t t t t t 3 # 3 =.GX, . # . u PXIX>.V.V.",
"8 w 8 8 8 8 8 8 8 8 8 & R 7Xn A b b b b b H D b b b b A H b b b b H D b b H H b b H A #._ K K K o.| C C V >XC t m m m m m m m m t J tXO.9Xe m m N B ' _.c r m.m./ : q m q : : r G k 4 : : > q k 1 kXm.m.x n.A.1 $.$., , g < z tXl < , g , , , , , , , , , , , , , , , , , , , g , , , , , , , , , , , g , > 2.NX$.<.$.C.vX<.<.=.kX=.p a a a y p a y y a p y y p p ; f.f.*.1.wXqX*.d.vX* s 9 9 9 9 9 9 9 9 9 9 9 9 = f s s d d w.OX  4 6 4 6 3 lXHXlX3 6 4 6 4 # 7 t t t t t t r # - t t t t t t t 3 # 4 g GXh.X # # # # # # g.=.",
"8 w 8 8 8 8 8 8 8 8 8 * R 6Xn H A A A A b H H A A A A D H A A A b H D A A H H b b P _ #.H K K K o.| C C B E *Xt m m m m m m m m m e 9X9X7X/.t m N B ' _.! m./ 7 / / f G j : : q G G r 6 j : c m A.g., m.N.n.A.1 $.$., , g < 0X/.< , , g , , , , , , , , , , , , , , , , , , , g , , , , , , , , , , , g , : NX<.=.<.$.C.vX<.<.&.V.kXa a a a a p p a a a &.a a p p a 3Xp.p.1.+XdXw.5.NX*.= s s s s s s s s s s s s 9 f s s d S w.OX  4 6 4 6 3 lXHXlX3 6 4 6 4 # 6 t t t t t t r # - t t t t t t t 3 # 6 3 lXlXX # # # # X 1 V.u ",
"8 w 8 8 8 8 8 8 8 8 8 & R 6Xn H A A A A b H H A A A A D H b A A b H D A b H H b b H #.C J K K K o.| C C C B *XI t m m m m m m m m m B tXO.8XO.t B F ' M.N.^ r r r ) ` k t : r k G k k k k : w b.A., 1 1 x.hXZ.1 $.$., , < J.tX, g , , g , , , , , , , , , , , , , , , , , , , g , , , , , , , , , , , g > C.vX1 <.<.$.C.vX<.<.=.&.kXc.y a a a p p a a a p a a p , s.1X,.p.*.+XpXqXd vXd.* s s s s s s s s s s s s 9 f s s d S w.OX  4 6 4 6 3 lXHXlX3 6 4 6 4 # 6 f f f f f w i # - f f f f f f f 3 # 6 4 =.GXD.# # # # 1 V.h.4 ",
"8 w 8 8 8 8 8 8 8 8 8 & R 6Xn D A A A A b H H A A A A D H b A A b H D A b H H b A _ ..M C K K K o.| C C C M I *Xt m m m m m m m m m e 6XrXt rXJ N B ` N.^ ` ~ : j ^ ) k k k k k G k k k k r w D.g.1 1 ^ J.b.hXh.$.$., , < rX^.2 g , , g , , , , , , , , , , , , , , , , , , , g , , , , , , , , , , , g , NX<.=.=.<.$.C.vX<.<.=.&.c.kX5 a a a p p a a a p a a p p 3Xp.1.p.*.+XOXtXq.p.vX= s s s s s s s s s s s s 9 f s s d S w.OX  4 6 4 6 3 lXHXlX3 6 4 6 4 # 4 i i i i i i 6 # - i i i i i i i 3 # 4 u 3 c.lXu 3 3 3 h.c.4 6 ",
"8 w 8 8 8 8 8 8 8 8 8 & O./.n D A A A A b H H A A A A D H b A A b H D A b H H b M #.C V C K K K o.| C C C C m *XU t m m m m m m m m m m tX| X.9Xt F M.M.~ ~ ~ t ` N ) ` k k k k G k k k k w z.D.j 1 1 j.k.b.A.N.=.$.j u K.rX< , g , , g , , , , , , , , , , , , , , , , , , , g , , , , , , 2 , , , , : C.vX1 =.=.<.$.C.vX<.<.=.=.g kX=.y a a p p a a a p a a y e.3Xp y.p.*.+Xi.qX0Xa vX*.* s s s s s s s s s s s 9 f s s d S w.OX  4 6 4 6 3 lXHXlX3 6 4 6 4 @ q /.^.^.^.^./.G @ - ^.6X/././././.4 # 4 4 6 4 4 4 6 6 6 4 4 4 6 ",
"8 w 8 8 8 8 8 8 8 8 8 * O./.n D A A A A b H H A A A A D H b A A b H D A b H H A _ ..H V C K K K o.| C C C V M I *Xt m m m m m m m m m e /.rXe 8X| M.M._.! ~ ` ` ` c ..) k k k k G k k k k k D.b.j 1 g j.k.b.S.N.m.$.l j rX^.2 , g , , g , , , , , , , , , , , , , , , , , , , g , , , , , u K.u , , , g NX<.=.=.=.<.$.C.vX<.<.=.=.g V.A.5 a a p p a a a p a a y 3Xw.&.y.p.*.+Xi.5.sXq.d.d.* s s s s s s s s s s s 9 f s s d S w.OX  4 6 4 6 3 lXHXlX3 6 4 6 4 @ G eXeXeXeX8XwXX.@ - /.9X7X7X7X9X6X4 # 6 6 4 6 6 6 4 4 4 6 6 6 4 ",
"8 w 8 8 8 8 * 8 8 8 8 & /./.n D A A A A b H H A A A A D H b A A b H D A b H H M #.J J V C K K K o.| C C C V V m *XU t m m m m m m m m m N tX| O.7XM.' M.~ ~ ~ ~ ` ` k ) ` k k k G k k k w z.D.G l g j.j.k.b.S.j.m.g.p /.tXz u , g , , g , , , , , , , , , , , , , , , , , , , g , , , , < l sXh < , > C.vX1 =.=.=.<.$.C.vX<.<.=.=.=.=.kX=.y a p p a a a p a y *.3Xf *.y.p.*.+Xs.*.(.rX1.vX= s s s s s s s s s s s 9 f s s d S w.OX  4 6 4 6 3 lXHXlX3 6 4 6 4 @ k 8X9X9X9X9X8XK @ 3 i i i i i i i 3 # 4 6 4 6 6 6 6 6 6 6 6 4 4 ",
"8 w 8 8 8 8 6X9X6X6X6X6XeXR b D A A A A b H H A A A A D H A A A b H D A A H P _ ..H J V J K K K o.| C C C V V M I *Xt m m m m m m m m m t /.rXt aX| ` _.~ ~ ` ` ` N t ` ) k k k G k k k k D.z.Q x Q j.j.k.b.S.j.n.m.l tX^.z h , g , j ;., , , , , , , , , , , , , , , , , , , g , , , , < z sXl < , , NX<.=.=.=.=.<.$.C.vX<.<.=.=.=.&.B.B.5 a p p a a a &.a < f.f.p *.y.p.*.+Xs.5.*.wX6XvX*.9 s s s s s s s s s s 9 f s s d S w.OX  4 6 4 6 3 lXHXlX3 6 4 6 4 @ k 8X9X8X8X9XeXR @ 3 f k k k k k f 3 # 4 6 4 6 4 y y y y y 6 6 4 ",
"8 w 8 8 8 n 9X0 n n w n 0 H b b b b b b b H D b b b b A H b b b b H A b b D H #.V J C M C K K K o.| C C C V M V m *XU t m m m m m m m m F t tX_.P.eX` M.~ ~ ~ t ` N t t ) ` k k z k k w z.D.c j.x x Q j.k.b.S.z.j.n.&XwXz G c , g < j :., , , , , , , , , , , , , , , , , , , g , , , , 2 G sXz < > 2.vX, =.=.=.=.<.$.C.vX<.<.=.=.=.=.=.kX&.y p a y y a p y a 4X5.f *.p.p.*.+Xi.5.*.0.tXbXd.* s 9 9 9 9 9 9 9 9 9 = f s s d d w.OX  4 6 4 6 3 lXHXlX3 6 4 6 4 @ k 8X8X8X8X9XeXR @ 3 i i i i i i i 3 # 4 6 6 y 7 + ( ( ( e y 4 6 ",
"5 q 5 5 3 D 6X5 q q q 9 w L H H H H H H H L H H H H H H L H H H H L H H H P ....H K J J K | X.R o.X.| | J J J J J R >XN F F F F F F F N ' k /.yX~ 7XrX&X! ] { ` { ` ` G ..+.z G G G G G D.b.Q J.j.j.j.k.k.b.S.z.z.z.tX).;.7.x g =.1 l J.g g g g g g g g g g g g g g g g g g g =.g g g g 1 J.tXJ.1 g NXC.=.=.=.<.<.c.<.C.vX<.1.<.<.=.<.&.V.V.s -.&.p p &.-.g s.3X,.*.5.y.y.y.+Xf.p.p.*.a.dXbXw f d f f f f f f f f f d d d 5.5.e.OX  4 6 4 6 3 lXHXlX3 6 4 6 4 @ k 8X8X8X8X9XeXR @ - L /././././.^.4 # 4 6 y e ( ( + + ( ( ( 4 6 ",
"7XqX7X7X6XwX/.5 w w w q w L H H H H H H H L H H H H H H L H H H H L H H H H #.C J J J J J | K R o.X.} } J J J J J F :XR t F N N N N N N F F M.tX).~ | aX).~ { ` { ` ` ` G ) ` z G G m z.D.x j.J.j.j.j.z.k.b.S.z.z.).yXN.7.7.G h =.h x J.h 1 g g g g g g g g g g g g g g g g g g g g g g < ).wX^.2 C.vX=.=.=.=.=.<.c.<.C.vX<.<.<.=.=.<.=.<.kXp -.&.p p &.-.a 3Xp.*.*.*.y.y.y.+Xf.p.p.p.*.a.dX0Xs y 5 s s s s s s s s f f d d 5.w.OX  4 6 4 6 3 lXHXlX3 6 4 6 4 @ k 8X8X8X8X9XeXR @ - 7XtXrXrXrXtX0X5 # 6 y e ( + # $ $ $ + ( + y ",
"b H A b b b 8 8 8 8 8 8 8 H b b b b b b b H D b b b b A H b b b b H D b A _ ..M M J C M C K K K o.| C C C V M M V M I *Xt m m m m m m m M ^ M./.rX~ ` _.rX{ ~ t ` N t N t ....w G k w D.z.c x j.x x Q j.k.b.S.z.z.tX^.m.x.z z h x z G J.i < , , , , , , , , , , , , , , , , , g , , , , , 0X/./.> NX2.=.=.=.=.=.=.<.$.C.vX<.<.=.=.=.=.=.a A.c.a p y y a g 5.3X&.*.*.*.y.p.*.+Xi.5.5.*.*.a OXsXtX7Xa.L A S d d d d w S S S S P a.OX  4 6 4 6 3 lXHXlX3 6 4 6 4 @ k 8X8X8X8X9XeXR @ - 6XwXwXwXwXwX9X4 # 6 y ( ( $ # # # # $ + ( 7 ",
"8 9 8 * * * 0 0 0 0 0 0 n H D A A A A A b H H A A A A D H A A A b H D A b #.} M V J J V J K K K o.| C C C V V V V V m *XI t m m m m m m F M.~ N tXX.` M.7X).~ ` ` N N N N t ) ` z k z.D.c Q x j.x Q j.j.k.b.S.z.).rXx j.N.z z z 7.h qX0Xj , , , , , , , , , , , , , , , , , , g , , , , j 7XG 6X<.NXg <.=.=.=.=.=.<.$.C.vX<.<.=.=.=.=.=.&.<.kXp p a a p g f.s.&.*.*.5.y.u.p.+Xi.5.5.*.*.&.a.6XS 6X8XwXwXtXtXtXtXtXtXtXtXtXtXtXsX(.@ 4 6 4 6 3 lXHXlX3 6 4 6 4 @ k 8X9X8X8X9XeXR @ - 7XwXwXwXwXwX9X5 # 4 7 ( + $ # # # # # # ( + ",
"8 w 8 8 8 8 n H H H H H A H A A A A A A b H H A A A A D H b A A b H H A _ #.H V M J J V C K K K o.| C C C V V V V V M U *Xt m m m m m m ^ x.m t /.rX` M.| 0X~ ` ` N N N N k ....z m D.b.c Q x j.x Q Q j.k.b.S.z.rX).Q z N.x.k z 7.z 9XwXG , , , , , , , , , , , , , , , , , , g , < , < l 7XG 7XvX2.g <.=.=.=.=.=.<.$.C.vX<.<.=.=.=.=.=.=.g kXc.a a a a *.3X*.*.*.*.5.r.i.r.+Xi.5.5.*.*.&.a.aX& * * = s s s s s s s d d d S S e.OX  4 6 4 6 3 lXHXlX3 6 4 6 4 @ k 8X8X8X8X9XeXR @ - 7XwXwXwXwXwX9X5 # y e ( & # # . # # # $ ( ( ",
"8 w 8 8 8 8 n D A A A A b H A A A A A A b H H A A A A D H b A A b H D A #.} J V M J J V C K K K o.| C C C V V V V V V M *XK t m m m m N M.~ N ` ` tXX.M.~ 0X{ t ` N N N N N t ) ` z.D.x Q x x j.x Q Q j.k.b.D.).tXz.Q x j.N.z z :.G 7X/.^., , u u , , , , i , < < , , , , , , g g z , < z 7Xk aXNXg =.=.=.=.=.=.=.<.$.C.vX<.<.=.=.=.=.=.=.7.V.kXa a y , s.f.a *.*.*.a.qXi.u.uXs.5.5.5.5.&.a.ZX*.9 s s s s 5 5 5 9 = f s s d d w.OX  4 6 4 6 3 lXHXlX3 6 4 6 4 @ k 8X8X8X8X9XeXR @ - 7XwXwXwXwXwX0X5 # 4 7 ( + @ 3 MXi . # # ( + ",
"8 w 8 8 8 8 n D A A A A A H A A A A A A b H H A A A A D H b A A b H A _ #.H J M M J J V C K K K o.| C C C V V V V V V M E *Xt m m m m ^ M.N t ` t 7XrXM.~ 7X/.t ` N N N N N k ....D.b.c Q x x j.x Q Q j.k.b.D.rX).z.G.Q x N.x.z :.L 7X^.7Xj z z i , i , 2 /.qX7XK.2 < < , , , < K.tX2 G tX/.j aX2.1 =.I.,.=.=.=.=.<.).XXvX<.<.<.8.$.=.=.%.0XK.kX=.y t.p 3Xp.f *.5.&.qXtX0X(.tX(.p.0.w.5.&.a.ZX2.* s s s s s s s s 9 f s s d S w.OX  4 6 4 6 3 lXHXlX3 6 4 6 4 @ k 8X8X8X8X9XeXR @ - 7XwXwXwXwXwX9X5 # 6 y ( ( o mXMXX # $ + ( 7 ",
"8 w 8 8 8 8 b A A A A A A H A A A A A A b H H A A A A D H b A A b H A #._ H J M M J J V C K K K o.| C C C V V V V V V V M *XC t m m N M.` N N ` ` ' tX_.^ | 9Xt ` N N N N N t N +.D.x x x x x j.x Q Q j.F.n.#XtXz.z.tX^.G.G.N.z x K.7XJ.0Xz z L L , z < h qX0XtX0Xj /.G , , < < ^.tXj ^.dXL ,.pX0X=.%.qXqX%.=.%.H.(.wX$XvX<.<.,.sXqX=.=.8.tX8XB.B.f rXs.3Xf *.*.0.*.qXtXsXdXdX(.p.0.q.qX5./.pXBX* s s s s s s s s 9 f s s d S w.OX  4 6 4 6 3 lXHXlX3 6 4 6 4 @ k 8X9X8X8X9XeXR @ - 7XwXwXwXwXwX9X5 # 6 y e ( + I.u X # & ( ( y ",
"n D b n n n A A A A A A A H A A A A A A b H H A A A A D H b A A b H _ #.M C J M M J J V C K K K o.| C C C V V V V V V V m E *Xt m m ^ ^ F ` N ` ` ~ 7XrX^ [ 9Xt ` N N t t t N t #X!.c Q x x x j.x Q j.j.z.n.aX).h.).rX).7XsX_.x.z 0X^.l qX^.h wX0XK.tX, K./.z G K.wXsXtXj < l ^.tX7XK./.K.q vXpXrXU.%.qXtX>.=.U.U.rXtXdXC.<.y.E.tXsX<.%.rXtXwX).xXtXtXpXs.5.w.&.(.qXqXqXdXsXdXqX(.(.6XtX5./.wXvXs 9 s s s s s s s 9 f s s d S w.OX  4 6 4 6 3 lXHXlX3 6 4 6 4 @ k 8X8X8X8X9XeXR @ - 7XwXwXwXwXwX9X5 # 6 6 y + #.3 # 3 # + ( 4 4 ",
"A H H A D D A A A A A A A H D A A A A A b H H A A A A D H A A A b P #._ M C J V V J J V J K K K o.| C C C V V V V V V V V M >XV m N M.t ` N N ` ` ` ' tX| ~ 9X` ` N t /.rX' t ~ aXwX~ x x x x j.x Q Q G.).P.sXP.h.qXK.0X0X).qXm.J.9Xz ;.^.wX0X/.7XwX9XL /.K.l z z ^.G 7X0X/.tXtX7XK.9X7Xz 7.bX8.^.0XrX0X).^.=.wXqXdX0XrXaX%.(.dX).qX0X=.rXrXK.dXaXtX0XpXr.0X0X&.qXsX(.(.dXsXpXtXsXwXsXdX0.(.wXvXp.* s s s s s s s 9 f s s d S w.OX  4 6 4 6 3 lXHXlX3 6 4 6 4 @ k 8X8X8X8X9XeXR @ - 7XwXwXwXwXwX9X5 # 6 6 4 6 7 u u 6 6 6 4 4 6 ",
"b H A b b b b b b b b b b H A b b b b b b H D b b b b A H b b b A } #.M M C J M M J C M C K K K o.| C C C V M M M M M M V m E *Xe ^ ^ m ` N t N ` ` ~ aXrX~ 9X' ` t } 8X/.9Xr ~.aX7X/.l x x x J.x Q Q qXtXrXrX0Xk.0XQ qXqXl 8X_.~.9Xh 7.G tXG h G L K.9X0Xz z z z c j ^.dXtX^.qXj G sXK.q XXXXz 9.tXqXE.^.).%.tXtX).l.[.pXU.0XdXK.:.rX).0X0X8.sXtX#Xf.iX6XsXwXa 0XdXa.u.(.tXuXdXsXtXdXdXq.6XwXd.d.* s 9 9 9 9 9 9 = f s s d d w.OX  4 6 4 6 3 lXHXlX3 6 4 6 4 @ k 8X8X8X8X9XeXR @ - 7XwXwXwXwXwX0X5 # 6 6 6 4 4 4 4 4 4 4 4 6 4 ",
"H L H H H H H H H H H H H L H H H H H H H L H H H H H H L H H H P #._ H J J J J J J J J J | K R o.X.} } J J J J J J J J J J J >XF M.` ` { ` ` ` ` { { _.tX[ 7XX.` c /./.t 8X` aX).G.0XQ j.j.j.j.j.j.K.qX7XdXV.qXP.qXJ.J.J.j.G.0XaXK.z J.G 7.x G x z 7.tX).z G x x G x 7.^.).z :.7.G K.x 7.bXU.8.H.E.>.>.^.qX).dXrXv.I.XXuXtXsX(.8.>.Q.0XqXE.>.).sXzXuXa.wXrX0Xt.wXtXt.i.i.qXuXpX0XsXtXdXt.qXsXOXvX9 f f f f f f f s f f d S 5.e.OX  4 6 4 6 3 lXHXlX3 6 4 6 4 @ k 8X8X8X8X9XeXR @ - 7XwXwXwXwXwX9X5 # 6 6 4 4 6 u u u u 6 4 4 4 ",
"H L H H H H H H H H H H H L H H H H H H H L H H H H H H L H H H C #.J J J J J J J J J J J | K R o.X.} } J J J J J J J J J J F *X&X^ N ` { ` ` ` ` { [ M.7XwX| 9X~ ` 9XX.t 9X XaX{ j.aX .:.Q G.0XJ.x ).).0XaXV.).qXqXj.j.j.J.Q qX&Xn.G J.x z x x x G G G z x x x x x x x z z x 7.G x x c XXbX7.8.8.8.H.U.U.rXsXtX(.v.I.XX+XdXtX>.U.8.E.tXqX>.8.E.tXoXuX5.wXwXwXsX0XqXe.i.i.i.uXOX(.sX(.dXqXtXdX(.bXf s s s s s s s s f f d S S e.OX  4 6 4 6 3 lXHXlX3 6 4 6 4 @ k 8X9X8X8X9XeXR @ - 7XwXwXwXwXwX9X5 # 6 6 4 u 4 3 & & & 4 u 6 4 ",
"b H A b b b b b b b b b b H A b b b b b b H D b b b b A H b M A ....D M M C J M M J C M C K K K o.| C C C V M M M M M M M V M C _.~ N t ` N t N ` ` { M.{ tX).7Xc | 9Xt t O.aX&XQ Q 9X@.x c ).rX).j 7X).tXb.S.J.tX).l x j.j.x x k.N.z 7.z z z z z z z z z z z z z z z z z z z G z z z z bXU.7.8.7.8.8.H.7.7.).qX>.I.l.XX.X0X(.8.8.7.U.tXK.:.7.U.).3XbX7.qX0Xt.wXqX5.w.i.i.i.uX(.a.0Xa.sXtXtX0X/.bX*.* s 9 9 9 9 9 = f s s d d w.OX  4 6 4 6 3 lXHXlX3 6 4 6 4 @ k 8X8X8X8X9XeXR @ - 7XwXwXwXwXwX9X5 # 6 4 u 3 4 C.cXcXC.g 3 6 6 ",
"A H D A A A A A A A A A A H D A A A A A b H H A A A A D H A A V #.J C V V J J V V J J V C K K K o.| C C C V V V V V V V V V V ^ &XE t N ` N N ` ` ` { _.^ 7XrX9X{ /./.t N k.aX^.! ~ 7X@.^ x qXK.9XQ 7XtX).n.S.z.L.z.Q x j.j.x Q 7.N.k.7.z z z z z z z z z z z z z z z z z z z 7.z z k `.bXz 8.8.8.8.8.H.8.7.8.U.>.I.l.XX.X8.I.8.8.8.H.K.8.8.8.H.9.2XXX`.a./.5././.0.w.i.i.i.uX(.e.w.a.0XsXrX/.9Xd.d.* s s s s s s 9 f s s d S w.OX  4 6 4 6 3 lXHXlX3 6 4 6 4 @ k 8X8X8X8X9XeXR @ - 7XwXwXwXwXwX0X5 # 4 u 3 =.GXLXcXcXGXLXC.3 6 ",
"b H D A A A A A A A A A A H A A A A A A b H H A A A A D H M A ....H C V V C J M M J J V C K K K o.| C C C V V V V V V V V V V M.| :Xt N ` N N ` ` ` { _.~ { tXrXX./.O.t N D.x.~ F.~ ).&X/ J.0Xj.9XJ.tXtXk.b.S.z.z.z.Q x j.j.x Q j.k.N.7.z z z z z z z z z z z z z z z z z z z 7.z z k bXY.7.8.8.8.8.8.H.8.8.8.8.H.I.l.XX.XU.U.8.8.8.H.>.8.8.8.l.1X1XI.nXw.0.q.q.w.q.w.i.i.i.uX(.e.e.t.t.tX/.t.rXuXvX8 s s s s s s 9 f s s d S w.OX  4 6 4 6 3 lXHXlX3 6 4 6 4 @ k 8X8X8X8X9XeXR @ - 7XwXwXwXwXwX0X5 # 6 4 =.LXcX: X X . C.LXC.3 ",
"b H D A A A A A A A A A A H A A A A A A b H H A A A A D H A M #.V J C V V C J M M J J V C K K K o.| C C C V V V V V V V V V  .M.m ;XX.t ` N N ` ` ` { M.] ~ /.dX).9X| t x.D.` Q ] ~ ^.7Xo.^.7Xl 7XK.sX).z.b.S.z.z.z.Q x j.j.x x j.z N.x.z z z z z z z z z z z z z z z z z z z 7.z k U.bX:.8.8.8.8.8.8.H.8.8.8.8.H.I.l.XX.XU.U.8.8.8.H.8.8.8.7.H.2Xi.0.#XQ.q.q.w.w.q.w.i.i.i.uX(.e.e.e.0.wX/.5.qXdXbXw s s s s s s 9 f s s d S w.OX  4 6 4 6 3 lXHXlX3 6 4 6 4 @ k 8X8X8X8X9XeXR @ - 7XwXwXwXwXwX9X5 # u 3 cXcXX . # # # X C.LXg ",
"b H D A A A A A A A A A A H A A A A A A b H H A A A A D H A _ ..M J C V V C J M M J J V C K K K o.| C C C V V V V V V V V V M.{ F | ;Xt ` N N ` ` ` { M.~ ~ ~ tXtX9Xt m D.x.~ Q ] Q K.tXrXtX).l ).0XrXj.k.b.S.z.z.z.Q x j.j.x x j.x k.N.z z z z z z z z z z z z z z z z z z z 7.z k bX'.7.8.8.8.8.8.8.H.8.8.8.8.H.I.l.XX.XU.U.8.8.8.H.8.8.8.:.s.2X8.w.`.XXP q.w.w.q.w.i.i.i.uX(.e.e.e.q.0Xa.5.a.tXZX5.= s s s s s 9 f s s d S w.OX  4 6 4 6 3 lXHXlX3 6 4 6 4 @ k 8X8X8X8X9XeXR @ - 7XrXwXwXwXwX0X5 # 4 p LXc.X # # # . X # LXC.",
"b H D A A A A A A A A A A H A A A A A A b H H A A A A D H A #.C M J C V V C J M M J J V C K K K o.| C C C V V V V V V V V { M.B ' N ;X| ~ N N ` ` ` { M.~ ` ~ ^.dX| t k.D.~ ! Q ] ! ] tX[ &X[ ;.K.dX).~ k.b.S.z.z.z.Q x j.j.x x j.Q x N.j.z z z z z z z z z z z z z z z z z z 7.z 8.bX7.8.8.8.8.8.8.8.H.8.8.8.8.H.I.l.XX.XU.U.8.8.8.H.8.8.8.:.2Xs.9.r.u.nXr.q.w.w.q.w.i.i.i.uX(.e.e.e.q.w.q.q.5.6XZXy.* s s s s s 9 f s s d S w.OX  4 6 4 6 3 lXHXlX3 6 4 6 4 @ w ;X-X-X-X-X;XL @ - E >X:X>X>X>X;X4 # 3 =.LX1 . # . 4 MXIX:.cXC.",
"b H D A A A A A A A A A A H A A A A A A b H H A A A A D P _ #.M V J C V V C J M M J J V C K K K o.| C C C V V V V V V V V M.{ F ' N X.;X~ N N ` ` ` { M.~ ~ ` t rX/.t D.b.~ Q Q ] ! Q ^.] ^ +.;.).dXG.j.k.b.S.z.z.z.Q x j.j.x x j.Q x x.N.k z z z z z z z z z z z z z z z z z 7.k vXXXx 8.8.8.8.8.8.8.H.8.8.8.8.H.I.l.XX.XU.U.8.8.8.H.8.8.>.u.2X9.r.u.w.XX`.P w.w.q.w.i.i.i.uX(.e.e.w.q.q.q.q.5.6XuXd.8 s s s s s 9 f s s d S w.OX  4 6 4 6 3 lXHXlX3 6 4 6 4 @ w -X-X-X-X-X;XH @ - E >X:X:X:X:X*X4 # 3 =.LX=.. # # - l.Y.6 B.<.",
"A H D A A A A A A A A A A H D A A A A A b H H A A A A D H #._ V V J C V V J J V V J J V J K K K o.| C C C V V V V V V V { M.B ' F F F :X| t N ` ` ` { M.~ ~ ` t ^.tXk.D.Q Q Q Q ] ! Q ~ Q Q +.G.tX7Xj.j.k.b.S.z.z.z.j.x j.j.x Q j.x x J.N.Q z z z z z z z z z z z z z z z z z x 8.bX8.8.8.8.8.8.8.8.8.H.8.8.8.8.H.I.l.XX.XU.U.8.8.8.H.8.8.:.1Xf.9.r.r.r.`.#Xq.w.w.q.w.i.i.i.uX(.e.e.e.q.q.q.q.0./.dXbX9 s s s s s 9 f s s d S w.OX  4 6 4 6 3 lXHXlX3 6 4 6 4 @ w -X-X-X-X-X;XH @ - E >X:X:X:X>X;X4 # 4 4 GXzXX # # # X o ; V.g ",
"b H A b b b b b b b b b b H b b b b b b b H D b b b b A _ #.M V M J V M M C J M M J C M C K K K o.| C C C V M M M M M V M.] B F F F N X.-Xt N N ` ` ` M.~ ~ ~ ` ~ eXaXn.` Q Q Q ] ! Q Q Q Q ^ yXqXg Q j.k.b.S.z.z.z.Q x j.Q x x j.x x J.x.M.k z z z z z z z z z z z z z z z z c XXXXz 8.7.7.7.7.7.7.8.H.7.7.7.8.8.I.l.XX.X9.U.8.8.7.H.7.7.8.2Xi.u.9.9.u.r.#XU.q.w.q.q.i.i.u.uX(.e.e.w.q.q.q.q.q.5.qXpXd = 9 9 9 9 = f s s d d w.OX  4 6 4 6 3 lXHXlX3 6 4 6 4 @ w -X-X-X-X-X;XH @ - E >X:X:X:X:X*X4 # u 3 C.LX<.. # # # ; V.V.4 ",
"H L H H H H H H H H H H H L H H H H H H H L H H H H H P #._ J J J K J J J J J J J J J J K | R R o.X.| | J J J J J J J { M.} ' ' ' ' } ' >X' ` ` { { [ _.] ] { ` { [ pXK.! F.] ] F.F.] ] F.Q ).sXF.j.j.k.k.b.S.z.z.z.j.j.J.J.j.j.J.j.j.J.j.N.j.G 7.7.7.7.7.7.7.7.7.7.7.7.7.7.G J.bXU.8.H.H.H.H.H.H.H.H.U.H.H.H.H.I.R.I..X@XU.U.U.U.H.U.U.l.f.2XU.E.u.u.E.i.[.XXe.i.w.e.i.i.i.uXOXi.i.e.e.w.w.w.e.w.a.pXw.s f f f f f d d d S 5.e.OX  4 6 4 6 3 lXHXlX3 6 4 6 4 @ w -X-X-X-X-X;XH @ - E >X:X:X:X:X*X4 # 6 6 3 cXLX4 # # & c.V.u 4 ",
"H L H H H H H H H H H H H L H H H H H H H L H H H H H } #.H J J J K J J J J J J J J J J K | K R o.X.} } J J J J J J J M. .J ' ' ' ' } ` O.O.~ ` { { [ _.] ] { ` ' V.%XtXk.! ] ] F.F.] ] ! F.tX@. .j.j.z.k.b.S.z.z.z.j.j.J.J.j.j.J.j.j.J.7.x.M.G 7.G G G G G G G G G G G G 7.c XXbX7.U.H.H.H.H.H.H.H.H.U.8.H.H.H.I.R.I..X@XU.U.U.U.H.U.H.H.2Xi.E.E.u.u.E.E.u.nXi.e.w.e.i.i.i.uXOXi.i.e.e.w.w.w.w.e.q.aXOXs f f f f f d d d S 5.e.OX  4 6 4 6 3 lXHXlX3 6 4 6 4 @ w -X-X-X-X-X;XH @ - E >X:X:X:X:X*X4 # 4 6 4 4 =.6 6 6 4 u u 4 6 ",
"b H A b b b b b b b b b b H b b b b b b b H D b b b A #._ M M M M J V M M C J M M J C M C K K K o.| C C C V M M M V F M.F F F F F F F F } :XN N ` ` ` M.~ ~ ~ t { D.^ 0XrX~ Q Q ] ! Q Q ~ rX9X! +.x Q j.k.b.S.z.z.z.Q x j.Q x x j.x x J.x Q N.z z z z z z z z z z z z z z z z bXU.7.7.7.7.7.7.7.7.7.8.H.7.7.7.8.8.I.l.XX.X9.U.8.8.7.H.:.i.2X8.u.u.9.9.r.E.q.XX`.q.q.q.i.i.u.uX(.e.e.w.q.q.q.q.q.q.5.0X+X8 s 9 9 9 = f s s d d w.OX  4 6 4 6 3 lXHXlX3 6 4 6 4 @ w -X-X-X-X-X;XH @ - E >X:X:X:X>X;X4 # 4 6 6 6 4 4 4 4 6 4 4 6 4 ",
"A H D A A A A A A A A A A H D A A A A A b H H A D A V #.J V V V V J C V V J J V V J J V J K K K o.| C C C V V V V V x.! B ' F F F F F F ` O.O.t ` ` { M.~ ~ ~ N b.S.~ Q tX9X~ Q F.] Q ~ 0XrX~ j.+. .;.j.k.b.S.z.z.z.j.x j.j.x Q j.x x J.Q z x.x.k z z z z z z z z z z z z k `.bX7.8.8.8.8.8.8.8.8.8.8.H.8.8.8.8.H.I.l.XX.XU.U.8.8.8.U.:.1Xf.8.u.u.r.r.u.E.r.T.#Xq.q.w.i.i.i.uX(.e.e.e.q.q.q.q.q.q.5.0XZX9 s s s s 9 f s s d S w.OX  4 6 4 6 3 lXHXlX3 6 4 6 4 @ w -X-X-X-X-X;XH @ - E >X:X:X:X>X*X4 # 4 6 4 6 6 6 6 6 6 6 6 4 4 ",
"b H D A A A A A A A A A A H A A A A A A b H H A D A .._ H V V V M J C V V C J M M J J V C K K K o.| C C C V V V V F M.' F F F F F F F F ' } :X` ` ` { M.~ ~ ~ N D.k.Q Q Q tXwX] Q ~ ] rXrXQ Q F.] +.:.j.k.b.S.z.z.z.Q x j.j.x x j.x x J.Q x Q N.z z z z z z z z z z z z z k bX`.7.8.8.8.8.8.8.8.8.8.8.H.8.8.8.8.H.I.l.XX.XU.U.8.8.8.H.9.2Xr.9.u.u.r.r.u.u.9.r.nXu.q.w.i.i.i.uX(.e.e.e.q.q.q.q.q.q.5.qXZXd 5 s s s 9 f s s d S w.OX  4 6 4 6 3 lXHXlX3 6 4 6 4 @ w -X-X-X-X-X;XH @ - E >X:X:X:X:X*X4 # 4 6 4 6 4 ; y 4 ; 4 6 6 4 ",
"b H D A A A A A A A A A A H A A A A A A b H H b A V #.C J V V V M J C V V C J M M J J V C K K K o.| C C C V V V V ! ! B ' F F F F F F F } N -XX.~ ` { M.~ ~ N b.D.~ Q Q Q Q 0XtXwXwXtX0XQ Q Q F.Q +. .j.k.b.S.z.z.z.Q x j.j.x x j.x x J.Q Q z N.x.k z z z z z z z z z z k U.bX7.8.8.8.8.8.8.8.8.8.8.8.H.8.8.8.8.H.I.l.XX.XU.U.8.8.8.l.f.1X8.r.u.u.r.r.u.u.9.w.[.[.P w.i.i.i.uX(.e.e.e.q.q.q.q.q.q.0./.dX5.* s s s 9 f s s d S w.OX  4 6 4 6 3 lXHXlX3 6 4 6 4 @ w -X-X-X-X-X;XH @ - E >X:X:X:X:X*X4 # 4 6 6 4 7 ..) ) ) t 4 6 6 ",
"b H D A A A A A A A A A A H A A A A A A b H D M A _ ..D J V V V M J C V V C J M M J J V C K K K o.| C C C V V V V M.' F F F F F F F F F } F | ;X` ` { M.~ ~ ` D.b.Q Q Q Q Q ~ K.).).G.~ Q Q Q F.Q  .+.j.k.b.S.z.z.z.Q x j.j.x x j.x x J.Q x x z.N.z z z z z z z z z z z k bX'.8.8.8.8.8.8.8.8.8.8.8.8.H.8.8.8.8.H.I.l.XX.XU.U.8.8.8.H.2Xi.9.r.u.u.r.r.u.u.9.r.E.nXq.w.i.i.i.uX(.e.e.e.q.q.q.q.q.q.q.q.pXi.* s s s 9 f s s d S w.OX  4 6 4 6 3 lXHXlX3 6 4 6 4 @ w -X-X-X-X-X;XH @ - E >X:X:X:X:X*X4 # 4 6 4 ~ gXgX) ( ) gX) 4 6 ",
"b H D A A A A A A A A A A H A A A A A A b H H A D #.C V J V V V M J C V V C J M M J J V C K K K o.| C C C V V V  .M.B ' F F F F F F F F } ' N ;XX.~ { M.! ` x.D.{ ! Q Q Q Q ! ~ Q ~ ~ ! Q Q Q F.Q Q +.! z.b.S.z.z.z.Q x j.j.x x j.x x J.Q x Q z N.k.z z z z z z z z z k 8.bX7.H.8.8.8.8.8.8.8.8.8.8.8.H.8.8.8.8.H.I.l.XX.XU.U.8.8.:.OX1X8.u.9.u.u.r.r.u.u.r.r.r.#XU.q.i.i.i.uX(.e.e.e.q.q.q.q.q.q.q.5.0X+X0 s s s 9 f s s d S w.OX  4 6 4 6 3 lXHXlX3 6 4 6 4 @ w -X-X-X-X-X;XH @ - E >X:X:X:X>X;X4 # 6 4 t gX) # % % $ + gX+.y ",
"b H D A A A A A A A A A A H A A A A A A b H H A _ ..M V J V V V M J C V V C J M M J J V C K K K o.| C C C V V V M.{ F F F F F F F F F F } ' F X.;X~ { M.! ` D.b.] ! Q Q Q Q Q Q F.] Q Q Q Q Q F.Q Q  .+.z.b.S.z.z.z.Q x j.j.x x j.x x J.Q x x x k.N.z z z z z z z z z k XXXXz U.8.8.8.8.8.8.8.8.8.8.8.H.8.8.8.8.H.I.l.XX.XU.U.8.8.:.2Xs.9.u.9.u.u.r.r.u.u.r.9.r.[.XXq.i.i.i.uX(.e.e.e.q.q.q.q.q.q.q.5.0XZX9 s s s 9 f s s d S w.OX  4 6 4 6 3 lXHXlX3 6 4 6 4 @ w -X-X-X-X-X;XH @ - E >X:X:X:X>X*X4 # 6 4 ) ) % # # # # % + gXr ",
"A H D A A A A A A A A A A H D A A A A A b H H A #._ M V J V V V V J C V V J J V V J J V J K K K o.| C C C V V { M.B ' F F F F F F F F F } ' F ' :X| ` _.~ k.D.~ F.Q Q Q Q Q Q Q ] ! Q Q Q Q Q F.Q Q ! +.F.b.S.z.z.z.j.x j.j.x x j.x x J.Q x x Q x N.j.z z z z z z z z 7.bX8.7.H.8.8.8.8.8.8.8.8.8.8.8.H.8.8.8.8.H.I.l.XX.XU.U.9.>.i.2X9.u.r.9.u.u.r.r.u.u.r.r.u.u.nXr.i.i.i.uX(.e.e.e.q.q.q.q.q.q.q.0.a.pXa.* s s 9 f s s d S w.OX  4 6 4 6 3 lXHXlX3 6 4 6 4 @ w -X-X-X-X-X;XH @ - E >X:X:X:X:X*X4 # 4 r gX+ $ # # # # # # gX..",
"b H A b b b b b b b b b b H A b b b b b b H A _ #.M V V J M M V M J V M M C J M M J C M C K K K o.| C C C V V M.{ B F F F F F F F F F F ' F F F X.;X~ _.~ S.b.~ F.Q Q Q Q Q Q Q ] ! Q Q Q Q Q F.Q Q Q  .+.b.S.z.z.z.Q x j.j.x x j.x x J.x x x x z x.N.k z z z z z z k XXXXz 8.H.8.7.7.7.7.7.7.7.7.7.8.H.7.7.7.8.8.I.l.XX.X9.U.9.:.1Xf.8.r.r.9.u.u.9.9.u.u.9.9.u.w.XX`.e.i.u.uX(.e.e.w.q.q.q.q.q.q.q.q.q.dX0X* s 9 = f s s d d w.OX  4 6 4 6 3 lXHXlX3 6 4 6 4 @ w -X-X-X-X-X;XH @ - E >X:X:X:X:X*X4 # 4 t gX7 $ # # . . # $ ) ) ",
"H L H H H H H H H H H H H L H H H H H H H L H #._ J J J J J J J J J J J J J J J J J J J J | K R o.X.} } J C { M.J ' ' ' ' ' ' ' ' ' ' ' } ' ' } ' >X| M.k.D.k.! F.] ! ] ] ] ] ! F.F.! ] ] ] ] F.! ] k.k.+.b.D.z.z.z.j.j.j.j.j.j.J.j.j.J.j.j.j.j.j.j.N.j.G x x x x x x bXU.8.8.U.H.8.8.8.8.8.8.8.8.8.8.U.8.8.8.H.I.I.v..X@XU.U.U.u.2XE.u.u.u.u.E.u.u.u.u.E.u.u.E.u.`.nXi.i.i.uXOXi.i.e.w.w.w.w.w.w.w.w.w.sXwXs f s s f f d S S e.OX  4 6 4 6 3 lXHXlX3 6 4 6 4 @ w -X-X-X-X-X;XH @ - E >X:X:X:X>X*X4 # 4 r gX+ $ # X mXI.o # ) ..",
"H L H H H H H H H H H H H L H H H H H H H H _ #.H J J J J J J J J J J J J J J J J J J J J | K R o.X.} } J C M. .J ' ' ' ' ' ' ' ' ' ' ' } ' ' } ' O.-XM.S.S.] k.F.] ] ] ] ] ] ! F.F.! ] ] ] ] F.] ] ] k.+._.D.z.z.z.j.j.j.j.j.j.J.j.j.J.j.j.j.j.j.x x.N.G x x x 7.c '.bX7.H.8.U.H.8.8.8.8.8.8.8.8.8.H.U.8.8.8.H.I.R.v..X@XU.U.l.f.1XU.u.u.u.u.E.E.u.u.u.E.u.u.E.E.r.nXW.i.i.uXOXi.i.e.w.w.w.w.w.w.w.w.w.sXrXs f f s f f d S 5.e.OX  4 6 4 6 3 lXHXlX3 6 4 6 4 @ w -X-X-X-X-X;XH @ - E >X:X:X:X>X;X4 # 6 4 gX) % # X `.IX$ + gXr ",
"b H A b b b b b b b b b b H A b b b b b b P #._ M V M V J M M M M J V M M C J M M J C M C K K K o.| C C V ' M.B F F F F F F F F F F F F ' F F ' ' } >X_.D.k.! Q ] Q Q Q Q Q Q Q ] ! Q Q Q Q Q F.Q Q ! ! ] +.S.z.z.z.Q x j.j.x x j.x x J.x x x x x x x N.x z z z z k bXU.7.8.7.H.8.7.7.7.7.7.7.7.7.7.8.H.7.7.7.8.8.I.l.XX.X9.U.8.2Xi.u.r.9.r.9.u.u.9.9.u.u.9.9.u.u.q.[.XXe.u.uX(.e.e.w.q.q.q.q.q.q.q.q.0.(.wX9 9 9 = f s s d d w.OX  4 6 4 6 3 lXHXlX3 6 4 6 4 @ w -X-X-X-X-X;XH @ - E >X:X:X:X>X*X4 # 6 4 ~ gX( @ # . Y.r gX) 4 ",
"A H D A A A A A A A A A A H D A A A A D A J #.M V V V V J V V V V J C V V J J V V J J V J K K K o.| C J V M. .B ' F F F F F F F F F F F } ' F ' } ` O.$XS.] k.! F.Q Q Q Q Q Q Q ] ! Q Q Q Q Q F.Q Q ! ! k.+.M.z.z.z.j.x j.j.x x j.x x J.Q x x x x Q z x.x.k z z k Y.bXz 8.8.8.H.8.8.8.8.8.8.8.8.8.8.8.H.8.8.8.8.H.I.l.XX.XU.I.f.2X8.E.r.r.r.9.u.u.r.r.u.u.r.r.u.u.r.Q.nXi.i.uX(.e.e.e.q.q.q.q.q.q.q.q.q.0.0X0 s s 9 f s s d S w.OX  4 6 4 6 3 lXHXlX3 6 4 6 4 @ w -X-X-X-X-X;XH @ - E >X:X:X:X:X*X4 # 4 6 y ..gX4 # 3 % ) ) 6 4 ",
"b H D A A A A A A A A A A H A A A A A D A .._ M V V V V J V V V M J C V V C J M M J J V C K K K o.| C C ' M.F F F F F F F F F F F F F F } ' F ' } } | #Xx.! ! ! F.Q Q Q Q Q Q Q ] ! Q Q Q Q Q F.Q Q ! ! k.L.+.z.z.z.Q x j.j.x x j.x x J.Q x x x x x x Q N.z z z k bX`.7.8.8.7.H.8.8.8.8.8.8.8.8.8.8.8.H.8.8.8.8.H.I.l.XX.XU.I.2Xs.9.E.r.r.r.9.u.u.r.r.u.u.r.r.u.u.9.r.nX'.e.uX(.e.e.e.q.q.q.q.q.q.q.q.q.q.0XS = s 9 f s s d S w.OX  4 6 4 6 3 lXHXlX3 6 4 6 4 @ w -X-X-X-X-X;XH @ - E >X:X:X:X:X*X4 # 4 6 6 4 7 6 6 6 u 6 6 4 6 ",
"b H D A A A A A A A A A A H A A A A A A V #.V V V V V V J V V V M J C V V C J M M J J V C K K K o.| C C ! ! B ' F F F F F F F F F F F F } ' F ' ' _ b.$XX.k.! ! F.Q Q Q Q Q Q Q ] ! Q Q Q Q Q F.Q Q ! ! F.b._. .z.z.Q x j.j.x x j.x x J.Q x x x x x Q z M.x.z c U.bX7.8.8.8.7.H.8.8.8.8.8.8.8.8.8.8.8.H.8.8.8.8.H.I.l.XX.XH.W.2X9.r.E.r.r.r.9.u.u.r.r.u.u.r.r.u.u.9.r.XXXXw.uX(.e.e.e.q.q.q.q.q.q.q.q.q.0.0X0.* s 9 f s s d S w.OX  4 6 4 6 3 lXHXlX3 6 4 6 4 @ w -X-X-X-X-X;XH @ - E >X:X:X:X>X*X4 # 4 6 6 6 4 4 4 4 4 4 4 6 4 ",
"b H D A A A A A A A A A A H A A A A D A ....H V V V V V J V V V M J C V V C J M M J J V C K K K o.| C } M.' F F F F F F F F F F F F F F } ' F ' ' } D._.6Xk.! ! F.Q Q Q Q Q Q Q ] ! Q Q Q Q Q F.Q Q ! ! F.b.S.+.z.z.Q x j.j.x x j.x x J.Q x x x x x x x j.N.z k bX'.7.8.8.8.7.H.8.8.8.8.8.8.8.8.8.8.8.H.8.8.8.8.H.I.l.XX@Xl.2Xf.9.r.E.r.r.r.9.u.u.r.r.u.u.r.r.u.u.9.u.Q.nXi.uX(.e.e.e.q.q.q.q.q.q.q.q.q.5.0Xi.* s 9 f s s d S w.OX  4 6 4 6 3 lXHXlX3 6 4 6 4 @ w -X-X-X-X-X;XH @ - E >X:X:X:X>X;X4 # 4 4 4 4 6 4 4 4 4 4 4 4 4 ",
"b H D A A A A A A A A A A H A A A A A M #.J C V V V V V J V V V M J C V V C J M M J J V C K K K o.| C  .x.C ' F F F F F F F F F F F F F } ' F ' } L.D._./.K.! ! F.Q Q Q Q Q Q Q ] ! Q Q Q Q Q F.Q Q ! ! F.x.S.+.F.z.Q x j.j.x x j.x x J.Q x x x x x x Q z N.! 7.bX7.8.8.8.8.7.H.8.8.8.8.8.8.8.8.8.8.8.H.8.8.8.8.H.I.l.XX.Xu.2Xu.u.r.E.r.r.r.9.u.u.r.r.u.u.r.r.u.u.r.u.i.nX`.uXOXe.e.e.q.q.q.q.q.q.q.q.q.5.0XoX* s 9 f s s d S w.OX  4 6 4 6 3 lXHXlX3 6 4 6 4 @ w -X-X-X-X-X;XH @ - E >X:X:X:X>X*X4 # 6 6 6 6 6 6 6 6 6 6 6 6 6 ",
"b H D A A A A A A A A A A H A A A D A _ ..H C V V V V V J V V V M J C V V C J M M J J V C K K K o.| C M.' F F F F F F F F F F F F F F F } ' F ' C D.!._.P.6X! ! F.Q Q Q Q Q Q Q ] ! Q Q Q Q Q F.Q Q ! ! F.x.S. .+.z.Q x j.j.x x j.x x J.Q x x x x x x x x k.M.XXXXx 8.8.8.8.7.H.8.8.8.8.8.8.8.8.8.8.8.H.8.8.8.8.H.I.l..X.X1X1X9.u.r.E.r.r.r.9.u.u.r.r.u.u.r.r.u.u.r.u.i.}.XXuXOXe.e.e.q.q.q.q.q.q.q.q.q.5.0XbX* s 9 f s s d S w.OX  4 6 4 6 3 lXHXlX3 6 4 6 4 @ w -X-X-X-X-X;XH @ - E >X:X:X:X:X*X4 # 3 3 3 3 3 3 3 3 3 3 3 3 3 ",
"A H D A A A A A A A A A A H D A A A A #.C J C V V V V V J V V V V J C V V J J V V J J V J K K K o.X. .M.C ' F F F F F F F F F F F F F F } ' ' C G.D.[ _.F.6XG.Q F.Q Q Q Q Q Q Q ] ! Q Q Q Q Q F.Q Q ! ! F.x.S.k.+.k.:.x j.j.x Q j.x x J.Q x x x x x x x Q x N.bX8.8.8.8.8.8.8.H.8.8.8.8.8.8.8.8.8.8.8.H.8.8.8.8.H.I.l.XX.X2XW.u.u.r.E.r.r.r.9.u.u.r.r.u.u.r.r.u.u.r.u.W.W.nXuX(.e.e.e.q.q.q.q.q.q.q.q.q.5.qXZX= s 9 f s s d S w.OX  4 6 4 6 3 lXHXlX3 6 4 6 4 @ w -X-X-X-X-X;XH @ - E >X:X:X:X:X*X4 @ # # # # # # # # # # # # # ",
"b H A b b b b b b b b b b H b b b A _ #.M J V M M M M V J M M M M J V M M C J M M J C M C K K K o.X.M.{ C F F F F F F F F F F F F F F F ' F F C S.!.[ _.F.K./.~ ] Q Q Q Q Q Q Q ] ! Q Q Q Q Q ] Q Q ! ! k.x.S.z. .+.;.x j.Q x x j.x x J.x x x x x x x x x c XXnXz 8.7.7.7.7.7.H.8.7.7.7.7.7.7.7.7.7.8.H.7.7.7.8.8.I.l.[.ZX3XU.u.u.9.u.9.9.9.9.u.u.9.9.r.u.9.9.u.u.9.u.Q.i.#XZXf.e.e.w.q.q.q.q.q.q.q.q.q.5.6XZXa 9 = f s s d d w.OX  4 6 4 6 3 lXHXlX3 6 4 6 4 @ w -X-X-X-X-X;XH @ - E >X:X:X:X>X;X4 # -.;.-.-.;.;.;.;.l ;.;.;.;.",
"H L H H H H H H H H H H H L H H H H #._ J J J J J J J J K J J J J J J J J J J J J J J J J | K R o. .M.} } } ' ' ' ' ' ' ' ' ' ' ' ' ' ' } ' } [ D.[ P._.L.F.6XG.F.F.] ] ] ] ] ] F.F.] ] ] ] ] F.] ] F.k.F.b.S.k.k.+.k.j.J.J.j.j.J.j.j.J.j.j.j.j.j.j.j.j.j.j.bXS.H.8.H.H.H.H.8.U.H.8.H.H.H.H.H.H.H.8.H.U.8.H.H.H.I.R.I.XXZXOXQ.W.u.u.Q.u.u.u.u.E.E.u.u.u.E.u.u.E.E.u.E.W.W.[.MX(.i.i.e.e.w.w.w.w.w.w.w.e.0.6XZX1.9 f d d d S 5.e.OX  4 6 4 6 3 lXHXlX3 6 4 6 4 @ w -X-X-X-X-X;XH @ - E >X:X:X:X>X;X4 # ;.;.>.>.l l ;.l R.;.-.l >.",
"H L H H H H H H H H H H H L H H H _ #.H J K J J J J J J K J J J J K J J J J J J J J J J K | X.R o._. .} } } ' ' ' ' ' ' ' ' ' ' ' ' } ' } } C S.S.| P._.L.F.)./.k.F.] F.F.F.F.] F.F.] F.F.] F.F.] F.F.k.F.b.S.k.k.+. .:.J.J.j.j.J.j.j.J.j.j.j.j.j.j.j.j.~ XXbXx.S.9.H.H.H.H.H.U.U.H.H.H.H.H.H.H.H.H.H.U.H.H.H.U.I.R.v.oXiXQ.W.Q.E.u.Q.u.u.u.u.E.E.u.u.E.Q.u.u.E.E.u.E.W.W.W.nXOXi.i.e.e.w.w.w.w.w.w.w.e.w./.ZXd.9 f d d d 5.5.e.OX  4 6 4 6 3 lXHXlX3 6 4 6 4 @ w -X-X-X-X-X;XH @ - E >X:X:X:X:X;X4 # ;.l .X|.T.}.l.].@XT.R.|.T.",
"b H A b b b b b b b b b b H b b A #._ M M J V M M M M V J M M M M J V M M C J M M J C M C K K I @.M.} ' ' F F F F F F F F F F F F F F F ' F ' D.[ [ [ _.F.[ [ 6XG.Q Q Q Q Q Q Q ] ! Q Q Q Q Q ] Q Q ! ! k.x.S.k.k.F.+.x j.Q x x j.x x J.x x x x x x x x c bXY.j.N.H.7.7.7.7.7.H.8.7.7.7.7.7.7.7.7.7.8.H.7.7.7.8.8.I.z.uXuXE.i.u.u.9.u.9.9.9.9.u.u.9.9.r.u.9.9.u.u.9.u.W.Q.i.nX'.a.e.w.q.q.q.q.q.q.q.q.q.5./.uXd.* s f s s d d w.OX  4 6 4 6 3 lXHXlX3 6 4 6 4 @ w -X-X-X-X-X;XH @ - E >X:X:X:X:X*X4 # ;.:.mXmX@X.X.XMX$X@X@X.X$X",
"A H D A A A A A A A A A A H D A C #.M V V J C V V V V V J V V V V J C V V J J V V J J V J K K I _. .} } ' ' F F F F F F F F F F F F F F } V b.S.' [ [ _.F.G.] /.).~ Q Q Q Q Q Q ] ! Q Q Q Q Q F.Q Q ! ! F.x.S.k.k.z.+. .:.j.x Q j.x x J.Q x x x x x Q c `.bXj.8.b.b.7.8.8.8.8.H.8.8.8.8.8.8.8.8.8.8.8.H.8.8.8.8.H.v.U.ZX+Xu.W.u.u.r.E.r.r.r.r.u.u.r.r.u.u.r.r.u.u.r.u.W.W.i.bXnXa.e.e.q.q.q.q.q.q.q.q.q.0./.uXBX* s f s s d S w.OX  4 6 4 6 3 lXHXlX3 6 4 6 4 @ w -X-X-X-XO.;XH @ - E >X:X:X:X:X*X4 # -.I.Y.T.}.R.@X@X]. X}.T.@X",
"b H D A A A A A A A A A A H D A .._ M V M J C V V V V V J V V V M J C V V C J M M J J V C K K | _.| } } ' ' F F F F F F F F F F F F F F } ' D.G.[ [ [ _.F.G.F.[ 6X] Q Q Q Q Q Q ] ! Q Q Q Q Q F.Q Q ! ! F.x.S.k.k.k.] +.j.j.x x j.x x J.Q x x x x x x c bX`.j.H.H.N.8.8.8.8.7.H.8.8.8.8.8.8.8.8.8.8.8.H.8.8.8.8.H.z.f.ZX.Xi.W.u.u.r.E.r.r.r.9.u.u.r.r.u.u.r.r.u.u.r.u.W.W.E.uXmXi.e.e.q.q.q.q.q.q.q.q.q.0./.qXvX9 s f s s d S w.OX  4 6 4 6 3 lXHXlX3 6 4 6 4 @ w ;X-X-X-X-X;XH @ - E >X:X>X>X>X;X4 # ;.;.;.;.;.;.-.;.;.}.>.:.;.",
"b H D A A A A A A A A A A H A V #.V V V M J C V V V V V J V V V M J C V V C J M M J J V C K I L._.| } } ' ' F F F F F F F F F F F F F F C !.S.' [ [ [ _.F.F.G.] /.^.~ Q Q Q Q Q ] ! Q Q Q Q Q F.Q Q ! ! F.x.S.k.k.k.Q +. .:.x x j.x x J.Q x x x x x c R.bXj.H.H.8.N.b.7.8.8.7.H.8.8.8.8.8.8.8.8.8.8.8.H.8.8.8.8.H.I.2X+X+Xu.W.u.u.r.E.r.r.r.9.u.u.r.r.u.u.r.r.u.u.r.u.W.W.E.uXmX'.e.e.q.q.q.q.q.q.q.q.q.0./.qXvXf = f s s d S w.OX  4 6 4 6 3 lXHXlX3 6 4 6 4 @ w E E E E E E D @ - Y *X*X*X*X*XE 4 # i i i i i i i i i i , < , ",
"b H D A A A A A A A A A A H A ....M V V M J C V V V V V J V V V M J C V V C J M M J J V C K K M.@.| } } ' ' F F F F F F F F F F F F F F } D.L.{ [ [ [ _.F.F.G.] K.6XQ Q Q Q Q Q ] ! Q Q Q Q Q F.Q Q ! ! F.x.S.k.k.k.Q  .+.:.x x j.x x J.Q x x x x Q c bX[.j.H.H.H.v.N.7.8.8.7.H.8.8.8.8.8.8.8.8.8.8.8.H.8.8.8.8.l.f.1X}.+Xu.W.u.u.r.E.r.r.r.9.u.u.r.r.u.u.r.r.u.u.r.u.W.W.E.uX+XXXe.e.q.q.q.q.q.q.q.q.q.0.a.6XvX*.* f s s d S w.OX  4 6 4 6 3 lXHXlX3 6 4 6 4 @ q I I I I I I n # - Z Y U Y Y Y U 4 # 4 4 4 4 4 4 6 4 4 ; R *X*X",
"b H D A A A A A A A A A A H M #.V V V V M J C V V V V V J V V V M J C V V C J M M J J V J I  .L.o.| } } ' ' F F F F F F F F F F F F ' B !.D.' [ [ [ [ _.F.F.G.[ F./.| ~ Q Q Q Q ] ! Q Q Q Q Q F.Q Q ! ! F.x.S.k.k.k.! Q +.] x Q j.x x J.Q x x x x x H.bXH.H.H.H.H.8.N.b.7.8.7.H.8.8.8.8.8.8.8.8.8.8.8.H.8.8.8.8.l.2XW..X+Xu.W.u.u.r.E.r.r.r.9.u.u.r.r.u.u.r.r.u.u.r.u.W.W.E.uXOXnXi.w.q.q.q.q.q.q.q.q.q.0.a.6XvXp.* f s s d S w.OX  4 6 4 6 3 lXHXlX3 6 4 6 4 @ q I I I I I U n # - Z Y Y Y Y Y U 4 # 6 4 4 4 4 4 3 6 6 ; eXfX<X",
"b H D A A A A A A A A A M P _ ..M V V V M J C V V V V V J V V V M J C V V C J M M J J V C K M.| o.| } } ' ' F F F F F F F F F F F F ' B D.!.{ [ [ [ [ _.F.F.G.[ G.| 6X~ Q Q Q Q ] ! Q Q Q Q Q F.Q Q ! ! F.x.S.k.k.k.! Q  .+.x Q j.x x J.Q x x x Q c vXXXj.H.H.H.H.H.b.N.7.8.7.H.8.8.8.8.8.8.8.8.8.8.8.H.8.8.8.>.i.2XI..X+Xu.W.u.u.r.E.r.r.r.9.u.u.r.r.u.u.r.r.u.u.r.u.W.W.E.+XOX#X'.q.q.q.q.q.q.q.q.q.q.q.a.6XBXd.* f s s d S w.OX  4 6 4 6 3 lXHXlX3 6 4 6 4 @ q I I I I I U n # - Z Y Y Y Y Y U 4 # 4 -.T.I.T.R. Xi 4 ; eX>X*X",
"A H D A A A A A A A A A A H #.C V V V V M J C V V V V V J V V V M J C V V J J V V J J V Z L._.K @.| } } ' ' F F F F F F F F F F F ' B F.D.{ [ [ [ [ [ _.F.G.G.[ G.] 6X| Q Q Q Q ] ! Q Q Q Q Q F.Q Q ! ! F.x.S.k.k.k.! Q ! +.Q x j.x x J.Q x x x x j.bXH.H.H.H.H.H.H.H.N.v.7.8.H.8.8.8.8.8.8.8.8.8.8.8.H.8.8.8.>.2XOXI..X+Xu.W.u.u.r.E.r.r.r.9.u.u.r.r.u.u.r.r.u.u.r.u.W.W.E.uXOX}.XXq.q.q.q.q.q.q.q.q.q.q.a.6Xd.d.* f s s d S w.OX  4 6 4 6 3 lXHXlX3 6 4 6 4 @ q I I I I I U n # - Z Y Y Y Y Y U 4 # - I. XT.|.-.{.3 u ; eX>X*X",
"b H A b b b b b b b b b A _ #.M V M M V M J V M M M M V J M V V M J V M M C J M M J C M C M.} | @.| } } ' F F F F F F F F F F F F F B S.!.' { [ [ [ [ _.F.[ [ { G.] | /.~ Q Q Q ] ! Q Q Q Q Q F.Q Q ! ! k.x.S.k.k.k.Q Q Q  . .x j.x x J.x x x x c XX.Xj.H.H.H.H.H.H.8.b.b.7.7.H.8.7.7.7.7.7.7.7.7.7.8.H.7.8.:.i.2XU.U..X+Xu.E.u.u.9.u.9.9.r.9.u.u.9.9.u.u.9.9.u.u.9.u.W.W.E.uXOXQ.nXw.q.q.q.q.q.q.q.q.q.q.a.6Xd.vX* f s s d d w.OX  4 6 4 6 3 lXHXlX3 6 4 6 4 @ q I I I I I U n # - Z Y Y Y Y Y U 4 # 3 I.Y.I.R.h ].3 u ; eX>X*X",
"H L H H H H H H H H H H D #._ J J J J J J J J J J J J J J J J J J J J J J J J J J J J C [ M.| | @.| } } } ' ' ' ' ' ' ' ' ' ' ' ' ' G.D.G.G.[ [ [ G.G._.L.G.G.G.G.[ ] 6X[ ! ] ! F.] ! ! ! ! ] F.! ! ! k.F.b.S.k.k.F.k.! F.F.+.! J.j.j.J.j.j.j.j.j.bXR.H.H.H.H.H.H.H.H.H.S.H.8.U.H.8.8.8.8.8.8.8.8.8.8.U.8.8.>.1Xf.U.U..X+XW.W.E.u.u.E.u.u.u.u.E.u.u.u.u.E.u.u.E.E.u.u.W.W.Q.uXOXi.#XQ.q.w.w.w.w.w.w.w.w.q.a.qXp.vX9 f f d S S e.OX  4 6 4 6 3 lXHXlX3 6 4 6 4 @ q I I I I I U n # - Z Y Y Y Y Y U 4 # 4 p u i u 6 l 4 6 ; eXfX<X",
"H L H H H H H H H H H P _ #.H J J J J J J J J J J J J J J J J J J J J J J J J J J J J C M.G.| | @.| } } } } ' ' ' ' ' ' ' ' ' ' ' C S.b.[ G.[ [ G.G.G._.L.G.G.G.G.G.] ^./.! ] ! F.F.] ] ] ] ] F.] ] F.k.F.b.S.k.k.F.k.] F.F. . .j.j.j.J.j.j.j.~ }.bXj.I.H.H.H.H.H.H.H.H.b.b.8.U.H.8.8.8.8.8.8.8.8.8.H.U.8.H.u.4XE.Q.U..X+XW.W.E.u.u.E.u.u.u.u.E.E.u.u.u.E.u.u.E.E.u.E.W.W.Q.uXOXi.}.XXq.w.w.w.w.w.w.w.w.w.a.0X*.NXf f f d S 5.e.OX  4 6 4 6 3 lXHXlX3 6 4 6 4 @ q I I I I I U n # - Z Y Y Y Y Y U 4 # 6 4 4 4 4 6 4 6 6 ; E 8X6X",
"b H A b b b b b b b b A #._ M V M M M M M J V M M M M V J M M M M J V M M C J M M J V ` M.| } | @.| } } ' F F F F F F F F F F F B { D.{ G.{ { [ [ [ [ _.F.[ [ { G.{ { { 6X{ Q Q ] ! Q Q Q Q Q F.Q Q ! ! k.x.S.k.k.k.Q Q ! ! Q +.j.x x J.x x x c bXY.j.H.H.H.H.H.H.H.H.H.H.N.8.8.8.7.7.7.7.7.7.7.7.7.8.H.8.;.f.1X8.E.U..X+Xu.E.u.u.9.u.9.9.r.9.u.u.9.9.u.u.9.9.u.u.9.u.W.W.E.uXOXi.Q.nXq.q.q.q.q.q.q.q.q.q.t.0X*.vXf s s s d d w.OX  4 6 4 6 3 lXHXlX3 6 4 6 4 @ q I I I I I U n # - Z Y Y Y Y Y U 4 # 4 4 4 4 4 4 4 4 4 4 > > > ",
"A H D A A A A A A D A C #.J V M V V V V M J C V V V V V J V V V V J C M M C J V V J V M. .| | | @.| } } ' ' F F F F F F F F F ' V b.S.' G.[ { [ [ [ [ _.F.F.G.[ G.[ [ ] ^.^.~ Q ] ! Q Q Q Q Q ] Q Q ! ! F.x.S.k.k.k.! Q ] ] Q +. .x Q J.x x c `.bXj.H.H.H.H.H.H.H.H.H.H.8.b.b.8.8.7.7.8.8.8.8.8.8.8.8.H.8.8.2Xi.u.E.U..X+Xu.E.u.u.r.E.r.r.r.9.u.u.r.r.u.u.r.r.u.u.9.u.W.W.E.uXOXi.i.nXu.q.q.q.q.q.q.q.q.q.t.0Xf vX*.s s s d S w.OX  4 6 4 6 3 lXHXlX3 6 4 6 4 @ q I I I I I U n # - Z Y Y Y Y Y U 4 @ # # # # # # # # # # # # # ",
"b H D A A A A A A D A .._ H C J C V V V M J C V V V V V J V V V M J C J J J J M M J ' M.J | } | @.| } } ' ' F ' ' ' F F F F F F ' D.F.{ G.[ { [ [ [ [ _.L.G.G.[ G.[ { { [ 6X] Q ] ! Q Q Q Q Q F.! ! ! ! F.x.S.k.k.k.! Q ] ] Q ] +.x x J.j.j.x bX`.j.H.H.H.H.H.H.H.H.H.H.H.H.N.H.U.H.8.8.8.8.8.8.8.8.8.U.:.f.1X8.u.E.U..X+XE.W.u.u.r.E.r.r.r.9.u.u.r.r.u.u.r.r.u.E.u.u.W.W.E.uXOXi.i.XX[.P q.q.q.q.q.q.q.q.w.0Xf vXp.9 s s d S w.OX  4 6 4 6 3 lXHXlX3 6 4 6 4 @ q I I I I I U n # - Z Y Y Y Y Y U 4 # 4 4 4 4 4 6 6 4 6 4 4 4 4 ",
"b H D A A A A A A A V #.M J | J | J M V M J C V V V V V J V V V V J | | K | J V V C M.! J | } | @.| } } ' F | | | K.F F F F ' B b.S.' { G.[ { [ [ [ P._.L.~.G.[ G.[ { [ ] /.^.~ ] ! Q Q Q Q F.L.L.L.! ! F.x.S.k.k.k.! Q ] ] Q Q +. .x L.J.L.T.bXj.H.H.H.H.H.H.H.H.H.H.H.H.8.b.{.U.U.T.7.8.8.8.8.8.8.8.U.:.2Xi.9.u.E.U..X+XoXoXu.u.r.E.r.r.r.9.u.u.r.r.u.u.r.9.E.W.W.oXW.W.E.uXOXi.i.'.#Xq.q.q.q.q.q.q.q.q.q.0Xf BXd.9 f s d S w.OX  4 6 4 6 3 lXHXlX3 6 4 6 4 @ q I I I I I U n # - Z Y Y Y Y Y U 4 # 6 6 6 u 4 & 3 3 & 3 u 6 6 ",
"b H D A A A A A D A ....M J ^.M | J M V M J C V V V V V J V V V V J ^.V K | J V V J M.F } | } | @.| } } ' F K.} ' K.F F F F F B D.F.{ { G.[ { [ [ [ P._.L.~.G.[ G.[ { { { [ 6XQ ] ! Q Q Q Q F.L.Q L.F.! F.x.S.k.k.k.! Q ] ] Q Q  .+.x !.j.L.bX[.j.H.H.H.H.H.H.H.H.H.H.H.H.H.z.S.8.U.U.7.8.8.8.8.8.8.8.H.i.2X8.u.u.E.U..X+XoXoXu.u.r.E.r.r.r.9.u.u.r.r.u.u.r.9.W.Q.u.oXW.W.E.uXOXi.i.u.nXr.q.q.q.q.q.q.q.q.q.0Xd d.d.8 f s d S w.OX  4 6 4 6 3 lXHXlX3 6 4 6 4 @ q I I I I I U n # - Z Y Y Y Y Y U 4 # 4 4 6 3 u V.lXDXD.=.3 6 6 ",
"b H D A A A A A A M #.V V J | | J J M V M J C V V V V V J V V V V J J | | | J M V ! ! B ' | } | @.| } } ' F ' | | | F F F ' B L.D.' [ { G.[ { [ [ [ G._.L.L.G.[ G.[ { { [ ] /.| ! ] Q Q Q Q Q L.F.F.! ! F.x.S.k.k.k.! Q ] ] Q Q F.+.! H.J.R.bXl.H.H.H.H.H.H.H.H.H.H.H.H.H.H.8.N.!.9.8.7.8.8.8.8.8.8.8.l.2Xs.9.u.u.E.U..XbXW.'.u.u.r.E.r.r.r.9.u.u.9.r.u.u.r.9.u.W.E.W.W.W.E.uXOXi.i.e.XX`.6.q.q.q.q.q.q.q.q.0Xd d.vX9 f s d S w.OX  4 6 4 6 3 lXHXlX3 6 4 6 4 @ q I I I I I U n # - Z Y Y Y Y Y U 4 # 4 u 3 h.GXGXD.D.lXHXD.3 6 ",
"b H D A A A A D A _ ..D V J M M V M V V M J C V V V V V J V V V M J V M M C J V V M.' F } | } | @.| } } ' ' F F F F F F F ' B D.L.{ { { G.[ { [ [ [ [ _.F.[ G.[ G.[ { { [ { | 6X! ] Q Q Q Q Q ] Q Q ! ! F.x.S.k.k.k.! Q ] ] Q ! F. .+.l.c XXXXj.H.H.H.H.H.H.H.H.H.H.H.H.H.H.8.!.N.7.8.8.8.8.8.8.8.8.>.W.2X9.r.u.u.E.U..X+Xu.u.u.u.r.E.r.r.u.r.u.u.r.r.u.E.r.r.u.u.9.u.W.W.E.uXOXi.i.e.`.XX6.q.q.q.q.q.q.q.q.0XS 1.vX9 s s d S w.OX  4 6 4 6 3 lXHXlX3 6 4 6 4 @ q I I I I I U n # - Z Y Y Y Y Y U 4 # 6 3 =.GXD.# X X X h.HXD.3 ",
"n L t.t.K.b H ^.H #.^.| M | L | | M | ^.M J K.| ^.V V ^.| M | K.M L | | ^.M J ^.L.M.K.| K.| } ^.&X_ | P.' ' K.| K.F F K.} B !.D.P.G.{ P.P.{ G.~.G.[ P._.~.L.] P.P.{ G.P.P.P.Q 6X).Q Q !.F.~ L.F.L.F.~ L.L.x.S.!.!.!.Q F.!.F.~ L.L.x +.F.R.bX>.R.{.H.H.T.T.{.H.H.{.R.>.T.T.>.R.T.S.T.7.H.'.8.7.T.R.'.l.1XuXQ.9.Q.'.U.U.$XbXoXW.u.oXQ.9.W.W.'.W.9.W.'.9.u.oXu.9.W.E.oXE.u.oX'.+X+XoXoXW.r.nXW.i.q.q.q.q.q.q.q.0X5.*.vXs s s d S w.OX  4 6 4 6 3 lXHXlX3 6 4 6 4 @ q I I I I I U n # - Z Y Y Y Y Y U 4 # 6 3 lXlXX # # # # X c.GXg ",
"n L K.K.^.b L ^._ ..^.| M | | ^.K.M | ^.M J ^.K.^.V V ^.| M ^.^.M L | | ^.M J ^.M.` K.K.^.| } ).&X_ | P.' ' K.| P.F F P.| M D.!.P.P.` P.P.{ G.~.G.[ P._.~.L.] ~.P.` P.P.P.P.` ^.7XQ Q ~.F.~ L.F.!.F.~ !.!.x.S.!.!.!.Q F.~.F.~ !.L.x  .+.bXbXx T.{.H.H.T.T.{.H.H.{.R.>.T.{.>.R.T.!.#X7.U.'.8.7.T.T.{.E.2XoXW.0.W.oXU.U.mXbXoXW.u.oXW.0.'.W.oXW.0.W.oX9.u.oXu.9.'.E.oXE.u.oX'.+X+XoXoXoXq.#X Xi.q.q.q.q.q.q.q.0X5.*.vXd s s d d w.OX  4 6 4 6 3 lXHXlX3 6 4 6 4 @ q I I I I I U n # - Z Y Y Y Y Y U 4 # 4 g GX=.X # # # # # # DXV.",
"n L K.K.^.b L ^.#.C ^.| M | L ^.| M | ^.M J ^.| ^.V V ^.| M K.^.M L | | ^.M K ~.M.V K.K.^.| } ^.&X_ | P.' ' K.| P.F F P.} ] zXP.~.G.{ P.P.{ G.~.G.[ P._.~.L.] ~.P.{ P.P.P.P.{ G.7X[ Q ~.F.~ L.F.!.F.~ L.!.x.S.!.!.!.Q F.~.F.~ !.L.~ L.+.bX].>.R.{.H.H.T.T.{.H.H.{.R.>.T.T.>.R.T.T.S.>.9.{.8.7.T.Q.T.uX1XQ.'.0.W.oXU.U.mXbXoXW.u.oXW.9.W.W.oXW.0.W.oX9.u.oXu.9.'.E.oXE.u.oX'.+X+XoXoXoXq.XX.Xe.w.w.w.w.w.w.w.0X0.*.vX5.f d S 5.e.OX  4 6 4 6 3 lXHXlX3 6 4 6 4 @ q I I I I I U n # - Z Y Y Y Y Y U 4 # 3 =.GX, . # # . . # X lXD.",
"n L K.K.^.b P ^.) M ^.| M | L ^.| M | ^.M J ^.| ^.V V ^.| M K.^.M L | | ^.M J _.{ B K.K.^.| } ^.&X_ | P.' ' K.| P.F F P.} S.#XK.~.G.` P.P.{ G.~.G.[ P._.~.L.] ~.P.` P.P.P.P.{ G.).O.Q ~.F.~ L.F.!.F.~ L.!.x.S.!.!.!.Q F.~.F.~ !.L.~ F. XmXR.>.R.{.H.H.T.T.{.H.H.{.R.>.T.T.>.R.T.R.#Xb.9.{.8.7.T.T.'.4Xi.'.W.0.W.oXU.U.mXbXoXW.u.oXW.0.W.W.oXW.0.W.oX9.u.oXu.9.'.E.oXE.u.oX'.+X+XoXoXoX0.'.nXi.w.e.e.e.e.e.w.0Xe.f vXy.f d 5.5.e.OX  4 6 4 6 3 lXHXlX3 6 4 6 4 @ q I I I I I U n # - Z Y Y Y Y Y U 4 # 4 g GX=.. # X mXI.o # DXV.",
"n L K.K.^.b H @._ M ^.| M | L ^.| M | ^.V J ^.| ^.V V ^.| M K.^.M L | | ^.V { _.J F K.K.^.| } ^.&X_ | P.' } K.| P.F F K.G.D.P.P.~.P.{ P.P.{ G.~.G.[ P._.~.L.] ~.P.{ P.P.P.P.{ G.~.6X[ !.F.~ L.F.!.F.~ L.!.x.S.!.!.!.Q F.~.F.~ !.L.~ F.bX_.T.>.R.{.H.H.T.T.{.H.H.{.R.>.T.T.>.R.T.T.{.N.U.'.H.7.Q.R.OX1X8.oXW.0.W.oXU.U.mXbXoXW.u.oXW.9.W.W.oXW.9.W.oX9.u.oXu.r.'.E.oXQ.u.oX'.+X+XoXoXoX9.W.nXW.q.q.q.q.q.q.5.qXw.= vXd.8 s d d w.OX  4 6 4 6 3 lXHXlX3 6 4 6 4 @ q I I I I I U n # - Z Y Y Y Y Y U 4 # 6 3 DXD.X # X ].IXX =.GX=.",
"t.^.t.t.^.t.X.#.K.| ^.^.| ^.L ^.^.| ^.^.| ^.^.| ^.| K.^.K.| ^.^.| ^.| | ^.K M.P.| K.K.K.^.K.^.).&XX.P.P.| K.K.| P.| K.^.#X#XP.P.P.P.P.P.P.P.P.~.P.P.~._.~.P.P.~.P.P.P.P.P.P.P.P.~.).).!.L.L.!.F.!.L.L.!.!.b.S.!.!.!.L.L.!.L.L.!.L.F. XbX+.~.Y.T.{.T.T.T.T.{.T.T.{.T.T.{.{.Y.{.T.T.].S.!.'.T.T.Q.R.iXOXQ.oX'.W.'.oX'.'.$XbXoXoXoXoXW.W.oXW.oX'.W.oXoXW.'.oXW.W.'.E.oX'.'.oXoXuX+XoXoXoXW.oXnX{.q.q.q.q.q.q.0.qXe.s BXd.8 d d S w.OX  4 6 4 6 3 lXHXlX3 6 4 6 4 @ q I I I I I U n # - Z Y Y Y Y Y U 4 # 6 3 c.HXc.. # . R.=.GXzX3 ",
"t.^.K.K.^.t.@.@.K.^.^.^.K.^.L ^.^.K.^.^.K.^.^.K.^.K.^.^.^.^.^.^.K.^.| | ^.K.N.^.K.K.P.K.^.^.^.).&XP.P.P.K.P.K.| P.K.K.P.zX~.~.P.~.P.P.~.~.P.~.~.P.~.~._.~.~.~.~.P.P.~.P.P.~.P.~.~.P.7X~.L.L.~.F.!.!.L.!.!.b.S.!.!.!.L.!.~.L.!.~.!.L.bX{.~._.T.{.{.T.{.{.T.{.T.{.{.T.T.{.{.T.{.T.T.{.T.S.'.T.'.T.OXiXQ.oXoXoX'.oXoX'.'.mXbXoXoXoXoX'.'.oXW.oX'.'.oXoX'.oXoX'.oXoXE.oXoXoX+XoXuX+XoXoXoX'.oX.XXX6.q.q.q.q.q.5.qXt.a d.XX8 d d S w.OX  4 6 4 6 3 lXHXlX3 6 4 6 4 @ q I I I I I U n # - Z Y Y Y Y Y U 4 # 4 6 3 V.DX4 # ; X D.DX6 4 ",
"L t.L L t.| #.| | | | | L K.J | | L | | L | | L | L | | | | | | L | J } R M.L.| | | K.} K.| | ^.&X| | | | | | } K.[ | #XS.[ P.G.P.G.G.P.P.G.P.P.P.P.P._.P.L.L.P.P.G.P.G.P.P.G.P.P.G./.).k.F.L.F.L.F.L.L.L.b.S.L.L.L.F.L.L.F.F.L.F.T.bXL.T._.P.T.T.R.T.T.R.T.R.T.T.R.R.T.T.R.T.R.R.T.U.S.!.U.U.R.2XOXE.W.W.W.Q.W.'.'.'.@XbXoX'.'.W.W.W.W.Q.W.W.W.W.W.Q.W.W.Q.W.W.E.W.W.'.oX'.uX+XW.oXW.W.W.'.nXq.q.q.q.q.q.5.qXa.a d.vX8 d d S w.OX  4 6 4 6 3 lXHXlX3 6 4 6 4 @ q I I I I I U n # - Z Y Y Y Y Y U 4 # 4 6 6 4 i 4 6 6 u u 6 4 6 ",
"b H b b n .._ M M M M M M J V M M M M M M J V M M M M M J M M M M J V V B M.' F F ' ' F F | } | @.| } ' F F F F F F B D.F.{ { { { { { { G.{ { { [ [ [ _.F.[ [ { G.{ { { { { { { [ { [ 6XQ Q Q F.~ Q Q ! ! x.S.k.k.k.Q Q ! ! Q Q ~ bX}.F.J.L.+.>.H.H.H.H.H.H.H.H.H.H.H.H.H.H.l.H.H.l.8.z.N.7.:.i.2X9.r.u.9.9.9.r.u.E.U..X+Xu.u.u.r.9.u.9.9.9.9.u.u.9.9.r.u.9.9.u.u.9.u.W.W.u.uXOXi.i.u.r.9.r.#Xu.q.q.q.q.q.5.qXa.a p.vX8 s d d w.OX  4 6 4 6 3 lXHXlX3 6 4 6 4 @ q I I I I I U n # - Z Y Y Y Y Y U 4 # 4 6 6 6 4 6 4 4 6 4 4 6 4 ",
"A H H H H #.V V V V V V V J J J J V V V V J C V V V V V J J J J M J C V ! x.J ' F ' ' F } | | | @.| } } } ' F F ' B !.S.' [ { { { { { { G.G.G.G.G.G.G._.F.G.G.[ G.G.G.G.G.G.{ { G.[ ] /.X.~ ! F.F.F.F.k.F.x.S.k.k.k.! Q ] ] Q ~ !.bXJ.L.J.J.+.G.H.H.H.H.H.H.H.H.H.H.H.H.H.H.H.H.I.I.H.8.N.I.;.1Xf.8.u.u.u.u.r.u.u.E.U..X+Xu.W.u.u.r.E.E.u.r.9.u.u.r.r.u.u.r.r.u.u.r.u.W.W.E.uXOXE.W.u.r.u.w.XX`.6.q.q.q.q.5.6X^.a p.vXf d 5.S w.OX  4 6 4 6 3 lXHXlX3 6 4 6 4 @ q I I I I I U n # - Z Y Y Y Y Y U 4 # 4 6 4 6 6 4 4 4 4 6 6 4 4 ",
"A H H r.P...M V V V V V V J | P.K.J V V M J C V V V V V J K.K.K.J J C B M.' } F F ' ' F } | } | @.P.P.P.P.K.F F ' B D.L.{ { { { { { { { G.[ ~.~.~.~.P._.F.F.G.[ [ G.~.P.~.P.[ { G.[ { | 6XQ Q F.!.L.!.!.!.x.S.k.k.k.! Q ] ] Q ~ .X.XF.L.!.T.~.P.>.H.H.H.H.H.H.H.H.H.H.H.H.H.H.H.I.T.T.H.b.N.9.2Xr.r.u.u.E.'.Q.u.u.E.U..X+Xu.W.u.u.r.E.Q.Q.Q.9.u.u.r.r.u.u.r.r.u.u.r.u.W.W.E.uX+X'.'.'.E.r.r.`.XX6.q.q.q.q.5.6X/.a *.NXf 9.9.U.i.OX  4 6 4 6 3 lXHXlX3 6 4 6 4 @ q I I I I I U n # - Z Y Y Y Y Y U 4 # 4 6 4 4 6 u u u u 6 4 4 4 ",
"A H H K.@.| M V V V V V V J L P.K.L M V M J C V V V V V J | P.K.J J V  .x.J ' F F ' ' F } | } | @.P.P.P.P.K.F ' B L.D.' [ { { { { { { { [ G.~.P.~.~.P._.F.F.G.[ G.G.~.P.~.P.[ { G.[ { ] /.| ~ F.J.!.!.!.!.x.S.k.k.k.! Q ] ] ~ F.bXJ.J.L.R.!.{.+.J.H.H.H.H.H.H.H.H.H.H.H.H.H.H.H.R.T.{.H.H.N.OX1X8.u.u.u.u.'.}.u.u.E.U..X+Xu.E.u.u.r.E.E.'.'.9.u.u.r.r.u.u.r.r.u.u.r.u.W.W.E.+XoX'.W. XQ.9.r.U.nXq.q.q.q.q.5././.&.*.vX*.8.0.Q.oXOX@ 4 6 4 6 3 lXHXlX3 6 4 6 4 @ q I I I I I U n # - Z Y Y Y Y Y U 4 # 4 6 4 6 4 3 & & & 4 u 6 4 ",
"b H P ....D M M M M M M M J L J } V M M M J V M M M M V J L J L M J V M.` F ' F F ' ' F ' | } | @.| } [ [ [ F ' M S.!.{ { { { { { { { { [ G.G.G.G.P.G._.F.F.[ { G.G.G.G.G.G.{ { [ [ { { | /.~ F.F.F.F.F.L.x.S.k.k.k.Q Q ! F.~ .XbX! J.L.J.J.I.L. .>.H.H.H.H.H.H.H.H.H.H.H.H.H.H.R.R.I.H.8.b.iXe.9.9.r.u.E.E.E.u.u.E.U..X+Xu.E.u.u.9.u.E.E.E.9.u.u.9.9.u.u.9.9.u.u.9.u.W.W.E.uXOXE.W.E.E.9.9.r.#Xu.q.q.q.q.5././.&.d vXy.z 5.5.i.OX  4 6 4 6 3 lXHXlX3 6 4 6 4 @ q I I I I I U n # - Z Y Y Y Y Y U 4 # 4 4 6 3 4 n.D.zXV.g 3 6 6 ",
"H L H #._ V C C C C C C C J C C V C C C C J J C C C C C J V C C C K  .M.J } } ' ' } } ' } | | | @.| } } } ' ' C L.D.[ [ [ [ [ [ [ [ [ [ G.[ [ [ [ [ G._.L.G.G.[ G.[ [ [ [ [ [ [ G.G.[ [ ] 6XK.k.! ! ! ! F.x.S.k.k.F.! ! F.] F.bX!.J.J.!.J.J.J.J._.J.H.H.H.H.H.H.H.H.H.H.H.H.H.R.H.H.H.H.z.f.uXU.u.u.u.E.u.u.u.u.E.Q.U..X+XW.W.E.u.u.E.u.u.u.u.E.u.u.u.u.E.u.u.E.E.u.u.W.W.Q.+XOXW.i.i.u.u.u.w.XX[.6.w.w.w.0.(.qX&.d vX*.9 d d 6.OX@ 4 6 4 6 3 DXJXlX3 6 4 6 4 @ q I I I I I U n # - Z Y Y Y Y Y U 4 # 4 u 3 =.DXGXlXzXDXGXV.4 6 ",
"q q q t q q q q q q q q q q q q q q q q q q q q q q q q q q q q q q j j q q q q q q q q q q q q q q q q q q q q h h q j j j j j j j j j j j j j j j j j j j j j j j j j j j j j j j j j j k k i j j j j j j j i j i i i i i h ,.i h j j j j j p j j p p p p p p p p p p p p p p p p p p i 5.-.h f h h h h h h h h h h h h h h h h h h h h h h h h h h h h h h h h h h h h h h h h h h h h h f l -.f f f f f k k a i *.p 5 i 6 i i # 4 6 6 6 4 V.D.V.4 6 4 6 4 @ q I I I I I U n # - Z Y Y Y Y Y U 4 # 6 4 g GXzX; X X X g.GXh.4 ",
"# # # $ # # # # # # # # # # # # # # # # # # # # # # # # # # # # # # # # # # # # # # # # # # # # # # # # # # # # # # # # # # # # # # # # # # # @ @ @ @ @ @ @ @ @ @ @ @ @ @ # # # @ @ @ @ # @ @ # # # # # # # # # # # # # # # @ . # # # # # # # # @ @ # # # # # # # # # # # # # # # # # # #   . # @ @ @ @ @ @ @ @ @ # @ . @ @ @ @ @ @ @ @ @ @ @ @ @ @ @ @ @ @ @ @ @ @ @ @ @ @ . . @ @ @ @ @ @ @ . . @ @ @ @ @ @ @ # # . . # # # # # # 4 6 4 6 u & 3 3 u 4 4 6 4 @ q I I I I I U n # - Z Y Y Y Y Y U 4 # 6 3 lXDXX . # X l T.1 V.u ",
"6 6 6 6 6 6 6 6 6 6 6 6 6 6 6 6 6 6 6 6 6 6 6 6 6 6 6 6 6 6 6 6 6 6 6 6 6 6 6 6 6 6 6 6 6 6 6 6 6 6 6 6 6 6 6 6 6 6 6 6 6 6 6 6 6 6 6 6 6 6 6 u u u u u u u u u u u u u u u 6 u u i i i i i i u i i i i i u 6 6 6 6 6 6 6 6 6 u 6 6 6 6 6 6 6 6 6 6 6 6 6 6 6 6 6 6 6 6 6 6 6 6 6 6 6 6 6 6 6 6 6 6 6 6 6 6 6 6 6 u 3 # u u p p p p p p p p p p p p p p p p p p p p p p p p p p p p p p p p p p p p p p p p p p i i p p i p i 6 4 # 4 6 4 ].{.u |.].|.I.3 u 4 @ q I I I I I U n # - Z Y Y Y Y Y U 4 # 4 i GXh.X - X -.IX|.X V.=.",
"# # # # # # # # # # # # # # # # # # # # # # 4 6 4 6 4 4 4 3 4 4 6 6 6 6 6 6 6 6 6 6 4 # # # # # # # # # # # # # # # # # # - # # # # - 6 6 4 h l h l l l l h l l l l l l h -.5 A.SXSXSXSXSXSXSXSXSXSXSXSXSXSXu 4 6 4 4 4 4 4 4 4 4 4 4 4 4 4 4 4 4 4 4 4 4 4 4 4 4 4 4 4 4 4 4 4 4 4 4 4 4 4 4 4 4 4 4 4 4 4 4 4 4 6 - # 4 p l p p p p p p p p p p p p p p p p p p p p i p p p p p p p p p p p p p p p p p p p p p p p p p p l u 4 # 4 4 p T.Y.l.I.$XT.T.4 6 4 @ q I I I I I U n # - Z Y Y Y Y Y U 4 # 3 =.GX, . # X -.I.o # g.h.",
"@ # # . @ . . . # # # # # # # # # # . # # @ 4 6 6 4 i h u -.6 l 3 4 - 4 - 4 3 4 3 4 4 . @ # # X # # . @ # . # # # # # # # # @ # # . - 6 6 4 h u 4 4 4 4 4 6 4 4 4 4 4 4 4 h 5 A.A.Z.Z.Z.Z.Z.Z.Z.Z.Z.Z.Z.Z.SXu 4 6 4 4 4 4 4 4 4 4 4 4 4 4 4 4 4 4 4 4 4 4 4 4 4 4 4 4 4 4 4 4 4 4 4 4 4 4 4 4 4 4 4 4 4 4 4 4 4 4 6 - # 4 p i 4 4 4 4 4 4 4 4 4 4 4 4 4 4 4 4 4 6 4 u i 4 4 u 4 u 4 4 4 4 4 4 4 4 4 4 4 4 4 4 4 4 4 4 4 4 4 h i 4 # 4 6 4 ].|.I.}.}. XY.3 u 4 @ q U U U U U U n # - I T T T T T Y 4 # 4 =.GX=.. # # . X # # c.h.",
". T.l 3 3 u i 6 @ # # # # # # # # # # MX>.X 4 6 4 4 .Xl.].Y.6 .XI.l R.p R.-.l.{.Y.h # ;.}.;.4 u l >.. p }.l.|.>.. # # # # - X `.mX. - 6 6 4 h 4 :.I.v.v.Y.-.h >.>.I.v.>.u h 5 A.A.A.A.kXA.A.kXkXA.kXA.A.Z.SXu 4 6 4 4 4 4 4 4 4 4 4 4 4 4 4 4 4 4 4 4 4 4 4 4 4 4 4 4 4 4 4 4 4 4 4 4 4 4 4 4 4 4 4 4 4 4 4 4 4 4 6 - # 4 p i 4 6 6 6 6 6 6 6 6 6 6 6 6 6 6 6 3 :.;.,.`.[.;.v.`.;.4 6 6 6 6 6 6 6 6 6 6 6 6 6 6 6 6 6 6 6 4 h i 4 # 4 6 4 i p u i 6 p u 4 6 4 @ 5 b b b b b b w # - b Z A A A A b 4 # 4 4 DXD.X # # # # . : V.g ",
"T.{.}..X@Xl.}.].# # # # # # # # # # 4 `.,.. 4 6 6 4 l. X}.. 6 }.{.@XT.$XT.|.{.@X>.p @ I..XR.].}.T.$X6 l $XI.I.u . # # # # - @ v.Y.- # 6 6 4 l 4 I.Y.`.`.`.-.>.}.].I.v.[.3 h 5 A.A.A.A.kXA.Z.A.kXA.SXA.kXZ.SXu 4 6 4 4 4 4 4 4 4 4 4 4 4 4 4 4 4 4 4 4 4 4 4 4 4 4 4 4 4 4 4 4 4 4 4 4 4 4 4 4 4 4 4 4 4 4 4 4 4 4 6 - # 4 p i 4 6 4 4 4 4 4 4 4 4 4 4 4 4 4 6 3 >.;.h I.`.}.I.mXi 4 6 6 4 6 4 4 4 4 4 4 4 4 4 4 4 4 4 4 6 4 h i 4 # 4 6 6 4 3 4 u u 4 4 6 6 4 # 4 4 4 4 : : ; 4 # 3 4 ; ; ; ; ; : 3 # u 3 n.HXh.. # # # ; V.c.4 ",
"].].|.{.].p l.I.4 @ # # # # # # # # # MXv.X 4 6 4 4 I.].T.T.4 {.{.R.{.I.}.l.].}.Y.l . I.h i |.-.].$Xp h @XI.I.u . # # # # - X [.mX. - 6 6 4 h 6 >.i :.v.Y.;.-.Y.v.v.I.>.i h 5 A.A.A.A.kXkXA.A.kXA.kXA.kXZ.SXu 4 6 4 4 4 4 4 4 4 4 4 4 4 4 4 4 4 4 4 4 4 4 4 4 4 4 4 4 4 4 4 4 4 4 4 4 4 4 4 4 4 4 4 4 4 4 4 4 4 4 6 - # 4 p i 4 6 6 6 6 6 6 6 6 6 6 6 6 6 6 6 4 -.`.v.Y.l Y.v.>.I.:.>.l 4 6 6 6 6 6 6 6 6 6 6 6 6 6 6 6 6 4 h i 4 # 4 6 6 4 u ].{. XI.3 6 6 4 # 4 6 Z n n n Y 9 # 3 4 G G L i L G ; # 4 6 3 D.GX4 # - & h.V.u 4 ",
"# l # i 4 # 3 3 # # # # # # # # # # . u # @ 4 6 4 4 i 4 4 i 4 4 6 4 u 3 u 4 u 4 i u 3 3 # # 4 3 4 - 4 # l 3 3 # # # # # # - @ - 4 . - 6 6 4 h u 4 4 4 4 6 6 3 4 4 4 4 4 4 h 5 A.A.Z.Z.Z.Z.Z.Z.Z.Z.Z.Z.Z.Z.SXu 4 6 4 4 4 4 4 4 4 4 4 4 4 4 4 4 4 4 4 4 4 4 4 4 4 4 4 4 4 4 4 4 4 4 4 4 4 4 4 4 4 4 4 4 4 4 4 4 4 4 6 - # 4 p i 4 4 4 4 4 4 4 4 4 4 4 4 4 4 4 4 4 4 u u 4 4 3 4 4 4 4 4 4 4 4 4 4 4 4 4 4 4 4 4 4 4 4 4 4 4 4 h i 4 # 4 6 6 3 T.|. X@X].3 6 6 4 # 5 0 W 9 n W =X0 # - f G G G f L L ; # 4 6 4 4 g 6 6 6 4 u u 4 6 ",
"# . # . @ # # # # # # # # # # # # # # @ # # 4 6 4 4 4 6 6 4 4 4 4 6 4 6 4 4 4 6 4 6 4 @ # # @ # @ # @ # X # # # # # # # # - # # # # - 6 4 4 h l h h h h h h h h h h h h h -.5 A.SXSXSXSXSXSXSXSXSXSXSXSXSXSXu 4 6 4 4 4 4 4 4 4 4 4 4 4 4 4 4 4 4 4 4 4 4 4 4 4 4 4 4 4 4 4 4 4 4 4 4 4 4 4 4 4 4 4 4 4 4 4 4 4 4 6 - # 4 p l i p p p p p p p p p p p p p p p p p i i p p p p p p i i p p p p p p p p p p p p p p p p p p i l u 4 # 4 6 6 3 R.|.{..XT.3 6 6 4 # 4 5 0 5 9 0 n 5 # 3 6 i i i i G k ; # 4 4 6 6 4 4 4 4 4 4 4 6 4 ",
"6 6 6 6 6 6 6 6 6 6 6 6 6 6 6 6 6 6 6 6 6 6 6 6 6 6 6 6 6 6 6 6 6 6 6 6 6 6 6 6 6 6 6 6 6 6 6 6 6 6 6 6 u 6 6 6 6 6 6 6 6 6 6 6 6 6 6 6 6 6 u i i i i i i i i i i i i i i i 6 u g g g g g g g g g g g g g g 6 6 6 6 6 6 6 6 6 6 6 6 6 6 6 6 6 6 6 6 6 6 6 6 6 6 6 6 6 6 6 6 6 6 6 6 6 6 6 6 6 6 6 6 6 6 6 6 6 6 6 u 3 # u i p p p p p p p p p p p p p p p p p p p p p p p p p p p p p p p p p p p p p p p p p p p p p p p p p u 4 # 4 u 6 6 u l i -.i 6 6 u 4 # 6 u u 6 u u , u # 3 u 6 6 6 6 4 6 4 # 6 6 6 6 u 6 6 6 6 6 u 6 6 ",
"# # # # # # # # # # # # # # # # # # # # # # # # # # # # # # # # # # # # # # # # # # # # # # # # # # # # # # # # # # # # # # # # # # # # # # # # # # # # # # # # # # # # # # # # . . . . . . . . . . . . . # # # # # # # # # # # # # # # # # # # # # # # # # # # # # # # # # # # # # # # # # # # # # # # # # # # # # # @ # # # # # # # # # # # # # # # # # # # # # # # # # # # # # # # # # # # # # # # # # # # # # # # # # # # # # . # # # # # . # . # # # # # . # # # # # # # # @ # # # # # # # # # @ # # # # # # # # # # # # # ",
"u u u u u u u u u u u u u u u u u u u u u u u u u u u u u u u u u u u u u u u u u u u u u u u u u u u u u u u u u u u u u u u u u u u u u u u u u u u u u u u u u u u u u u u u u u u u u u u u u u u u u u u u u u u u u u u u u u u u u u u u u u u u u u u u u u u u u u u u u u u u u u u u u u u u u u u u u u u u u u u u u u u u u u u u u u u u u u u u u u u u u u u u u u u u u u u u u u u u u u u u u u u u u u u u u i u u u u u u u i u u u u u i u u u u u u u u u u u u u u u u u u i u u u u u u u u u u u u u ",
":.:.:.:.:.:.:.:.:.:.:.:.:.:.:.:.:.:.:.:.:.:.:.:.:.:.:.:.:.:.:.:.:.:.:.:.:.:.:.:.:.:.:.:.:.:.:.:.:.:.:.:.:.:.:.:.:.:.:.:.:.:.:.:.:.:.:.:.:.:.:.:.:.:.:.:.:.:.:.:.:.:.:.:.:.:.:.:.:.:.:.:.:.:.:.:.:.:.:.:.:.:.:.:.:.:.:.:.:.:.:.:.:.:.:.:.:.:.:.:.:.:.:.:.:.:.:.:.:.:.:.:.:.:.:.:.:.:.:.:.:.:.:.:.:.:.:.:.:.:.:.:.:.:.:.:.:.:.:.:.:.:.:.:.:.:.:.:.:.:.:.:.:.:.:.:.:.:.:.:.:.:.:.:.:.:.:.:.:.:.:.:.:.:.:.:.:.:.:.:.:.:.:.:.:.:.:.:.:.:.:.:.:.:.:.:.:.:.:.:.:.:.:.:.:.:.:.:.:.:.:.:.:.:.:.:.:.:.:.:.:.:.:.:.:.:.:.:.:.:.:.:.:.:.:.:.",
";.;.;.;.;.;.;.;.;.;.;.;.;.;.;.;.;.;.;.;.;.;.;.;.;.;.;.;.;.;.;.;.;.;.;.;.;.;.;.;.;.;.;.;.;.;.;.;.;.;.;.;.;.;.;.;.;.;.;.;.;.;.;.;.;.;.;.;.;.;.;.;.;.;.;.;.;.;.;.;.;.;.;.;.;.;.;.;.;.;.;.;.;.;.;.;.;.;.;.;.;.;.;.;.;.;.;.;.;.;.;.;.;.;.;.;.;.;.;.;.;.;.;.;.;.;.;.;.;.;.;.;.;.;.;.;.;.;.;.;.;.;.;.;.;.;.;.;.;.;.;.;.;.;.;.;.;.;.;.;.;.;.;.;.;.;.;.;.;.;.;.;.;.;.;.;.;.;.;.;.;.;.;.;.;.;.;.;.;.;.;.;.;.;.;.;.;.;.;.;.;.;.;.;.;.;.;.;.;.;.;.;.;.;.;.;.;.;.;.;.;.;.;.;.;.;.;.;.;.;.;.;.;.;.;.;.;.;.;.;.;.;.;.;.;.;.;.;.;.;.;.;.;.;.;.;.",
";.;.;.;.;.;.;.;.;.;.;.;.;.;.;.;.;.;.;.;.;.;.;.;.;.;.;.;.;.;.;.;.;.;.;.;.;.;.;.;.;.;.;.;.;.;.;.;.;.;.;.;.;.;.;.;.;.;.;.;.;.;.;.;.;.;.;.;.;.;.;.;.;.;.;.;.;.;.;.;.;.;.;.;.;.;.;.;.;.;.;.;.;.;.;.;.;.;.;.;.;.;.;.;.;.;.;.;.;.;.;.;.;.;.;.;.;.;.;.;.;.;.;.;.;.;.;.;.;.;.;.;.;.;.;.;.;.;.;.;.;.;.;.;.;.;.;.;.;.;.;.;.;.;.;.;.;.;.;.;.;.;.;.;.;.;.;.;.;.;.;.;.;.;.;.;.;.;.;.;.;.;.;.;.;.;.;.;.;.;.;.;.;.;.;.;.;.;.;.;.;.;.;.;.;.;.;.;.;.;.;.;.;.;.;.;.;.;.;.;.;.;.;.;.;.;.;.;.;.;.;.;.;.;.;.;.;.;.;.;.;.;.;.;.;.;.;.;.;.;.;.;.;.;.;.;.",
";.;.;.;.;.;.;.;.;.;.;.;.;.;.;.;.;.;.;.;.;.;.;.;.;.;.;.;.;.;.;.;.;.;.;.;.;.;.;.;.;.;.;.;.;.;.;.;.;.;.;.;.;.;.;.;.;.;.;.;.;.;.;.;.;.;.;.;.;.;.;.;.;.;.;.;.;.;.;.;.;.;.;.;.;.;.;.;.;.;.;.;.;.;.;.;.;.;.;.;.;.;.;.;.;.;.;.;.;.;.;.;.;.;.;.;.;.;.;.;.;.;.;.;.;.;.;.;.;.;.;.;.;.;.;.;.;.;.;.;.;.;.;.;.;.;.;.;.;.;.;.;.;.;.;.;.;.;.;.;.;.;.;.;.;.;.;.;.;.;.;.;.;.;.;.;.;.;.;.;.;.;.;.;.;.;.;.;.;.;.;.;.;.;.;.;.;.;.;.;.;.;.;.;.;.;.;.;.;.;.;.;.;.;.;.;.;.;.;.;.;.;.;.;.;.;.;.;.;.;.;.;.;.;.;.;.;.;.;.;.;.;.;.;.;.;.;.;.;.;.;.;.;.;.;.;.",
":.:.:.:.:.:.:.:.:.:.:.:.:.:.:.:.:.:.:.:.:.:.:.:.:.:.:.:.:.:.:.:.:.:.:.:.:.:.:.:.:.:.:.:.:.:.:.:.:.:.:.:.:.:.:.:.:.:.:.:.:.:.:.:.:.:.:.:.:.:.:.:.:.:.:.:.:.:.:.:.:.:.:.:.:.:.:.:.:.:.:.:.:.:.:.:.:.:.:.:.:.:.:.:.:.:.:.:.:.:.:.:.:.:.:.:.:.:.:.:.:.:.:.:.:.:.:.:.:.:.:.:.:.:.:.:.:.:.:.:.:.:.:.:.:.:.:.:.:.:.:.:.:.:.:.:.:.:.:.:.:.:.:.:.:.:.:.:.:.:.:.:.:.:.:.:.:.:.:.:.:.:.:.:.:.:.:.:.:.:.:.:.:.:.:.:.:.:.:.:.:.:.:.:.:.:.:.:.:.:.:.:.:.:.:.:.:.:.:.:.:.:.:.:.:.:.:.:.:.:.:.:.:.:.:.:.:.:.:.:.:.:.:.:.:.:.:.:.:.:.:.:.:.:.:.:.",
"l l l l l l l l l l l l l l l l l l l l l l l l l l l l l l l l l l l l l l l l l l l l l l l l l l l l l l l l l l l l l l l l l l l l l l l l l l l l l l l l l l l l l l l l l l l l l l l l l l l l l l l l l l l l l l l l l l l l l l l l l l l l l l l l l l l l l l l l l l l l l l l l l l l l l l l l l l l l l l l l l l l l l l l l l l l l l l l l l l l l l l l l l l l l l l l l l l l l l l l l l l l l l l l l l l l l l l l l l l l l l l l l l l l l l l l l l l l l l l l l l l l l l l l l l l l l l l l l ",
"# # # # # # # # # # # # # # # # # # # # # # # # # # # # # # # # # # # # # # # # # # # # # # # # # # # # # # # # # # # # # # # # # # # # # # # # # # # # # # # # # # # # # # # # # # # # # # # # # # # # # # # # # # # # # # # # # # # # # # # # # # # # # # # # # # # # # # # # # # # # # # # # # # # # # # # # # # # # # # # # # # # # # # # # # # # # # # # # # # # # # # # # # # # # # # # # # # # # # # # # # # # # # # # # # # # # # # # # # # # # # # # # # # # # # # # # # # # # # # # # # # # # # # # # # # # # # # @ @ ",
"-.-.-.-.-.-.-.-.-.-.-.-.-.-.-.-.-.-.-.-.-.-.-.-.-.-.-.-.-.-.-.-.-.-.-.-.-.-.-.-.-.-.-.-.-.-.-.-.-.-.-.-.-.-.-.-.-.-.-.-.-.-.-.-.-.-.-.-.-.-.-.-.-.-.-.-.-.-.-.-.-.-.-.-.-.-.-.-.-.-.-.-.-.-.-.-.-.-.-.-.-.-.-.-.-.-.-.-.-.-.-.-.-.-.-.-.-.-.-.-.-.-.-.-.-.-.-.-.-.-.-.-.-.-.-.-.-.-.-.-.-.-.-.-.-.-.-.-.-.-.-.-.-.-.-.;.4 # 4 4 4 4 4 4 4 4 3 4 3 4 4 3 4 4 6 4 4 4 4 4 4 4 4 # 3 i i i i i i i i i i i i i i i i i i i i i i i i i i i i i i i i i i i i i i i i i i i i i i i i i i i i i i i i i i i i i i i i i h i i i z f ",
":.:.:.:.:.:.:.:.:.:.:.:.:.:.:.:.:.:.:.:.:.:.:.:.:.:.:.:.:.:.:.:.:.:.:.:.:.:.:.:.:.:.:.:.:.:.:.:.:.:.:.:.:.:.:.:.:.:.:.:.:.:.:.:.:.:.:.:.:.:.:.:.:.:.:.:.:.:.:.:.:.:.:.:.:.:.:.:.:.:.:.:.:.:.:.:.:.:.:.:.:.:.:.:.:.:.:.:.:.:.:.:.:.:.:.:.:.:.:.:.:.:.:.:.:.:.:.:.:.:.:.:.:.:.:.:.:.:.:.:.:.:.:.:.:.:.:.:.:.:.:.:.:.:.;.:.4 # u 6 6 6 6 6 u 3 Y.}.l i i l 3 I.R.3 u 6 6 6 6 6 u - 3 4 3 3 3 3 3 3 3 i 3 3 3 3 3 3 4 6 3 3 3 3 3 3 3 i 3 3 3 3 3 3 4 6 3 3 3 3 3 3 3 i 3 3 3 3 3 3 3 6 3 3 3 3 3 3 3 i 3 3 3 3 3 3 3 4 c.4 3 @ a.6.",
":.;.;.;.;.;.;.;.;.;.;.;.;.;.;.;.;.;.;.;.;.;.;.;.;.;.;.;.;.;.;.;.;.;.;.;.;.;.;.;.;.;.;.;.;.;.;.;.;.;.;.;.;.;.;.;.;.;.;.;.;.;.;.;.;.;.;.;.;.;.;.;.;.;.;.;.;.;.;.;.;.;.;.;.;.;.;.;.;.;.;.;.;.;.;.;.;.;.;.;.;.;.;.;.;.;.;.;.;.;.;.;.;.;.;.;.;.;.;.;.;.;.;.;.;.;.;.;.;.;.;.;.;.;.;.;.;.;.;.;.;.;.;.;.;.;.;.;.;.;.;.;.;.;.;.:.4 # 6 4 4 4 4 4 6 3 }.@XI. X.X|.]. XY.- u 4 4 4 4 4 6 # 3 3 # - # # # # 3 u # - # # # # 3 4 # - # # # # - u # - # # # # 3 4 # - # # # # - u # # # # # - # 4 3 # # # # # # u - # # # # - # 3 h.; & @ e.i.",
":.;.;.;.;.;.;.;.;.;.;.;.;.;.;.;.;.;.;.;.;.;.;.;.;.;.;.;.;.;.;.;.;.;.;.;.;.;.;.;.;.;.;.;.;.;.;.;.;.;.;.;.;.;.;.;.;.;.;.;.;.;.;.;.;.;.;.;.;.;.;.;.;.;.;.;.;.;.;.;.;.;.;.;.;.;.;.;.;.;.;.;.;.;.;.;.;.;.;.;.;.;.;.;.;.;.;.;.;.;.;.;.;.;.;.;.;.;.;.;.;.;.;.;.;.;.;.;.;.;.;.;.;.;.;.;.;.;.;.;.;.;.;.;.;.;.;.;.;.;.;.;.;.;.;.:.4 # 6 4 4 4 4 4 6 3 }..X@XmX.Xl..X}.Y.- u 4 4 4 4 4 6 # 3 3 # - - - - - 3 u # - - - - - 3 4 # - - - - - 3 i - - - - - - 3 4 # - - - - - - i - - - - - - # 6 3 - - - - - - i - - - - - - - 4 h.4 # p E.W.",
";.;.;.;.;.;.;.;.;.;.;.;.;.;.;.;.;.;.;.;.;.;.;.;.;.;.;.;.;.;.;.;.;.;.;.;.;.;.;.;.;.;.;.;.;.;.;.;.;.;.;.;.;.;.;.;.;.;.;.;.;.;.;.;.;.;.;.;.;.;.;.;.;.;.;.;.;.;.;.;.;.;.;.;.;.;.;.;.;.;.;.;.;.;.;.;.;.;.;.;.;.;.;.;.;.;.;.;.;.;.;.;.;.;.;.;.;.;.;.;.;.;.;.;.;.;.;.;.;.;.;.;.;.;.;.;.;.;.;.;.;.;.;.;.;.;.;.;.;.;.;.;.;.;.;.:.4 # 6 4 4 4 4 4 6 4 l :.l ;.h p p >.p 4 6 4 4 4 4 4 6 # 3 3 # 3 - - - - 3 u # - - - # - 3 4 # - - # # # 3 i # - - - - # 3 4 # - - - - # - i - - - - # - # 6 3 - - - # - - i - - - - - - # 4 h.4 # u W.i.",
"u i u u u u u u u u u u u u u u u u u u i u i u i i u u i u u i i i i i i u u u u u u u u u i i i i i u i u i i u i i u u u u u u u i i i i u i u i i u u u u i i u u u u u u u u u u u u u u u u u u u i i u i u i u u u u u u u u u u u u u u u u u u u u u u u u u u u u u i i i i u i u u u u u u u u u u u u u u i - # 6 6 u 6 u u 6 u 4 3 4 4 4 4 4 3 4 u 6 u u 6 6 6 6 # 3 4 # # - - 3 - 3 u # - - - 3 # 3 4 # - - 3 4 3 3 u # - - - 3 3 3 4 # - - - - 3 3 u - - - 3 3 - 3 6 3 - - - 4 - - i - - - - - 3 3 3 h.4 &   a.6.",
"u 4 4 4 4 4 4 4 4 4 4 4 4 4 4 4 4 4 4 4 3 6 3 4 4 4 u 4 3 4 4 4 4 4 4 4 4 6 4 4 4 4 4 4 4 4 4 3 4 4 4 4 4 4 3 3 4 4 4 4 4 4 4 4 4 4 4 4 4 4 4 4 4 3 - u 4 4 u - 4 4 4 4 4 4 4 4 4 4 4 4 4 4 4 4 4 4 4 4 4 4 4 3 4 4 6 4 4 4 4 4 4 4 4 4 4 4 4 4 4 4 4 4 4 4 4 4 4 4 4 4 4 4 4 4 4 4 3 4 4 6 4 4 4 4 4 4 4 4 4 4 4 4 4 6 # # u ; > ; ; ; ; ; ; ; ; ; ; ; ; ; ; ; ; ; ; ; > ; u - 3 6 i i # p ;.;.u 6 # 3 # 4 :.i -.4 # 3 # 3 :.l l 6 - 3 # 4 -.l -.4 # - # # -.;.l 6 - - # - -.;.p 4 3 - - # l h -.i - - # # -.i -.4 h.4 &   a.6.",
"].u i 4 6 6 6 6 6 6 6 6 6 6 6 6 6 6 4 h I.3 l 4 h p Y.i p l {.6 i i p u h }.4 6 6 6 6 6 4 u {.T.p i p u h i l l u h p 4 6 6 6 6 6 3 l.|.l i i h 4 ;.I.-.i u -.I.p u u 4 6 6 6 6 6 6 6 6 6 6 6 6 6 6 6 4 l >.6 {.R.{.;.4 6 6 6 6 6 6 6 6 6 6 6 6 6 6 6 6 6 6 6 6 6 6 6 6 6 6 3 >.h >.T.Y.].I.4 6 6 6 6 6 6 6 6 6 6 6 4 6 # 3 ; s.VX4XVXVXVXVXVX4X4XVXVXVXVXVXVXVXVXVXVX4XVXf.; 3 - p H.;.i p H.I.l 6 - - 3 l l.H.>.4 - - 4 u h i h 6 3 - 3 l >.:.-.i # - 4 l I.l.;.6 3 - 4 6 l I.-.u 3 - 3 u p :.I.p - - 3 6 l i l 4 h.4 3   a.6.",
" X@X}.3 6 6 4 4 4 4 4 4 4 4 4 4 4 6 3 -.R.p |.].{.T.$XR.I.$X@X{.@X XY.$X{. X4 6 4 4 4 6 4 i $X{. XR.$XT.}.@X@X@XT.}.}.i 4 6 4 4 u - T.mX].$XY. X XY..X{.{.].|.@X].{.p 4 6 4 4 4 4 4 4 4 4 4 4 4 4 4 6 3 :.l.l.l.u $Xl 4 6 4 4 4 4 4 4 4 4 4 4 4 4 4 4 4 4 4 4 4 4 4 4 4 4 u - ]. XmX].# $Xl.4 6 6 4 4 4 4 4 4 4 4 4 4 6 # 3 > 2XVX2X2X2X2X2X4X4X4X4X2X4X4X2X4X4X2X2X2X2XVX2X> 3 3 4 i 4 - 3 i i i 4 . # # 4 h 4 i 3 . # # 4 4 l 6 4 # # # 3 p i i 3 . # # - u p i 4 # # # 3 i i i 3 # # # 3 l 4 u u # # # # 3 p p & h.- # o a.P ",
" X$XR.4 6 4 4 4 4 4 4 4 4 4 4 4 4 6 4 l  XI.{.}.{.].$X}.@XmXR.T.$X}.$XmX}.|.4 6 4 4 4 6 4 i |.4 T.:.$X{.mX$XI.Y.]. X}.i 4 6 4 4 u 3 R.|. X@X|.mX$Xl.{.T. X|.].T.T..X- u 4 4 4 4 4 4 4 4 4 4 4 4 4 4 6 3 ;.|.I.{.>.{.6 6 6 4 4 4 4 4 4 4 4 4 4 4 4 4 4 4 4 4 4 4 4 4 4 4 4 u - T.I.|.|.;.|.h 4 6 4 4 4 4 4 4 4 4 4 4 4 6 # 3 > 1X4X1X1X1X3XVX2X2X4X4X4XVX2X2XVXVX3X1X1X1X4X2X> 3 3 p h h h h h p h ;.h l h h h p h -.h l h h h p l ;.h l h h h p h -.h l h h p p h ;.l l h h h p p -.l l l h p h p ;.l l h h h p h l b.l l u s.i.",
"h h h 4 6 4 4 4 4 4 4 4 4 4 4 4 4 4 4 6 l.l ;.u -.l u h ;.l p i h l -.p -.-.4 6 4 4 4 4 4 6 i 4 p 4 l l -.h p i l  Xh 4 6 4 4 4 6 4 i i p l l -.p :.-.l i p i h {.>.3 6 4 4 4 4 4 4 4 4 4 4 4 4 4 4 4 4 u l.h ;.;.i 4 6 4 4 4 4 4 4 4 4 4 4 4 4 4 4 4 4 4 4 4 4 4 4 4 4 4 6 4 i u i l >.i 4 4 4 4 4 4 4 4 4 4 4 4 4 4 6 # 3 > 1XVX1X3X1X4XVXVX2X4X4XVXVX4X4XVXVX2X1X3X1X4X2X> 3 - :.I.H.I.I.I.I.I.R.H.I.H.I.I.H.I.I.H.I.H.I.I.I.I.R.H.H.H.I.I.I.I.I.H.I.H.I.I.I.I.R.H.H.H.I.I.I.H.I.I.H.H.I.I.I.I.R.I.H.H.I.I.I.I.I.S.I.H.l.OXs.",
"4 4 4 6 6 6 6 6 6 6 6 6 6 6 6 6 6 6 6 6 3 4 3 4 4 4 6 4 4 4 4 4 4 4 4 4 4 4 6 6 6 6 6 6 6 6 4 6 4 6 4 4 4 4 4 4 6 i 4 u 6 6 6 6 6 6 4 4 4 4 4 4 4 3 4 4 4 4 4 4 l 6 6 6 6 6 6 6 6 6 6 6 6 6 6 6 6 6 6 6 6 3 4 4 4 4 6 6 6 6 6 6 6 6 6 6 6 6 6 6 6 6 6 6 6 6 6 6 6 6 6 6 6 6 6 4 4 4 4 3 4 6 6 6 6 6 6 6 6 6 6 6 6 6 6 u # 3 > 1X4Xf.1X1X1X1X1X1X1X1X1X1X1X1X1X1X1X1X1Xf.2X2X> 3 3 - . . . . . . # 4 . . . . . . # 3 . . . . . . . 4 . . . . . . # 3 . . . . . . . 4 . . . . . . . 3 # . . . . . . 4 . . . . . . . & h.- . o a.P ",
"4 4 4 3 3 3 3 3 3 3 3 3 3 3 3 3 3 3 3 3 4 4 4 3 4 4 4 4 4 4 4 4 4 4 4 4 4 4 3 3 3 3 3 3 3 3 4 3 4 3 4 4 4 4 4 4 3 3 4 3 3 3 3 3 3 3 4 4 4 4 4 4 4 4 4 4 4 4 4 4 - 3 3 3 3 3 3 3 3 3 3 3 3 3 3 3 3 3 3 3 4 4 4 4 4 4 3 3 3 3 3 3 3 3 3 3 3 3 3 3 3 3 3 3 3 3 3 3 3 3 3 3 3 3 3 4 4 4 4 4 4 3 3 3 3 3 3 3 3 3 3 3 3 3 3 4 # 3 > 2XAXVXVXVXVXVXVXVXVXVXVXVXVXVXVXVXVXVXVXVXAX2X> 3 3 4 - 3 3 3 3 3 3 i - 3 3 3 3 3 3 6 - 3 3 3 3 3 3 i - 3 3 3 3 3 3 6 - 3 3 3 3 3 3 i 3 3 3 3 3 3 - 6 3 3 3 3 3 3 3 i 3 3 3 3 3 3 - 4 h.4 3 > a.GX",
"# # # # # # # # # # # # # # # # # # # # # # # # # # # # # # # # # # # # # # # # # # # # # # # # # # # # # # # # # # # # # # # # # # # # # # # # # # # # # # # # # # # # # # # # # # # # # # # # # # # # # # # # # # # # # # # # # # # # # # # # # # # # # # # # # # # # # # # # # # # # # # # # # # # # # # # # # # # # # 3 4 5.f.s.s.s.s.s.s.s.s.s.s.s.s.s.s.s.s.s.s.s.f.5.4 - 3 3 # - - - - - 3 u # - - - - # 3 4 # - - - - - 3 u # - - - - - 3 4 # - - - - - - i - - - - - - # 6 3 - - - - - - i - - - - - - - 4 h.4 &   W.nX",
"4 4 4 4 4 4 4 4 4 4 4 4 4 4 4 4 4 4 4 4 4 4 4 4 4 6 4 : 4 4 : 4 6 4 4 4 4 4 4 4 4 4 4 4 4 4 4 4 6 6 > > ; > > 6 4 4 4 4 4 4 4 4 4 4 4 4 4 4 6 4 > ; ; > ; 6 4 4 4 4 4 4 4 4 - # # # # # # # # # # # # # # # # # # # # # # # # # # # # # # # # # # # # # # # # # # # # # # # # # # # # # # # # # # # # # # # # # # # # - # - u ; > > > > > > > > > > > > > > > > > > > > > ; u - 3 3 # - - - - - 3 u # - - - - # 3 4 # - - - - - 3 u # - - - - - 3 4 # - - - - - - i - - - - - - # 6 3 - - - - - - i - - - - - - - 4 h.4 & 2 mXP ",
"6 6 6 6 6 6 6 6 6 6 6 6 6 6 6 6 6 6 6 6 6 6 6 6 6 4 s 3.4.4.6.6 4 6 6 6 6 6 6 6 6 6 6 6 6 6 6 6 4 ; s.4XVX4Xs.; 6 6 6 6 6 6 6 6 6 6 6 6 6 6 4 6 f.4XVX3X5.> u 4 6 6 6 6 6 6 - # 4 4 4 4 4 4 4 4 4 4 4 4 4 4 4 4 4 4 4 4 4 4 4 4 4 4 4 4 4 4 4 3 # # # 3 4 4 4 4 4 4 4 4 4 4 4 4 4 4 4 4 4 4 4 4 4 4 4 4 4 4 4 4 4 4 - # # # # # # # # # # # # # # # # # # # # # # # # # # # # # 4 3 # - - - - - 3 u # - - - - # 3 4 # - - - - - 3 u # - - - - - 3 4 # - - - - - - i - - - - - - # 6 3 - - - - - - i - - - - - - - 4 h.; & g.MXP ",
"4 4 4 4 4 4 4 4 4 4 4 4 6 4 4 4 4 4 4 4 4 4 4 6 4 d 4.3.= = 3.4.5 4 6 4 4 4 4 4 4 4 4 4 4 4 6 6 ; 3XVX6.S 4.VX1X; 6 4 4 4 4 4 4 4 4 4 4 6 4 s VX3X6.5.f.AXe.; 6 4 4 4 4 4 6 - - l h h h h h h h h h h h h p p p p p h h h h h h h h h h h p l p # - # h l p h h h h h h h h h h p p p p p h h h h h h h h h h h p l i # # # 3 3 3 3 3 3 3 3 3 3 3 3 3 3 3 3 3 3 3 3 3 3 3 3 3 # 3 3 # - - - - - 3 u # - - - - # 3 4 # - - - - - 3 u # - - - - - 3 4 # - - - - - - i - - - - - - # 6 3 - - - - - - i - - - - - - - 4 h.4 q g.PXP ",
"# # # # # # # # # # - # # # # 4 6 4 4 4 4 4 6 4 5 4.=   @     3.4.: 6 6 4 4 4 4 4 4 4 4 4 4 6 > s.VX  o o > l 3XS : 6 4 4 4 4 4 4 4 4 6 6 > 4X3Xo     o d AXf 4 6 4 4 4 4 6 - - h 4 4 4 4 4 4 4 4 4 4 4 4 p p ;.>.-.3 4 4 4 4 4 4 4 4 4 4 4 i i # - # p 6 4 4 4 4 4 4 4 4 4 4 4 p h -.,.>.i 4 4 4 4 4 4 4 4 4 4 4 i i # # - u 6 u 4 3 4 6 u 6 u u u u u u 4 4 6 4 u 4 6 6 6 u - 3 4 # - - - - - 3 u # - - - - - 3 4 # - - - - - 3 i - - - - - - 3 4 # - - - - - - i - - - - - - # 6 3 - - - - - - i - - - - - - - 3 h.h & g.PXW ",
"# # # # # # # # # # # . # # @ 3 6 4 4 4 4 4 6 : 6.3.  # # # # # 4.s 4 6 4 4 4 4 4 4 4 4 4 6 6 4 VX6.  # u IX[.= 4.: 6 6 4 4 4 4 4 4 4 6 ; d VX& @ # # p > 3Xf.> 6 4 4 4 4 6 - - h 4 6 6 6 6 6 6 6 6 6 6 4 -.v.;.l.>.4 6 6 6 6 6 6 6 6 6 6 4 i i # - # p u 4 6 6 6 6 6 6 6 6 6 4 ,.[.Y.h Y.i 4 6 6 6 6 6 6 6 6 6 4 i i # # - 6 6 4 l R.p 4 3 4 3 4 3 4 4 4 l -.u l 4 l 4 4 4 6 # 3 3 # # # # # # - u # # # # # # 3 4 # # # # # # - u # # # # # # 3 4 # # # # # # # u # # # # # # # 4 - # # # # # # u # # # # # # # 3 c.u O Z.MXW ",
"# # # # # # # # # # # @ mXY.X 4 6 4 4 4 4 4 6 : 3.W   @ # # #   4.S : 6 4 4 4 4 4 4 4 4 4 6 4 i VX= @ . i Y.X * 4.6 4 6 4 4 4 4 4 4 4 6 ; 6.4X  # X h IXmXW 4.: 6 4 4 4 4 6 - - h 4 4 4 4 4 4 4 4 4 4 6 4 h >.>.;.u 4 4 4 4 4 4 4 4 4 4 4 4 i i # - # p u 4 4 4 4 4 4 4 4 4 6 4 p -.;.>.h 4 6 4 4 4 4 4 4 4 4 4 4 i i # # - 6 u - I.mXI.R.T.|.l.].T.T.T.4 {. XT.{.{.|.p 4 6 6 - 3 6 4 4 4 4 4 4 6 p 4 4 4 4 4 4 6 i 4 4 4 4 4 4 6 p 4 4 4 4 4 4 6 i 4 4 4 4 4 4 4 p 4 4 4 4 4 4 4 i 6 4 4 4 4 4 4 p 4 4 4 4 4 4 4 i b.u * A.mXP ",
"# # # # # # # # # # # 3 `.>.. 4 6 4 4 4 4 4 6 : 6.3.o Y.MX. # @ 4.d 4 6 4 4 4 4 4 4 4 4 4 6 4 4 VXd   # . X   = 4.4 6 6 4 4 4 4 4 4 4 6 ; 5.VX# # # # 6   3.3.: 6 4 4 4 4 6 - - l 6 6 6 6 6 6 6 6 6 6 6 6 4 4 4 4 6 6 6 6 6 6 6 6 6 6 6 6 4 i p # - # h u 6 6 6 6 6 6 6 6 6 6 6 4 4 4 4 4 6 6 6 6 6 6 6 6 6 6 6 4 i i # # - 6 u - I.mXT.$XmXI.$XT. XmX{.p ].|.}. XY.R.;.3 6 6 # 3 4 3 3 3 3 3 3 3 i 3 3 3 3 3 3 4 6 3 3 3 3 3 3 3 i 3 3 3 3 3 3 3 6 3 3 3 3 3 3 3 i 3 3 3 3 3 3 3 6 3 3 3 3 3 3 3 i 3 3 3 3 3 - i h h.u O kXmXP ",
"# # # # # # # # # # # # mXY.X 4 6 4 4 4 4 4 6 4 s 4.X mX{.X   d 4.4 6 6 4 4 4 4 4 4 4 4 4 4 u > 1X4Xo # # #   4.6.: 6 4 4 4 4 4 4 4 4 6 6 ; VX4.o # #   & 4.f 4 6 4 4 4 4 6 - - h h h h h h h h h h h h h h h h h h h h h h h h h h h h h h l i # - # p l h h h h h h h h h h h h h h h h h h h h h h h h h h h h l u # # - 6 6 4 l l R.T.I.l :.|. X>.>.3 ].>.6 T.T.].p 4 6 6 # 3 3 # - # # # # 3 u # - # # - # 3 4 # - # # # # - u # - # # # # 3 4 # - # # # # - u # - # # # - # 4 3 # # # # # # u - # # - # 4 p 4 h.; O SX.XP ",
"# # # # # # # # # # # . 4 # . 4 6 4 4 4 4 4 4 6 : 6.3X& . @ = 4.f 4 6 4 4 4 4 4 4 4 4 4 4 4 6 4 6 VXf.  # @ 3.4.4 4 6 4 4 4 4 4 4 4 4 4 6 ; 5.AX5.  # # 4.6.: 6 4 4 4 4 4 6 - # # # # # # # # # # # # # # # # # # # # # # # # # # # # # # # # # # # # # # # # # # # # # # # # # # # # # # # # # # # # # # # # # # # # # # - 6 4 6 4 4 3 3 3 4 4 I.;.- 4 4 i 6 4 3 3 p 4 6 4 6 # 3 3 # - - - - - 3 u # - - - - # 3 4 # - - - - - 3 i # - - - - - 3 4 # - - - - - - i - - - - - - # 6 3 - - - - - - i - - - # 3 h 3 3 h.4 & SXoXP ",
"# # # # # # # # # # # # @ # # 4 6 4 4 4 4 4 4 6 6 6 5.i 6 4 s f 4 6 4 6 4 4 4 4 4 4 4 4 4 4 4 6 ; f 5.4 6 6 d i 4 6 4 4 4 4 4 4 4 4 4 4 4 6 ; S d 4 4 6 d 4 4 6 4 4 4 4 4 6 - # # # # # - - - - - # # # # # # # # # # - # - # - # - # - # # # # # # # # # # # - - - - - # # # # # # # # # # - # - # - # - - - # # # # # # - 6 4 6 u 4 > > 4 u 6 3 4 u 4 4 4 4 4 6 4 4 4 4 6 6 # 3 3 # - - - - - 3 u # - - - - # 3 4 # - - - - - 3 u # - - - - - 3 4 # - - - - - - i - - - - - - # 6 3 - - - - - - i - - - - h 4 # 4 h.3 3 SXoXP ",
"4 4 4 4 4 4 4 4 4 4 4 4 6 6 4 4 6 4 4 4 4 4 4 4 6 3 ; 4 3 4 - ; 3 4 6 4 4 4 4 4 4 4 4 4 4 4 6 4 6 3 - 6 4 3 ; 3 6 4 4 4 4 4 4 4 4 4 4 4 6 4 u - ; 3 3 6 - 4 6 4 4 4 4 4 4 6 - # # # # - @ @ @   @ - # # # # # # # # # @ # @ # @ # @ # @ # # # # # # # # # # - @   @ @ @ - # # # # # # # # # @ # @ # @ # # # # # # # # # # - 6 6 4 > d s.s.f > 6 u 6 4 i i i i p i p i h u 4 6 # 3 3 # - - - - - 3 u # - - - - # 3 4 # - - - - - 3 u # - - - - - 3 4 # - - - - - - i - - - - - - # 6 3 - - - - - - i - - # p 4 # - 4 h.3 : SXi.P ",
"# # # # # # # # # - 3 # - - # 4 6 4 4 4 4 4 6 6 4 R.-.6 Y.l R.-.Y.u 4 6 4 4 4 4 4 4 4 4 4 4 4 6 4 l Y.4 :.l.>.H.4 6 4 4 4 4 4 4 4 4 4 4 4 6 3 :.-.>.>.3 R.-.4 6 4 4 4 4 4 6 - # # # # @ :.oXoXQ.h @ - # # # # # # # - l 4 ;.u -.i -.i -.# # # # # # # # # - @ h Q.oXoX;.@ # # # # # # # # 4 ;.i -.i -.i -.p -.# # # # # # - 6 4 4 3XVX3X4XAXf.; 6 6 3 I.{.T. X|.|.|.}. XR.3 u # 3 3 # - - - - - 3 u # - - - - # 3 4 # - - - - - 3 u # - - - - - 3 4 # - - - - - - i - - - - - - # 6 3 - - - - - - i - # i u # 3 - 4 h.3 , SXa.P ",
"# # # # # # # # # # # @ X . @ 3 6 4 4 4 4 4 6 3 -.}.R.>.].$XT.$X].l.3 6 4 4 4 4 4 4 4 4 4 4 4 6 3 Y.}.:.Y.|..X].p 4 6 4 4 4 4 4 4 4 4 4 4 6 3 R.}.T.T.;.{.T.4 6 4 4 4 4 4 6 - # # # # ~.%X7.z E.%X7.@ - # # # # # # - I.>.>.`.,.`.>.Y.>.u # # # # # # # - @ H.%XU.z 8.%XQ.# # # # # # # # # -.`.,.`.>.T.>.Y.>.u # # # # # - u ; 3X4X# o   * VXf.> 6 4 h }.I. X{..XT.$XT.T.4 u # 3 3 # - - - - - 3 u # - - - - # 3 4 # - - - - - 3 u # - - - - - 3 4 # - - - - - - i - - - - - - # 6 3 - - - - - - i # u i # - - - 4 c.3 1 SXa.P ",
"# # # # # # # # # # # . @Xv.X 4 6 4 4 4 4 4 6 3 -.{.].R.T.$XT.$X].l.3 6 4 4 4 4 4 4 4 4 4 4 4 6 3 Y.{.R.Y.|..X].h 4 6 4 4 4 4 4 4 4 4 4 4 6 3 l {.T.{.I.].].4 6 4 4 4 4 4 6 - # - @ U.oX  X   o 5 %Xi @ - # # # # - @ ;.>.,.`.,.`.>.Y.>.i # # # # # # - @ l %X4 o   X @ %XH.@ - # # # # # 4 v.>.>.`.>.T.>.Y.>.u # # # # # 3 : 6.VX@   # #   = VXf 4 4 h I.R.{.].].{.T.|.I.3 u # 3 3 # - - - - - 3 u # - - - - # 3 4 # - - - - - 3 i # - - - - - 3 4 # - - - - - - i - - - - - - # 6 3 - - - - - - 6 6 p # - - - - 4 c.& h.SXa.6.",
"# # # # # # # # # # # 3 [.v.. 4 6 4 4 4 4 4 6 6 4 R.l.-.R.-.R.-.Y.u 4 6 4 4 4 4 4 4 4 4 4 4 4 6 4 l Y.;.>.I.>.I.4 6 6 4 4 4 4 4 4 4 4 4 4 6 4 p l l.I.l R.;.4 6 4 4 4 4 4 6 - # # - %Xi   # @ . X U.Q.  - # # # # # # i 4 ,.i ;.i -.p -.# # # # # # # - @ oX8.o # # # X f %X# # # # # # # i >.p ;.i ;.i -.p -.# # # # # # 3 > 1X3Xo # # # X o 4Xs.> 6 4 3 6 4 4 4 4 4 4 4 4 6 # 3 3 # - - - - # 3 u # - - - - # 3 4 # - - - - - 3 u # - - - - # 3 4 # - - - - - - u - - - - - - # 4 3 # - - - - # i h - # - - - - 3 c.& g.kXa.6.",
"# # # # # # # # # # # # mXY.X 4 6 4 4 4 4 4 4 6 6 3 3 4 3 4 3 4 - 4 6 4 4 4 4 4 4 4 4 4 4 4 4 4 6 4 3 3 - # - 3 6 4 4 4 4 4 4 4 4 4 4 4 4 4 6 4 4 3 3 4 3 4 6 4 4 4 4 4 4 6 - # # i %X# # . 6 l o z oX@ - # # # # # # # # . # . # @ # @ # # # # # # # # # %Xf . # # . @ 3 %X4 # # # # # # # @ # . # . # # # @ # # # # # # 3 > 1X1Xo & X $XMX  4Xs.> 4 p p 4 u p i p u p u 4 6 - 3 i u i i i i u i h u i i i i u i p u i i i i u i h u i i i i u i p u i i i i i i h u i i i i i u p i u i i i u i l i u i i i i u i c.5 B.kXa.w.",
"# # # # # # # # # # # . -.u . 4 6 4 4 4 4 4 4 4 4 u 4 4 4 4 4 u 6 6 4 4 4 4 4 4 4 4 4 4 4 4 4 6 4 u 3 ;.I.R.l 4 6 6 4 4 4 4 4 4 4 4 4 4 4 4 6 4 4 4 4 4 u 6 4 6 4 4 4 4 4 6 - # # 4 %X3 # . h IX`.z oX@ - # # # # # # - # u - i # - - - # # # # # # # - @ oXz   X R.MXX 6 %X3 # # # # # # # - # u - i # - - - # # # # # # 3 : 6.VX  # . h mXf VXd 4 4 :.|.;..X].|.|.}. XR.3 u # 3 4 # - - - - - 3 u # - - - - - 3 4 # - - - - - 3 i - - - - - - 3 4 # - - - - - - i - - - - - - - 6 3 - - - - - h p # 3 - - - - - 4 c.& B.A.a.q.",
"# # # # # # # # # # # # . @ # 3 6 4 4 4 4 4 4 4 6 3 l..X|.I.}.h 4 6 4 4 4 4 4 4 4 4 4 4 4 4 4 4 6 4 >.@X X$XT.3 u 4 4 4 4 4 4 4 4 4 4 4 4 6 4 h  X XR.].l.3 6 4 4 4 4 4 4 6 - # - @ oXE.X # X h h Q.7.@ - # # # # # # - # v.>.>.v.i # # # # # # # # # - @ H.%X  . u IX4 E.~.@ - # # # # # # - # v.>.>.v.u # # # # # # # # - 6 ; VX3X  # X o 4.4.: 6 4 i T. XMXI.@XT.$XT.T.4 u # 3 3 # - - - - - 3 u # - - - - # 3 4 # - - - - - 3 u # - - - - - 3 4 # - - - - - - i - - - - - - # 4 3 - - - # p 6 6 3 - - - - - - 4 c.& Z.Z.a.6.",
"4 4 4 4 4 4 4 4 4 4 4 4 4 4 4 4 6 4 4 4 4 4 4 4 u - T.{.].T.}.l.3 6 4 4 4 4 4 4 4 4 4 4 4 4 4 4 6 3 ].{. X@X].3 6 4 4 4 4 4 4 4 4 4 4 4 4 6 3 :.|.].].].{.3 6 4 4 4 4 4 4 6 - # - # 6 %X;.  # X f 7.# # # # # # # # # - # v.>.I.>.3 # # # # # # # # # # # # %XQ.  # @ 7.%X4 # # # # # # # # - # v.>.I.>.- # # # # # # # # - u 4 f 3Xs - ; f 3.4 6 6 3 }.|.l.|.{.].{.].|.I.3 u # 3 3 # - - - - - 3 u # - - - - # 3 4 # - - - - - 3 u # - - - - - 3 4 # - - - - - - i - - - - - - # 6 3 - - # i i # i - - - - - - - 4 c.O A.Z.U q.",
"6 6 6 6 6 6 6 6 6 6 6 6 6 6 6 4 4 4 4 4 4 4 4 4 6 4 l ;.-.-.R.-.4 6 4 4 4 4 4 4 4 4 4 4 4 4 4 4 6 4 -.T.>.T.;.4 6 4 4 4 4 4 4 4 4 4 4 4 4 6 4 p ;.-.-.l.I.4 6 4 4 4 4 4 4 4 - # # - @ i h # # # i - # # # # # # # # # # # i # -.>.4 # # # # # # # # # # # # 4 z # - @ l i @ - # # # # # # # # # i # -.>.3 # # # # # # # # - 6 6 4 > 4 6 6 4 4 6 4 4 4 u i 3 3 6 4 6 4 6 4 4 6 # 3 3 # - - - - - 3 u # - - - - # 3 4 # - - - - - 3 u # - - - - - 3 4 # - - - - - - i - - - - - - # 6 3 - # 6 i # - i - - - - - - - 4 h., A.Z.a.6.",
"6 6 6 6 6 6 6 6 6 6 6 6 6 6 6 6 6 6 6 6 6 6 6 6 6 u 4 4 4 4 4 4 u 6 6 6 6 6 6 6 6 6 6 6 6 6 6 6 6 u 4 3 4 3 4 u 6 6 6 6 6 6 6 6 6 6 6 6 6 6 u 4 4 4 4 4 3 u 6 6 6 6 6 6 6 6 - # - - - # # - - - # - - - - - - - - - - - - # - # # # - - - - - - - - - - - - # @ - - - # # - - - - - - - - - - - # - # # # - - - - - - - # - u 6 u u 6 6 6 6 u 6 6 6 6 6 4 u u 6 u 6 u 6 u 6 u - 3 3 # - - - - - 3 u # - - - - # 3 4 # - - - - - 3 u # - - - - - 3 4 # - - - - - - i - - - - - - # 4 3 # 4 h # - - i - - - - - - - 3 c.g.SXZ.i.P ",
"# # # # # # # # # # # # # # # # # # # # # # # # # # # # # # # # # # # # # # # # # # # # # # # # # # # # # # # # # # # # # # # # # # # # # # # # # # # # # # # # # # # # # # # @ # @ @ # # @ @ @ # # @ @ @ @ @ @ @ @ @ @ @ # # # # # @ @ @ @ @ @ @ @ @ @ @ @ # # @ @ @ # # @ @ @ @ @ @ @ @ @ @ @ # # # # # @ @ @ @ @ @ # @ # # # # # # # # # # # # # # # # # # # # # # # # # # # 4 3 # - - - - - 3 u # - - - - # 3 4 # - - - - - 3 u # - - - - - 3 4 # - - - - - - i - - - - - - # 6 - 3 h 3 # - - i - - - - - - - 3 c.g.SXZ.i.P ",
"4 4 4 4 4 4 4 4 4 4 4 4 4 4 4 4 4 4 4 4 4 4 4 4 4 4 4 4 4 4 4 4 4 4 4 4 4 4 4 4 4 4 4 4 4 4 4 4 4 4 4 4 4 4 4 4 4 4 4 4 4 4 4 4 4 4 4 4 4 4 4 4 4 4 4 4 4 4 4 4 4 4 4 4 4 4 6 6 6 6 6 6 6 6 6 6 6 6 6 6 6 6 6 6 6 6 6 6 6 6 6 6 6 6 6 6 6 6 6 6 6 6 6 6 6 6 6 6 6 6 6 6 6 6 6 6 6 6 6 6 6 6 6 6 6 6 6 6 6 6 6 6 6 6 6 6 6 6 4 4 4 4 4 4 4 4 4 4 4 4 4 4 4 4 4 4 4 4 4 4 4 4 u # 3 3 # - - - - - 3 u # - - - - - 3 4 # - - - - - 3 i - - - - - - 3 4 # - - - - - - i - - - - - - - 4 3 h 3 # - - - i - - - - - - - 4 h.1 A.g.a.6.",
":.:.:.:.:.:.:.:.:.:.:.:.:.:.:.:.:.:.:.:.:.:.:.:.:.:.:.:.:.:.:.:.:.:.:.:.:.:.:.:.:.:.:.:.:.:.:.:.:.:.:.:.:.:.:.:.:.:.:.:.:.:.:.:.:.:.:.:.:.:.:.:.:.:.:.:.:.:.:.:.:.:.:.:.:.:.:.:.:.:.:.:.:.:.:.:.:.:.:.:.:.:.:.:.:.:.:.:.:.:.:.:.:.:.:.:.:.:.:.:.:.:.:.:.:.:.:.:.:.:.:.:.:.:.:.:.:.:.:.:.:.:.:.:.:.:.:.:.:.:.:.:.:.:.:.:.:.:.:.:.:.:.:.:.:.:.:.:.:.:.:.:.:.:.:.:.:.:.:.:.:.:.>.u 3 3 # # # # # # - u # # # # # # 3 4 # # # # # # - u # # # # # # 3 4 # # # # # # # u # # # # # # # 4 p 4 # # # # # u # # # # # # # 3 h.; SX2 a.6.",
";.;.;.;.;.;.;.;.;.;.;.;.;.;.;.;.;.;.;.;.;.;.;.;.;.;.;.;.;.;.;.;.;.;.;.;.;.;.;.;.;.;.;.;.;.;.;.;.;.;.;.;.;.;.;.;.;.;.;.;.;.;.;.;.;.;.;.;.;.;.;.;.;.;.;.;.;.;.;.;.;.;.;.;.;.;.;.;.;.;.;.;.;.;.;.;.;.;.;.;.;.;.;.;.;.;.;.;.;.;.;.;.;.;.;.;.;.;.;.;.;.;.;.;.;.;.;.;.;.;.;.;.;.;.;.;.;.;.;.;.;.;.;.;.;.;.;.;.;.;.;.;.;.;.;.;.;.;.;.;.;.;.;.;.;.;.;.;.;.;.;.;.;.;.;.;.;.;.;.;.;.;.:.6 3 6 4 4 4 4 4 4 4 i 4 4 4 4 4 4 4 u 4 4 4 4 4 4 4 i 4 4 4 4 4 4 4 i 4 4 4 4 4 4 4 i 4 4 4 4 4 4 3 h p 3 4 4 4 4 4 i 4 4 4 4 4 4 4 6 c.u SX< a.q.",
";.;.;.;.;.;.;.;.;.;.;.;.;.;.;.;.;.;.;.;.;.;.;.;.;.;.;.;.;.;.;.;.;.;.;.;.;.;.;.;.;.;.;.;.;.;.;.;.;.;.;.;.;.;.;.;.;.;.;.;.;.;.;.;.;.;.;.;.;.;.;.;.;.;.;.;.;.;.;.;.;.;.;.;.;.;.;.;.;.;.;.;.;.;.;.;.;.;.;.;.;.;.;.;.;.;.;.;.;.;.;.;.;.;.;.;.;.;.;.;.;.;.;.;.;.;.;.;.;.;.;.;.;.;.;.;.;.;.;.;.;.;.;.;.;.;.;.;.;.;.;.;.;.;.;.;.;.;.;.;.;.;.;.;.;.;.;.;.;.;.;.;.;.;.;.;.;.;.;.;.;.;.:.6 3 4 3 4 4 4 4 4 4 i 3 4 4 4 4 4 4 u 3 4 4 4 4 4 4 i 3 4 4 4 4 4 4 u 3 4 4 4 4 4 4 i 4 4 4 4 4 3 p l 3 4 4 4 4 4 4 i 4 4 4 4 4 4 4 6 h.g SX2 a.q.",
":.:.:.:.:.:.:.:.:.:.:.:.:.:.:.:.:.:.:.:.:.:.:.:.:.:.:.:.:.:.:.:.:.:.:.:.:.:.:.:.:.:.:.:.:.:.:.:.:.:.:.:.:.:.:.:.:.:.:.:.:.:.:.:.:.:.:.:.:.:.:.:.:.:.:.:.:.:.:.:.:.:.:.:.:.:.:.:.:.:.:.:.:.:.:.:.:.:.:.:.:.:.:.:.:.:.:.:.:.:.:.:.:.:.:.:.:.:.:.:.:.:.:.:.:.:.:.:.:.:.:.:.:.:.:.:.:.:.:.:.:.:.:.:.:.:.:.:.:.:.:.:.:.:.:.:.:.:.:.:.:.:.:.:.:.:.:.:.:.:.:.:.:.:.:.:.:.:.:.:.:.:.>.u 3 3 # # # # # # - u # # # # # # 3 4 # # # # # # - u # # # # # # 3 4 # # # # # # # u # # # # # 4 i 4 - # # # # # # u # # # # # # # 3 h.1 SX> a.6.",
"l l l l l l l l l l l l l l l l l l l l l l l l l l l l l l l l l l l l l l l l l l l l l l l l l l l l l l l l l l l l l l l l l l l l l l l l l l l l l l l l l l l l l l l l l l l l l l l l l l l l l l l l l l l l l l l l l l l l l l l l l l l l l l l l l l l l l l l l l l l l l l l l l l l l l l l l l l l l l l l l l l l l l l l l l l l l l l l l l l l l l l l 4 3 4 # - - - - - 3 u # - - - - - 3 4 # - - - - - 3 i - - - - - - 3 4 # - - - - - - i - - 3 # 4 h - 4 3 - - - - - - i - - - - - - - 4 =.g.SX  a.6.",
"4 4 4 4 4 4 4 4 4 4 4 4 4 4 4 4 4 4 4 4 4 4 4 4 4 4 4 4 4 4 4 4 4 4 4 4 4 4 4 4 4 4 4 4 4 4 4 4 4 4 4 4 4 4 4 4 4 4 4 4 4 4 4 4 4 4 4 4 4 4 4 4 4 4 4 4 4 4 4 4 4 4 4 4 4 4 4 4 4 4 4 4 4 4 4 4 4 4 4 4 4 - 4 4 4 4 4 4 4 4 4 4 4 4 4 4 4 4 4 4 4 4 4 4 4 4 4 4 4 4 4 4 4 4 4 4 4 4 3 4 3 3 - 3 3 3 3 3 4 3 u 3 3 4 4 4 4 4 4 4 4 4 4 4 4 4 4 4 4 4 4 4 4 4 4 4 4 4 4 4 4 4 4 # 3 3 # - - - - - 3 u # - - - - # 3 4 # - - - - - 3 u # - - - - - 3 4 # - - - - - - i - - # 3 h 3 # 6 3 - - - - - - i - - - - - - - 4 =.g.SXX a.6.",
"6 6 6 6 6 6 6 6 6 6 6 6 6 6 6 6 6 6 6 6 6 6 6 6 6 6 6 6 6 6 6 6 6 6 6 6 6 6 6 6 6 6 6 6 6 6 6 6 6 6 6 6 6 6 6 6 6 6 6 6 6 6 6 6 6 6 6 6 6 6 6 6 6 6 6 6 6 6 6 6 6 6 6 6 6 6 6 6 6 6 6 6 6 6 6 6 6 6 6 6 4 >.p 3 4 3 3 4 3 3 4 6 6 6 6 6 6 6 6 6 6 6 6 6 6 6 6 6 6 6 6 6 6 6 4 i I.-.I.4 l ;.Y.h l l h l h -.-.-.h 4 6 6 6 6 6 6 6 6 6 6 6 6 6 6 6 6 6 6 6 6 6 6 6 6 6 6 6 6 u - 3 3 # - - - - - 3 u # - - - - # 3 4 # - - - - - 3 u # - - - - - 3 4 # - - - - - - i - - - h 4 # - 4 3 - - - - - - i - - - - - - - 4 =.g.kXX a.6.",
"6 6 4 4 4 4 4 4 4 6 6 6 6 6 4 4 6 6 6 6 4 4 6 6 6 6 4 4 6 4 6 6 6 6 6 4 6 6 6 6 6 6 6 4 4 4 4 4 4 4 4 4 6 6 6 6 6 6 6 6 4 6 4 4 4 4 4 4 4 6 6 6 6 6 4 6 6 6 6 6 6 6 4 4 4 4 4 4 4 4 4 4 4 4 4 4 4 4 6 3 I.T.>.-.>.T.l.-.I.Y.u 4 6 4 4 4 4 4 4 4 4 4 4 4 4 4 4 4 4 4 4 4 4 6 4 u @X.X$X]..X}. X X$X@XR.mX@X}.]..X>.3 6 4 4 4 4 4 4 4 4 4 4 4 4 6 4 6 6 6 6 6 4 6 6 4 6 4 4 4 6 # 3 3 # - - - - - 3 u # - - - - # 3 4 # - - - - - 3 u # - - - - - 3 4 # - - - - - - i - # p 6 # 3 # 6 3 - - - - - - i - - - - - - - 4 =.B.kXX a.6.",
"4 4 6 4 4 4 4 4 4 4 4 4 4 4 4 6 4 4 4 3 6 6 4 6 4 4 6 4 4 6 3 4 3 4 4 u 4 4 4 4 4 4 4 6 4 4 4 4 4 4 4 6 3 4 3 3 4 4 4 4 u 4 6 4 4 4 4 4 6 4 4 4 4 4 u 4 4 4 4 4 4 4 6 4 4 4 4 4 4 4 4 4 4 4 4 4 4 4 u - }.i >.].@XT.Y.@X$X$Xh 4 6 4 4 4 4 4 4 4 4 4 4 4 4 4 4 4 4 4 4 4 4 6 4 i T.>.].@X;.@X{. X}.T.;.$XI..X|.T.].3 6 4 4 4 4 4 4 4 4 4 4 4 4 4 6 4 4 4 4 4 u 4 4 6 4 6 4 4 6 # 3 3 # - - - - - 3 u # - - - - # 3 4 # - - - - - 3 u # - - - - - 3 4 # - - - - - - i # i i # - - # 6 3 - - - - - - i - - - - - - - 4 =.Z.A.X a.6.",
"i i 4 6 4 4 4 6 4 T.].i i 3 ].-.4 6 h l.-.i h 4 l u 4 6 6 3 ].h T.;.u Y.i i i 6 u i h 4 6 4 4 4 4 4 6 4 R.l >.>.h i 4 l.I.4 6 6 4 4 4 6 4 i {.R.6 l R.6 u p u p u i 4 6 4 4 4 4 4 4 4 4 6 4 4 4 4 4 6 4 -.}.>.}.].l l T.>.T.4 4 6 4 4 4 4 4 4 4 4 4 4 4 4 4 4 4 4 4 4 6 4 4 4 6 i 4 I.R.i h p p h i 4 h h l i l i 4 6 4 4 4 4 4 4 4 4 4 4 4 4 6 4 l l ;.l u R.p R.>.3 6 4 4 6 # 3 3 # - - - - # 3 u # - - - - # 3 4 # - - - - - 3 u # - - - - # 3 4 # - - - - - 3 6 6 i # - - - # 4 3 - - - - - - u - - - - - - - 4 =.A.Z.X a.6.",
" X-.4 6 4 4 4 6 4 @X@X{.$X}..X}.>.|.Y.@X].].].].@XI.3 6 u - @X].$XI. X$X].}.$XY.I. X|.l 3 6 4 4 4 6 4 i mX{..X@X>.@X}.R.mX-.4 6 4 4 4 6 4 p mX|.|.$X}.@X{.T.@X{.}.$Xp 4 6 4 4 4 4 6 u 6 6 6 6 6 6 6 6 6 4 4 4 4 3 4 4 3 4 4 6 6 u 6 6 6 6 6 6 4 4 4 4 4 4 4 4 4 4 u 6 6 6 6 6 4 4 4 p u 4 4 4 4 4 4 6 4 4 4 3 # 4 u 6 6 6 u 6 4 6 4 4 4 4 4 4 6 3 >.@X.X|.].{.].@X>.3 6 4 4 6 # 3 4 - 3 3 3 3 - 3 i - 3 3 3 3 - 3 4 - 3 3 3 3 - 3 i - 3 3 3 3 - 3 6 - 3 3 3 3 3 # p h - 3 3 3 3 - 6 3 - 3 3 3 3 - i 3 3 3 3 3 3 - 4 =.kXB.X a.6.",
"{.Y.- 6 4 4 4 6 4 }.{.@X X|.}.|.|.$XI.T.{. XT. XI.T.3 u 6 4 T.$X|..X$XmX|.@X|.|. X X|.:.3 6 4 4 4 6 3 I.|..X].T.}.mX@Xl.MX>.3 6 4 4 4 6 4 p .X{.$X}. X$X}.mX X}.mX|.i 4 6 4 4 4 6 4 3 3 4 4 4 4 4 6 4 4 4 6 6 6 6 6 6 6 6 6 4 4 - 4 4 6 4 6 4 6 4 6 4 4 4 4 4 6 4 3 3 4 4 6 4 4 6 4 3 4 6 6 6 6 6 6 4 6 6 6 -.:.4 3 3 3 4 3 4 6 4 4 4 4 4 4 4 6 3 >.T.]..X]. X}. X>.- 6 4 4 6 - 3 i u u u u i u i h u i u u i u i p u i u u i u i h u i u u i u i p u i u u i u i l i u i u u i u p i u i u u i u h i u u u u i u i h.SXV.# s.w.",
":.h 4 6 4 4 4 4 6 p i l -.h >.p l.p >.;.-.p >.i p p 4 6 6 4 p h p -.;.p h l l -.;.|.l.4 6 6 4 4 4 6 4 h 3 h ;.-.:.-.l >.i l 4 6 4 4 4 6 4 u i p l -.i l -.;.-.:.h ;.4 6 6 4 4 6 4 u ].].R.3 6 6 6 4 u Y.u 4 6 4 4 4 4 4 6 4 4 I.].u 6 4 u 4 6 4 6 4 4 4 4 4 6 4 6 T.].R.4 6 u 6 4 u Y.i 4 6 4 4 4 4 4 6 6 4 >.$XI.l.>.T.l T.i 4 6 4 4 4 4 4 4 6 4 i i i l :.i h l.i 4 6 4 4 6 # 3 3 # - # # # # 3 u # - # # - # 3 4 # - # # # # - u # - # # # # 3 4 # - # - # - h i # - # # # - # 4 3 # # # # # # u - # # # # - - 4 h.SXg.X a.6.",
"3 4 6 4 4 4 4 4 4 4 4 4 4 4 3 4 3 4 3 3 3 4 3 4 4 4 6 4 4 6 4 4 4 3 3 4 4 4 4 3 3 i 3 4 4 4 4 4 4 4 6 4 6 4 3 3 3 3 4 3 4 4 6 4 4 4 4 4 6 4 4 4 4 3 4 4 4 3 4 3 4 3 6 4 4 4 4 6 6 3 T.T.$XT.}.R. X XT..X Xi 4 6 4 4 4 4 4 6 3 -.|.T.T.{.|.Y.@Xl 4 6 4 4 4 4 6 6 3 Y.T.@XT.}.R. X XT..X Xp 4 6 4 4 4 4 4 6 3 I.I.].{.@X].mXmX;.3 6 4 4 4 4 4 4 4 6 4 4 4 4 3 4 4 3 4 6 4 4 4 6 # 3 3 # - - - - - 3 u # - - - - - 3 4 # - - - - - 3 i - - - - - - 3 4 # - - - # p 4 6 - - - - - - # 6 3 - - - - - - i - - - - - - - 4 h.SX1 X a.6.",
"6 6 4 6 4 4 4 4 4 6 6 6 6 6 6 6 6 6 6 6 6 6 6 6 6 6 4 4 4 4 6 6 6 6 6 6 6 6 6 6 6 4 6 6 4 4 4 4 4 4 4 6 6 6 6 6 6 6 6 6 6 6 4 4 4 4 4 4 4 6 6 6 6 6 6 6 6 6 6 6 6 6 6 4 4 4 4 4 u - I.Y.R.{.|.l.mXT..X}.T.;.3 6 4 4 4 4 6 6 3 |.I.{.{.|.R.mX@Xl 4 6 4 4 4 4 4 6 - I.Y.R.]. X>.mXT. X|.T.:.3 6 4 4 4 4 6 6 4 .XT.T.T.l.:.T.].i 4 6 4 4 4 4 4 4 4 4 6 6 6 6 6 6 6 6 6 4 4 4 4 6 # 3 3 # - - - - - 3 u # - - - - # 3 4 # - - - - - 3 u # - - - - - 3 4 # - - # i 6 # i - - - - - - # 6 3 - - - - - - i - - - - - - - 3 c.FX,   a.6.",
"4 4 4 4 4 4 4 4 4 4 4 4 4 4 4 4 4 4 4 4 4 4 4 4 4 4 4 4 4 4 4 4 4 4 4 4 4 4 4 4 4 6 4 4 4 4 4 4 4 4 4 4 4 4 4 4 4 4 4 4 4 4 4 4 4 4 4 4 4 4 4 4 4 4 4 4 4 4 4 4 4 4 4 4 4 4 4 4 6 4 h l l l -.6 l.;.I.-.l i 4 6 4 4 4 4 4 4 6 Y.l.l.>.h l l l.u 4 6 4 4 4 4 4 6 4 h l l l ;.6 >.;.I.;.l p 4 6 4 4 4 4 4 4 4 4 u 4 4 4 4 3 6 6 4 4 4 4 4 4 4 4 4 4 4 4 4 4 4 4 4 4 4 4 4 4 4 6 # 3 3 # - - - - - 3 u # - - - - # 3 4 # - - - - - 3 u # - - - - - 3 4 # 3 # i i # 3 i - - - - - - # 6 3 - - - - - - i - - - - - - - & V.FX4   a.6.",
"6 6 6 6 6 6 6 6 6 6 6 6 6 6 6 6 6 6 6 6 6 6 6 6 6 6 6 6 6 6 6 6 6 6 6 6 6 6 6 6 6 6 6 6 6 6 6 6 6 6 6 6 6 6 6 6 6 6 6 6 6 6 6 6 6 6 6 6 6 6 6 6 6 6 6 6 6 6 6 6 6 6 6 6 6 6 6 6 6 6 4 4 4 4 4 6 3 4 3 4 4 4 6 6 6 6 6 6 6 6 6 3 3 3 3 4 4 4 3 6 6 6 6 6 6 6 6 6 6 4 4 4 4 4 6 3 4 3 4 4 4 6 6 6 6 6 6 6 6 6 6 6 6 6 6 6 u 6 6 6 6 6 6 6 6 6 6 6 6 6 6 6 6 6 6 6 6 6 6 6 6 6 u - 3 3 # - - - - - 3 u # - - - - # 3 4 # - - - - - 3 u # - - - - - 3 4 - # 6 p # - - i - - - - - - # 6 3 - - - - - - i - - - - - - - & D.SX&   a.6.",
"# # # # # # # # # # # # # # # # # # # # # # # # # # # # # # # # # # # # # # # # # # # # # # # # # # # # # # # # # # # # # # # # # # # # # # # # # # # # # # # # # # # # # # # # # # # # # # # # # # # # # # # # # # # # # # # # # # # # # # # # # # # # # # # # # # # # # # # - # - # # # # # # # # # # # # # # # # # # # # # # # # # # # # # # # # # # # # # # # # # # # # # # 4 3 # - - - - - 3 u # - - - - # 3 4 # - - - - - 3 u # - - - - - 3 6 # 4 h - - - - i - - - - - - # 6 3 - - - - - - i - - - - - - - & D.kXO @ a.6.",
"3 3 3 3 3 3 - - - - - - - - 3 3 - - - 3 3 - - - - - - - - - - - - - 3 - > - - 3 - - - - - - - - - - - - - 3 3 - @ # 3 3 - - - - - - - - - - - - - ; 3 & & & ; - - - - - - - - - - - - - 3 3 - @ # 3 3 - - - - - - - - - - - - - 3 - > > - 3 3 - - - - 3 - # # # # # # # # # @ @ # # # # # # # # # # # # # # # # # @ @ # # # # # # # # # - - - - - - 3 3 - - - - 3 - - - - - 3 # 3 3 # - - - - - 3 u # - - - - - 3 4 # - - - - - 3 i - - - - - - 3 4 3 h 3 # - - - i - - - - - - # 6 3 - - - - - - i - - - - - - - & kXB.O @ a.6.",
"4 4 4 4 4 4 6 6 6 6 6 6 6 u 4 4 f S f 4 4 u 6 6 6 6 6 6 6 6 6 6 6 u : i 6.5.i 4 6 6 6 6 6 6 6 6 6 6 6 6 u 4 ; d q.S 4 4 u 6 6 6 6 6 6 6 6 6 6 6 6 5 u $.$.u 5 6 6 6 6 6 6 6 6 6 6 6 6 u 4 ; d q.S 4 4 u 6 6 6 6 6 6 6 6 6 6 6 u : u 6.6.f > 6 6 6 6 6 6 4 # # # # # - # # 4 5 5 # # - # # # # # # # # # # # - # - i f 4 @ # - # # # # - 6 6 6 6 6 6 6 4 s S d 6 4 u 6 6 6 6 u - 3 3 # # # # # # - u # # # # # # 3 4 # # # # # # - u # # # # # # - 6 p 3 # # # # # u # # # # # # # 4 - # # # # # # u # # # # # - O B.FX3 &   a.P ",
"i p p p p i 4 4 4 4 4 4 6 4 s 4.4.4.4.4.s 4 6 4 4 4 4 4 4 4 4 4 6 ; s.VX4X4.4.6.4 4 4 4 4 4 4 4 4 4 4 6 4 f 2XiX2XiXiXf ; 6 4 4 4 4 4 4 4 4 4 6 5 g.hXm.m.hXm.4 4 4 4 4 4 4 4 4 4 4 6 4 i 1XiX2XiXiXd ; 6 4 4 4 4 4 4 4 4 4 6 > s.VX4X4XAX1X; 4 6 4 4 6 4 # # # # # # - k G S G G 4 # # # # # # # # # # # - @ f E.E.E.Q.7.# # # # # # - 4 4 4 4 6 4 6 3.4.4.4.4.d 4 6 4 4 4 6 # 3 6 4 4 4 4 4 4 4 i 4 4 4 4 4 4 6 i 4 4 4 4 4 4 4 p 4 4 4 4 4 4 4 l i 4 4 4 4 4 4 p 4 4 4 4 4 4 4 i 4 4 4 4 4 4 4 p 4 4 4 4 6 & g.FXV.4 4 > a.q.",
"l i i i p l 6 4 6 4 4 6 4 5 4.3.#   # W 4.a 4 6 4 4 4 4 4 4 4 6 > f.VX= j -.& 4.6.: 6 4 4 4 4 4 4 4 6 4 i iXs.#   # 6.iXf 4 6 4 4 4 4 4 4 4 6 5 g.hX2 # # : hXm.* 6 4 4 4 4 4 4 4 6 4 u iXs.#   # 6.iXf 4 6 4 4 4 4 4 4 4 6 > s.AXd     = VX3X> 6 6 4 6 4 # # # # # # G w . X X 5 G 4 # # # # # # # # # - @ l Q.5 X X # E.9.# # # # # - 4 6 4 6 4 4 4.3.#   # d 4.f 4 6 4 4 6 # 3 4 3 3 3 3 3 3 4 i 3 3 3 3 3 3 4 6 3 3 3 3 3 3 4 i 3 3 3 3 3 3 h i 3 3 3 3 3 3 3 i 3 3 3 3 3 3 3 u 4 3 3 3 3 3 3 i 3 3 3 4 & 1 FXh.=.u 3 > a.q.",
"p i >.>.4 h 6 4 6 4 4 6 : 6.3.o X # #   3.3.: 6 4 4 4 4 4 4 6 4 f AXs o mXMXo & 4.s 4 6 4 4 4 4 4 6 6 > f.1Xo # # . > s.s.; 6 4 4 4 4 4 4 6 4 u hX: . # . o   hX1 4 6 4 4 4 4 4 4 6 > s.1Xo # # # o a.1X> 6 6 4 4 4 4 4 6 4 i VXd o # #   # VX5.; 6 4 6 4 # # # # # f k o X . X o 9 G # # # # # # # # # # - Q.5 o . . X X E.i # # # # - 4 6 4 6 : 6.4.  # # #   W 4.4 6 6 4 6 # 3 3 # # # # # # 3 u # # # # # # 3 4 # # # # # # - u # # # - # 6 p 4 # # # # # # # u # # # # # # # 4 - # # # # # # u # # - # : FXg.O c.; &   a.6.",
"p p }.`.4 l 6 4 6 4 6 4 4 4.= i -.# # @ * 4.4 4 6 4 4 4 4 4 6 > s.4X  . v.R.X   3.6.: 6 4 4 4 4 4 6 6 4 iXS   # @ MXPX* 3.6 4 6 4 4 4 4 4 6 * $.m.. # . p mXR./ g.* 6 4 4 4 4 4 6 6 ; iXP   # . X @ 5 iXi 4 6 4 4 4 4 4 6 > 6.4X  # # . X o 1X1X> 6 4 6 4 # # # # # G 5 X . X . o . G 3 # # # # # # # # # i E.X . . X o o G 7.@ - # # - 4 6 4 6 : 4.d   @ X # # & 4.s 4 6 4 6 # 3 3 # - - - - - 3 u # - - - - - 3 4 # - - - - - 3 i - - 3 # 4 p 3 4 # - - - - - - i - - - - - - # 6 3 - - - - - - i - - - & SXA.O 4 h.4 &   a.6.",
"h 6 :.-.4 l 6 4 6 4 6 4 6 1Xs PXMX# # @ * 4.6 4 6 4 4 4 4 4 6 > s.3Xo # X X #   3.6.: 6 4 4 4 4 4 6 6 4 iXd   # # >.4 & a.6 4 6 4 4 4 4 4 6 * g.m.. # X -.MXI.2 1 5 6 4 4 4 4 4 6 6 ; iXS   . i .X@ * iXf 4 6 4 4 4 4 4 6 > s.4X  # X Y.MX> 4.3X> 6 4 6 4 # # # # # G 3 X . X .XXX# G 3 # # # # # # # - @ f U.X . o -..X# k 8.@ - # # - 4 6 4 6 : 4.d X i >.. # # 4.s 4 6 4 6 # 3 3 # - - - - - 3 u # - - - - # 3 4 # - - - - - 3 u # - # 3 h - 3 4 # - - - - - - i - - - - - - # 6 3 - - - - - - i - - O kXkXO - 4 h.4 &   a.6.",
"l 6 4 4 u l 6 4 6 4 6 6 > 4X4.  # # #   d 4.4 6 6 4 4 4 4 4 6 ; 5.VX@   # # #   4.S 4 6 4 4 4 4 4 6 6 ; 1Xa.o # # X   0 a.4 6 6 4 4 4 4 4 6 4 1 hX# # # . o X / 1 4 6 4 4 4 4 4 6 6 > 1Xs.o # - IX[.n iX4 6 6 4 4 4 4 4 6 ; d VX&   # 4 MXz.3Xs.> 6 4 6 4 # # # # # k q o . X y v.3 k - # # # # # # # # # 4 Q.# X X # [.&.0.z @ - # # - 4 6 4 6 : 6.3.o PXmXX @ = 4.6 4 6 4 6 # 3 3 # - - - - - 3 u # - - - - # 3 4 # - - - - - 3 u - - 3 h 3 # 3 4 # - - - - - - i - - - - - - # 6 3 - - - - - - i ; O Z.SX& - - 4 h.4 &   a.6.",
"l h l h h h 6 4 6 4 4 6 ; 6.AXd   # @ * 4.d 4 6 4 4 4 4 4 4 6 6 ; 4X3X  # #   3.4.4 6 6 4 4 4 4 4 4 6 ; S iXS   # # * a.d 4 6 4 4 4 4 4 4 6 6 5 m.m.# # # # 2 / 4 4 6 4 4 4 4 4 4 6 ; S iXS @ X - p 2Xe.; 6 4 4 4 4 4 4 6 6 > 3X4X# # . o W 4.6 4 6 4 6 4 # # # # # 4 G 3 X X X o 8 3 # # # # # # # # # - @ 8.E.X X X o & z - # # # # - 4 6 4 6 4 s 4.d Y.3 . & 4.5.: 6 4 4 6 # 3 3 # - - - - - 3 u # - - - - # 3 4 # - - - - - 3 i # - h 4 # - 3 4 # - - - - - - i - - - - - - # 6 3 - - - - - - i O g.FX; & - - 4 h.4 &   a.6.",
"u u u u u 6 4 6 4 4 4 4 6 > f.1X> 3 - 3.6.: 6 4 4 4 4 4 4 4 4 6 4 a 4Xd - - 5 4.a 4 6 4 4 4 4 4 4 4 4 6 ; a.f.> 3 - P P : 6 4 4 4 4 4 4 4 4 6 4 6 m.1 & - : / 6 4 6 4 4 4 4 4 4 4 4 6 ; a.1X- 3 - S 6.: 6 4 4 4 4 4 4 4 4 6 4 6 4X5.> 3 5 4.s 4 6 4 4 6 4 # # # # # # q k @ @ @ 3 5 # # # # # # # # # # # # # U.i   @ # f 3 # # # # # - 4 6 4 4 6 : 5.3X  # - S 3.4 6 6 4 4 6 # 3 3 # - - - - - 3 u # - - - - # 3 4 # - - - - - 3 i # p u # 3 - 3 4 # - - - - - - i - - - - - - # 6 3 - - - - - ; 5 $.FX1 O - - - 4 h.4 &   a.6.",
"p h h h h l 6 4 6 4 4 4 6 u : 4 u 6 6 6 4 6 6 6 6 4 4 4 4 6 4 6 u 4 : 6 u 6 6 4 6 u 6 4 6 4 4 4 6 4 6 6 6 ; 4 u u 6 4 4 6 4 4 4 4 4 4 4 6 4 6 6 4 5 6 u 6 6 4 4 6 4 4 4 4 4 4 4 4 6 4 6 ; 4 u 6 u 6 ; 6 6 6 4 4 4 4 4 4 6 4 6 4 ; 6 6 u 6 4 4 6 6 6 4 6 4 # # # # # - # # - - - - # # # - - # # # # # # # - # # - - - - # # - - # # # - 4 6 4 4 6 u 4 4 u 6 6 6 4 4 6 4 4 4 6 # 3 3 # - - - - # 3 u # - - - - # 3 4 # - - - - # 3 6 u i # - - # 3 4 # - - - - # - u # - - - - - # 4 3 # - - # - O g FXg.O - # - # 3 h.; &   a.6.",
"l 4 4 4 4 l 6 4 6 6 4 6 4 3 3 6 3 4 4 4 6 6 4 3 3 6 4 4 4 4 6 4 3 u 3 4 3 4 6 6 4 3 3 6 4 4 4 4 4 6 4 3 4 3 6 3 3 6 6 u 6 6 6 4 4 4 4 4 4 6 4 4 4 4 3 4 6 6 6 6 6 6 4 4 4 4 4 4 6 4 6 4 6 3 3 4 4 6 u 4 3 3 6 4 4 4 4 4 4 6 4 4 6 3 4 3 4 6 4 3 3 4 6 6 4 # # # # # # # - # # # # - - # # # # # # # # # # # # - # # # # - # # @ # # # - 4 6 4 6 4 3 6 4 3 6 6 6 6 6 6 4 4 4 6 # 3 4 3 3 3 3 3 3 3 i 3 3 3 3 3 3 4 6 3 3 3 3 3 3 3 h p 3 3 3 3 3 3 6 3 3 3 3 3 3 3 i 3 3 3 3 3 3 3 6 3 3 3 3 3 3 - FXB.O 3 3 3 3 3 4 c.4 3 @ a.6.",
">.4 6 6 6 l 6 4 6 4 6 4 l :.l.4 -.l u l 3 4 >.:.;.4 6 6 4 6 4 l ;.3 :.h ;.h 3 6 >.:.-.4 6 6 4 4 6 4 l ;.h :.3 -.-.3 3 3 3 3 4 6 4 4 4 4 6 4 h p l l -.l 3 3 3 3 3 4 6 4 4 4 4 4 4 6 4 l 6 -.-.l h 4 3 :.:.:.4 4 6 4 4 4 6 4 l h 4 >.i >.u - p :.>.h 4 6 4 # # # 3 u u p # u u u u # # p p p # # # # # # # u u # p 4 p ; @ 4 p p 4 # # - 4 6 6 4 i >.3 l :.4 3 3 3 3 4 6 4 4 6 - 3 i u u u u u u i h 6 u u u u u i p 6 u u u u 6 p l 6 u u u u u i p u u u u u u u h u u u u u u u p i u u u u 5 SXkX* i u u u u u i c.i i : s.w.",
">.6 6 6 4 l 6 4 6 6 4 h $X-.@Xh }.T.T.{.3 {.@X X@Xi 4 6 6 4 6 {.{.l {. X XT.u }..X.X.Xi 4 6 4 4 6 4 p |. X{.l {.{.i ].}.I.I.I.4 6 6 4 4 6 - R.}.T..X XT.i {.{.I.R.l.4 6 4 4 4 4 6 4 p $X3 @XR.T.Y.- T.@X X@Xl 4 6 4 4 6 4 i $X-.;.|..X|.>.h @X X@X].3 u 4 # # # i Y.3 I.u >.I.I.>.; ,.Y.I.Y.u # # # # # 3 `.i u v.Y.v.h 4 Y.I.Y.>.# # - 4 6 6 3 R. Xl T. Xp Y.}.Y.l.T.4 6 4 6 # 3 3 # # # # # # - u # # # # # # 3 4 # # # # # 3 h i # # # # # # 3 4 # # # # # # # u # # # # # # # 4 - # # - O A.SX5 - # # # # # # 3 h.; &   a.P ",
"4 4 4 4 4 l 6 4 4 u l.|.mXl.R.h T.|.MX}.:.|.}..X@Xh 4 6 6 4 i T.T.I.R.@X{.R.l.}.|..X.Xp 4 6 4 4 6 4 h ].T.T.I.Y.T.:.|.}.{.].}.4 6 6 4 4 6 4 h }.I..X}.Y.:. X{.].].].3 6 6 4 6 4 u l.|.MX;.p {.I.l.h |.{..X@X-.3 6 4 6 4 l T..XT.I.R.mXY.I.Y.{. X@X{.4 6 4 # # -.4 >.u >.u ,.I.I.;.h v.v.I.Y.i # # # # u >.R.>.-.-.`.,.-.;.l.I.Y.v.# # - 4 6 6 4 Y.T.R.R.].:.{.}.{.T.|.i 4 6 6 # 3 4 # - - - - - 3 u # - - - - - 3 4 # - - - - h 4 6 - - - - - - 3 4 # - - - - - - i - - - - - - - 6 3 - ; O B.SX# 6 - - - - - - - 4 h.4 &   a.6.",
"l l l h l l 6 4 6 6 6 h R.I.l ;.T.Y.;.R.u {.R.T.].i 4 6 4 6 3 I.].:.T.I.].>.u {.R.T.T.u 4 6 4 4 6 3 T.{.I.].:.Y.R.i l.:.>.l.T.4 4 6 4 4 6 4 h :.I.Y.T.I.i l.:.>.I.T.4 6 4 4 4 4 6 6 p T.I.I.I.l ;.4 ].T.Y.].p 4 6 4 4 6 4 u T.Y.>.].l.}.p -.}.I.{.I.4 6 4 # # # - p ,.v.p ;.,.;.;.# >.,.,.>.4 # # # # # - ,.,.p >.h v.4 u v.-.>.-.# # - 4 6 6 3 ;.{.>.I.].u >.:.>.>.].i 4 6 6 # 3 3 # - - - - - 3 u # - - - - # 3 4 # - - # p 4 # i # - - - - - 3 4 # - - - - - - i - - - - - - # 6 3 ; O g.FX, & i - - - - - - - 4 h.4 &   a.6.",
"u u u u u 6 4 4 4 4 4 4 3 3 4 4 3 3 3 3 4 3 3 4 4 4 6 4 4 4 6 4 3 4 3 3 3 4 4 3 3 4 4 4 6 4 4 4 4 6 3 4 4 3 4 3 3 4 4 4 4 4 3 4 6 4 4 4 4 6 4 4 4 3 3 4 4 4 4 4 4 3 4 4 4 4 4 4 4 4 4 - 3 4 4 4 4 4 3 3 4 4 4 6 4 4 4 4 6 4 4 3 4 3 3 3 4 4 3 3 4 3 4 6 4 # # # # # # # # # # # # # # # # # # # # # # # # # # # # # # # # # # # # # # - 4 6 4 6 4 3 4 4 3 4 4 4 4 4 3 4 6 4 6 # 3 3 # - - - - - 3 u # - - - - # 3 4 # - # i i # 3 u # - - - - - 3 4 # - - - - - - i - - - - - - # 4 3 O 1 FX$.O - i - - - - - - - 4 h.4 &   a.6.",
"4 4 4 4 4 6 6 6 6 6 6 6 u 6 6 6 6 6 6 6 6 6 6 6 6 6 6 6 6 6 6 6 6 6 6 6 6 6 6 6 6 6 6 6 6 6 6 6 6 6 6 6 6 6 6 6 6 6 6 6 6 6 6 6 6 6 6 6 6 6 6 6 6 6 6 6 6 6 6 6 6 6 6 6 6 6 6 6 6 6 6 u 6 6 6 6 6 6 6 6 6 6 6 6 6 6 6 6 6 6 6 6 6 6 6 6 6 6 6 6 6 6 6 6 4 # # # # - - - # - - - - # - - - - # # # # # # # - - - - - - # - - - - - # # - 6 6 6 6 6 6 6 6 6 6 6 6 6 6 6 6 6 6 u - 3 3 # - - - - - 3 u # - - - - # 3 4 # # u i # - 3 u # - - - - - 3 4 # - - - - - - i - - - - - - # 6 & : FXg.O ; - i - - - - - - - 4 h.4 &   a.6.",
"# # # # # # # # # # # # # # # # # # # # # # # # # # # # # # # # # # # # # # # # # # # # # # # # # # # # # # # # # # # # # # # # # # # # # # # # # # # # # # # # # # # # # # # # # # # # # # # # # # # # # # # # # # # # # # # # # # # # # # # # # # # # # # # # # # # # # # # # # # # # # # # # # # # # # # # # # # # # # # # # # # # # # # # # # # # # # # # # # # # # # # # # 4 3 # - - - - - 3 u # - - - - # 3 4 # 4 p # - - 3 u # - - - - - 3 4 # - - - - - - i - - - - - - - 4 & SXZ.O ; - - i - - - - - - - 4 h.4 &   a.6.",
"3 3 3 3 3 3 3 3 3 3 3 3 3 3 3 3 3 3 3 3 3 3 3 3 3 3 3 3 3 3 3 3 3 3 3 3 3 3 3 3 3 3 3 3 3 3 3 3 3 3 3 3 3 3 3 3 3 3 3 3 3 3 3 3 3 3 3 3 3 3 3 3 3 3 3 3 3 3 3 3 3 3 3 3 3 3 3 3 3 3 3 3 3 3 3 3 3 3 3 3 3 3 3 3 3 3 3 3 3 3 3 3 3 3 3 3 3 3 3 3 3 3 3 3 3 3 3 3 3 3 3 3 3 3 3 3 3 3 3 3 3 3 3 3 3 3 3 3 3 3 3 3 3 3 3 3 3 3 3 3 3 3 3 3 3 3 3 3 3 3 3 3 3 3 3 3 3 3 3 3 3 3 3 # 3 3 # - - - - - 3 u # - - - - - 3 4 3 h 3 - - - 3 i - - - - - - 3 4 # - - - - - - i - - - - - - - * SXkXO - - - - i - - - - - - - 4 h.4 &   a.6.",
"6 6 6 6 6 6 6 6 6 6 6 6 6 6 6 6 6 6 6 6 6 6 6 6 6 6 6 6 6 6 6 6 6 6 6 6 6 6 6 6 6 6 6 6 6 6 6 6 6 6 6 6 6 6 6 6 6 6 6 6 6 6 6 6 6 6 6 6 6 6 6 6 6 6 6 6 6 6 6 6 6 6 6 6 6 6 6 6 6 6 6 6 6 6 6 6 6 6 6 6 6 6 6 6 6 6 6 6 6 6 6 6 6 6 6 6 6 6 6 6 6 6 6 6 6 6 6 6 6 6 6 6 6 6 6 6 6 6 6 6 6 6 6 6 6 6 6 6 6 6 6 6 6 6 6 6 6 6 6 6 6 6 6 6 6 6 6 6 6 6 6 6 6 6 6 6 6 6 6 6 6 6 u - 3 3 # # # # # # 3 u # # # # # # 3 6 p 3 # # # # - u # # # # # # 3 4 # # # # # # # u # # # # # - O A.SX. # - # # # u # # # # # # # 3 h.; &   a.6.",
"4 4 4 4 4 4 4 4 4 4 4 4 4 4 4 4 4 4 4 4 4 4 4 4 4 4 4 4 4 4 4 4 4 4 4 4 4 4 4 4 4 4 4 4 4 4 4 4 4 4 4 4 4 4 4 4 4 4 4 4 4 4 4 4 4 4 4 4 4 4 4 4 4 4 4 4 4 4 4 4 4 4 4 4 4 4 4 4 4 4 4 4 4 4 4 4 4 4 4 4 4 4 4 4 4 4 4 4 4 4 4 4 4 4 4 4 4 4 4 4 4 4 4 4 4 4 4 4 4 4 4 4 4 4 4 4 4 4 4 4 4 4 4 4 4 4 4 4 4 4 4 4 4 4 4 4 4 4 4 4 4 4 4 4 4 4 4 4 4 4 4 4 4 4 4 4 4 4 4 4 4 4 6 # 3 4 3 3 3 3 3 3 4 i 3 4 3 3 4 3 3 l u 3 4 3 3 3 4 i 3 4 3 3 3 3 4 u 3 4 3 3 3 3 4 i 3 3 3 3 4 O B.FX4 3 4 3 3 3 3 i 4 3 3 3 3 4 3 4 c.6 4 > a.q.",
"4 4 4 4 4 4 4 4 4 4 4 4 4 4 4 4 4 4 4 4 4 4 4 4 4 4 4 4 4 4 4 4 4 4 4 4 4 4 4 4 4 4 4 4 4 4 4 4 4 4 4 4 4 4 4 4 4 4 4 4 4 4 4 4 4 4 4 4 4 4 4 4 4 4 4 4 4 4 4 4 4 4 4 4 4 4 4 4 4 4 4 4 4 4 4 4 4 4 4 4 4 4 4 4 4 4 4 4 4 4 4 4 4 4 4 4 4 4 4 4 4 4 4 4 4 4 4 4 4 4 4 4 4 4 4 4 4 4 4 4 4 4 4 4 4 4 4 4 4 4 4 4 4 4 4 4 4 4 4 4 4 4 4 4 4 4 4 4 4 4 4 4 4 4 4 4 4 4 4 4 4 4 6 # 3 6 4 4 4 4 4 4 4 i 4 4 4 4 4 3 l i 3 4 4 4 4 4 4 i 4 4 4 4 4 4 4 i 4 4 4 4 4 4 4 i 4 4 4 4 & g.FX=.3 4 4 4 4 4 4 i 4 4 4 4 4 4 4 6 c.u 4 > a.q.",
"4 4 4 4 4 4 4 4 4 4 4 4 4 4 4 4 4 4 4 4 4 4 4 4 4 4 4 4 4 4 4 4 4 4 4 4 4 4 4 4 4 4 4 4 4 4 4 4 4 4 4 4 4 4 4 4 4 4 4 4 4 4 4 4 4 4 4 4 4 4 4 4 4 4 4 4 4 4 4 4 4 4 4 4 4 4 4 4 4 4 4 4 4 4 4 4 4 4 4 4 4 4 4 4 4 4 4 4 4 4 4 4 4 4 4 4 4 4 4 4 4 4 4 4 4 4 4 4 4 4 4 4 4 4 4 4 4 4 4 4 4 4 4 4 4 4 4 4 4 4 4 4 4 4 4 4 4 4 4 4 4 4 4 4 4 4 4 4 4 4 4 4 4 4 4 4 4 4 4 4 4 4 6 # 3 3 # # # # # # - u # # # # # u i 4 # # # # # # - u # # # # # # 3 4 # # # # # # # u # # - . 1 FXg.& ; # # # # # # u # # # # # # # 3 h.; &   a.P ",
"4 4 4 4 4 4 4 4 4 4 4 4 4 4 4 4 4 4 4 4 4 4 4 4 4 4 4 4 4 4 4 4 4 4 4 4 4 4 4 4 4 4 4 4 4 4 4 4 4 4 4 4 4 4 4 4 4 4 4 4 4 4 4 4 4 4 4 4 4 4 4 4 4 4 4 4 4 4 4 4 4 4 4 4 4 4 4 4 4 4 4 4 4 4 4 4 4 4 4 4 4 4 4 4 4 4 4 4 4 4 4 4 4 4 4 4 4 4 4 4 4 4 4 4 4 4 4 4 4 4 4 4 4 4 4 4 4 4 4 4 4 4 4 4 4 4 4 4 4 4 4 4 4 4 4 4 4 4 4 4 4 4 4 4 4 4 4 4 4 4 4 4 4 4 4 4 4 4 4 4 4 4 6 # 3 4 # - - - - - 3 u # - 3 # 6 i 3 4 # - - - - - 3 i - - - - - - 3 4 # - - - - - - i - - & ; FXB.O u 3 - - - - - - i - - - - - - - 4 h.4 &   a.6.",
"4 4 4 4 4 4 4 4 4 4 4 4 4 4 4 4 4 4 4 4 4 4 4 4 4 4 4 4 4 4 4 4 4 4 4 4 4 4 4 4 4 4 4 4 4 4 4 4 4 4 4 4 4 4 4 4 4 4 4 4 4 4 4 4 4 4 4 4 4 4 4 4 4 4 4 4 4 4 4 4 4 4 4 4 4 4 4 4 4 4 4 4 4 4 4 4 4 4 4 4 4 4 4 4 4 4 4 4 4 4 4 4 4 4 4 4 4 4 4 4 4 4 4 4 4 4 4 4 4 4 4 4 4 4 4 4 4 4 4 4 4 4 4 4 4 4 4 4 4 4 4 4 4 4 4 4 4 4 4 4 4 4 4 4 4 4 4 4 4 4 4 4 4 4 4 4 4 4 4 4 4 4 6 # 3 3 # - - - - - 3 u # 3 # 4 h # 3 4 # - - - - - 3 u # - - - - - 3 4 # - - - - - - i - - O SXA.O - 6 3 - - - - - - i - - - - - - - 4 h.4 &   a.6.",
"4 4 4 4 4 4 4 4 4 4 4 4 4 4 4 4 4 4 4 4 4 4 4 4 4 4 4 4 4 4 4 4 4 4 4 4 4 4 4 4 4 4 4 4 4 4 4 4 4 4 4 4 4 4 4 4 4 4 4 4 4 4 4 4 4 4 4 4 4 4 4 4 4 4 4 4 4 4 4 4 4 4 4 4 4 4 4 4 4 4 4 4 4 4 4 4 4 4 4 4 4 4 4 4 4 4 4 4 4 4 4 4 4 4 4 4 4 4 4 4 4 4 4 4 4 4 4 4 4 4 4 4 4 4 4 4 4 4 4 4 4 4 4 4 4 4 4 4 4 4 4 4 4 4 4 4 4 4 4 4 4 4 4 4 4 4 4 4 4 4 4 4 4 4 4 4 4 4 4 4 4 4 6 # 3 3 # - - - - - 3 u # # 3 h 3 # 3 4 # - - - - - 3 u # - - - - - 3 4 # - - - - - - i - O A.kXO - - 6 3 - - - - - - i - - - - - - - 4 h.4 &   a.6.",
"4 4 4 4 4 4 4 4 4 4 4 4 4 4 4 4 4 4 4 4 4 4 4 4 4 4 4 4 4 4 4 4 4 4 4 4 4 4 4 4 4 4 4 4 4 4 4 4 4 4 4 4 4 4 4 4 4 4 4 4 4 4 4 4 4 4 4 4 4 4 4 4 4 4 4 4 4 4 4 4 4 4 4 4 4 4 4 4 4 4 4 4 4 4 4 4 4 4 4 4 4 4 4 4 4 4 4 4 4 4 4 4 4 4 4 4 4 4 4 4 4 4 4 4 4 4 4 4 4 4 4 4 4 4 4 4 4 4 4 4 4 4 4 4 4 4 4 4 4 4 4 4 4 4 4 4 4 4 4 4 4 4 4 4 4 4 4 4 4 4 4 4 4 4 4 4 4 4 4 4 4 4 6 # 3 3 # - - - - - 3 u # 3 h 4 # - 3 4 # - - - - - 3 u # - - - - - 3 4 # - - - - - - i O B.FX# # - # 6 3 - - - - - - i - - - - - - - 4 h.4 &   a.6.",
"4 4 4 4 4 4 4 4 4 4 4 4 4 4 4 4 4 4 4 4 4 4 4 4 4 4 4 4 4 4 4 4 4 4 4 4 4 4 4 4 4 4 4 4 4 4 4 4 4 4 4 4 4 4 4 4 4 4 4 4 4 4 4 4 4 4 4 4 4 4 4 4 4 4 4 4 4 4 4 4 4 4 4 4 4 4 4 4 4 4 4 4 4 4 4 4 4 4 4 4 4 4 4 4 4 4 4 4 4 4 4 4 4 4 4 4 4 4 4 4 4 4 4 4 4 4 4 4 4 4 4 4 4 4 4 4 4 4 4 4 4 4 4 4 4 4 4 4 4 4 4 4 4 4 4 4 4 4 4 4 4 4 4 4 4 4 4 4 4 4 4 4 4 4 4 4 4 4 4 4 4 4 6 # 3 3 # - - - - - 3 u # p 4 # - # 3 4 # - - - - - 3 u # - - - - - 3 4 # - - - - - ; 5 g.FX, & - - # 6 3 - - - - - - i - - - - - - - 4 h.4 &   a.6.",
"4 4 4 4 4 4 4 4 4 4 4 4 4 4 4 4 4 4 4 4 4 4 4 4 4 4 4 4 4 4 4 4 4 4 4 4 4 4 4 4 4 4 4 4 4 4 4 4 4 4 4 4 4 4 4 4 4 4 4 4 4 4 4 4 4 4 4 4 4 4 4 4 4 4 4 4 4 4 4 4 4 4 4 4 4 4 4 4 4 4 4 4 4 4 4 4 4 4 4 4 4 4 4 4 4 4 4 4 4 4 4 4 4 4 4 4 4 4 4 4 4 4 4 4 4 4 4 4 4 4 4 4 4 4 4 4 4 4 4 4 4 4 4 4 4 4 4 4 4 4 4 4 4 4 4 4 4 4 4 4 4 4 4 4 4 4 4 4 4 4 4 4 4 4 4 4 4 4 4 4 4 4 6 # 3 3 # - - - - - 3 6 i u # - - # 3 4 # - - - - - 3 u # - - - - - 3 4 # - - - - - O h.FX1 O ; - - # 6 3 - - - - - - i - - - - - - - 4 h.4 &   a.6.",
"4 4 4 4 4 4 4 4 4 4 4 4 4 4 4 4 4 4 4 4 4 4 4 4 4 4 4 4 4 4 4 4 4 4 4 4 4 4 4 4 4 4 4 4 4 4 4 4 4 4 4 4 4 4 4 4 4 4 4 4 4 4 4 4 4 4 4 4 4 4 4 4 4 4 4 4 4 4 4 4 4 4 4 4 4 4 4 4 4 4 4 4 4 4 4 4 4 4 4 4 4 4 4 4 4 4 4 4 4 4 4 4 4 4 4 4 4 4 4 4 4 4 4 4 4 4 4 4 4 4 4 4 4 4 4 4 4 4 4 4 4 4 4 4 4 4 4 4 4 4 4 4 4 4 4 4 4 4 4 4 4 4 4 4 4 4 4 4 4 4 4 4 4 4 4 4 4 4 4 4 4 4 6 # 3 3 # - - - - - # h i # - - - # 3 4 # - - - - - 3 u # - - - - # 3 4 # - - - - & : FXg.O ; - - - # 4 3 - - - - - - u - - - - - - - 3 h.; &   a.6.",
"4 4 4 4 4 4 4 4 4 4 4 4 4 4 4 4 4 4 4 4 4 4 4 4 4 4 4 4 4 4 4 4 4 4 4 4 4 4 4 4 4 4 4 4 4 4 4 4 4 4 4 4 4 4 4 4 4 4 4 4 4 4 4 4 4 4 4 4 4 4 4 4 4 4 4 4 4 4 4 4 4 4 4 4 4 4 4 4 4 4 4 4 4 4 4 4 4 4 4 4 4 4 4 4 4 4 4 4 4 4 4 4 4 4 4 4 4 4 4 4 4 4 4 4 4 4 4 4 4 4 4 4 4 4 4 4 4 4 4 4 4 4 4 4 4 4 4 4 4 4 4 4 4 4 4 4 4 4 4 4 4 4 4 4 4 4 4 4 4 4 4 4 4 4 4 4 4 4 4 4 4 4 6 - 3 i u i i i i 6 p l u i i i i u i p u i i i i u i h u i i i i u i p u i i i u u FXA.* i i i i i u p i u i i i i u h i i i i i i u i c.p i : s.w.",
"4 4 4 4 4 4 4 4 4 4 4 4 4 4 4 4 4 4 4 4 4 4 4 4 4 4 4 4 4 4 4 4 4 4 4 4 4 4 4 4 4 4 4 4 4 4 4 4 4 4 4 4 4 4 4 4 4 4 4 4 4 4 4 4 4 4 4 4 4 4 4 4 4 4 4 4 4 4 4 4 4 4 4 4 4 4 4 4 4 4 4 4 4 4 4 4 4 4 4 4 4 4 4 4 4 4 4 4 4 4 4 4 4 4 4 4 4 4 4 4 4 4 4 4 4 4 4 4 4 4 4 4 4 4 4 4 4 4 4 4 4 4 4 4 4 4 4 4 4 4 4 4 4 4 4 4 4 4 4 4 4 4 4 4 4 4 4 4 4 4 4 4 4 4 4 4 4 4 4 4 4 4 6 # 3 4 # - - 3 # 4 l i # 3 - - - - 3 4 # - - - - - 3 i - - - - - - 3 4 # - - - O kXkX8 - - - - - - # 6 3 - - - - - - i - - - - - - - 4 h.4 &   a.6.",
"4 4 4 4 4 4 4 4 4 4 4 4 4 4 4 4 4 4 4 4 4 4 4 4 4 4 4 4 4 4 4 4 4 4 4 4 4 4 4 4 4 4 4 4 4 4 4 4 4 4 4 4 4 4 4 4 4 4 4 4 4 4 4 4 4 4 4 4 4 4 4 4 4 4 4 4 4 4 4 4 4 4 4 4 4 4 4 4 4 4 4 4 4 4 4 4 4 4 4 4 4 4 4 4 4 4 4 4 4 4 4 4 4 4 4 4 4 4 4 4 4 4 4 4 4 4 4 4 4 4 4 4 4 4 4 4 4 4 4 4 4 4 4 4 4 4 4 4 4 4 4 4 4 4 4 4 4 4 4 4 4 4 4 4 4 4 4 4 4 4 4 4 4 4 4 4 4 4 4 4 4 4 6 # 3 3 # - - # 3 h 3 6 # - - - - # 3 4 # - - - - - 3 u # - - - - - 3 4 # - - O A.SXO u - - - - - - # 4 3 - - - - - - i - - - - - - - 4 h.4 &   a.6.",
"4 4 4 4 4 4 4 4 4 4 4 4 4 4 4 4 4 4 4 4 4 4 4 4 4 4 4 4 4 4 4 4 4 4 4 4 4 4 4 4 4 4 4 4 4 4 4 4 4 4 4 4 4 4 4 4 4 4 4 4 4 4 4 4 4 4 4 4 4 4 4 4 4 4 4 4 4 4 4 4 4 4 4 4 4 4 4 4 4 4 4 4 4 4 4 4 4 4 4 4 4 4 4 4 4 4 4 4 4 4 4 4 4 4 4 4 4 4 4 4 4 4 4 4 4 4 4 4 4 4 4 4 4 4 4 4 4 4 4 4 4 4 4 4 4 4 4 4 4 4 4 4 4 4 4 4 4 4 4 4 4 4 4 4 4 4 4 4 4 4 4 4 4 4 4 4 4 4 4 4 4 4 6 # 3 3 # - - - h 4 - i # - - - - # 3 4 # - - - - - 3 u # - - - - - 3 4 # ; O B.FX; & i - - - - - - # 6 3 - - - - - - i - - - - - - - 4 h.4 &   a.6.",
"4 4 4 4 4 4 4 4 4 4 4 4 4 4 4 4 4 4 4 4 4 4 4 4 4 4 4 4 4 4 4 4 4 4 4 4 4 4 4 4 4 4 4 4 4 4 4 4 4 4 4 4 4 4 4 4 4 4 4 4 4 4 4 4 4 4 4 4 4 4 4 4 4 4 4 4 4 4 4 4 4 4 4 4 4 4 4 4 4 4 4 4 4 4 4 4 4 4 4 4 4 4 4 4 4 4 4 4 4 4 4 4 4 4 4 4 4 4 4 4 4 4 4 4 4 4 4 4 4 4 4 4 4 4 4 4 4 4 4 4 4 4 4 4 4 4 4 4 4 4 4 4 4 4 4 4 4 4 4 4 4 4 4 4 4 4 4 4 4 4 4 4 4 4 4 4 4 4 4 4 4 4 6 # 3 3 # - # p 6 # 3 u # - - - - # 3 4 # - - - - - 3 u # - - - - - 3 4 - O g.FX1 O - i - - - - - - # 6 3 - - - - - - i - - - - - - - 4 h.4 &   a.6.",
"4 4 4 4 4 4 4 4 4 4 4 4 4 4 4 4 4 4 4 4 4 4 4 4 4 4 4 4 4 4 4 4 4 4 4 4 4 4 4 4 4 4 4 4 4 4 4 4 4 4 4 4 4 4 4 4 4 4 4 4 4 4 4 4 4 4 4 4 4 4 4 4 4 4 4 4 4 4 4 4 4 4 4 4 4 4 4 4 4 4 4 4 4 4 4 4 4 4 4 4 4 4 4 4 4 4 4 4 4 4 4 4 4 4 4 4 4 4 4 4 4 4 4 4 4 4 4 4 4 4 4 4 4 4 4 4 4 4 4 4 4 4 4 4 4 4 4 4 4 4 4 4 4 4 4 4 4 4 4 4 4 4 4 4 4 4 4 4 4 4 4 4 4 4 4 4 4 4 4 4 4 4 6 # 3 3 - # i i # - 3 u # - - - - # 3 4 # - - - - - 3 u # - - - - - 3 6 O 1 FXg.O ; - i - - - - - - # 6 3 - - - - - - i - - - - - - - 4 h.4 &   a.6.",
"4 4 4 4 4 4 4 4 4 4 4 4 4 4 4 4 4 4 4 4 4 4 4 4 4 4 4 4 4 4 4 4 4 4 4 4 4 4 4 4 4 4 4 4 4 4 4 4 4 4 4 4 4 4 4 4 4 4 4 4 4 4 4 4 4 4 4 4 4 4 4 4 4 4 4 4 4 4 4 4 4 4 4 4 4 4 4 4 4 4 4 4 4 4 4 4 4 4 4 4 4 4 4 4 4 4 4 4 4 4 4 4 4 4 4 4 4 4 4 4 4 4 4 4 4 4 4 4 4 4 4 4 4 4 4 4 4 4 4 4 4 4 4 4 4 4 4 4 4 4 4 4 4 4 4 4 4 4 4 4 4 4 4 4 4 4 4 4 4 4 4 4 4 4 4 4 4 4 4 4 4 4 6 # 3 4 # 6 i # - - 3 u # - - - - # 3 4 # - - - - - 3 u # - - - - # 3 4 ; FXB.O ; - - i - - - - - - # 6 3 - - - - - - i - - - - - - - 4 h.4 &   a.6.",
"4 4 4 4 4 4 4 4 4 4 4 4 4 4 4 4 4 4 4 4 4 4 4 4 4 4 4 4 4 4 4 4 4 4 4 4 4 4 4 4 4 4 4 4 4 4 4 4 4 4 4 4 4 4 4 4 4 4 4 4 4 4 4 4 4 4 4 4 4 4 4 4 4 4 4 4 4 4 4 4 4 4 4 4 4 4 4 4 4 4 4 4 4 4 4 4 4 4 4 4 4 4 4 4 4 4 4 4 4 4 4 4 4 4 4 4 4 4 4 4 4 4 4 4 4 4 4 4 4 4 4 4 4 4 4 4 4 4 4 4 4 4 4 4 4 4 4 4 4 4 4 4 4 4 4 4 4 4 4 4 4 4 4 4 4 4 4 4 4 4 4 4 4 4 4 4 4 4 4 4 4 4 6 # 3 3 4 h - - - - 3 u # - - - - # 3 4 # - - - - - 3 u # - - - - - 3 5 SXA.O ; - - - i - - - - - - # 6 3 - - - - - - i - - - - - - - 4 h.4 &   a.6.",
"4 4 4 4 4 4 4 4 4 4 4 4 4 4 4 4 4 4 4 4 4 4 4 4 4 4 4 4 4 4 4 4 4 4 4 4 4 4 4 4 4 4 4 4 4 4 4 4 4 4 4 4 4 4 4 4 4 4 4 4 4 4 4 4 4 4 4 4 4 4 4 4 4 4 4 4 4 4 4 4 4 4 4 4 4 4 4 4 4 4 4 4 4 4 4 4 4 4 4 4 4 4 4 4 4 4 4 4 4 4 4 4 4 4 4 4 4 4 4 4 4 4 4 4 4 4 4 4 4 4 4 4 4 4 4 4 4 4 4 4 4 4 4 4 4 4 4 4 4 4 4 4 4 4 4 4 4 4 4 4 4 4 4 4 4 4 4 4 4 4 4 4 4 4 4 4 4 4 4 4 4 4 6 - 3 4 p 3 # - # # 3 u # - # # - # 3 4 # - # # # # - u # - # # - - O kXkXO - - # # - i # - # # # - # 4 3 # - # # - # i - # # # # - # 3 c.; &   a.6.",
"6 6 6 6 6 6 6 6 6 6 6 6 6 6 6 6 6 6 6 6 6 6 6 6 6 6 6 6 6 6 6 6 6 6 6 6 6 6 6 6 6 6 6 6 6 6 6 6 6 6 6 6 6 6 6 6 6 6 6 6 6 6 6 6 6 6 6 6 6 6 6 6 6 6 6 6 6 6 6 6 6 6 6 6 6 6 6 6 6 6 6 6 6 6 6 6 6 6 6 6 6 6 6 6 6 6 6 6 6 6 6 6 6 6 6 6 6 6 6 6 6 6 6 6 6 6 6 6 6 6 6 6 6 6 6 6 6 6 6 6 6 6 6 6 6 6 6 6 6 6 6 6 6 6 6 6 6 6 6 6 6 6 6 6 6 6 6 6 6 6 6 6 6 6 6 6 6 6 6 6 6 6 u - 3 l 4 3 3 3 3 3 3 i 3 3 3 3 3 3 4 6 3 3 3 3 3 3 3 i 3 3 3 3 3 & B.SX3 3 3 3 3 3 3 i 3 3 3 3 3 3 3 6 3 3 3 3 3 3 3 i 3 3 3 3 3 3 3 4 h.4 3 > e.S ",
"- - - - - - - - - - - - - - - - - - - - - - - - - - - - - - - - - - - - - - - - - - - - - - - - - - - - - - - - - - - - - - - - - - - - - - - - - - - - - - - - - - - - - - - - - - - - - - - - - - - - - - - - - - - - - - - - - - - - - - - - - - - - - - - - - - - - - - - - - - - - - - - - - - - - - - - - - - - - - - - - - - - - - - - - - - - - - - - - - - - - - - - # # 4 4 4 4 4 4 4 4 4 4 4 4 4 4 4 4 4 4 4 4 4 4 4 4 4 4 4 4 4 4 4 $.u 3 4 4 4 4 4 4 4 4 4 4 4 4 4 4 4 4 4 4 4 4 4 4 4 4 4 4 4 4 4 4 4 4 4 4 4 4 4 ",
"# # # # # # # # # # # # # # # # # # # # # # # # # # # # # # # # # # # # # # # # # # # # # # # # # # # # # # # # # # # # # # # # # # # # # # # # # # # # # # # # # # # # # # # # # # # # # # # # # # # # # # # # # # # # # # # # # # # # # # # # # # # # # # # # # # # # # # # # # # # # # # # # # # # # # # # # # # # # # # # # # # # # # # # # # # # # # # # # # # # # # # # # # # # # # # # # # # # # # # # # # # # # # # # # # # # # # # # # . # # # # # # # # # # # # # # # # # # # # # # # # # # # # # # # # # # # # # # # ",
"6 4 p l l l u 6 6 6 6 6 6 6 6 6 6 6 6 6 u p i i i 6 6 6 6 6 6 6 6 6 6 6 6 6 6 6 6 6 6 6 6 6 6 6 6 6 6 6 6 6 6 6 6 6 6 6 6 6 6 6 6 6 6 6 6 6 6 6 6 6 6 6 6 6 6 6 6 6 6 6 6 6 6 6 6 6 6 6 6 6 6 6 6 6 6 6 6 6 6 6 6 6 6 6 6 6 6 6 6 6 6 6 6 6 6 6 6 6 6 6 6 6 6 6 6 6 6 6 6 6 6 6 6 6 6 6 6 6 6 6 6 6 6 6 6 6 6 6 6 6 6 6 6 6 6 6 6 6 6 6 6 6 6 6 6 6 6 6 6 6 6 6 6 6 6 6 6 6 6 6 6 6 6 6 6 6 6 6 6 6 6 6 6 6 6 6 6 6 6 6 6 6 6 6 6 6 6 6 6 6 6 6 u u 6 6 6 6 6 6 6 6 6 6 6 6 6 6 6 6 6 6 6 6 6 6 6 6 6 6 6 6 6 6 6 6 6 6 6 6 6 u ",
"6 4 >.>.:.l.p 4 6 4 u 4 4 4 4 4 4 4 4 4 u :.l.l.>.4 6 4 6 u 4 6 4 4 4 4 4 4 4 4 4 4 4 4 4 4 4 4 4 4 4 4 4 4 4 4 4 4 4 4 4 4 4 4 4 4 4 4 4 4 4 4 4 4 4 4 4 4 4 4 4 4 4 4 4 4 4 4 4 4 4 4 4 4 4 4 4 4 4 4 4 4 4 4 4 4 4 4 4 4 4 4 4 4 4 4 4 4 4 4 4 4 4 4 4 4 4 4 4 4 4 4 4 4 4 4 4 4 4 4 4 4 4 4 4 4 4 4 4 4 4 4 4 4 4 4 4 4 4 4 4 4 4 4 4 4 4 4 4 4 4 4 4 4 4 4 4 4 4 4 4 4 4 4 4 4 4 4 4 4 4 4 4 4 4 4 4 4 4 4 4 4 4 4 4 4 4 4 4 4 4 4 4 4 4 4 4 4 4 4 4 4 4 4 4 4 4 4 4 4 4 4 4 4 4 4 4 4 4 4 4 4 4 4 u p p i p l h h p 6 4 r ",
"6 4 :.;.l.>.p 4 4 i h.g 4 u g g u 4 6 4 u l -.I.l 6 4 6 =.=.u 4 i g g 4 6 6 4 4 4 4 4 4 4 4 4 4 4 4 4 4 4 4 4 4 4 4 4 4 4 4 4 4 4 4 4 4 4 4 4 4 4 4 4 4 4 4 4 4 4 4 4 4 4 4 4 4 4 4 4 4 4 4 4 4 4 4 4 4 4 4 4 4 4 4 4 4 4 4 4 4 4 4 4 4 4 4 4 4 4 4 4 4 4 4 4 4 4 4 4 4 4 4 4 4 4 4 4 4 4 4 4 4 4 4 4 4 4 4 4 4 4 4 4 4 4 4 4 4 4 4 4 4 4 4 4 4 4 4 4 4 4 4 4 4 4 4 4 4 4 4 4 4 4 4 4 4 4 4 4 4 4 4 4 4 4 4 4 4 4 4 4 4 4 4 4 4 4 4 4 4 4 4 4 4 4 4 4 4 4 4 4 4 4 4 4 4 4 4 4 4 4 4 4 4 4 4 4 4 4 4 6 4 u l ;.;.-.3 ;.:.u u 4 / ",
"6 4 :.l.l u p 4 4 u =.i 4 u i i u 4 6 4 i i p I.p u 4 4 g =.6 4 u i u 4 6 4 4 4 4 4 4 4 4 4 4 4 4 4 4 4 4 4 4 4 4 4 4 4 4 4 4 4 4 4 4 4 4 4 4 4 4 4 4 4 4 4 4 4 4 4 4 4 4 4 4 4 4 4 4 4 4 4 4 4 4 4 4 4 4 4 4 4 4 4 4 4 4 4 4 4 4 4 4 4 4 4 4 4 4 4 4 4 4 4 4 4 4 4 4 4 4 4 4 4 4 4 4 4 4 4 4 4 4 4 4 4 4 4 4 4 4 4 4 4 4 4 4 4 4 4 4 4 4 4 4 4 4 4 4 4 4 4 4 4 4 4 4 4 4 4 4 4 4 4 4 4 4 4 4 4 4 4 4 4 4 4 4 4 4 4 4 4 4 4 4 4 4 4 4 4 4 4 4 4 4 4 4 4 4 4 4 4 4 4 4 4 4 4 4 4 4 4 4 4 4 4 4 4 4 4 6 4 6 ;.l -.;.p l -.h 6 4 / ",
"6 4 l ;.l h i 4 6 4 6 4 6 4 4 4 4 6 6 4 u h l ;.p 4 6 4 4 6 4 6 4 4 4 6 4 4 4 4 4 4 4 4 4 4 4 4 4 4 4 4 4 4 4 4 4 4 4 4 4 4 4 4 4 4 4 4 4 4 4 4 4 4 4 4 4 4 4 4 4 4 4 4 4 4 4 4 4 4 4 4 4 4 4 4 4 4 4 4 4 4 4 4 4 4 4 4 4 4 4 4 4 4 4 4 4 4 4 4 4 4 4 4 4 4 4 4 4 4 4 4 4 4 4 4 4 4 4 4 4 4 4 4 4 4 4 4 4 4 4 4 4 4 4 4 4 4 4 4 4 4 4 4 4 4 4 4 4 4 4 4 4 4 4 4 4 4 4 4 4 4 4 4 4 4 4 4 4 4 4 4 4 4 4 4 4 4 4 4 4 4 4 4 4 4 4 4 4 4 4 4 4 4 4 4 4 4 4 4 4 4 4 4 4 4 4 4 4 4 4 4 4 4 4 4 4 4 4 4 4 4 6 4 i l 4 6 u i u 6 i 6 4 6 ",
"4 6 4 4 4 4 4 6 4 6 4 6 4 6 6 6 6 4 4 6 4 4 4 4 4 4 4 6 4 4 6 4 6 6 6 4 4 4 4 4 4 4 4 4 4 4 4 4 4 4 4 4 4 4 4 4 4 4 4 4 4 4 4 4 4 4 4 4 4 4 4 4 4 4 4 4 4 4 4 4 4 4 4 4 4 4 4 4 4 4 4 4 4 4 4 4 4 4 4 4 4 4 4 4 4 4 4 4 4 4 4 4 4 4 4 4 4 4 4 4 4 4 4 4 4 4 4 4 4 4 4 4 4 4 4 4 4 4 4 4 4 4 4 4 4 4 4 4 4 4 4 4 4 4 4 4 4 4 4 4 4 4 4 4 4 4 4 4 4 4 4 4 4 4 4 4 4 4 4 4 4 4 4 4 4 4 4 4 4 4 4 4 4 4 4 4 4 4 4 4 4 4 4 4 4 4 4 4 4 4 4 4 4 4 4 4 4 4 4 4 4 4 4 4 4 4 4 4 4 4 4 4 4 4 4 4 4 4 4 4 4 4 6 4 u 6 4 4 4 4 4 4 4 4 6 4 "
};
