/* XPM */
static char *sc_mb_gate_mono[] = {
/* columns rows colors chars-per-pixel */
"256 256 256 2 ",
"   c #15161C",
".  c #161A1E",
"X  c #1A191E",
"o  c #181418",
"O  c #0E1314",
"+  c #231A1C",
"@  c #1C221E",
"#  c #1B3418",
"$  c #2B3418",
"%  c #161B22",
"&  c #1C1D24",
"*  c #181A28",
"=  c #0E1A25",
"-  c #271D27",
";  c #2B1E31",
":  c #1E2026",
">  c #1E232A",
",  c #18282A",
"<  c #1C2C33",
"1  c #182834",
"2  c #1B3637",
"3  c #112F2D",
"4  c #212226",
"5  c #252A22",
"6  c #24262D",
"7  c #2B252C",
"8  c #25282F",
"9  c #2B2A2D",
"0  c #2B2825",
"q  c #322227",
"w  c #33232C",
"e  c #3A232A",
"r  c #332A2E",
"t  c #392A2F",
"y  c #352D26",
"u  c #2B3327",
"i  c #38382A",
"p  c #252632",
"a  c #262A31",
"s  c #2A2B34",
"d  c #2C2D3A",
"f  c #282736",
"g  c #332232",
"h  c #332C32",
"j  c #392738",
"k  c #23333B",
"l  c #2E313B",
"z  c #283536",
"x  c #32343D",
"c  c #3C373A",
"v  c #3B3C3D",
"b  c #393735",
"n  c #5A3600",
"m  c #593C14",
"M  c #4D2E2F",
"N  c #452B2D",
"B  c #43362B",
"V  c #4E352C",
"C  c #423C2E",
"Z  c #4B3A2D",
"A  c #50372D",
"S  c #533A2E",
"D  c #5D342D",
"F  c #4E2F30",
"G  c #422A38",
"H  c #4E3031",
"J  c #4C3F31",
"K  c #433A37",
"L  c #523335",
"P  c #543B32",
"I  c #5D3C33",
"U  c #563839",
"Y  c #542B33",
"T  c #65342D",
"R  c #72342B",
"E  c #653C39",
"W  c #723334",
"Q  c #641F1E",
"!  c #375010",
"~  c #047105",
"^  c #0F4E37",
"/  c #3C443C",
"(  c #3A4639",
")  c #354B36",
"_  c #00613E",
"`  c #1A7E3F",
"'  c #205519",
"]  c #425D0C",
"[  c #505413",
"{  c #724300",
"}  c #6C4503",
"|  c #51720D",
" . c #434333",
".. c #4D4233",
"X. c #45493A",
"o. c #584638",
"O. c #50512C",
"+. c #664639",
"@. c #76553A",
"#. c #4E672F",
"$. c #6A6926",
"%. c #1C3A47",
"&. c #173A4C",
"*. c #2C2B42",
"=. c #3A2945",
"-. c #273647",
";. c #333542",
":. c #373944",
">. c #393B46",
",. c #3B3D4B",
"<. c #363749",
"1. c #323853",
"2. c #34336B",
"3. c #221D68",
"4. c #452C47",
"5. c #423C44",
"6. c #433D49",
"7. c #4B374A",
"8. c #533346",
"9. c #56334A",
"0. c #503B4F",
"q. c #5B3849",
"w. c #463753",
"e. c #533D52",
"r. c #5A3953",
"t. c #502B4E",
"y. c #6A3250",
"u. c #4F376D",
"i. c #6C3169",
"p. c #651C5D",
"a. c #164C50",
"s. c #3C4342",
"d. c #3D414E",
"f. c #3A4946",
"g. c #224B57",
"h. c #3D4454",
"j. c #31534E",
"k. c #036743",
"l. c #15684C",
"z. c #04794B",
"x. c #0F6E51",
"c. c #376847",
"v. c #306A51",
"b. c #1B5B6A",
"n. c #074F72",
"m. c #2D546B",
"M. c #036577",
"N. c #096671",
"B. c #306A70",
"V. c #44414D",
"C. c #454946",
"Z. c #5A4944",
"A. c #49534A",
"S. c #595449",
"D. c #424553",
"F. c #4A4353",
"G. c #46495A",
"H. c #4A4D5C",
"J. c #464857",
"K. c #56455A",
"L. c #4B5554",
"P. c #535854",
"I. c #654947",
"U. c #734E4E",
"Y. c #486D4E",
"T. c #4A4C63",
"R. c #4E5163",
"E. c #4A5468",
"W. c #545769",
"Q. c #585B74",
"!. c #534E6D",
"~. c #664B66",
"^. c #734364",
"/. c #734D77",
"(. c #5D6277",
"). c #4D6B6F",
"_. c #62667C",
"`. c #717273",
"'. c #6E6E50",
"]. c #8C3736",
"[. c #963539",
"{. c #8B2E31",
"}. c #B63C3B",
"|. c #A63439",
" X c #80191F",
".X c #824239",
"XX c #894539",
"oX c #974436",
"OX c #985522",
"+X c #903D48",
"@X c #8A3568",
"#X c #92356E",
"$X c #A63978",
"%X c #AC3846",
"&X c #88564B",
"*X c #9A554C",
"=X c #96564B",
"-X c #975A54",
";X c #895150",
":X c #A65D56",
">X c #A8534B",
",X c #956551",
"<X c #AA6258",
"1X c #B7665A",
"2X c #A86D4F",
"3X c #8A5071",
"4X c #AD476F",
"5X c #A76D6C",
"6X c #C74647",
"7X c #C66B5D",
"8X c #D46F5E",
"9X c #CF6F63",
"0X c #D4646A",
"qX c #CA353A",
"wX c #028802",
"eX c #648B11",
"rX c #038856",
"tX c #048651",
"yX c #098D67",
"uX c #5FA359",
"iX c #AFC820",
"pX c #673985",
"aX c #094C84",
"sX c #01559A",
"dX c #0B718A",
"fX c #30798B",
"gX c #357584",
"hX c #2A738C",
"jX c #0059A1",
"kX c #1D65A4",
"lX c #4C478A",
"zX c #54478B",
"xX c #564A96",
"cX c #515190",
"vX c #665590",
"bX c #696E8A",
"nX c #5853AD",
"mX c #645AB5",
"MX c #556688",
"NX c #6F66CA",
"BX c #645DCB",
"VX c #212B9C",
"CX c #8A3897",
"ZX c #A7389F",
"AX c #AC4D9A",
"SX c #B441C3",
"DX c #C53D92",
"FX c #048390",
"GX c #0389A5",
"HX c #3196AD",
"JX c #35A2B8",
"KX c #2D8699",
"LX c #2D9CC9",
"PX c #7C83A4",
"IX c #8A91B6",
"UX c #949BC4",
/* pixels */
"a a a a 8 6 8 6 8 6 6 4 6 6 8 8 6 8 8 8 8 8 8 8 8 8 8 8 8 8 8 8 8 8 8 8 8 8 8 8 8 8 8 8 8 8 8 8 8 8 8 8 8 8 8 8 8 8 8 8 8 8 8 8 8 8 8 8 8 8 8 8 8 8 8 8 8 8 8 8 8 8 8 8 8 8 8 8 8 8 8 8 8 8 8 8 8 8 8 8 8 8 8 8 8 8 8 8 8 8 8 8 8 8 8 8 8 8 8 8 8 8 8 8 8 8 8 8 8 8 8 8 8 8 8 8 8 8 8 8 8 8 8 8 8 8 6 8 6 4 6 4 6 4 4 8 6 : 6 6 4 6 6 6 6 6 6 6 4 6 6 6 6 8 6 6 8 4 6 6 6 6 6 8 4 : 4 4 6 4 4 6 6 6 8 4 6 6 6 : 6 8 8 6 4 4 8 6 6 4 : 4 4 4 6 6 4 8 4 6 6 : 6 6 6 6 6 6 : 6 8 6 6 6 6 4 6 8 6 6 6 8 6 4 6 6 4 6 6 8 6 6 4 6 8 6 ",
"- - - - 6 8 6 8 6 p &.&.&.%.6 6 8 6 8 8 8 8 8 8 8 8 8 8 8 8 8 8 8 8 8 8 8 8 8 8 8 8 8 8 8 8 8 8 8 8 8 8 8 8 8 8 8 8 8 8 8 8 8 8 8 8 8 8 8 8 8 8 8 8 8 8 8 8 8 8 8 8 8 8 8 8 8 8 8 8 8 8 8 8 8 8 8 8 8 8 8 8 8 8 8 8 8 8 8 8 8 8 8 8 8 8 8 8 8 8 8 8 8 8 8 8 8 8 8 8 8 8 8 8 8 8 8 8 8 8 8 8 8 8 8 8 8 6 s ,.x ,.s ,.,.4 x D.s l d.x s s d a x a ,.d x 8 x 6 l x 6 ;.l d s d x 6 ;.D.,.,.d :.,.a a x 6 ;.8 l l D.x 6 6 8 ,.:.6 x s :.D.>.:.d.a a ;.6 ;.s d h.a x s d a l d.a 6 ;.a x d ,.a 6 a a 6 6 s g.8 k -.k k 6 k a -.k 6 s ",
"b.b.b.b.s 6 8 6 %.B.uXuXuXuXj.k 6 8 6 8 8 8 8 8 8 8 8 8 8 8 8 8 8 8 8 8 8 8 8 8 8 8 8 8 8 8 8 8 8 8 8 8 8 8 8 8 8 8 8 8 8 8 8 8 8 8 8 8 8 8 8 8 8 8 8 8 8 8 8 8 8 8 8 8 8 8 8 8 8 8 8 8 8 8 8 8 8 8 8 8 8 8 8 8 8 8 8 8 8 8 8 8 8 8 8 8 8 8 8 8 8 8 8 8 8 8 8 8 8 8 8 8 8 8 8 8 8 8 8 8 8 8 8 8 8 8 a : W.W.x Q.:.Q.R.d.R.W.:.Q.d.G.G.G.h.:.bXs Q.;.bX>.R.& G.(.d bXG.d.d.J.R.s l bX,.Q.>.Q.(.,.x bXa bXh.G.T.R.W.x : T.W.D.: (.G.x bX>.(.H.6 x bXa bXD.W.H.T.W.W.D.D.W.H.R.: d.Q.D.G.bXd.4 a s 6 6 b.g.k b.-.g.B.a B.g.b.b.k m.",
"LXLXLXLXKXa 6 &.Y.iXeXO.#.uXuXg.k 6 8 8 8 8 8 8 8 8 8 8 8 8 8 8 8 8 8 8 8 8 8 8 8 8 8 8 8 8 8 8 8 8 8 8 8 8 8 8 8 8 8 8 8 8 8 8 8 8 8 8 8 8 8 8 8 8 8 8 8 8 8 8 8 8 8 8 8 8 8 8 8 8 8 8 8 8 8 8 8 8 8 8 8 8 8 8 8 8 8 8 8 8 8 8 8 8 8 8 8 8 8 8 8 8 8 8 8 8 8 8 8 8 8 8 8 8 8 8 8 8 8 8 8 8 8 8 8 8 8 6 l W.,.G.:.G.s W.R.G.h.R.O ,.Q.Q.d.R.bX,.G.x W.Q.W.& d.(.R.Q.H.,.,.G.R.6 & W.8 H.x W.W.d.T.bXD.R.Q.W.H.d D.D.4 Q.d W.:.bX(.6 W.8 Q.d.6 x (.T.Q.H.R.X Q.T.W.Q.T.G.X Q.6 6 bXx D._.d.4 a s 6 6 -.g.g.g.+ -.b.g.b.g.b.g.g.g.",
"m.m.b.HXLXg.> Y.iX) * & * * v.KXg.6 8 8 8 8 8 8 8 8 8 8 8 8 8 8 8 8 8 8 8 8 8 8 8 8 8 8 8 8 8 8 8 8 8 8 8 8 8 8 8 8 8 8 8 8 8 8 8 8 8 8 8 8 8 8 8 8 8 8 8 8 8 8 8 8 8 8 8 8 8 8 8 8 8 8 8 8 8 8 8 8 8 8 8 8 8 8 8 8 8 8 8 8 8 8 8 8 8 8 8 8 6 6 6 6 6 6 6 6 6 6 6 6 6 6 6 6 6 6 6 6 6 6 6 6 6 6 6 6 8 6 >.W.H.Q.:.Q.Q.:.T.R.x W.G.J.,.;.R.R.d.Q.Q.,.D.D.Q.& d.R.W.H.,.W.W.x W.R.s R.d Q.>.W.W.G.R.,.Q.G.,.(.D.Q.W.d 4 G.W.W.R.D.R.,.R.s Q.G.6 x R.W.R.,.R.W.J.G.;._.,.R.W.G.& G.G.H.H.Q.D.4 a s 6 8 -.b.g.m.g.g.g.m.g.g.b.m.k g.",
"- - + hXLX-.-.gXY.* a 6 g.g.- hXb.k 6 8 8 8 8 8 8 8 8 8 8 8 8 8 8 8 8 8 8 8 8 8 8 8 8 8 8 8 8 8 8 8 8 8 8 8 8 8 8 8 8 8 8 8 8 8 8 8 8 8 8 8 8 8 8 8 8 8 8 8 8 8 8 8 8 8 8 8 8 8 8 8 8 8 8 8 8 8 8 8 8 8 8 8 8 8 8 8 8 8 8 8 8 8 8 8 8 8 8 6 8 8 8 8 8 8 8 8 8 8 8 8 8 8 8 8 8 8 8 8 8 8 8 8 8 8 8 8 8 6 l x 8 x a x l 4 s :.s a ;.s s a s a 4 d l s s 6 s 6 a s a s 6 d l 6 d ;.a s a l s l x 8 s 4 s s 6 s s ;.a 6 8 6 x d s 6 8 s s 8 l ;.8 a s a s 8 a ;.6 s 8 a 8 a x 6 8 d 6 s a x 6 8 8 a 8 8 k k 6 a k a a a a a k s 6 a ",
"k k k KXLXg.6 b.HXB.4 8 k a - b.hXk 6 8 8 8 8 8 8 8 8 8 8 8 8 8 8 8 8 8 8 8 8 8 8 8 8 8 8 8 8 8 8 8 8 8 8 8 8 8 8 8 8 8 8 8 8 8 8 8 8 8 8 8 8 8 8 8 8 8 8 8 8 8 8 8 8 8 8 8 8 8 8 8 8 8 8 8 8 8 8 8 8 8 8 8 8 8 8 8 8 8 8 8 8 8 8 8 8 8 6 8 4 & & & & & & & & & & & & & & & & & & & & & & & & & & & & : & & & & & & & : & & & & & & & & & & : & & & & & & : & & & & : & & : & & & & & & & & & & & : & & : & & & & : & : & & : 4 4 4 4 4 : & 4 4 4 4 4 4 4 & 4 4 4 4 4 4 & 4 4 : 4 4 : & : : : & : : & & : & & & & & & & & & : & ",
"JXJXJXLXHXk k hXLXKX- 6 6 a - b.B.k 6 8 8 8 8 8 8 8 8 8 8 8 8 8 8 8 8 8 8 8 8 8 8 8 8 8 8 8 8 8 8 8 8 8 8 8 8 8 8 8 8 8 8 8 8 8 8 8 8 8 8 8 8 8 8 8 8 8 8 8 8 8 8 8 8 8 8 8 8 8 8 8 8 8 8 8 8 8 8 8 8 8 8 8 8 8 8 8 8 8 8 8 8 8 8 8 8 6 8 4 & & & & & & & & & & & & & & & & & & & & & & & & & & & & & .   & & X % & & & & & & & & & & & & & & & & & & & & & & & & & & & & & & & & & & & & & & & & & & & & & & & & & & & & & : : & - : : : : : : : : : : : : & - - : : : : : : : : & & & X X X & . % % .     . % % X % X % & & X ",
"KXKXKXhXg.- g.KXhXJXb.6 8 6 a hXm.s 6 8 8 8 8 8 8 8 8 8 8 8 8 8 8 8 8 8 8 8 8 8 8 8 8 8 8 8 8 8 8 8 8 8 8 8 8 8 8 8 8 8 8 8 8 8 8 8 8 8 8 8 8 8 8 8 8 8 8 8 8 8 8 8 8 8 8 8 8 8 8 8 8 8 8 8 8 8 8 8 8 8 8 8 8 8 8 8 8 8 8 8 8 8 8 8 6 8 4 & & & & X & & & & & & & & & & & & & & & & & & & & & & & & % a ;.% O l 8 o X   & & &     .   X     X X   & & & & & & & & & & & & & & & & & & & & & & & & & & X & & & & & & & & & : : & > ' : : : : - - - - & : : & a.a.2 - : : : : : : & & & > < < < % s : 4 a d ;.s & 6 a & 6 & & & > ",
"6 6 6 4 4 a 6 6 hXLXHXHXb.- B.hXg.6 8 8 8 8 8 8 8 8 8 8 8 8 8 8 8 8 8 8 8 8 8 8 8 8 8 8 8 8 8 8 8 8 8 8 8 8 8 8 8 8 8 8 8 8 8 8 8 8 8 8 8 8 8 8 8 8 8 8 8 8 8 8 8 8 8 8 8 8 8 8 8 8 8 8 8 8 8 8 8 8 8 8 8 8 8 8 8 8 8 8 8 8 8 8 8 6 8 4 & & & & X 2 %.X & & & & & & & & & & & & & & & & & & & & & & & _.;.l G.R.d.G.x D.Q.R.  G.G.x J.,.J.D.,.x J.Q.H.  & & & & & & & & & & & & & & & & & & & & & X %.%.X & & & & & & & : : : - # wX# - : & < 2 2 a.> & : : N.N.a.+ > : : : : & & & X 2 B.B.b.O _.D.D.(.Q.,._.R.,.W.s H.s X & 2 ",
"8 8 8 8 8 8 6 -.HXg.KXHXhXB.hXg.a 6 8 8 8 8 8 8 8 8 8 8 8 8 8 8 8 8 8 8 8 8 8 8 8 8 8 8 8 8 8 8 8 8 8 8 8 8 8 8 8 8 8 8 8 8 8 8 8 8 8 8 8 8 8 8 8 8 8 8 8 8 8 8 8 8 8 8 8 8 8 8 8 8 8 8 8 8 8 8 8 8 8 8 8 8 8 8 8 8 8 8 8 8 8 8 6 8 4 & & & & & & b.< X & & & & & & & & & & & & & & & & & & & & & & X :.H._.(.W.bXQ.bXx d.>.% W.d.bXD._.Q.W.G._.Q.(.d   & & & & & & & & & & & & & & & & & & & & & & > b.& & & & & & & : : : : - ~ ~ ' - : - &.b.b.M.< - : : N.b.a.- > : : : & & & & X 2 B.B.b.  H.Q.Q.H.Q.;.J.Q.W.W.6 H.s X & < ",
"6 6 8 6 6 6 8 6 6 a HXg.b.B.g.s 6 8 6 6 6 6 6 6 6 6 6 6 6 6 6 6 6 6 6 6 6 6 6 6 6 6 6 6 6 6 6 6 6 6 6 6 6 6 6 6 6 6 6 6 6 6 6 6 6 6 6 6 6 6 6 6 6 6 6 6 6 6 6 6 6 6 6 6 6 6 6 6 6 6 6 6 6 6 6 6 6 6 6 6 6 6 6 6 6 6 6 6 6 6 6 6 8 4 & & & & & & X < %.X & & & & & & & & & & & & & & & & & & & & & & & ,.W.W.J.D.W.H.,.R.D.G.X (.R.H.d H.J.;.Q.W.D.D.D.  & & & & & & & & & & & & & & & & & & & & & X %.< X & & & & & : : : : & > ' : ' : : : - - - : & : : & a.b.2 - : : : & & & & & X 2 b.b.b.X ,.W.R.d.W.,.D.d _.>.W.R.& & X 2 ",
"8 8 8 8 8 8 8 8 6 a -.8 k -.6 6 8 8 8 8 8 8 8 8 8 8 8 8 8 8 8 8 8 8 8 8 8 8 8 8 8 8 8 8 8 8 8 8 8 8 8 8 8 8 8 8 8 8 8 8 8 8 8 8 8 8 8 8 8 8 8 8 8 8 8 8 8 8 8 8 8 8 8 8 8 8 8 8 8 8 8 8 8 8 8 8 8 8 8 8 8 8 8 8 8 8 8 8 8 8 8 8 4 & & & & & & & & & X & & & & & & & & & & & & & & & & & & & & & & & & s 4 X s : % a & 6 4 4 : W.6 & & & a 6 4 X s & 6 & & & & & & & & & & & & & & & & & & & & & & & & X & & & & & : : : : : : : - : - : : : : > : : : : : : - - - : : : & & & & & & & & & & & & & & & & 6 s & % & % a & % & & : ",
"6 6 6 6 6 6 6 6 6 6 4 6 6 4 6 6 6 6 6 6 6 6 6 6 6 6 6 6 6 6 6 6 6 6 6 6 6 6 6 6 6 6 6 6 6 6 6 6 6 6 6 6 6 6 6 6 6 6 6 6 6 6 6 6 6 6 6 6 6 6 6 6 6 6 6 6 6 6 6 6 6 6 6 6 6 6 6 6 6 6 6 6 6 6 6 6 6 6 6 6 6 6 6 6 6 6 6 6 6 6 6 4 & & & & & & & & & & & & & & & & & & & & & & & & & & & & & & & & & & & X % & X % & X & X % X & a X & & & X X % & X & X & & & & & & & & & & & & & & & & & & & & & & & & & & & & & : & & & & & & & : : : & & & & & & : & & & & : : : & & & & & & & & & & & & & & & & & & & X X & & & & X & & & & & ",
"& & & & & & & & & & & & & & & & & & & & & & & & & & & & & & & & & & & & & & & & & & & & & & & & & & & & & & & & & & & & & & & & & & & & & & & & & & & & & & & & & & & & & & & & & & & & & & & & & & & & & & & & & & & & & & & & & & & & & & & & & & & & & & & & & & & & & & & & & & & & & & & & & & & & & & & & & & & & & & & X & & & & & & & & & & & & & & & & & & & & & & & & & & & & & & & & & & & & & & & & & & & & & & & & & & & & & & & & & & & & & & & & & & & & & & & & & & & & & & & & & & & & & & & & & & & & & & & & ",
"x ;.x x x x ;.x x x x x x x x x x x x x x x x x x x x x x x x x x x x x x x x x x x x x x x x x x x x x x x x x x x x x x x x x x x x x x x x x x x x x x x x x x x x x x x x x x x x x x x x x x x x x x x x x x x x x x x x x x x x x x x x x x x x x x x x x x x x x x x x x x x x x x x x x x x x x x x x x x x x x x x x ;.x x x x x x x x x x x x x x x x x x x x x x x x x x x x x x x x x x x x x x x x x x x x x x x ;.x & 4 6 6 6 6 6 4 6 6 6 6 6 4 & 6 6 4 6 8 6 6 6 & : 6 4 6 6 6 6 6 4 & x ;.x x x ;.;.;.;.;.;.x x ",
",.:.,.D.,.D.:.,.>.D.,.>.>.>.>.>.>.>.>.>.>.>.>.>.>.>.>.>.>.>.>.>.>.>.>.>.>.>.>.>.>.>.>.>.>.>.>.>.>.>.>.>.>.>.>.>.>.>.>.>.>.>.>.>.>.>.>.>.>.>.>.>.>.>.>.>.>.>.>.>.>.>.>.>.>.>.>.>.>.>.>.>.>.>.>.>.>.>.>.>.>.>.>.>.>.>.>.>.>.>.>.>.>.>.>.>.>.>.>.>.>.>.>.>.>.>.>.>.>.>.>.>.>.>.>.>.>.>.>.>.>.>.>.>.>.>.>.>.>.>.>.>.>.>.>.>.>.>.>.>.>.>.>.>.>.>.>.>.>.>.>.>.>.>.>.>.>.>.>.>.>.>.>.>.>.>.>.>.>.>.>.>.>.>.>.>.>.>.>.>.>.>.>.>.>.>.>.>.;.& 6 8 8 6 l ,.D.>.l 6 8 8 6 & 6 6 d a : 6 8 8 & 4 6 x s 4 6 4 6 4 & :.:.,.D.,.x ;.;.;.:.:.D.:.",
"bX;.(.T.W.bXG.(.H.bX(.W.H.R.x :.:.:.:.:.:.:.:.:.:.:.:.:.:.:.:.:.:.:.:.:.:.:.:.:.:.:.:.:.:.:.:.:.:.:.:.:.:.:.:.:.:.:.:.:.:.:.:.:.:.:.:.:.:.:.:.:.:.:.:.:.:.:.:.:.:.:.:.:.:.:.:.:.:.:.:.:.:.:.:.:.:.:.:.:.:.:.:.:.:.:.:.:.:.:.:.:.:.:.:.:.:.:.:.:.:.:.:.:.:.:.:.:.:.:.:.:.:.:.:.:.:.:.:.:.:.:.:.:.:.:.:.:.:.:.:.:.:.:.:.:.:.:.:.:.:.:.:.:.:.:.:.:.:.:.:.:.:.:.:.:.:.:.:.:.:.:.:.:.:.:.:.:.:.:.:.:.:.:.:.:.:.:.:.:.:.:.:.:.:.:.:.:.;.& 6 8 8 6 :.R.D.G.;.6 8 8 6 & 8 4 R.J.D.x 6 8 & & >.W.R.:.s H.H.& & ;.,.bXG.D.R.G.R.G.d.T.Q.;.",
"(.D.Q.G.bXbXR.bX(.bXH._.bXR.x >.:.:.:.:.:.:.:.:.:.:.:.:.:.:.:.:.:.:.:.:.:.:.:.:.:.:.:.:.:.:.:.:.:.:.:.:.:.:.:.:.:.:.:.:.:.:.:.:.:.:.:.:.:.:.:.:.:.:.:.:.:.:.:.:.:.:.:.:.:.:.:.:.:.:.:.:.:.:.:.:.:.:.:.:.:.:.:.:.:.:.:.:.:.:.:.:.:.:.:.:.:.:.:.:.:.:.:.:.:.:.:.:.:.:.:.:.:.:.:.:.:.:.:.:.:.:.:.:.:.:.:.:.:.:.:.:.:.:.:.:.:.:.:.:.:.:.:.:.:.:.:.:.:.:.:.:.:.:.:.:.:.:.:.:.:.:.:.:.:.:.:.:.:.:.:.:.:.:.:.:.:.:.:.:.:.:.:.:.:.:.:.>.;.& 6 8 8 4 ,.H.4 R.;.6 8 8 6 & 8 4 d.W.W.H.4 a & X R.x J.(.D._.D.& & :.:.W.Q.bXQ._.(.Q.W.bXQ.;.",
"R.:.Q.(.Q.T._.D.Q.R.x R.D.H.x :.:.:.:.:.:.:.:.:.:.:.:.:.:.:.:.:.:.:.:.:.:.:.:.:.:.:.:.:.:.:.:.:.:.:.:.:.:.:.:.:.:.:.:.:.:.:.:.:.:.:.:.:.:.:.:.:.:.:.:.:.:.:.:.:.:.:.:.:.:.:.:.:.:.:.:.:.:.:.:.:.:.:.:.:.:.:.:.:.:.:.:.:.:.:.:.:.:.:.:.:.:.:.:.:.:.:.:.:.:.:.:.:.:.:.:.:.:.:.:.:.:.:.:.:.:.:.:.:.:.:.:.:.:.:.:.:.:.:.:.:.:.:.:.:.:.:.:.:.:.:.:.:.:.:.:.:.:.:.:.:.:.:.:.:.:.:.:.:.:.:.:.:.:.:.:.:.:.:.:.:.:.:.:.:.:.:.:.:.:.:.:.:.;.& 6 8 8 6 ;.J.R.bXD.4 8 8 6 & 8 4 G.R.>.D.4 a & & ;.W.H.D.Q.H.J.& & :.>.W.(.W.Q.bXH.R._._.W.;.",
">.:.>.,.:.>.>.:.>.>.>.>.>.>.>.>.>.>.>.>.>.>.>.>.>.>.>.>.>.>.>.>.>.>.>.>.>.>.>.>.>.>.>.>.>.>.>.>.:.>.>.>.>.>.>.>.>.>.>.>.>.>.>.>.>.>.>.>.>.>.>.>.>.>.>.:.>.>.>.>.>.>.>.>.>.>.>.>.>.>.>.>.>.>.>.>.>.>.>.>.>.>.:.>.>.>.>.>.>.>.>.>.>.>.>.>.>.>.>.>.>.>.>.>.>.>.>.>.>.>.>.>.>.>.>.>.>.>.>.>.>.>.>.>.>.>.>.>.>.>.>.>.>.>.>.:.:.>.>.>.>.>.>.>.>.>.>.>.>.>.>.>.>.>.>.>.>.>.>.>.>.>.:.:.>.>.>.>.>.>.>.>.>.>.>.>.>.>.>.>.>.>.>.>.>.>.>.>.x & 6 8 8 6 d x l >.x 6 8 8 6 & 6 8 a 8 6 6 6 8 & 4 6 s 8 6 a 6 s 4 & :.>.d.:.:.Q.W.;.>.>.>.:.>.",
"s s s a s s s s s s s s s s s s s s s s s s s s s s s s s s s s s s s s s s s s s s s s s s s s b l s s s s s s s s s s s s s s s s s s s s s s s s s z s s s s s s s s s s s a s s s s s s s s s s s s s k -.s s s s s s s s s s s s s s s s s s s s s s s s s s s s s s s s s s s s s s s s s s s s s s s s s s s s ;.<.s s s s s s s s s a s s s s s s s s s s s s d d s >.x s s s s s s s s s s s s s s s s s s s s s s s l 5.& 6 8 6 8 6 6 8 6 6 8 6 8 6 & 6 8 6 6 8 8 6 8 & : a 6 6 8 6 8 8 4 & d d s d d l s d d d d d d ",
"& 6 & & & & & & & & & & & 6 & & & & & & & 6 : & & & & & 6 & & & & 6 : & & 4 6 & & 4 4 & 4 r w w #.i 5 5 4 & & & & & & & & & & & & & & & 6 : & 4 5 5 u l.< , , : 6 & & & & & & & 6 4 & & & & & 6 & & > , 8 a.N.1 < a : & 4 4 & & 6 & & 8 & & & & & & & & & & & & & & & & & & & 6 : & & & & & & & & & & 6 & & & : > < 3 m.!.6 f 6 : & 6 & & & & 6 4 & & : 6 & & 4 4 & 4 s f p /.9.7 7 4 & & & & & & & & & & & & & & & 6 4 4 7 7 4.^.. 6 8 6 8 6 g.b.g.6 8 6 8 6 & 6 8 8 8 8 8 6 8 & 4 8 6 8 8 8 6 8 4 & 6 6 6 6 6 6 6 6 6 6 6 6 6 ",
": 8 4 : : : : : : : : : : 8 4 : : : : 4 & 6 4 : : : : 4 8 : 4 4 & 8 4 : : 4 6 : : 6 6 : 4 h r w O.i 0 5 4 4 : : : : : : : : : : : : 4 : 8 4 : 4 5 0 u l.< < , > 8 4 : : : : 4 & 6 4 : : : : 4 8 : : > , a a.N.< 2 a > : 6 6 & 4 8 : : a 4 : : : : : : : : : : : : : : : : 4 & 6 4 : : : : : : : : : 4 8 : 4 : > > < 3 m.!.p s 6 4 : 8 : : 4 & 6 4 : : 4 6 : : 6 6 & 4 d d f ^.9.7 7 7 4 : : : : : : : : : : : : 4 & 6 6 7 7 g 4.^.. 6 8 6 8 6 g.b.g.6 8 6 8 6 & 7 e e e e e e 7 & : w e e e e e e 4 & 8 8 8 8 a 8 6 6 6 a 8 8 8 ",
"& 8 4 : : : : : : : : : : 8 4 : : : : : & 6 4 & : : : 4 8 & : : & 6 4 : & 4 6 & & 6 4 & 4 h r w O.i 0 5 4 4 : : : : : : : : : : : : : & 6 4 : 4 5 0 u l.< < , > 8 4 : : : : : & 6 4 & : : : : 8 : : > , 8 a.N.< 2 a > & 6 6 & 4 8 : & a 4 : : : : : : : : : : : : : : : : : & 6 4 : : : : : : : : : 4 8 & : : > > < 3 m.!.p f 6 4 : 8 : : : & 6 4 & : 4 6 & & 6 6 & 4 d d f ^.9.7 7 7 4 : : : : : : : : : : : : : & 6 4 6 7 g 4.^.. 6 8 6 8 6 g.b.g.6 8 6 8 6 & 7 e e e e e e 7 & : w e e e e e e 4 & 6 8 8 8 4 6 k k a - 6 8 6 ",
"& 8 4 : : : : : : : : : : 8 4 : : : : : & 6 4 & : : : 4 8 & : : & 6 4 : & 4 6 & & 6 4 & 4 h r w O.i 0 5 4 4 : : : : : : : : : : : : : & 6 4 : 4 5 0 u l.< < , > 8 4 : : : : : & 6 4 & : : : : 8 : : > , 8 a.N.< 2 a > & 6 6 & 4 8 : & a 4 : : : : : : : : : : : : : : : : : & 6 4 : : : : : : : : : 4 8 & : : > > < 3 m.!.p f 6 4 : 8 : : : & 6 4 & : 4 6 & & 6 6 & 4 d d f ^.9.7 7 7 4 : : : : : : : : : : : : : & 6 4 6 7 g 4.^.. 6 8 6 8 6 g.b.g.6 8 6 8 6 & 7 e e e e e e 7 & : w e e e e e e 4 & 6 8 6 4 g.KXHXHXHXB.a 6 8 ",
"& 8 4 : : : : : : : : : : 8 4 : : : : : & 6 4 & : : : 4 8 & : : & 6 4 : & 4 6 & & 6 4 & 4 h r w O.i 0 5 4 4 : : : : : : : : : : : : : & 6 4 : 4 5 0 u l.< < , > 8 4 : : : : : & 6 4 & : : : : 8 : : > , 8 a.N.< 2 a > & 6 6 & 4 8 : & a 4 : : : : : : : : : : : : : : : : : & 6 4 : : : : : : : : : 4 8 & : : > > < 3 m.!.p f 6 4 : 8 : : : & 6 4 & : 4 6 & & 6 6 & 4 d d f ^.9.7 7 7 4 : : : : : : : : : : : : : & 6 4 6 7 g 4.^.. 6 8 6 8 6 g.b.g.6 8 6 8 6 & 7 e e e e e e 7 & : w e e e e e e 4 & 6 8 6 B.JXB.-.k g.KXKXk 6 ",
"& 8 4 : : : : : : : : : : 8 4 : : : : : & 6 4 & : : : 4 8 & 4 4 & 6 4 : & 4 6 & & 6 4 & 4 h r w O.i 0 5 4 4 : : : : : : : : : : : : : & 6 4 : 4 5 0 u l.< < , > 8 4 : : : : : & 6 4 & : : : : 8 : : > , 8 a.N.< 2 a > & 6 6 & 4 8 : & a 4 : : : : : : : : : : : : : : : : : & 6 4 : : : : : : : : : 4 8 & : : > > < 3 m.!.p f 6 4 : 8 : : : & 6 4 & : 4 6 & & 6 6 & 4 d d f ^.9.7 7 7 4 : : : : : : : : : : : : : & 6 4 6 7 g 4.^.. 6 8 6 8 6 g.b.g.6 8 6 8 6 & 7 e e e e e e 7 & : w e e e e e e 4 & a 4 m.JX-.o X X o & KXfX4 ",
"& 8 4 : : : : : : : : : : 8 4 : : : : : & 6 4 & : : : 4 8 & & & & 6 4 : & 4 6 & & 6 4 & 4 h r w O.i 0 5 4 4 : : : : : : : : : : : : : & 6 4 : 4 5 0 u l.< < , > 8 4 : : : : : & 6 4 & : : : : 8 : : > , 8 a.N.< 2 a > & 6 6 & 4 8 : & a 4 : : : : : : : : : : : : : : : : : & 6 4 : : : : : : : : : 4 8 & : : > > < 3 m.!.p f 6 4 : 8 : : : & 6 4 & : 4 6 & & 6 6 & 4 d d f ^.9.7 7 7 4 : : : : : : : : : : : : : & 6 4 6 7 g 4.^.. 6 8 6 8 6 g.b.g.6 8 6 8 6 & 7 e e e e e e 7 & : w e e e e e e 4 & 6 6 KXm.o & & &   O < HXg.",
"& 8 4 : : : : : : : : : : 8 4 : : : : : & 6 4 & : : : 4 8 & 7 7 7 8 4 : & 4 6 & & 6 4 & 4 h r w O.i 0 5 4 4 : : : : : : : : : : : : : & 6 4 : 4 5 0 u l.< < , > 8 4 : : : : : & 6 4 & : : : : 8 : : > , 8 a.N.< 2 a > & 6 6 & 4 8 : & a 4 : : : : : : : : : : : : : : : : : & 6 4 : : : : : : : : : 4 8 & : : > > < 3 m.!.p f 6 4 : 8 : : : & 6 4 & : 4 6 & & 6 6 & 4 d d f ^.9.7 7 7 4 : : : : : : : : : : : : : & 6 4 6 7 g 4.^.. 6 8 6 8 6 g.b.g.6 8 6 8 6 & 7 e e e e e e 7 & : w e e e e e e 4 & 6 k HXk X & & : D.H.8 KXB.",
"4 8 4 4 4 4 4 4 4 4 4 4 4 8 4 4 4 4 4 4 4 8 4 4 4 4 4 4 8 4 N N N 9 4 4 4 4 6 4 4 6 6 4 7 h r t #.i 0 0 4 4 : : : : : : : : : : : : : & 8 4 : 4 5 0 u l.< < , > 8 4 : : : : : & 6 4 : : : : 4 8 : : > , a a.N.< 2 a > : 6 6 & 4 8 : : s > : : : : : : : : : 4 4 4 4 4 4 4 4 4 8 4 4 4 4 4 4 4 4 4 4 4 8 4 4 4 4 > < 1 m.!.a s 8 4 4 9 4 4 4 : 6 6 : 4 4 8 : : 6 6 & 4 d d f ^.9.7 7 7 4 : 4 4 4 4 4 4 4 4 4 4 4 4 - 8 6 7 g g 4.^.. 6 8 6 8 6 g.b.g.6 8 6 8 6 & 7 e e e e e e 7 & : w e e e e e e 4 & 4 -.HX< X & X 6 bXIX>.g.g.",
"% > % % % % % % % % % % % > % % % % % % % > & % % % : r h w t t t 6 % % % & > % % > & % % 6 4 7 O.u : 4 4 4 - & : : & & & & & & & & : & 6 : & 4 5 5 u l.< , , : 6 : & & & & & & 6 4 & & & & & 6 & : > , 8 a.N.< < a : & 4 6 & & 6 X + 7 + + + + + + + + + + X . . . % = % % % > % % % % % % % % % % % > % % % % , 1 3 m.E.> 1 * % = > % % % % 4 @ X X X 4 X X 4 6 & 4 s f p ^.9.7 7 4 - - & . . . . . . . . . . . . , : : 4 6 c ^.% 6 8 6 8 6 g.b.g.6 8 6 8 6 & 7 e e e e e e 7 & : w e e e e e e 4 & 6 s HXg.o & & &   o % b.-.",
"*X-X*X*X*X*X*X*X*X*X*X*X*X-X*X*X*X*X*X*X*X*X*X*X*X*X*X:X:X:X:X:X:X-X*X*X*X:X:X*X&X&X*X*X=X=X&X;X,X@.U K 9 > > 6 p p 8 9 u u u u 9 8 p p f 8 8 9 9 h b l.k z a a s 8 6 8 8 8 8 6 s a 6 8 8 8 8 s 6 8 a a z a.N.k k k a 8 s 7 - 6 -.%.&.g.a.a.b.b.b.b.n.n.n.b.m.R.P.U.U.&X=X=X=X*X*X*X*X*X*X*X-X-X-X-X*X*X*X*X*X*X-X-X-X<X5X-X-X=X=X&XU.E I H h 1.1.1.2.2.1.<.d 8 5 4 s x x d /.r.h h h 6 , h 4.t.y.p.i.i.i.i.i.i.i.i.@Xi.@X@X@X#X@X. 6 8 6 8 6 g.b.g.6 8 6 8 6 & 7 e e e e e e 7 & : w e e e e e e 4 & 8 - gXKXX % & & & X %.b.a ",
"E +.E E E E E E E E E E E +.E E E E E E E E E E E E E U.U.@.U.U.@.U.&X.X].*X>X6X6X=XE U +.U.U.;X2X-X:X<X1X-Xq.9 ! ] ] ] ] ] ] ] ] ] ] ! i 6 - 8 9 9 i l.2 z a 6 s 6 6 6 6 6 6 4 s 8 6 6 6 6 6 s 6 6 8 a z a.N.< k k 6 - a g.b.dXdXN.N.b.b.a.a.a.a.a.g.W.5X5X5X<X-X&XU.U.I.I.I.I.Z.Z.Z.Z.Z.Z.Z.P.R.).gXgX).S.D U Z.Z.o.~./.I.I.I.+.+.3XAX5X<X1XAXAXzXlXlXcXxXnXnXlX*.4 l l d /.0.h h 6 4.@X#X@Xp.y.y.t.t.t.t.t.t.t.t.t.t.t.t.y.i.i.. 6 8 6 8 6 g.b.g.6 8 6 8 6 & 7 e e e e e e 7 & : w e e e e e e 4 & 8 6 k HXfX& & & & %.b.-.6 ",
"- 7 - - - - - - - - - - - 7 - - - - - - - 7 - - - - q N H N N N N H N e - 7 7 q M W {.Q % > 4 7 O.u 5 0 t @.2X1XOX$ 5 5 4 4 4 4 5 5 $ ! ! ! $ & 4 5 u l.< , , : 6 : & & & & & & 9 4 & & & & & 6 & : > , 8 a.N.< 2 8 & a.dXN.a.2 k > > s > > 6 , > U.1X*X+.b a 1 3 3 3 3 3 3 3 1 1 3 3 3 3 3 3 , 3 3 1 &.n.M.n.1 % 1 3 m.m.> 1 . -.lXlX2.*.f h U &X1X&X6 p 6 p *.u.xXlXd 8 f ^.9.7 6 i.#Xt.w 4 4 4 7 7 7 7 7 7 7 7 - g 7 g j j 8.^.. 6 8 6 8 6 g.b.g.6 8 6 8 6 & 7 e e e e e e 7 & : w e e e e e e 4 & 6 a 4 -.B.a 4 6 4 -.-.6 8 ",
"q t w q q q q q q q q q q t q q q q q q q t w q q q N L L F L L F L L N q e t q 0 7 N {.|.F 9 t O.i 0 4 ! ! # B :X:Xy @ 5 5 5 5 5 5 5 4 9 u ! ] 5 6 u l.< < , > 8 4 : : : : 4 & h 7 & 4 : : 4 8 : : > , a a.N.< < %.dXN.%.8 > < k < < -.< < 3 c 1X-Xc 3 3 1 < < < < < < < < < k a < < < < < < < < < < k 4 6 a.dXb.6 < m.!.8 8 lXnX1.s 6 f f p f 1 l -X1X:.p f f a 6 u.nX*.p /.9.6 #X@X7 7 g g g g g g g g g g g g g j g j j G 9.^.. 6 8 6 8 6 g.b.g.6 8 6 8 6 & 7 e e e e e e 7 & : w e e e e e e 4 & 6 6 8 6 4 6 8 8 8 6 6 8 8 ",
"q t q q q q q q q q q q q t q q q q q q q t w q q q e L L M F F M L L N q w t q q t w 4 Y }.Y 7 @.i 0 ] ! 5 5 @ @ @.7XB @ 5 5 5 5 5 5 5 u 5 4 ! | u 9 l.< < , > 8 4 : : : : 4 & t 9 & 4 : : : 8 : : > , 8 a.N.> a.dXa.: a 2 < < k < < k a 3 8.7XI.3 1 < < < < < < < < < < < < k < < < < < < < < < < < k < < > < M.N., m.!.4 xXlXp 6 *.f f f f d d p 1 U.1Xx p d d f 6 2.nXd ^.5.i.@X7 g g g g g g g g g g g g g g w j g j j G 9.^.. 6 8 6 8 6 g.b.g.6 8 6 8 6 & 7 e e e e e e 7 & : w e e e e e e 4 & 6 8 6 8 8 8 8 8 8 8 8 8 8 ",
"q t q q q q q q q q q q q t q q q q q q q t w q q q N L L M F F M L L N q w t q q t w q 7 F |.Y O.i ] ! 4 5 5 5 5 @ o.7XB @ 5 5 5 5 5 5 u 5 5 5 $ | i l.2 8 , > 8 4 : : : : : & b r & 4 : : : 8 : : > , 8 a.b.&.dX%.< < k k < < k < < k 1 K 7XK 3 < < < < < < < < < < < < < < k < < < < < < < < < < < k < < < < < M.N.h.T.lXlXp d f *.f f f f d d f f 1 U.1Xf d d f *.d !.xX~.i.#Xg j g g g g g g g g g g g g g g w j g j j G 9.^.. 6 8 6 8 6 g.b.g.6 8 6 8 6 & 7 e e e e e e 7 & : w e e e e e e 4 & 6 8 6 6 8 8 6 6 8 a 8 6 8 ",
"q t q q q q q q q q q q q t q q q q q q q t w q q q N L L M F F M L L N q w t q q t w q e t M |.@.| ! 5 5 5 5 5 5 5 @ +.1X0 5 5 5 5 5 5 u 5 5 5 5 ! | l.z z , > 8 4 : : : : : & G r & 4 : : : 8 : : > , a a.N.dXa.k 2 < k k < < k < < 2 x 7XK 3 a < < < < < < < < < < < < < < k < < < < < < < < < < < k < < < < 2 2 dXhXmXlXd *.f f *.f f f f d d f f d 1 -X;X1 d f d <.d lXCXDXt.j j g g g g g g g g g g g g g g w j g j j G 9.^.. 6 8 6 8 6 g.b.g.6 8 6 8 6 & 7 e e e e e e w & : w e e e e e e 4 & 6 8 8 8 4 4 8 a 4 - 8 8 6 ",
"q t q q q q q q q q q q q t q q q q q q q t w q q q N L L M F F M L L M q e t q q t w q e N t W OX] u u 5 5 5 5 5 5 5 @ &X:X@ 5 5 5 5 5 u 5 5 5 u u ! | x b , > 8 4 : : : : & 4 K r & 4 : : : 8 : : > , a 2 GXa.2 %.< < k k < < k < < 2 <XI.3 a < < < < < < < < < < < < < < < k < < < < < < < < < < < k < < < < 2 2 2 kXmX*.*.*.f f *.f f f f d d f f d d f 1Xq.f f d <.*.1.ZX@Xj G j g g g g g g g g g g g g g g w j g j j G 9.^.. 6 8 6 8 6 g.b.g.6 8 6 8 6 & 6 9 9 9 9 9 9 9 & : r i i i i i i 4 & 6 8 8 4 -.fXHXHXKXm.6 6 8 ",
"q t q q q q q q q q q q q t q q q q q q q t w q q q N L L M F F M L H F M L N q q t w q e N N i $.R u u 5 5 5 5 5 5 5 5 @ <X+.@ 5 5 5 5 u 5 5 5 u u u | O.c 8 > 8 4 : : : : & 7 K t : : : : : 8 : : > , 8 b.dX2 %.%.< < k k < < k < 3 U.-X3 < < < < < < < a < < < < < < < < < k < < < < < < < < < < < k < < < < 2 %.2 nXkX*.*.*.f f *.f f f f d d f f f *.1 q.1Xf f d <.*.<.ZXu.j j j g g g g g g g g g g g g g g w j g j j G 9.^.. 6 8 6 8 6 g.b.g.6 8 6 8 6 % i $.$.$.$.$.$.O.* 4 i i i i i i i 4 & 6 8 4 m.JXfXg.g.B.HXfX8 6 ",
"q t q q q q q q q q q q q t q q q q q q q t w q q q N L L M F F M L H F M L N q q t w q e N N ] $.|.B u 5 5 5 y B 0 5 5 @ i 1Xy 5 5 5 5 u 5 5 5 u u u l.| C 8 > 8 4 : : : : & 7 K N 4 & : : : 8 & : > > 2 GXN.2 %.%.< < k k < < k 1 c 1Xz 1 < < < < < < a z < < < < < < < < < k < < < < < < < < < < < k < < < < 2 2 m.mXkXm.*.*.f f *.f f f f d d f f f d f 1 :XI.1 d <.-.i.AXmXG j j g g g g g g g g g g g g g g w j g j j G 9.^.. 6 8 6 8 6 g.b.g.6 8 6 8 6 % O.iXiXiXiXiXiX$.= 4 i i i i i i i 4 & 8 4 g.JXg.o o o o < HXgX4 ",
"q t q q q q q q q q q q q t q q q q q q q t w q q q N L L M F F M L H F M L N q q t w q e G [ [ o.+.].5 5 5 5 B B y 5 5 5 @ &X=X@ y 5 5 u 5 5 5 u u i l.O.O.h 4 8 4 : : : 4 & 7 K N 7 & : : : 8 4 : > : N.N.N.%.%.%.< < k k < < k 1 -XU.3 < < < < < < < a l < < < < < < < < < k < < < < < < < < < < < k < < < < 2 %.nXm.cXdX*.*.f f *.f f f f d d f f f d f 1 q.<Xf d <.<.#X3XmXu.e j g g g g g g g g g g g g g g w j g j j G 9.^.. 6 8 6 8 6 g.b.g.6 8 6 8 6 & 8 i i i i i i 9 & : i i i i i i i 4 & 8 6 KXB.o & & & % O %.HX-.",
"q t q q q q q q q q q q q t q q q q q q q t w q q q N L L M F F M L H F M L N q q t w q e N | B @.( ].A , 5 5 B B B y 5 5 5 0 1XB y y 5 u 5 5 5 u u i v.b $. .6 6 4 : : : 4 & w K N 7 & : : : 8 7 : 4 a.dXa.N.k %.%.< < k k < < < 8.1Xk < < < < < < < < s c < < < < < < < < < k < < < < < < < < < < < k < < < < 3 lXlXm.!.b.b.f d f *.f f f f d d f f f d f f f 1Xq.f -.r.#X/./.xXt j g g g g g g g g g g g g g g w j g j j G 9.^.. 6 8 6 8 6 g.b.g.6 8 6 8 6 & 9 i i i i i i u & : i i i i i i i 4 & 6 k HX-.X & & & l ;.4 KXB.",
"q t q q q q q q q q q q q t q q q q q q q t e N N N M H L M F F M L H F M L H q q t w q w O.[ N @. .A [.5 5 0 B B B i 5 5 5 @ +.*Xy i 5 u 5 5 5 u u C c.b O.#.6 6 4 : : : : : r K N 7 : : : : 9 r : 4 M.a.a.N.-.%.%.< z k < < < 2 <XZ.2 < < < < < a a 1 z c < < < < < < < < < k < < < < < < < < < < < k < < < < -.nX&.m.lX1.dX*.f f *.f f f f d d f f f d f f 1 U.:Xf -.#Xr./.r.xX4.g g g g g g g g g g g g g g g w j g j j G 9.^.. 6 8 6 8 6 g.b.g.6 8 6 8 6 & 9 i i i i i i u & : i i i i i i i 4 & 4 -.HX< X & X p PXIX,.b.m.",
"q t q q q q q q q q q q q t q q q q q q q t t F F H F F L M F F M L H M M L L M e w w q e ] B B @...u ].D @ 0 B B B i 5 5 5 y 5 1X+.y 5 u 5 y u 5 u ..c.( b $.i 6 4 & - - - & r K B w & - - - 9 t + a.M.k a.N.-.%.%.< l k < < 1 Z.<X1 k < < < < < a z 1 z c a < < < < < < < < k < < < < < < < < < < < k < < < , lXlX%.m.cX*.hXb.7 f *.f f f f d d f f f d f f d d 1X5.<.$X=./.r.zXu.w g g g g g g g g g g g g g g w j g j j G 9.^.. 6 8 6 8 6 g.b.g.6 8 6 8 6 & 9 i i i i i i u & : i i i i i i i 4 & 6 k HXg.o & & & & & & g.-.",
"q t q q q q q q q q q q q t q q q q q q q t t F F F F H L F H H F L L F F L L L N r t q [ [ N B @. .i S ].u B B B B i 5 5 y B @ +.:Xy 0 u 5 B u u i ..Y. .b O.[ p - > 2 ^ _ k.v.c.c.l.k.^ ^ 2 s e + M.a.k a.N.;.%.%.< x k 2 < 1 <XZ.3 k < < < < < z l < x c a < < < < < < < < k < < < < < < < < < < < k < < < -.nX1.&.m.lX1.g.dXf f *.f f f f d d f f d *.f f d 1 ;XU.i.@X<./.r.w.xXg g g g g g g g g g g g g g g g j g j j G 9.^.. 6 8 6 8 6 g.b.g.6 8 6 8 6 & 9 i i i i i i r & : i i i i i i i 4 & 8 4 fXfXo & & & & o 2 b.a ",
"t t t t t t t t t t t t t t t t t t t t t t G L L L L L U L L L L U U L L U U L H t t t | J H P @.o.o.C ].T C J J J C u u Z J i u 1X+.i J b J i u C o.Y.X. .K [ ) a.l.k.^ ^ 2 v X.X.b 2 ^ ^ k.l.) a.dXk -.a.N.s.g.-.k v ;.k < Z.<Xk k -.k k k k k l x k 5.5.l k k k k k k k k -.k k k k k k k k k k k -.k k < lXlX-.g.m.cX1.1.hXm.d ;.*.*.*.d ;.*.*.*.*.;.d d ;.*.7.1X$Xr.,./.i.4.xXw.j j j j j j j j j j j j j j j j j j 4.4.r.^.. 6 8 6 8 6 g.b.g.6 8 6 8 6 & 8 h h h h h h s & : h h h h h h h 4 & 8 4 -.HXB.& & & & < b.g.6 ",
"q t q q q q q q q q q q q t q q q q q q q r t M M M M F L M F F M L H M M L L M N r w i ] N V E @.+.P Z D ].i B B B B y 0 B B B @ &X*Xy J B B i 5 C ..Y.( C B c.` ^ u : : > , h K b r , > : : z ) FXb.< 2 a.N.:.-.-.x b x k 3 -XU.3 < k < < < < < z l a c c s < < < < < < < < k k a < < < < < < < < < k < < < nX1.-.&.m.lX1.1.g.dXp *.f f f f d d f f f d f f d d 1 :X4X=.=./.i.j zXu.- g w w w w w w w w w w w g w j g g j j 9.^.. 6 8 6 8 6 g.b.g.6 8 6 8 6 & 6 9 9 9 9 9 9 8 & : h h h h h h h 4 & 6 a 4 g.fXa 4 4 4 g.g.6 8 ",
"q t q q q q q q q q q q q t q q q q q q q t t F F F F H L F F F M L H F F L L F N w w ] i B V E @.o.S P A oXD i B B B B B B B B i Z 1XP C B B B u C ..Y. .C c.c.] u h , , , , b K c b 9 8 8 , h :.dXl.x.k a.N.>.s.-.v c v < c 1Xl < < k < < < < < z x a c c z < < < < < < < < 2 z s < < < < < < < < < k < , 2.cX%.1.&.m.lX1.1.-.dX-.d f f f f d d f f f d f f d d 1 ;X:X=.=./.i.4.u.xXq g g g g g g g g g g g g g w j g j j G 9.^.. 6 8 6 8 6 g.b.g.6 8 6 8 6 % h I.I.I.I.I.I.K % 4 h h h h h h h 4 & 6 6 8 6 6 6 8 8 8 6 6 6 8 ",
"q t q q q q q q q q q q q t q q q q q q q r N F F F F H L M F F M L H F M L L M M G C ] y Z S E @.o.S S Z W ].i B B B B B B B B B y *X&Xi B B B u C ..Y. .c.c.B O.O.h , , , , b K b b b 9 8 , r m.b.a l.l.a.N.>.s.:.v c K < &XU.1 < < k < < a < < z b a c c z < < < < < < < < k x l a < < < < < < < < k < , xX2.%.-.&.m.lX1.1.*.b.b.g f f f f d d f f f d f f d d f $X7Xw.=./.i.4.4.xXj w g g g g g g g g g g g g w j g j j G 9.^.. 6 8 6 8 6 g.b.g.6 8 6 8 6 % G >X*X*X*X*X:X+.% 4 h h h h h h h 4 & 6 8 6 8 8 8 6 6 6 8 8 8 6 ",
"q t q q q q q q q q q q q t q q q q q q q r N F F F F H L M F F M L H F M L L M V Y [ $ y I I I @.o.S S S S oXZ B B B B B B B B B i +.1XJ B B B i C ..Y.c.c.C  .( #.b 9 , , 6 b K b b b b 9 , x B.x k 2 l.x.N.>.s.s.v c v x 1Xb 2 < < k < < z < < z b s c c l < < < < < < < < k c x s < < < < < < < < k , -.xX-.-.-.&.m.lX1.1.-.-.dX*.f f f f d d f f f d f f d f t.#X:X^.=./.i.4.G zXw.- g g g g g g g g g g g g w j g j j G 9.^.. 6 8 6 8 6 g.b.g.6 8 6 8 6 % b *X=X=X=X=X*XI % 4 h h h h h h h 4 & 6 8 6 8 8 8 8 8 8 8 8 8 8 ",
"q t q q q q q q q q q q q t q q q q q q q r N F F F F H L M F F M L H F M L L M F P $.y B I I I @.o.S S S B ].W i B B B B B B B B B i <XU.i B B Z J J v.c. .(  .K #.O.b 8 , 8 b K b b b b 9 : g.B.b k 2 %.z.N.>.s.s.v c x U.-X3 k < < k < < l < < l c z c c l < < < < < < < < l c c l < < < < < < < < k , lXm.2 -.-.&.m.lX1.1.-.d b.m.7 f f f d d f f f d f f d < i.p.U.:X=./.i.4.4.u.zX- g g g g g g g g g g g g w j g j j G 9.^.. 6 8 6 8 6 g.b.g.6 8 6 8 6 % b *X=X*X*X=X*XE % 4 h h h h h h h 4 & 6 8 6 8 6 p p p p p 8 8 8 ",
"q t q q q q q q q q q q q t q q q q q q q r N F F F F H L M F F M L H F M L L M F O.O.V S I I I @.o.S S S V D [.i B B B B B B B B B y @.<Xi B B Z Z X.v.( ( (  . .O.#.b 8 , 8 b K b b b b 9 , B.f.v k 2 a.a.yXf.s.s.v c c 1XU 1 k < < k < < x < < l c z c c l < < < < < < < < x c c x < < < < < < < < k < nX-.-.-.-.&.m.lX1.1.-.*.g.dXp f f f d d f f f d f f d d #X4.e.1Xw./.i.4.4.w.xXw g g g g g g g g g g g g w j g j j G 9.^.. 6 8 6 8 6 g.b.g.6 8 6 8 6 % b *X*X*X*X=X*XE % 4 h h h h h h h 4 & 6 8 8 p 9 $ [ [ [ u p 8 8 ",
"q t q q q q q q q q q q q t q q q q q q q r N F F F F H L M F F M L H F M L L M F $.S A S I I I @.o.S S S S Z [.D i B B B B B B B B B B 1XI i B Z Z c.v.( (  . . .C #. .8 6 9 b K b b b b 9 f.B.b / z 2 a.a.yXv.>.s.v x I.1Xa < k < a k < < b < a x c z c c x a < < < < < a a v c c b < < < < < < < < < 2.lX< -.-.-.&.m.lX1.1.-.-.*.dX-.f f f d d f f f d f f f t.#X*.=.<XU./.i.4.4.=.xX=.; g g g g g g g g g g g w j g j j G 9.^.. 6 8 6 8 6 g.b.g.6 8 6 8 6 % b *X*X*X*X=X*XE % 4 h h h h h h h 4 & 6 8 p y [ [ $ $ [ [ [ 6 8 ",
"q t q q q q q q q q q q q t q q q q q q q t N F F F F H L M F F M L H F M L L F ..$.L A S I I I @.o.S S S S B W ].i B B B B B B B B B y =X=Xy Z Z ) c.Y.( (  . . .b O.O.h b 9 b K b b b b y m.m.b / z 2 a.a.b.v.j.>.v l -X&X< < k < s k < < c < z c c l c c b z < < < < < z z v c c b < < < < < < < < < xX2.k -.-.-.&.m.lX1.1.-.-.d b.b.; f f d d f f f d f f < i.p.*.=.;X-X/.i.4.4.j zXu.- g g g g g g g g g g g w j g j j G 9.^.. 6 8 6 8 6 2 %.2 6 8 6 8 6 % b *X*X*X*X=X*XE % 4 h h h h h h h 4 & 6 p u [ $ & * * * $ [ $ p ",
"q t q q q q q q q q q q q t q q q q e F M L H F F F F H L M F F M L H F M L L F [ O.L A S I I I @.o.S S S A A A [.Z B B B B B B B B B i +.1XB B Z c.X.Y.( (  . . .C  .#.b b b b K b b b b b B.s.v / x 2 a.a.b.f.v.V.c K 1X8.z < k a x ;.< < c a l c c x c c b l < < < < < z l >.c c c < < < < < < < < 1.xX-.-.-.-.-.&.m.lX1.1.-.-.*.g.dXf f f d d f f f d f f d #X4.=.<.r.:X/.i.4.4.j u.zX- g g g g g g g g g g g w j g j j G 9.^.. 6 8 6 6 8 & X & 8 6 6 8 6 % b *X=X*X*X=X*XE % 4 h h h h h h h 4 & 6 p [ [ * & & & & * $ [ 0 ",
"q t q q q q q q q q q q q t q q q q N L M L L M F F F H L M F F M L H F M L L A $.P P A S I I I @.o.S S S A A B ].W i B B B B B B B B B C <X@.y ) c...c.( (  . . . .b #. .b b b K b b b t j.B.K / / / 2 a.a.B.s.v.j.x U.<Xx b a k b c :.< < c z x c c x c c c b a < < < < z b 5.c c b z a < < < < < , lXlX< -.-.-.-.&.m.lX1.1.-.-.-.-.dX-.f f d d f f f d f p 4.#Xd =.w.=.:X3Xr.4.4.=.4.xXw g g g g g g g g g g g w j g j j G 9.^.. 6 8 6 6 8 & X & 8 6 6 8 6 % b *X=X*X*X=X*XE % 4 h h h h h h h 4 & 6 9 [ $ % & & & & & & [ i ",
"q t q q q q q q q q q q q t q q q q N L M L H F F F F H L M F F M L H F M L Y O.O.L P A S I I I @.o.S S S A A V T [.i B B B B B B B B B i U.:Xi c. ...c.( (  . . .C b O.#.b b b K b b b i B.j./ v / / ) a.j.B.s.j.v.x <XU.x c a l c c >.< < c c c c c b c c c c a s s a s z c 5.c c c l s < < < < < < xX1.-.-.-.-.-.&.m.lX1.1.-.-.-.*.b.b.; f d d f f f d f 1 i.i.d =.w.=.;X0Xr.4.4.=.j xX=.; g g g g g g g g g g w j g j j G 9.^.. 6 8 6 8 6 a < a 6 8 6 8 6 % b *X*X*X*X=X*XE % 4 h h h h h h h 4 & p u [ @ & & X & & & % [ [ ",
"q t q q q q q q q q q q q t q q q q N L M L L F F F F H L F F H F L H F F L L $...P P A P I I I @.o.S S S A A A Z oXD i B B B B B B B B C J 1XA.c...X.c.( (  . . .C C C #.b b b K b b b s.B.v s.v / s.) a.j.B.f.f.v.P.1XK v c l >.c c >.< a c c c c c c c c c c a l z a l x c 5.c c c x z < a < < , 1.xXk -.-.-.-.-.&.m.lX1.1.-.-.-.-.-.dXf f d d f f d *.f p #Xt.j =.w.=.r.9Xr.4.4.4.j zXw.- g g g g g g g g g g w j g j j G 9.^.. 6 8 6 8 4 fXJXfX4 8 6 8 6 % b *X*X*X*X=X*XE % 4 h h h h h h h 4 & 6 9 [ 5 % 4 bXs X & & [ i ",
"q t q q q q q q q q q q q t q q q q N F M L H M M M M M L M M M M L F M M F ..[ V P S V S I I I @.o.S S S A V A B W W i B B B B B B B B J y *X'.)  . .c.( ( ( i  .C i b O.O.h b c b b y m.m.b s.v v / / a.j.B.s.f.j.,X;Xx K c b 5.c c 5.< < c c c c c c c c c c a l l a l b c K c c c c a < s 1 < , lXm.< -.-.-.-.%.&.m.lX-.1.-.-.-.-.d dX&.6 d f f f f d < 4.#X=.=.=.w.=.w.1Xy.4.4.=.j u.u.- g w w w w w w w w w ; j g g j j 9.^.. 6 8 6 8 4 fXJXfX4 8 6 8 6 % b *X*X*X*X=X*XE % 4 h h h h h h h 4 & 6 p [ [ O bXbX  & * 5 [ u ",
"t j t t t t t t t t t t t j t t t t H U L U U L L L L U U L L U L U U L L L O.O.L I P P I o.+.E @.+.o.o.I P P P P I oXJ J J J J J J J J ..C I.1X .X.X.Y.X.X.X. .X. . . .X.#.K K K K K K B.f.s.C.s.s.f.f.f.j.B.f.f.C.1XZ.>.V.5.5.V.5.5.V.l k 5.5.5.5.5.5.5.5.5.5.x >.v x >.5.5.V.5.5.5.5.x l v k k k nX1.-.-.-.-.1.g.g.m.cX1.1.1.1.-.1.-.m.b.g ;.*.*.*.*.<.k i.i.<.4.4.w.w.w.:X;Xw.w.w.=.w.xXg j j j j j j j j j j j j j j 4.4.r.^.. 6 8 6 8 4 fXJXfX4 8 6 8 6 % b *X=X*X*X=X*XE % 4 h h h h h h h 4 & 6 p y [ $ D.a   & 5 [ [ p ",
"w t t w w w w w w w w w w t t w w w F L L U L L L L H H H I :X*X:XU.H L L L $.S P P P P P o.I E @.+.o.o.P P P P P J oXE i Z C C C C Z B J Z c.1X@. .X.Y.X.X. . .X. . . .K #. .c K K B f.B.v s.C.s.s.s.f.f.j.B.f.f.U.2Xv.5.5.v v 5.v v V.x k K v v v v v v v v K v v v v v v v 5.K v v v v v K l < 2.cX-.-.-.-.-.1.1.&.m.cX1.1.1.-.-.,.-.-.dXd *.*.d d d ;.f #Xt.=.=.=.w.w.1.3X:X4.7.4.=.=.xX=.g g g g g g g g g g g j j j G G 9.^.. 6 8 6 8 4 fXJXfX4 8 6 8 6 % b *X=X*X*X=X*XE % 4 h h h h h h h 4 & 6 8 p i $.4 & 4 & $ [ 6 6 ",
"q t q q q q q q q q q q q t q q q q N F M L H M M M L +.E =X&XN +.=XN A F ..[ V V P S V S I I I @.o.S S S A V V A B R ].i B B B B B B B Z ( c.&X-X( ..c.( ( ( i  .C i C b O.O.h K b y B.j.b v s.v v / s.f.j.B.f.f.<XU.l.s.c c c 5.c c 5.c b c c c c c c c c c c c c c c c c c K c c c c c c c l , cXh.-.-.-.-.-.-.-.&.E.lX1.1.-.-.-.,.-.d dX1.f d f f f d =.#X=.=.=.=.w.w.=./.9Xt.4.=.=.g zX=.- g w w w w w w w w ; j g g j j 9.^.. 6 8 6 8 4 fXJXfX4 8 6 8 6 % b *X*X*X*X=X*XE % 4 h h h h h h h 4 & 6 8 6 8 9 a a 8 8 8 6 6 8 ",
"q t q q q q q q q q q q q t q q q q N L M L L F L N *X=X;X&XL N E =Xt M F $.O.V A P P A S I I I @.o.S S S A A A A A A oXV B B B B B B B V c.) o.1X.. .Y.( (  . . .C C C C  .#.b K b b B./ v v s.v / / s.f.j.B.f.C.1XC.j.v.K c c 5.c c 5.c c c c c c c c c c c c c c c c c c c 5.c c c c c c c b -.vX:.-.-.-.;.-.<.-.&.E.lX1.1.-.-.-.,.-.k g.m.f d f f d k p.i.*.=.=.=.w.w.=./.9Xy.=.4.=.g u.u.- g g g g g g g g g w j g j j G 9.^.. 6 8 6 8 4 fXJXfX4 8 6 8 6 % b *X*X*X*X=X*XE % 4 h h h h h h h 4 & 6 8 8 6 6 8 6 6 6 6 6 8 6 ",
"q t q q q q q q q q q q q t e e e e M H M L L F F M *XL M N F M I :XE E V $.P V V P P A S I I I @.o.S S S A A A A A B ].W i B B B B B B  .c.C i <XU.( Y.( (  . . .C C C C b #. .c B j.B.b / v s.v / / s.f.j.B.f.U.-Xx / v.v c c 5.c c 5.c c c c c c c c c c c c c c c c c c c 5.c c c c c c c h T.zXx 1.-.-.;.<.<.1.&.E.lX1.,.-.-.-.,.-.-.-.hX*.d f f d k #Xt.=.=.=.=.w.w.=./.:X-X=.4.=.j u.zX- g g g g g g g g g w j g j j G 9.^.. 6 8 6 8 4 fXJXfX4 8 6 8 6 % b *X*X*X*X=X*XE % 4 h h h h h h h 4 & 6 8 6 8 8 a a a a 8 8 8 8 ",
"q t q q q q q q q q q q q H H F F F F F M L L F F M *XU L L F F M &X=X>XO.O.L A V P P A S I I I @.o.S S S A A A A A V T ].i B B B B B B ) ) C i U.<X .Y.( (  . . .C C C C b O.O.c B B.j.v v v s.v / / s.f.j.B.f.1XU./ v c.j.c c 5.c c 5.c c c c c c c c c c c c c c c c c c c 5.c c c c c c c b vXG.>.,.;.-.<.<.,.h.%.E.lX,.,.-.-.-.,.-.-.d B.g.f f f f =.#X=.=.=.=.=.w.w.=./.^.1X4.=.=.=.=.xXg g g g g g g g g g w j g j j G 9.^.. 6 8 6 8 4 fXJXfX4 8 6 8 6 % b *X=X*X*X=X*XE % 4 h h h h h h h 4 & 6 8 6 a 6 4 - - - 6 a 8 6 ",
"q t q q q q q q q q q q q L H F F F F F M L L F F F *XL L F F F M H N =X$...P A V P P A S I I I @.o.S S S A A A A A A V [.A i B B B B B c.( C C ..1Xo.c.( (  . . .C C C C C C #.C >.B.v v v v s.v / / s.f.j.B.Z.1Xf./ v f.v.c c 5.c c 5.c c c c c c c c c c c c c c c c c c c 5.c c c c c c b 6.vX>.6.F.>.-.>.<.,.h.-.E.Q.6.,.<.<.;.6.-.-.d m.b.7 f f < r.@Xf =.=.=.=.w.w.=./.i.:Xr.=.=.=.j xX=.; g g g g g g g g w j g j j G 9.^.. 6 8 6 8 4 fXJXfX4 8 6 8 6 % b *X=X*X*X=X*XE % 4 h h h h h h h 4 & 6 6 a 4 6 m.hXhXm.k 4 8 8 ",
"q t q q q q q q q q q q q L H F F F F F M L L F F F *XL L F F F M U F =X$.V P V V P P A S I I I @.o.S S S A A A A A A B ].W i B B B B ( c.C i  .i -X&Xc.( (  . . .C C C C C b O.O.m.m.b / v v s.v / / s.f.j.b.-X-Xf.s./ v v./ c 5.c c 5.c c c c c c c c c c c c c c c c c c c 5.c c c c c c b !.Q.v 6.V.5.;.5.,.,.D.d.Q.Q.6.w.,.<.>.6.-.-.;.,.dXd f f < @Xp.d =.=.=.=.w.w.=./.r.-X;X=.=.=.g zXw.- g g g g g g g g w j g j j G 9.^.. 6 8 6 8 4 fXJXfX4 8 6 8 6 % b *X*X*X*X=X*XE % 4 h h h h h h h 4 & 6 a 4 -.HXLXkXhXHXLXm.4 8 ",
"q t q q q q q q q q q q q L H F F F F F M L L F F L *XL L F F F M L F =X+.V P V V P P A S I I I @.o.S S S A A A A A A V D [.i B B B B c.( C i  .( +.1Xc.( (  . . .C C C C C b  .#.B.f.v v v v s.v / / s.f.j.B.1XS.f.s./ v j.c.c 5.c c 5.c c c c c c c c c c c c c c c c c c c 5.c c c c c c b vXF.5.6.V.6.>.6.,.6.D.d.Q.Q.6.w.,.<.>.V.;.-.>.c dX&.g f f #X4.=.=.=.=.=.w.w.=./.r.U.:X=.=.=.g u.u.- g g g g g g g g w j g j j G 9.^.. 6 8 6 8 4 fXJXfX4 8 6 8 6 % b *X*X*X*X=X*XE % 4 h h h h h h h 4 & 8 6 -.LXkX> o o X m.LXm.4 ",
"q t q q q q q q q q q q q L H F F F F F M L L F F L *XL L F F F M L N =X+.A P V V P P A S I I I @.o.S S S A A A A A A A Z [.D i B B C c. .C C  . . .1X'.)  . . . .C C C C C C C #.B.v / v v v s.v / / s.f.j._.<Xf.f./ v s.s.v.v 5.c c 5.c c c c c c c c c c c c c c c c c c c 5.c c c c c b 6.vX5.6.6.V.6.6.6.6.V.D.d.Q.Q.6.D.6.,.6.F.>.-.6.c b.b.t < t.#Xd =.=.=.=.4.w.w.=./.r.t.1X7.=.=.j w.zX- g g g g g g g g w j g j j G 9.^.. 6 8 6 8 4 fXJXfX4 8 6 8 6 % b *X=X*X*X=X*XE % 4 h h h h h h h 4 & a 4 hXkXo X & & & o m.LXk ",
"q t q q q q e N N N N N N L F F F F F F M L L F F L *XL L F F F M L Z 2XE B P A V P P A S I I I @.o.S S S A A A A A A A B W ].i B B ) ) J  .C  . .( &X,X)  . . . .C C C C C C B v.v.b / v v v s.v / / s.f.j.5XU.f.f./ v s.v v.f.K c c 5.c c c c c c c c c c c c c c c c c c c 5.c c c c c b !.!.v 6.6.V.6.6.6.6.V.D.d.Q.Q.6.F.6.6.6.V.>.;.6.:.1.hXc < i.i.d =.=.=.=.4.w.w.=./.i.=.:XU.*.=.=.=.xXg w g g g g g g g w j g j j G 9.^.. 6 8 6 8 4 fXJXfX4 8 6 8 6 % b *X*X*X*X=X*XE % 4 h h h h h h h 4 & 6 s LXg.o & & & .   & LXm.",
"q t q q q q N L H L L L F L F F F F F F M L L F M L *XH L F F F M L [ ,X;X@.+.V A P P A S I I I @.o.S S S A A A A A A A V D oXB B B c.(  .C C  . . .o.1XX.(  . . .C C C C C C i B.#.v / v v v s.v / / s.f.A.1XC.f.f./ v s.v f.v.K c c 5.c c c c c c c c c K c c c c c c c c c 5.c c c c c c vXF.5.6.6.V.6.6.6.6.V.D.d.Q.Q.F.F.6.6.6.V.6.5.6.>.;.hXh.f #Xt.=.=.4.=.4.4.w.w.=./.i.=.;X-X*.=.=.j xX=.; g g g g g g g w j g j j G 9.^.. 6 8 6 8 4 fXJXfX4 8 6 8 6 % t XX.X.X.X.XXXU % 4 h h h h h h h 4 & 4 -.LX< X & X 6 bXIX>.hXm.",
"q t q q q q N H F F F F F L H F F F F F M L L F M L *XF L F F F M L $.+.&X=X*XV A P P A S I I I @.o.S S S A A A A A A A A B [.T i ( c.C  .C C  . . . .2XU.)  . . .C C C C C C f.B.#.( v v v v s.v / / s.f.U.:Xj.f.f.s.v s.s.v v.f.c c 5.c c c c c c c b Z.=Xx c c c c c c c c 5.c c c c b F.vX>.6.6.6.V.6.6.6.6.V.D.d.Q.Q.F.F.6.6.6.V.6.6.6.,.>.m.m.4.#X=.=.=.4.=.4.4.w.w.=./.i.=.9.1X=.=.=.g zXw.- g g g g g g g w j g j j G 9.^.. 6 8 6 8 4 fXJXfX4 8 6 8 6 % t .X.X.X.X.XXXL % 4 h r r r r r h 4 & 4 -.LX-.X & & : d.J.8 g.&.",
"e N e e e e M M M M M M M L F M M M M M M L H M M D =XM L M M M F o.[ V B V *XA V P S V S I I I @.o.S S S A V V V V A V A B R ].y ) ) B  .C i C  . .( '.<X)  .i  .C i i i b B B.m.O.#.v v v v s.v v / s.f.1X'.f.f.f./ v s.s.c j.j.c c 5.c c c c c c c l I.<Xb c c c c c c c c K c c c c i Q.!.v 6.6.6.V.5.6.6.6.6.D.d.W.Q.6.F.6.6.5.V.6.6.6.5.6.D.B.i.i.4.=.=.4.=.4.4.w.w.=./.i.4.=.<Xq.f =.g u.u.- g w w w w w w ; j g g j j 9.^.. 6 8 6 8 4 fXJXfX4 8 6 8 6 % t .X.X.X.X.XXXL % 4 h r h h h r h 4 & 6 6 HXhXo & & &   O > b.k ",
"L U L L L L L L L L L L L U L L L L L L L U L F F U *XH U L L L F O.O.L P P *XI P P P P P o.I E @.+.o.o.P S +.=X:X@.V P P P P oXZ c. . .X. . . . ...X.Y.1Xo.(  .X. . . . . . .B.C.X.#.s.s.s.s.C.s.s.s.f.S.5XB.f.f.f.s.s.s.s./ f.v.v v V.v v v v v v K x U.1Xc v v v v v v v v 5.K v v v v vXF.6.6.6.6.F.6.6.6.V.D.D.h.Q.Q.F.F.F.V.6.F.6.6.6.6.F.6.B.CXy.7.=.=.7.=.4.7.w.w.<./.i.7.=.;X-X*.=.j u.zXw j g g g g g g g j j j G G 9.^.. 6 8 6 8 4 fXJXfX4 8 6 8 6 % t .X.X.X.X.XXXL % 4 h r r r r r h 4 & a 4 m.LX-.X & & & > b.m.6 ",
"L U L L L L L L L L L L L U L L L L L L L U U E E U.*XH U L L L L $.P P P P *XP V P P P P o.I E @.+.o.o.I Z &X&X+.:XA P P P J ].+.c.J  .X. . . . .X.X.c.,X&X(  .X. . . . .C j.B.X.s.#.X.>.s.s.C.s.s.s.f.-X,XB.f.f.f.s.s.s.s.s.v v.f.K V.K v v v K v K c U.<XZ.v K v v v v v v 5.5.v 5.c H.vX5.V.6.6.V.F.6.6.6.V.D.J.h.Q.(.F.F.F.V.6.F.6.6.6.6.F.6.!.$X8.0.4.=.7.4.7.7.w.w.w./.i.7.4.r.1X=.=.=.w.xXj j j j j j j j g j j j G 4.9.^.. 6 8 6 8 4 fXJXfX4 8 6 8 6 % t .X.X.X.X.XXXL % 4 h r r r r r h 4 & 6 8 4 hXLX6 & & - g.b.a 6 ",
"M L F M M M M M M M M M M L F M M M M M M H &X*X&X=X+.M L M M F O.$.H V A V *X&XE P S V S I I I @.o.S S S V &X+.B =X*XA V A Z R '.) C i  .C i C  . ...c.S.1X( i  .C i i i B B.j.X./ X.#.v v v s.v v / s.1XP.B.s.f.f./ v s.s.v v j.c.c 5.c c c c l I.U.l &X&XI.l c c c c c c c K c c c i Q.!.>.6.6.5.6.V.5.6.6.6.6.D.d.W.Q.6.F.6.6.5.V.6.6.6.5.6.>.i.vX7.9.=.=.7.7.8.4.<.w.=./.i.4.4.=.1Xq.f =.j xXj ; w w w w w w ; j g g j j 9.^.. 6 8 6 8 4 fXJXfX4 8 6 8 6 % t .X.X.X.X.XXXL % 4 h r r r r r h 4 & 6 8 6 6 -.8 8 8 6 a a 6 8 ",
"F L H F F F F F F F F F F L H F F F F F F H =XI N N N H L F H F [ O.L A A A +.&X:XP P A P I I E @.o.S S S B &X+.V V *XE V A A J Y.J i C  .C C  . . .X.Y.( 1XI.i  .C C C C ( B./ X./ ( #./ v v s.v / x U.<Xj.B.f.f.f.s.v s.s.v v s.v.c 5.c c c c l U.-Xl &XU.U.l c c c c c c c 5.c c c c vX6.6.6.6.6.6.V.6.6.6.6.V.D.d.Q.Q.F.F.6.6.6.V.6.6.6.6.V.,.#XMX0.q.4.4.9.9.8.4.w.w.=./.i.4.4.=.;X-X*.=.j zXw.- g g g g g g w j g j j G 9.^.. 6 8 6 8 4 fXJXfX4 8 6 8 6 % t .X.X.X.X.XXXL % 4 h r r h r r h 4 & 6 8 8 8 4 8 6 6 8 6 6 8 6 ",
"M L H F F F F F F F F F F L F F F F F F M H =XE M L F H L M F A [ P S A V P P B =XI A A S I I P @.+.+.+.A +.<XI V V =X+.V A A ) '.E i C  .C C  . . .X.Y.) &X:Xi  .C C C B j.B.( C./ / #.X.v / s.v / / <XU.j.B.f.f.f./ v s.s.v / 5.v.f.5.c c c c l &X<Xc &XI.&Xl c c c c c c c 5.K c b T.vXv 6.6.6.6.6.V.6.6.6.6.V.D.d.Q.Q.F.F.6.6.6.V.6.6.6.6.V.e.#XE.R.8.8.8.9.9.8.7.0.w.=./.i.4.4.=.q.1X=.=.g u.u.- g g g g g g w j g j j G 9.^.. 6 8 6 8 4 fXJXfX4 8 6 8 6 % t .X.X.X.X.XXXL % 4 h r r h r r h 4 & 6 8 6 8 8 8 8 8 8 8 8 6 8 ",
"M L H F F F F F F F F F F L F F F F F F M H *XI M F F H L V F O.O.L S A A S P V =X+.A A P P @.>X2X:X*X:XS >X+.V S B =X+.V A A c.o.XXi C  .C C  . . .X.Y.( X.1X.. .C C C B B.j.( s./ / X.#.v / s.v v C.1XC.j.B.f.f.f./ v s.s.v / s.f.v.5.c c c c l &X<XZ.&XU &Xx c c c c c c c x U.U.9 vX!.5.6.6.6.6.6.V.6.6.6.6.V.D.d.Q.Q.F.F.6.6.6.V.6.6.6.6.d.i.@XJ.Q.8.8.8.9.9.8.8.e.0.=./.i.4.4.4.*.:Xy.*.j u.zX- g g g g g g w j g j j G 9.^.. 6 8 6 8 4 fXJXfX4 8 6 8 6 % t .X.X.X.X.XXXL % 4 h r r r r r h 4 & 6 8 6 8 6 > p 6 > 6 8 8 6 ",
"M L H F F F F F F F F F F L F F F F F F M H *XI M F F H L M F [ ..P S A A S P V =X+.A A P P *X&X@.+.Z =X*X=XB A A B &X+.V A ( c.Z XXJ i  .C C  . . .X.c.( ) <X&X( C C C / B./ / C.X./ ( #./ v s.v x &X-Xf.j.B.f.f.f./ v s.s.v v s.v v.C.c c c c l &X:X&XI.K ;Xb c c c c c c c x -X&Xx vX6.6.6.6.6.6.6.V.6.6.6.6.V.D.d.Q.Q.F.F.6.6.6.V.6.6.6.6.d.#Xy.7.MXe.8.8.9.9.8.8.r.r.=./.i.4.4.4.*.U.:X*.j w.xX; g g g g g g w j g j j G 9.^.. 6 8 6 8 4 fXJXfX4 8 6 8 6 % t .X.X.X.X.XXXL % 4 h r r r r r h 4 & 6 8 8 6 9 O.| | #.i 6 8 8 ",
"M L H F F F F F F F F F F L F F F F F F M L *XL M F F H L F S $.V P S A A S P B =X+.V A S J *X+.@.o.S +.&X+.V A A B &X&XB D ,XX.C XX+.i  .C C  . . .X.c.X.( +.1X .C C B j.B. .( -XU.( / #.X.v s.v / 1XS.f.j.B.f.f.f./ v s.s.v v s.c j.j.c c c c b &X-X;XZ.K =Xc c c c c c c c x -X7X3XzXK 6.6.6.6.6.6.V.6.6.6.6.V.D.d.Q.Q.F.F.6.6.6.V.6.6.6.5.F.$Xe.8.Q.R.8.8.9.9.8.9.r.r.=./.i.4.4.=.=.=.1X8.*.=.xXg w g g g g g w j g j j G 9.^.. 6 8 6 8 4 fXJXfX4 8 6 8 6 % t .X.X.X.X.XXXL % 4 h r r r r r h 4 & 6 8 6 ) eXeX| [ | eX#.6 8 ",
"M L H F F F F F F F F F F L F F F F F F M L *XL M F F H L F O.O.V P S A A S P B @.:X*XS I =X:XE @.o.S S V V A A A V I :X+.=X5X+...1X*Xi  .C C  . . .X.Y.( ( ( 1XI.i C C B.f.( / 1X&X) / X.#.v C.x U.<X/ f.j.B.f.f.f./ v s.s.v v s.v f.v.c c c c c &X-X-XZ.c -Xc c c c c c c b Z.<X7XAXG.5.6.6.6.6.6.6.V.6.6.6.6.V.D.d.Q.Q.F.F.6.6.6.V.6.6.6.>.y.#X6.9.T.E.8.8.9.9.8.9.r.r.=./.i.4.4.=.=.f ;X-X*.j xX=.; g g g g g w j g j j G 9.^.. 6 8 6 8 4 fXJXfX4 8 6 8 6 % t .X.X.X.X.XXXL % 4 h r r h r r h 4 & 8 6 i eX[ & % % % $ eX#.p ",
"M L H F F F F F F F F F F L F F F F F F M L *XL F F F H L F $.S V P S A A S P A V A *XP @.*XE I @.o.S S S A A A A S B @.7XU.'.@.o.:X1XJ  .C C  . . .X.c.o.U.i &X<Xi C / B.( ( X.<X&X( / / #./ s.x <XU.) f.j.B.f.f.f./ v s.s.v v s.v v v./ c b c c &X;X:XU c -XK c c c c c c x &XU.1X<X>.6.6.6.6.6.6.6.V.6.6.6.6.V.D.d.Q.Q.F.F.6.6.6.V.6.6.6.>.@Xi.7.0.e.MX8.8.9.9.8.9.r.r.=./.i.4.4.=.=.=.4.1X8.g zXw.- g g g g g w j g j j G 9.^.. 6 8 6 8 4 fXJXfX4 8 6 8 6 % t .X.X.X.X.XXXL % 4 h r r h r r h 4 & 8 6 | | % & & & & = ! eXu ",
"M L H F F F F F F F F F F L F F F F F F M L *XL F F F H L S $.V A P S A A S P V A Z &X=X:X+.S E @.o.S S S A A A A A V P W ) S.>X@.&X*X@.( C C  . . .X.c.,X1X( ..1Xo.i m.B. .( Z.,X&XX.( / #.X.:.Z.1Xs.s.f.j.B.f.f.f./ v s.s.v v s./ c c.j.G U.K c &X&X1XK c =XK c c c c c c b -XK ;X5X6.6.6.6.6.6.6.6.V.6.6.6.6.V.D.d.Q.Q.F.F.6.6.6.V.6.6.6.6.$Xe.0.e.9.MXK.8.9.9.8.9.r.r.w./.i.4.4.=.=.=.*.U.<X; u.u.- g g g g g w j g j j G 9.^.. 6 8 6 8 4 fXJXfX4 8 6 8 6 % t .X.X.X.X.XXXL % 4 h r r r r r h 4 & 6 u eX$ % & & & & & & eXO.",
"M L H F F F F F F F F F F L F F F F H L M U *XL F F F H L O.O.V A P S A A S P V A P I @.@.I I I @.o.S S S A A A A A A V B c. .&X*XU.&X>X( C C  . . . .Y.-X=X..i -X=Xi B.f./ ( &XU.&XX.( / X.#.;.-X&Xx s.f.j.B.f.f.f./ v s.s.v v s.v v f.v.K 1XK K &XU.1XK b =XI.b c c c c K U -Xb zX5XZ.>.6.6.6.6.6.6.V.6.6.6.6.V.D.d.Q.Q.F.F.6.6.6.V.6.6.>.y.#X6.0.e.0.W.E.Y 9.9.8.9.r.r.0./.i.4.4.=.=.=.=.*.:X=X2.zX- g g g g g w j j j j G 9.^.. 6 8 6 8 4 fXJXfX4 8 6 8 6 % t .X.X.X.X.XXXL % 4 h r h h h r h 4 & 6 i eX5 % & & X X & % | #.",
"M L H F F F F F F F F F F L F F F F N N N L *XL F F F H L $.S A V P S A A S P V V P S B V I I I @.o.S S S A A A A A A A X.c.B +.<X@.U.>X..b C  . . . .'.U.U.U.i o.1XC.B.( / / -XC.-XX.( / / #.S.1XC./ s.f.j.B.f.f.f./ v s.s.v v s.v v C.v.A.7XK c &XI.7XK l -X1Xc c c c l &X<XU.,.vX;XI.>.6.6.6.6.6.6.V.6.6.6.6.V.D.d.Q.Q.F.F.6.6.6.V.6.6.>.@Xi.0.0.0.0.K.).8.9.9.8.9.r.r.0./.i.4.4.=.=.=.=.=.=.1X:XvX- - - - ; ; - g 7 ; g j t.^.. 6 8 6 8 4 fXJXfX4 8 6 8 6 % t .X.X.X.X.XXXL % 4 a 9 9 9 9 9 a 4 & 6 u eX$ % &   bXD.O & | O.",
"F L H F F F F F F F F F F L F F F M &X=X&X*X*XM F F F F o.$.V A V P S A A P P V A P P A P I I I @.o.S S S A A A A A A A c.X.Z +.1X+.+.>X@.i i i  . .( '.U.X.&Xi ( >X`.j. ./ / -X/ U.U.) / / ) 2X-Xx s.s.f.j.B.S.C.f./ -XZ./ v v s.v / C.j.Y.7XU U.-XZ.7XK l -X7XK c c c x -X8X+.!.!.&XI.>.6.6.6.6.6.6.V.6.6.6.6.V.D.d.Q.Q.F.F.6.6.6.V.6.6.6.#Xr.e.0.0.e.e.).e.8.9.8.9.r.r.0.3Xi.t.4.=.=.=.=.=.=.=.;X7X*XU.y.q.E U U q.q.q.q.q.U.^.. 6 8 6 8 4 fXJXfX4 8 6 8 6 % t .X.X.X.X.XXXL % : D W T T T W T 6 & 8 6 eX|   & o T.IX* $ eXi ",
"M L H F F F F F F F F F M L F F F L :XE E E U M F F V F O.O.V A V P A A V S P V V P P A S I I I @.o.S S S A A A A A A Z c...J o.1X+.o.<X:Xi &X+.(  .+.5XU.X.=Xi ( +.1Xs.( / X.-X/ Z.&X( / / X.1XZ.v / s.f.j.B.<XA.f.s.7XI.x v v s.v v C./ Y.1XZ.<X<XU 1XK l &X8XU x K c l -X8Xo.vXw.U.;X6.6.6.6.6.6.6.V.6.6.6.6.V.D.d.Q.Q.F.F.6.6.6.V.6.>.r.#X0.e.0.0.e.0.E.T.8.9.8.9.r.r.e.3Xi.t.4.=.=.=.=.=.=.=.f vXU.&X*X:X:X:X:X:X:X:X:X:X1X^.% 6 8 6 8 4 fXJXfX4 8 6 8 6 % t .X.X.X.X.XXXL % : W ].].].].].W 6 & 8 6 ) eX! % & X G.u eX| 6 ",
"U U U U U U U U U U U U U U U U U U *XH H U U U U U U U $.o.P P P o.P P P I o.P P o.I P I +.+.+.@.+.o.o.o.P P P P P I X.c.o.o...o.o.....=X=X7X&X .X.<X8XU.) ,XU. .f.5X&Xf.C.A.-Xf.S.-Xf.C./ &X2X) C.f.f.C.j.B.1XP.f.C.1X&XC.s.C.C.C.C.C.s.P.<XU.-XU.Z.1XV.:.U.7XI.;X-XV.I.-X1XK.vX6.U.8X;XV.F.F.F.F.F.F.F.F.F.F.J.G.J.Q.(.F.H.F.F.F.F.F.V.@Xi.F.K.K.K.K.K.R.Q.q.r.q.r.K.r.r.3X^.r.w.w.4.4.7.=.7.4.=.xX2.7 f g g g g j j j =.=.r.^.. 6 8 6 8 4 fXJXfX4 8 6 8 6 % t .X.X.X.X.XXXL % 4 a 9 9 9 9 9 a 4 & 6 8 p O.eX6 & 4 % [ | 8 6 ",
"F L H F F F F F F F F F F L H F M L *XF F L L F F H F ..[ V A A A P S A A P P A A P P A P I I I @.o.S S S A A A A A A c.X.J ..J J J ..C @.>X+.&Xi =XU.1XU.) +.=Xi B.).1XX.( Z.&X/ X.-XX.( X.1X'.O.v / s.f.j.B.7XS.f.C.<X8XI.x / s.v v C.x I.,X&X&Xl U <XK l U.:XU.7X:XI.7X-XU.!.!.x U.8X;X:.5.6.6.6.6.V.6.6.6.6.V.D.d.Q.Q.F.F.6.6.6.V.6.6.#Xr.e.e.0.0.e.e.0.MXe.9.8.9.r.r.r.3X^.9.4.4.4.4.4.=.4.=.g u.u.- g g g g g j j j j G 9.^.. 6 8 6 8 4 fXJXfX4 8 6 8 6 % t .X.X.X.X.XXXL % 4 h r h h h r h 4 & 6 8 8 6 9 8 8 8 a 9 8 6 8 ",
"M L H F F F F F F F F F F L F F M U =XM M L H M F V F O.O.V A A V P S A A S P V V P P A S I I I @.o.S S S A A A A A J c.J J J J J J J J o..Xo.&X .-X .Y.X.( o.&X( B.) -X-X) Z.&X/ / -XX.) -X&XS.1X/ / s.f.j.).1XS.f.-X:X8XU.v / s.C.I.s.v I.'.<X&Xx K :XK c K I.&X7X<XU.8X<Xh vXF.:.U.8X;XZ.U.>.6.5.5.V.6.6.6.6.,.D.d.Q.Q.F.F.6.6.6.U.>.r.#X7.e.e.0.0.e.K.8.E.T.8.8.9.r.r.r.3X^.9.4.4.8.4.4.=.4.=.j u.zX- g g g g w j g j j G 9.^.. 6 8 6 8 4 fXJXfX4 8 6 8 6 % t .X.X.X.X.XXXL % 4 h r r h r r h 4 & 6 8 8 8 6 6 6 6 6 6 6 8 6 ",
"M L H F F F F F F F F F F L F F M I =XM M L L F F F V $.P V A A V P S A A S P V V P P A S I I I @.o.S S S A A A A A X.c.A ..J J J J J J ..XX+.=X+.&X .c.( ( X.=XA.B.( X.7XZ.Z.&X/ / -XX.I.1X( U.7XX./ s.f.j.).<XU.,X8XU.<X1XU.v s.Z.<XZ.x U.'.'.I.x K -XK c b K :X8X<X&X8XU.,.vX5.6.0.U.;X;X1X6.>.Z.U.6.6.6.6.6.F.D.d.W.Q.F.F.6.6.0.<X>.@X@X6.e.e.0.0.e.K.0.T.Q.8.8.9.r.r.r.3X^.9.t.9.8.8.8.4.4.=.j w.xX- g g g g w j g j j G 9.^.. 6 8 6 8 4 fXJXfX4 8 6 8 6 % t .X.X.X.X.XXXL % 4 h r r h r r h 4 & 6 6 6 6 8 6 6 6 6 8 8 6 6 ",
"M L H F F F F F F F F F F L F F M E =XM M L L F H F O.[ L A A A V P S A A S P V V P P A S I I I @.o.S S S A A A A A c.X.J J J J J J J J ..+.@.U.U.&X .Y.(  .( =X_.j. .) U.1XI.&X/ / &XI.1XU.) U.1Xo.v s.f.j.).&XU.<X-Xv Z.9XU.x s.Z.8X1Xz U.'.l.c c c Z.c c c K 1X=X-X1X<XP !.Q.5.6.5.5.1X1X8X;X;.U.-X,.6.6.6.6.-XF.d.Q.(.6.D.6.6.F.<X6.#Xr.7.e.e.0.0.e.e.0.e.MX9.8.9.r.r.r.3X^.9.9.q.8.8.8.4.4.=.=.=.xXg w g g g w j g j j G 9.^.. 6 8 6 8 4 fXJXfX4 8 6 8 6 % t .X.X.X.X.XXXL % 4 h r r h r r h 4 & 8 8 8 8 8 8 8 8 8 8 8 8 8 ",
"M L H F F F F F F F F F F L H H M E =XN F L L F H F [ O.P A A A V P S A A S P V V P P A S I I I @.o.S S S A A A A ..c.J ..J J J J J J J ....XXU.&X&X .Y.(  .( @._.U.U.( ( &X8XU.) ) U.7X8XU.) U.<X$.( s.f.j.`.U.&X<X/ x C.8X&Xv s.I.8X<Xv U.I.v.v c c b c c c x :X8.&X;X&Xo.vXH.5.6.6.6.U.-X;X-X;.;X-X,.6.6.6.6.<XF.h.5X~.K.U.6.6.Z.1Xr.#X0.U.e.e.0.0.e.e.0.0.).K.8.9.r.r.r.3X^.q.q.q.8.8.8.8.8.=.=.j xX=.; g g g w j g j j G 9.^.. 6 8 6 8 4 fXJXfX4 8 6 8 6 % t .X.X.X.X.XXXL % 4 h r r r r r h 4 & 4 4 4 4 4 4 4 4 4 4 4 4 4 ",
"M L H F F F F F F F F F F L M M N E &XN F L L M F A $.A P A A A V P S A A S P V V P P A S I I I @.o.S S S A A A A X.) A ..J J J J J J J .. .+.=X<X&X .Y.(  .( I.U.-X-X) X.( -X7X-X-X1X7X1X&X) &X&X,XX.s.f.j.`.I.U.1Xs.v C.1X-Xx s.-XI.&XZ.U.I.j.f.c c c c c c c K x U.U.b F.vX5.6.6.6.6.>.>.>.-XU.7X7XK.5.>.;X;X1XK.D.7X~.U.:X6.6.I.1Xi.i.Z.<Xe.e.0.0.e.e.0.8.E.E.Y 9.r.r.r.3X^.q.q.q.8.8.8.8.8.4.=.g zXw.- g g g w j g j j G 9.^.. 6 8 6 8 4 fXJXfX4 8 6 8 6 % t .X.X.X.X.XXXL % 4 h r r r r r h 6 & & & & & & & & & & & & & & ",
"M L H F F F F F F F F F M E E E I U.=XN F L L M F O.O.H P A A A V P S A A S P V V P P A S I I I @.o.S S S A A A A c.X.J J J J J J J J J ..J +..X-XU.( Y.( ( i ).5X<X-X( X.( I.&X&X&XZ.<XU.&X( &XU.7XU.) C.j.`.I.f.I./ v s.C.-Xv I.-Xz U.I.U.I.f.v.c c c c c c c c c K K h Q.!.5.6.6.6.6.6.6.>.;X8X1X8XU.:.>.:X<X1XK.D.9X~.U.<X6.<.U.7X$Xr.U.1X0.e.0.0.e.e.0.0.K.).8.9.r.r.r.3X^.q.q.q.8.8.8.8.8.4.=.g zXu.- g g g w j g j j G 9.^.. 6 8 6 8 4 fXJXfX4 8 6 8 6 % t .X.X.X.X.XXXL % 4 h r h h h r h 4 & ;.:.;.;.:.:.:.:.x :.:.:.:.",
"M L H F F F F F F F F M E :X=X=X=X*XE M F L L V F [ O.A P A A A V P S A A S P V V P P A S I I I @.o.S S S A A A ..c.J ..J J J J J J J J ....J XX.. .X.c.( ( ( B.7XU.&XZ.( ) U.I.) ( ( / X.-X( &XU.8X,X) C.j.`.S.f.f./ v s.s.7XU.U.I.z U.U.U.Z.x v.v c c c c c c c c c c c vX6.V.6.6.6.6.6.6.>.U.8X-X1X-X0.>.-X1X1X<XK.7X~.;X1XU.;XU.9X$X6.U.1Xe.e.0.0.e.e.0.0.e.MX0.8.r.r.r.3X^.q.q.q.8.8.8.8.8.8.4.g u.u.- g g g w j g j j G 9.^.. 6 8 6 8 4 fXJXfX4 8 6 8 6 % t .X.X.X.X.XXXL % 4 s r 9 9 9 r s 4 & :.:.,.,.x x :.x J.:.;.x ,.",
"M L H F F F F F F F H N +.;Xe M N N M F M L L F A $.A A P A A A V P S A A S P V V P P A S I I I @.o.S S S A A A ) ) Z ..J J J J J J J J ....C @.+.( X.c.(  .j.B.+.X.U.I.( ( &XZ./ X./ ( X.-XX.&XI.7X,X) f.j.`.Z.f.f./ v s./ 1X&X-XZ.v C.<X<XC.c c.j.c c c c c c c c c b F.vXv V.6.6.6.6.6.6.6.>.;X-X<X8X:X5.:X1X<X8XU.<X;X<X:X-X8X;X1X^.,.;X1Xe.e.0.0.e.K.0.0.0.Q.W.y.r.r.r.3X^.q.q.q.8.8.8.8.8.8.4.j w.zX- g g g w j g j j G 9.^.. 6 8 6 8 4 fXJXfX4 8 6 8 6 % t .X.X.X.X.XXXL % 4 t N N N N N N 4 & :.x Q.W.H.W.d.R.(.H.J.W.H.",
"M L H F F F F H H H L N U.;XN L H L F F M L L F O.O.V A P A A A V P S A A S P V V P P A S I I I @.o.S S S A A A c...J J J J J J J J J J ....J +.XX .X.c.(  .B.j./ ) U.&X) &X7XX./ / / / ( :X7X&XZ.1X,X#.f.j.,XC.f.f./ v s./ <X8X-Xv v s.&XU.v v f.v.c c c c c c c c c b Q.!.v V.6.6.6.6.6.6.6.>.I.U.:X;X;X-X1X1X-X1X1X:X<XU.;X1X8X:X:XI.w.;X1Xe.e.0.0.e.e.0.0.0.T.`.=Xe.r.r.3X^.q.q.q.8.8.8.8.8.8.8.j =.xX7 g g g w j g j j G 9.^.. 6 8 6 8 4 fXJXfX4 8 6 8 6 % t .X.X.X.X.XXXL % : W oXoXoXoXoXXX6 & :.>.bXbX(.Q.Q.bX_.(.(.Q._.",
"M L H F F F M N N N M e U.U.N H F F F F M L L F $...V A P A A A V P S A A S P V V P P A S I I I @.o.S S S A A  .c.Z ..J J J J J J J J J ....J ..oXo. .Y.( / B.( C./ X.<XZ.&XU.( X./ / / ( -X1XC.Z.-X&X#.f.j.,XC.f.f./ v s.v U.7XC.v v C.v v v v v v./ c c c c c c c c c vX6.5.V.6.6.6.6.6.6.6.6.6.6.V.,.U.8X:X:X;X;X;X~.1XU.-X1X9X1X4XU.w.-X<XK.e.7.0.0.K.0.0.e.w.`.-X0.r.r.3X^.q.q.q.8.8.8.8.8.8.8.=.=.xXj w g g w j g j j G 9.^.. 6 8 6 8 4 fXJXfX4 8 6 8 6 % t .X.X.X.X@.XXL % : W oXoXoXoXoX].6 & ;.D.G.H.W.J.(.(.R.Q.W.H.(.",
"F L H F F F E +.E E +.E *XU.N H F F F F M L F A $.A A A P A A A A P S A A P P A A P P A P I I I @.o.S S S A A c.X.Z ..J J J J J J J J J ....J  .@.@.( Y.( v.B.( C./ ( Z.<X-X( / X./ / / / X.( / X.X.-X#.X.j.,Xf.f.f.s.v s.s./ -XC.v v C./ v v / c j.j.c c c c c c c b F.vX>.6.V.6.6.6.6.6.6.6.6.6.6.6.V.6.1XI.-XU.d.d.E.9XU.-X<X7X0X4X<XU.8X:XK.e.-Xe.7.-XU.7.e.w.3X-X0.r.r.3X^.q.q.q.8.8.8.8.8.8.8.4.j xX=.; g g w j g j j G 9.^.. 6 8 6 8 4 fXJXfX4 8 6 8 6 % t XX.X.X.X.XXXL % : W oXoXoXoXoXXX6 & :.:.:.:.:.:.;.:.:.W.,.>.:.",
"M L F M M L :X&X&X&X&X&X&XU M M M M M M M L F O.O.V A A P V V A V P A V V S P V V P S V S I I I @.o.S S S A A c...J J J J J J J J J J J ..J J ..o.XX .Y.( B.j.( C./ ( X.7XZ.( / X./ ( / / ( / C.( ( -XX.#.P.,Xf.f.f./ v s.s.v X.s.v v C.v v v v v / v.c c c c c c c b zX!.>.6.V.6.5.6.6.6.6.6.6.6.6.6.V.>.;XF.F.F.d.d.E.9XU.-X:X1X0Xr.;X:X;X-XK.U.8XI.w.:XU.7.K.w.-X-X0.r.r.3X^.q.q.9.8.8.8.8.8.8.8.4.g zXw.- g w ; j g g j j 9.^.. 6 8 6 8 4 fXJXfX4 8 6 8 6 % t W W W W W W H % : W ].].].].].W 6 & s s s s s s s s s s < 1 1 ",
"L U L L H E =XN F F F F F U L L L L L L L U L $...P P P P P P P P P P P P P P P P P P P P o.I E @.+.o.o.P S X.c.P ......................o.........XXo.c.f.B./ / C.X./ X.S./ X./ C.C./ X.X.X.X.C.X./ ,XS.#.<X<Xj.f.f.s.s.s.s.s.s.C.s.s.C.s.s.s.s.s.v v.s.K v v v v v 5.vXF.6.6.F.V.6.6.6.6.6.6.6.6.6.6.F.6.6.6.6.D.J.D.E.5XU.;X-X:X$Xe.-X7Xw.-X:X1X7XU.w.<XU.w.:XK.-X<Xe.r.r.3X^.r.r.q.9.9.9.9.9.9.q.7.j zXu.q j g g j j j G G 9.^.. 6 8 6 8 4 fXJXfX4 8 6 8 6 % r T T T T T T N & : D R R R R R T 6 & 6 6 6 6 6 6 8 6 6 > E ].].",
"L U L L H E =XH L L L L L U L L L L L L L U P $.P P P P P P P P P P P P P P P P P P P P P o.I E @.+.o.o.P S c.X.P ......................o.........@.@.c.B.B.X.f.C.X.X./ / X.X./ C.C./ X.X.X.X.C.X.( U.7X'.7X,Xj.f.f.s.s.s.s.s.s.C.s.s.C.s.s.s.s.s.v j.j.K v v v 5.b !.vX5.V.6.F.V.6.6.6.6.6.6.6.6.6.V.F.6.6.6.V.D.D.D.E.5XI.;X;X4X#XF.U.;Xw.-X8X7X1XU.w.<XU.w.<XK.:X5XK.r.r.3X^.r.r.q.q.9.9.9.9.9.q.7.j u.zXq j j g j j j G 4.9.^.. 6 8 6 8 4 fXJXfX4 8 6 8 6 % r T T T T T T N & : D R R R R R T 6 & 8 6 6 6 6 6 4 8 8 , >X6X}.",
"L U L L M +.=XN F M M M M L F M M M M M M Y O.O.V A V A P V V V V P A V V S P V V P S V S I I I @.o.S S S Z c...J J J J J J J J J J J J ..J J ....o.XXc.B.j.( ( X./ / / / / / ( X./ ( / / / / C./ ( Z.7X&X,X&Xf.f.f./ v s.s.v v s.v v C.v v v v v v s.v.c c c c c b vX!.>.6.5.V.6.5.6.6.6.6.6.6.6.5.6.V.5.6.6.6.6.D.d.E.5XI.K.Z.#Xy.F.0.7.7.;X8X7X:XU.;X9XU.7.1XK.:X5XT.q.e.3X^.q.q.9.8.8.8.8.8.8.8.4.g w.zX- g w ; j g g j j 9.^.. 6 8 6 8 4 fXJXfX4 8 6 8 6 % r T T T T T T N & : D R R R R R T 6 & 4 ;.H.D.H.J.Q.s 6 , >X|.{.",
"*X*X*X*X=X>X+.N L F F F F L H F F F F F M L $.S A A A A P A A A A P S A A P P A A P P A P I I I @.o.S P A X.c.A ..J J J J J J J J J J J ....J ......XXY.B.( f./ C./ / / / / / / X./ / / / / / C./ ( X.1X<X'.v.f.f.f.s.v s.s.v v s.v v C./ v v v v / v v.s.c c c c 5.vX6.6.6.6.V.6.6.6.6.6.6.6.6.6.6.6.V.6.6.6.6.V.D.d.Q.(.F.D.e.$X0.K.0.0.7.;X-X-X:X;X1X8XU.0.1XK.:X5XQ.q.e.3X^.q.q.q.8.8.8.8.8.8.8.4.j =.xX7 g g w j g j j G 9.^.. 6 8 6 8 4 fXJXfX4 8 6 8 6 % r T T T T T T N & : D R R R R R T 6 & : D.Q.H.W.;.W.4 a , >X|.].",
"L U L L L L M F F F F F F L F F F F F H F o.$.V A A A A P A A A V P S A A S P V V P P A S I I I @.o.S P A c.X.Z ..J J J J J J J J J J J ....J ......@.`.B.( f./ C./ / / / / / / X./ / / / / / C./ / ) U.7X#.c.f.f.f./ v s.s.v v s.v v C./ v v v v / v j.j.c c c b T.zXv 6.6.6.V.6.6.6.6.6.6.6.6.6.6.6.V.6.6.6.6.V.D.d.Q.Q.F.V.i.@X6.K.0.0.0.r.K.;X;X7X7X8X;X0.7XU.:X:XMX-Xr.3X^.q.q.q.8.8.8.8.8.8.8.4.=.=.xXg w g w j g j j G 9.^.. 6 8 6 8 4 fXJXfX4 8 6 8 6 % r T T T T T T N & : D R R R R R T 6 & 4 D.G.D.J.l R.4 a , >X|.].",
"F L F M F F F F F F F F F L F F F F F H F O.O.V A A A A P A A A V P S A A S P V V P P A S I I I @.o.S S ..c.J J J J J J J J J J J J J J ....J ......o.).j.( / / C./ / / / / / / X./ / / / / / C./ / ) U.,Xj.#.f.f.f./ v s.s.v v s.v v C./ v v v v v v / v.c c c b vXT.5.6.6.6.V.6.6.6.6.6.6.6.6.6.6.6.V.6.6.6.6.V.D.d.Q.Q.F.D.#Xy.7.K.0.0.0.0.e.e.U.1XU.8X;X0.8X1X:X-XMX5Xq.3X^.q.q.q.8.8.8.8.8.8.8.4.=.j xX=.; g w j g j j G 9.^.. 6 8 6 8 4 fXJXfX4 8 6 8 6 % r T T T T T T N & : D R R R R R T 6 & 6 d a s a 8 x 6 8 , >X6X%X",
"L L H F F F F F F F F F F L F F F F F F F $.S A A A A A P A A A V P S A A S P V V P P A S I I I @.o.S S X.c.A ..J J J J J J J J J J J J ....J ......A._.o.f./ / C./ / / / / / / X./ / / / / / C./ / / X.C.j.Y.f.f.f./ v s.s.v v s.v v C./ v v v v v / v v.f.c c 5.vX6.6.6.6.6.V.6.6.6.6.6.6.6.6.6.6.6.V.6.6.6.6.V.D.d.Q.Q.V.K.$Xe.0.K.0.0.0.0.e.0.I.<Xe.7X-X;X7X7X-X-XQ.5Xq.3X^.q.q.q.8.8.8.8.8.8.8.4.=.j xX=.- g w j g j j G 9.^.. 6 8 6 8 4 fXJXfX4 8 6 8 6 % r T T T T T T N & : D R R R R R T 6 & 8 6 6 6 6 8 6 8 8 > W >X=X",
"F L H F F F F F F F F F F L H F F F H F S $.L A A A A A P A A A V P S A A P P V V P P A S I I I @.o.S S c.X.J ..J J J J J J J J J J J J ....J ......B.).@.f./ / C./ / / / / / / X./ / / / / / C./ / / / f.j.v.#.f.f./ v s.s.v v s.v v C./ v v v v v / v j.c.c b !.zXv 6.6.6.6.V.6.6.6.6.6.6.6.6.6.6.6.V.6.6.6.6.V.D.d.Q.(.V.i.#X6.e.K.0.0.0.0.e.0.I.;Xe.:X<X<X:X;Xw.<X3X5Xy.3X^.q.q.q.8.8.8.8.8.8.8.4.=.g zXu.- g w j g j j G 9.^.. 6 8 6 8 4 fXJXfX4 8 6 8 6 % r T T T T T T N & : D R R R R R T 6 & 6 6 6 6 6 6 6 6 6 6 , , , ",
"M L H F F F F F F F F F F L F M F F H F O.O.L A A A A A P A A A V P A V V S P V V P P A S I I I @.o.S ..c.J J J J J J J J J J J J J J J ....J ......B.Y.&Xf./ / C./ / / / / / / X./ / / / / / X./ ( / / C.j.v.#.f.f./ v s.s.v v s.v v C.v v v v v v v v / v.v b vXT.5.6.6.6.6.V.6.5.6.6.6.6.6.6.6.6.6.V.6.6.6.6.V.D.d.Q.Q.V.#Xi.0.0.K.0.0.0.0.e.e.0.0.e.I.I.0.;X;Xw.1X8X7Xr.3X^.q.q.q.8.8.8.8.8.8.8.8.=.g u.u.- g w j g j j G 9.^.. 6 8 6 8 4 fXJXfX4 8 6 8 6 % r T T T T T T N & : D R R R R R T 6 % & & & & & & & & & & & & & ",
"M L H F F F F F F F F F F L L L H H F V $.P A A A A A A P A A A V P S P P P P V V P P A S I I I @.o.D X.) S ........J J J J J J J J J J ....J ....A.B.Y.U.Z.( / C./ / / / / / / X./ / / / / / C./ / / / C.j.B.#.C.f./ v s.s.v v s.v v C.s./ / v v v v / v v.( 6.vX5.6.6.6.6.5.V.V.V.6.6.6.6.6.6.6.6.6.V.6.6.6.6.V.D.d.W.Q.K.$Xe.e.0.K.0.0.0.0.e.e.0.0.e.e.7.w.U.U.w.:X1X9XI.3X^.q.q.q.8.8.8.8.8.8.8.8.=.j u.zX- g w j g j j G 9.^.. 6 8 6 8 4 fXJXfX4 8 6 8 6 % r T T T T T T N & : D R R R R R T 6 & 6 6 6 6 6 8 8 8 8 8 6 6 6 ",
"M L H F F F F F F F F F F L q.U q.L F O.[ L S A A A A A P A A A A P o.o.I o.P A V P P A S I I I @.o.S c.X.Z o.o.o.Z.J J J J J J J J J J ....J ..S B.).Y.S.U.) / C./ / / / / / / X./ / / / ( C.A.A.A./ / C.j.B.#.#.d./ v s.s.v v s.v v A.C.A.C.v v v v / v j.c.!.Q.v 6.6.6.6.5.H.F.F.K.5.6.6.6.6.6.6.6.V.6.6.6.6.V.D.d.Q.Q.^.3X0.e.0.K.0.0.0.0.e.e.0.0.e.K.0.0.K.K.K.-X;X1X~.3X^.q.q.q.8.8.8.8.8.8.8.8.=.j w.zX- g w j g j j G 9.^.. 6 8 6 8 4 fXJXfX4 8 6 8 6 % r T T T T T T N & : D R R R R R T 6 & 8 8 8 a 6 - 4 4 - 4 a 8 8 ",
"M L H F F F F F F F F F M U Z.M U U F [ O.P S A A A A A P A A A A P I.A I o.P A V P P A S I I I @.+...c.P J Z.....Z.J J J J J J J J J J ....J ....B.S.Y.A.&XX.( C./ / / / / / / X./ / / / ( C.A./ A.C.( C.j.B.f.#.f./ v s.s.v v s.v v L.s.L.C.v v v v v v / v.vXF.5.6.6.6.6.5.H.6.V.F.5.6.6.6.6.6.6.6.V.6.6.6.6.V.D.d.Q.Q.#X/.e.e.0.K.0.0.0.0.e.e.0.0.e.e.0.0.K.K.e.~.K.;X_.3X^.q.q.q.8.8.8.8.8.8.8.8.4.j =.xXw g w j g j j G 9.^.. 6 8 6 8 4 fXJXfX4 8 6 8 6 % r T T T T T T N & : D R R R R R T 6 & 6 6 8 4 a m.fXKXB.-.4 8 8 ",
"M L H F F F F F F F F F F L U U L L V $.A P S A A A A A P A A A A P P o.o.o.P V V P P A S I I I @.+.X.) S ....o.o.o.J J J J J J J J J J ......S A.B.o.Y.C.U.Z.( C./ / / / / / / X./ / / / / / A.C.C./ / C.j.B.f.#.C.:.v s.s.v v s.v v C.C.C.C.v v v v v / b v.vX5.6.6.6.6.6.5.F.F.F.6.6.6.6.6.6.6.6.6.V.6.6.6.6.V.D.d.W.vX$X~.e.e.0.K.0.0.0.0.e.e.0.0.e.e.0.0.e.K.K.K.e.;XbX/.^.q.q.q.8.8.8.8.8.8.8.8.4.=.=.xXg w w j g j j G 9.^.. 6 8 6 8 4 fXJXfX4 8 6 8 6 % r T T T T T T N & : D R R R R R T 6 & 6 a 4 g.HXHXB.B.fXJXB.4 8 ",
"M L H F F F F F F F F F M L M M M F O.O.V P S A A A A A P A A A V P A V V A P A A P P A P I I I @.+.c.X.P ..J J J J J J J J J J J J J J ......S B.L.o.Y.C.Z.U.( C./ / / / / / / X./ / / / / / X./ ( / / C.j.B.f.#.#.:./ s.s.v / s.v v s.v v v v v v v v / b !.MXv 6.6.6.6.6.6.V.6.5.6.6.6.6.6.6.6.6.6.V.6.6.6.6.V.D.d.E.CX@XF.e.e.0.K.0.0.e.0.e.e.0.0.e.K.0.0.e.e.0.e.K.;X5XvXi.q.q.q.8.8.8.8.8.8.8.8.4.=.j xX=.w g j g j j G 9.^.. 6 8 6 8 4 fXJXfX4 8 6 8 6 % r T T T T T T N & : D R R R R R T 6 & 8 4 -.HXB.& o o o g.JXB.- ",
"M U q.q.Z.M L I.L M I.q.N q.U q.q.N O.+.H P Z.o.I.A A I.o.V o.Z.V I o.o.I.V P I.P V Z.o.I.I I I.&XO.c.I.....Z.o.S.J J Z.o.Z Z.o.Z.o.Z Z.Z.Z ..S.B.X.S.Y.P.A.&XP.A.( C.A.A.A.( C.L./ / L.C.( A.C.A.C.( A.A.j.B.A.L.#.v s.L.s.v L.C.b C.C.A.A.b C.L.v s.A.C.A.vXB.R.F.>.H.H.>.F.F.F.H.5.V.R.6.5.H.F.K.V.5.H.H.>.F.R.D.D.(.AX/.K.e.~.K.7.K.K.~.K.7.K.~.7.e.~.e.0.K.K.~.K.e.^.7XCX^.~.^.K.8.r.~.r.8.8.8.8.4.=.j xX=.- g j g j j G 9.^.. 6 8 6 8 4 fXJXfX4 8 6 8 6 % r T T T T T T N & : D R R R R R T 6 & 8 4 fXfXo & & &   O g.JX-.",
"N U Z.Z.I.M U I.L M I.q.N q.U I.q.V $.I.A P I.Z.I.A A I.o.V I.I.V I o.o.I.V P I.P V I.o.I.I I U.XX#.Y.I.....Z.o.S.J J S.o.Z Z.Z.S.o.Z Z.Z.Z ..).B...P.Y.P.C.U.U.A.v A.A.L.A.( C.P./ / P.C.( A.C.L.C.( A.L.j.B.L.L.#.( s.L.s.v L.A.b C.C.L.A.b C.L.v s.L.C.W.vXj.).F.>.H.K.>.F.H.H.R.>.F.W.6.5.H.H.R.F.>.K.H.>.J.W.D.h.(.AX~.K.e.~.K.7.K.K.~.K.7.K.~.7.e.~.e.0.~.K.~.K.e.~.1X5X^.^.^.~.8.r.~.r.r.r.q.r.0.=.=.zXu.g j =.j G 4.4.r.^.. 6 8 6 8 4 fXJXfX4 8 6 8 6 % r T T T T T T N & : D R R R R R T 6 & 6 k HX-.o & & & h.bX;.B.g.",
"N U Z.Z.I.M U I.L M I.q.N q.U I.q.O.$.I.A P I.o.I.A A I.o.V Z.I.V I o.o.I.V P I.P V I.o.I.I I I.&Xc.o.S.....Z.o.S.J J S.o.Z Z.Z.S.o.Z Z.Z.Z ..).L...S.Y.P.A.o.&XA.( C.A.L.A.( C.P./ / P.C.( A.C.L.C.( A.A.j.B.L.L.Y.#.,.L.s.v L.A.b C.C.L.A.b C.L.v s.L.C.vX!.f.).F.>.H.K.>.F.F.F.K.5.V.W.6.5.H.H.R.F.>.K.H.>.J.W.D.h./.3XW.K.e.~.K.7.K.K.~.K.7.K.~.7.e.~.e.0.K.K.~.K.e.!.-X8X-X:X^.~.8.r.~.r.8.8.8.8.8.=.g u.u.- g j g j j G 9.^.. 6 8 6 8 4 fXJXfX4 8 6 8 6 % r T T T T T T N & : D R R R R R T 6 & 4 -.HX< X & X s PXbXs a.g.",
"N U Z.Z.I.M L I.L M I.q.N q.U I.q.[ o.I.V P I.o.I.A A I.o.V Z.I.V I o.o.I.V P I.P V I.o.I.I I U.'.c.o.S.....Z.o.S.J J S.o.Z Z.Z.S.o.Z Z.Z.Z X.gXX.X.S.Y.P.A.X.&XS.( C.A.L.A.( C.P./ / P.C.( A.C.L.C.( A.A.j.B.L.L.L.#.C.L.s.v L.A.b C.C.L.A.b C.L.v s.L.C.vXJ.V.B.J.>.H.K.>.F.F.F.K.>.V.W.6.5.H.H.R.F.>.K.H.>.J.W.D.h.CX3X~.K.e.~.K.7.K.K.~.K.7.K.~.7.e.~.e.0.K.K.~.K.e.!.-X9X1X1X^.~.4.U.-Xe.U.8.8.8.8.=.g u.u.- g j g j j G 9.^.. 6 8 6 8 4 fXJXfX4 8 6 8 6 % r T T T T T T N & : D R R R R R T 6 & 6 k HX-.X & & &   O X g.g.",
"N U Z.Z.I.M U I.L M I.q.N q.U q.I.[ U I.A P I.o.I.A A I.o.V Z.I.V I o.o.I.V P I.P V I.o.I.I I U.Y.X.o.S.....Z.o.S.J J S.o.Z Z.Z.S.o.Z Z.S.V j.).o.X.S.Y.P.A./ U.U.( A.A.L.A.( C.P./ / P.C.( A.C.L.C.( A.L.j.B.L.L.L.#.X.H.s.v L.A.b C.C.L.A.b C.L.v s.A.R.vXs.6.).j.5.H.K.>.F.F.F.K.5.F.W.V.5.H.H.R.F.5.K.H.>.J.W.h.F.AXvX~.K.e.~.K.7.K.K.~.K.7.K.~.7.e.~.e.0.K.K.~.K.e.!.-X5X1X7X^.~.4.;X:Xr.<Xq.8.8.8.=.j u.zX- g j g j j G 9.^.. 6 8 6 8 4 fXJXfX4 8 6 8 6 % r T T T T T T N & : D R R R R R T 6 & 8 4 KXB.o & & & & X < b.k ",
"q.I.q.q.I.q.Z.I.q.q.I.Z.q.I.U q.@.O.I.I.o.I.I.o.I.o.Z.I.Z.o.I.I.o.I.o.o.I.o.I.I.o.Z.I.o.I.+.I.U.Y.o.S.S.o.Z.Z.o.S.o.Z.S.Z.o.S.Z.S.Z.o.S.S.o.B.P.S.S.S.Y.P.A.A.S.&XC.L.A.A.A.C.L.L.A.A.L.A.A.L.C.L.A.A.L.L.v.B.L.L.L.A.#.H.C.A.L.L.C.L.C.A.L.C.L.L.C.L.C.vXvXJ.H.E.v.K.R.H.F.R.F.F.R.F.H.R.H.H.K.H.R.H.H.R.H.F.R.R.G.^.AXvX~.~.~.~.K.K.~.K.~.K.K.~.~.K.~.~.K.K.~.K.~.~.~.~.3X5X9X7X^.~.e.-X<Xr.1Xq.8.8.8.=.j w.xX; g j g j j G 9.^.. 6 8 6 8 4 fXJXfX4 8 6 8 6 % r T T T T T T N & : D R R R R R T 6 & 8 4 g.JXg.X & & & > b.g.6 ",
"q.I.Z.Z.I.q.I.I.Z.I.I.I.q.I.U q.$.o.I.I.Z.I.I.Z.I.Z.I.I.I.I.I.I.Z.I.o.o.I.Z.I.I.Z.I.I.o.I.I.I.S.Y.I.S.S.Z.S.Z.o.S.Z.S.S.Z.Z.S.Z.S.Z.Z.S.Z.S.gXS.S.S.P.Y.P.P.P.P.&XS.L.A.L.L.A.P.P.A.L.P.A.A.P.C.L.L.A.P.L.v.B.L.L.L.A.#.L.J.L.L.L.J.P.C.L.L.J.L.L.A.L.L.vXW.H.R.R.B.H.R.R.H.W.F.H.W.H.R.R.H.H.R.H.W.H.H.W.H.H.W.W.T.3XvXvX~.~.~.~.~.~.~.K.~.~.~.~.~.K.~.~.~.~.~.K.~.~.~.~.~.3X5X1X:X;X<X1X1XU.7Xq.8.8.8.=.j =.xXg w j g j j G 9.^.. 6 8 6 8 4 fXJXfX4 8 6 8 6 % r T T T T T T N & : D R R R R R T 6 & 6 8 4 m.KX6 & : - g.g.8 6 ",
"U q.U U q.U q.q.U U q.U U Z.L o.$.U o.o.U o.o.I o.I o.o.o.o.o.o.U o.P I o.I o.o.I o.o.I +.+.+.Y.'.+.o.o.o.o.o...Z.o.o.Z.o.o.Z.o.o.o.o.Z.o.E.B.Z.S.S.S.Y.P.A.A.A.U.U.C.C.A.A.C.A.A.C.A.A.C.C.A.C.A.C.A.A.A.c.B.A.A.A.C.#.A.V.C.C.C.C.A.C.C.C.C.C.C.C.C.R.vXJ.J.H.H.L.L.K.J.F.H.F.F.H.F.F.H.F.F.F.F.H.F.F.H.F.F.H.H.H.$X(.vX~.K.K.K.K.K.K.K.K.K.K.K.K.K.K.K.K.K.K.K.K.K.~.~.~.3XMX5X7X7X7X7X8X1X7Xq.8.8.8.4.=.=.xXj ; j g j j G 9.^.. 6 8 6 8 4 fXJXfX4 8 6 8 6 % r T T T T T T N & : D R R R R R T 6 & 6 8 8 6 s 6 8 8 8 a 8 6 8 ",
"M L M M M M M M M M M M M L F O.O.V V V V P A V V V V V P V V V V P A V V S P V V P S V S I I c.@.o.....J J J J J J J J J J J J J J J J ..B.C...X.X.X.Y.C.X.X.X.Z.&X( ( ( ( / ( X./ ( ( ( ( ( C.( ( ( ( / j.B.f.f.f./ X.#.>.v v s.v v C.v v v v v v b zX!.s.V.V.V.f.v.5.5.6.5.V.6.5.5.5.5.5.5.5.5.5.6.V.5.5.5.6.,.i.@XW./.e.e.e.0.0.e.0.0.0.0.e.e.0.0.0.e.0.0.e.e.0.e.K.K.K.3XQ.5X8X:X:X:X-X7X<X;Xy.8.8.=.=.j xX=.; j g g j j 9.^.. 6 8 6 8 4 fXJXfX4 8 6 8 6 % r T T T T T T N & : D R R R R R T 6 & 6 8 8 8 6 8 6 6 6 6 6 8 6 ",
"F L L L L H F F F F F F F L L $.o.A A A A P S A A A A A P P P P V P S A A P P A A P P A P I X.Y.@.o.o.o.....J J J J J J J J J J J J ..Z A.B.X.C.C.A.A.Y.C.C.C.X.C.U.C.s.C.C./ / X./ / / / / / C.C.C.C.f.C.j.B.f.f.f./ / #./ v / s.v v C.s.s.v v v v s.vXD.V.V.V.V.V.v.V.6.6.6.V.V.V.6.6.6.6.6.6.6.6.6.V.6.V.6.6.d.#Xi.Q./.e.K.e.e.0.K.F.e.0.0.e.e.0.0.e.e.0.0.e.e.0.e.K.K.K.3X~.5X<Xr.U.q.q.1X-X:X;X4.8.4.=.j xX=.- j j j 4.G 9.^.. 6 8 6 8 4 fXJXfX4 8 6 8 6 % r T T T T T T N & : D R R R R R T 6 & 6 8 6 8 8 6 8 8 6 8 8 6 8 ",
"F L H Z.Z.8.M F F F F F F L o.S.Z.P A A V P S A A A A A P Z.Z.Z.P P S A A S P V V P P A P I c.X.@.S.S.S.S.Z.J J J J J J J J J J J J ..A m.B.S.P.P.P.S.Y.C.C.C.X.X.I.~.A.L.A./ ( X./ / / / / / C.L.A.L.L.A.j.B.f.f.f./ / #.O.v / s.v v s.C.J.D./ v b T.vXs.V.V.V.V.6.j.j.5.6.6.V.V.H.H.6.6.6.6.6.6.6.6.V.F.H.H.6.0.$XF.Q./.e.K.e.e.0.K.K.K.K.0.e.e.0.0.e.e.0.0.e.e.0.e.K.K.K.3X~.`.3XK.0.8.q.:X;X1X;X4.8.4.=.g zXw.- j j w.7.F.r.^.. 6 8 6 8 4 fXJXfX4 8 6 8 6 % r T T T T T T N & : D R R R R R T 6 & 6 8 6 6 8 a a a a 8 6 8 8 ",
"F L L Z.q.q.M F F F F F V L O.S.Z.U V A V P S A A A A A P o.S.Z.P P S A A S P V V P P A S o.c.o.@.S.S.S.S.Z.J J J J J J J J J J J J J J B.A.P.A.P.P.S.Y.C.C.C.X.C.Z.U.A.L.A./ ( X./ / / / / / C.C.L.L.L.L.j.B.f.f.f./ / X.#.v / s.v v s.C.J.H./ v b vX!.s.V.V.V.V.V.h.v.6.6.6.6.F.H.R.6.6.6.6.6.6.6.6.V.V.H.W.d.i.#XD.Q./.e.K.e.e.0.K.K.W.W.0.e.e.0.0.e.e.0.0.e.e.0.e.K.K.K./.^.Q.~.~.K.8.9.U.;X7X;X4.8.4.=.g zXu.- j =.6.7.K.~.^.% 6 8 6 8 4 fXJXfX4 8 6 8 6 % r T T T T T T N & : D R R R R R T 6 & 6 8 6 8 6 4 - - - 6 a 8 6 ",
"M L U U U H M F F F F F M L #...U A V V V P A V V V V A P U P U V P A V V S P V V P P V D A.c.I @.o.o.o.o...J J J J J J J J J J J J Z C.B.C.A.C.A.S.A.Y.C.C.X.X.C.C.U.Z.f.C.( / X./ / / / / / C.C.C.C.C.A.j.B.f.f.f./ ( / #.( v s.v v s.s.s.s.s.v s.vXV.V.V.V.V.V.V.6.v.d.5.5.6.F.F.V.6.5.6.6.6.6.6.6.V.V.V.V.d.#X^.D.Q./.e.K.e.e.0.e.K.F.F.0.e.e.0.0.e.e.0.0.e.e.0.e.K.K.K.3X^.!.Q.q.0.8.8.4.U.8X;X4.8.4.=.g u.u.- j =.=.4.4.r.^.. 6 8 6 8 4 fXJXfX4 8 6 8 6 % r T T T T T T N & : D R R R R R T 6 & 6 6 8 4 6 g.B.gXm.k 4 8 8 ",
"L U L F F L L L L L L L F o.$.A S S S S S P P S S S S S P A S A S P P S S P P S S P P S D Y.X.o.@.o.o...............................S B.)...X.X.X.X.S.Y.A.A.C.X.A.X.I.U.( X.X./ C.X./ X./ / X.C./ / / / C.c.B.f.f.C./ / C.#.#.>.C./ / C./ / / s.v !.vXs.D.V.V.V.V.V.V.j.v.7.6.F.6.6.6.6.6.6.6.6.6.6.6.F.6.6.6.e.$XK.F.Q./.K.K.K.e.e.K.e.e.e.e.K.e.e.e.e.K.e.e.K.K.e.e.K.K.K./.^.K.MXq.9.9.9.9.q.:X:Xq.9.4.=.j u.zX- j g g j j 8.^.% 6 8 6 8 4 KXJXfX4 a 6 8 6 % r T T T T T T N & : D R R R R R T 6 & 6 a 4 -.KXHXfXgXKXHXm.6 8 ",
"h h h h h h h h h h h h h r r h r r r r r r r r r r r r r r r r r r r r r r r r r r r r r z h h h h h h h h h h h h h h h h h h h h r -.l s h h h h h h h h h h h h h c s s s s s s s s s s s s s s s s s s s s s s s s s z z s s s s s s s s s s ;.;.s d d d d d d d l z s s d d d d d s s s s s s s d d d s j 4.d l l l d l d d d l l l l d d d d d d l d d d d d d l l l l l l ;.h h h h h h h U j h s f f d ;.7 7 8 7 7 7 7 a & 6 8 6 8 4 m.B.m.6 6 6 8 6 % r T T T T T T N & : D R R R R R T 6 & 8 6 k HXhX> o o o g.HXg.4 ",
"& & & & & & & & & & & & & % % & & & & & & & & & & & & & & & & & & & & & & & & & & & & & & & & & & & & & & & & & & & & & & & & & & & & X & & & % % % % % % % % % % % % % & & & & & & & & & & & & & & & & & & & & & & & & & & % & & & & & & & & & & X X & & & & & & & & & & & & & & & & & & & & & & & & & & & & % . & % X % % % % % % % % % % % % % % % % % % % % % % % % % % X X % X % % % % % % % . % % % % % X X & & & & & & & & & 6 8 8 6 s 7 - 6 a s a 8 6 % r T T T T T T N & : D R R R R R T 6 & 8 4 fXKXo X &   x H.2 b.a ",
"8 8 8 8 8 8 8 8 8 8 8 8 8 8 8 8 8 8 8 8 8 8 8 8 8 8 8 8 8 8 8 8 8 8 8 8 8 8 8 8 8 8 8 8 8 8 8 8 8 8 8 8 8 8 8 8 8 8 8 8 8 8 8 8 8 8 8 8 8 8 8 a a a a a a a a a a a a a a a 8 a a s s s s s s s s s s s s a 8 8 8 8 8 8 8 8 8 8 8 8 8 8 8 8 8 8 8 a 8 8 8 8 8 8 8 8 8 8 8 8 8 8 8 8 8 8 8 8 8 8 8 8 8 8 8 8 8 8 8 a 4 & a a s s s s s s s s s s s s s s s s s s s s s d s s d s s d s s s s s s s d s s s s s s d s s s s s s 8 6 & 6 a : l _.s x W.H.Q.6 8 6 % r T T T T T T N & : D R R R R R T 6 & 6 s HXg.o :   ;.UXQ.  b.-.",
"& & & & & & & & & & & & & & & & & & & & & & 6 8 6 8 6 6 6 4 6 6 8 8 8 8 8 8 8 8 8 8 6 & & & & & & & & & & & & & & & & & & : & & & & : 8 8 6 l x l x x x x l x x x x x x l ;.7 N.FXFXFXFXFXFXFXFXFXFXFXFXFXFXa 6 8 6 6 6 6 6 6 6 6 6 6 6 6 6 6 6 6 6 6 6 6 6 6 6 6 6 6 6 6 6 6 6 6 6 6 6 6 6 6 6 6 6 6 6 6 6 6 6 6 8 : & 6 d x d d d d d d d d d d d d d d d d d d d d s d d d d d d d d d d d d d d d d d d d d d d d d d d x a 6 & 6 6 ;.:.H.,.D.(.J.R.:.4 6 % r T T T T T T N & : D R R R R R T 6 & 4 -.HX< X &   ;.D.O & g.g.",
"% & & X % X X X & & & & & & & & & & X & & % 6 8 8 6 s l a ;.8 x 4 6 : 6 : 6 4 6 4 6 6 X % & &   & & X % & X % & & & & & & & % & & X : 8 8 6 l a 6 6 6 6 6 8 6 6 6 6 6 6 6 l 7 N.M.N.N.N.N.N.N.N.N.N.N.N.N.FXa 6 8 6 6 6 6 6 6 6 6 6 6 6 6 6 6 6 6 6 6 6 6 6 6 6 6 6 6 6 6 6 6 6 6 6 6 6 6 6 6 6 6 6 6 6 6 6 6 6 6 8 : & 6 d s 6 6 6 6 6 6 6 6 6 6 6 6 6 6 6 6 6 8 6 a s 6 6 a 6 a 6 6 6 6 6 6 6 6 6 6 6 6 6 6 6 6 6 6 6 6 6 l s 6 & 6 6 d x J.R.D.W.J.R.>.4 6 % r T T T T T R M & : T R R R R R R 6 & 6 -.HX-.X & &     & & g.g.",
". H.x 4 4 a a 8 % & & & & & & & & & & bX,.  6 8 6 6 Q.d.R.G.8 Q.D.x J.s J.;.d.W.G.l & :.W.:.6 a x ,.X d W.d.W.,.  & & & & :   T.MX  : 8 8 6 l 6 <.D.h.d.G.;.l ,.,.D.h.,.a l 7 N.M.M.M.dXM.M.dXdXM.dXM.M.N.FXa 6 8 8 8 8 8 8 8 8 8 8 8 8 8 8 8 8 8 8 8 8 8 8 8 8 8 8 8 8 8 8 8 8 8 8 8 8 8 8 8 8 8 8 8 8 8 8 8 8 6 8 : & 6 d s 6 8 8 8 8 8 8 8 8 8 8 8 8 8 8 8 4 <.:.<.T.E.:.h.T.:.6 8 8 8 8 8 8 8 8 8 8 8 8 8 8 8 8 8 8 8 6 l s 6 & 6 8 6 8 x a a s s l 6 8 6 % 9 M M M M M M t & : M D F F F F M 6 & 6 6 KXB.o & & & & X , b.k ",
"H.R.W.Q.(.d.W.R.& & & & & & & & & & 6 T.<.X 6 8 8 6 d.Q.W.X 8 W.W.(.H._.H.W.W.(.,.d % D.Q.J.R.W.H._.8 x _.D.D.a X & & & & : % h.G.: & 8 8 6 x 6 D.G.T.T.T.;.,.W.R.D.h.E.4 l 7 N.M.M.M.dXM.M.M.dXM.FXM.dXN.FXa 6 8 8 8 8 8 8 8 8 8 8 8 8 8 8 8 8 8 8 8 8 8 8 8 8 8 8 8 8 8 8 8 8 8 8 8 8 8 8 8 8 8 8 8 8 8 8 8 8 6 8 : & 6 d s 6 8 8 8 8 8 8 8 8 8 8 8 8 8 8 8 4 ,.;.l D.T.W.D.MXs 6 8 8 6 8 8 8 8 8 8 8 8 8 8 8 8 8 8 8 8 6 l s 6 & 6 8 8 8 4 6 s a 6 6 8 8 6 & 6 6 8 > > 6 6 6 & 4 6 > > > > > 6 4 & a 4 g.JXg.X & & & : g.g.6 ",
"R.R.W.R.R.d d.D.6 % & & & & & & & & & bXh.  6 8 6 6 D.R.H.H.6 R.R.J.R.D.W.d.R.W.G.x X D.l s W.;.R._.d l (.D.D.a X & & & & :   E.MXX : 8 8 6 l 8 ,.s >.d.G.:.;.G.h.h.D.,.s l 7 N.M.M.M.dXdXM.M.dXM.dXM.dXM.FXa 6 8 8 8 8 8 8 8 8 8 8 8 8 8 8 8 8 8 8 8 8 8 8 8 8 8 8 8 8 8 8 8 8 8 8 8 8 8 8 8 8 8 8 8 8 8 8 8 8 6 8 : & 6 d s 6 8 8 8 8 8 8 8 8 8 8 8 8 8 8 8 6 ;.T.h.G.x G.h.,.D.>.,.x 6 8 8 8 8 8 8 8 8 8 8 8 8 8 8 8 8 6 l s 6 & 6 8 8 6 a R.W.Q.D.4 8 8 6 & 6 6 $.O.O.O.$.i * 4 8 9 H N t H t > & 6 8 4 B.HX6 & : - g.b.a 6 ",
"& x & s 6 & 4 4 & & & & & & & & & & X p & % 6 8 6 6 s 6 6 s 6 6 8 6 a 4 a 6 a 6 a a 4 4 & & 6 4 6 : 6 & x 4 4 & & & & & & : % : 6 X : 8 8 6 l a 6 6 6 6 8 8 4 6 6 6 6 6 6 l 7 N.M.N.N.N.N.N.N.N.N.N.N.N.N.FXa 6 8 8 8 8 8 8 8 8 8 8 8 8 8 8 8 8 8 8 8 8 8 8 8 8 8 8 8 8 8 8 8 8 8 8 8 8 8 8 8 8 8 8 8 8 8 8 8 8 6 8 : & 6 d s 6 6 6 6 6 6 6 6 6 6 6 6 6 6 6 6 6 6 a a 6 6 4 6 4 6 6 6 6 6 6 6 6 6 6 6 6 6 6 6 6 6 6 6 6 6 6 l s 6 & 6 8 8 4 H.W.W.(.R.4 8 8 6 & 9 i O.i $.$.$.u & : h L T T N N H > & 6 8 6 6 k 8 8 8 6 a a 6 8 ",
"&   & X % & & & & & & & & & & & & & & % & & 6 8 6 6 6 8 8 6 6 6 6 8 6 8 6 8 6 8 6 8 6 % & & % & % & % &   & & & & & & & & : & & & & : 8 8 6 l x l l l l l l l l l l l l l ;.7 N.GXFXFXFXFXFXFXFXFXFXFXFXFXFXa 6 8 6 6 6 6 6 6 6 6 6 6 6 6 6 6 6 6 6 6 6 6 6 6 6 6 6 6 6 6 6 6 6 6 6 6 6 6 6 6 6 6 6 6 6 6 6 6 6 6 8 : & 6 d x s s s s s s s s s s s s s s s s s s s s s d d s d s s s s s s s s s s s s s s s s s s s s s s x a 6 & 6 8 8 4 J.W.W.Q.H.4 8 8 6 & 6 9 i 9  . .O.9 & 4 8 9 t t r t h > & 6 6 8 8 6 6 6 6 6 6 6 8 6 ",
"8 8 8 8 8 8 8 8 8 8 8 8 8 8 8 8 8 8 8 8 8 8 8 8 8 8 8 8 8 8 8 8 8 8 8 8 8 8 8 8 8 8 8 8 8 8 8 8 8 8 8 8 a 8 8 8 8 8 8 8 8 8 8 8 8 8 8 8 8 8 a s s s s s s s s s s s s s s a 8 a k k k k k k k k k k k k k k 8 8 8 8 8 8 8 8 8 8 8 8 8 8 8 8 8 8 8 8 8 8 8 8 8 8 8 8 8 8 8 8 8 8 8 8 8 8 8 8 8 8 8 8 8 8 8 8 8 8 8 a 4 & a a d d d d d d d d d d d d d d d d d d d d d d d d d d d d d d d d d d d d d d d d d d d d d d d d d a 6 & 6 a 8 8 a x s ;.s 8 8 a 6 & 8 a p 8 p p > a & 4 a 8 6 6 6 6 a 6 & 8 8 8 8 a 8 8 8 8 8 a 8 8 ",
"& & & & & & & & & & & & & & & & & & & & & & & & & & & & & & & & & & & & & & & & & & & & & & & & & & & & & & & & & & & & & & & & & & & & & & & & & & & & & & & & & & & & & & & & X X X X X X X X X X X X X & & & & & & & & & & & & & & & & & & & & & & & & & & & & & & & & & & & & & & & & & & & & & & & & & & & & & & % & & & & & & & & & & & & & & & & & & & & & & & & & & & & & & & & & & & & & & & & & & & & & & & & & & & & & X & & & & & X & X & & & & & X & & & & & & & & % & & & & & & & & & % & & & & & & & & & & & & & ",
"a a a a a a a a a a a a a a a a a a a a a a a a a a a a a a a a a a a a a a a a a a a a a a a a a a a a a a a a a a a a a a a a a a a a a a a a a a a a a a a a a a a a a a a a a a a a a a a a a a a a a a a a a a a a a a a a a a a a a a a a a a a a a a a a a a a a a a a a a a a a a a a a a a a a a a a a a a a a a a a a a a a a a a a a a a a a a a a a a a a a a a a a a a a a a a a a a a a a a a a a a a a a a a a a a a a a a a a a a a a a a a a a a a a a a a a a a a a a a a a a a a a a a a a a a a a a a a a a ",
">.>.>.>.>.>.>.>.>.>.>.>.>.>.>.>.>.>.>.>.>.>.>.>.>.>.>.>.>.>.>.>.>.>.>.>.>.>.>.>.>.>.>.>.>.>.>.>.>.>.>.>.>.>.>.>.>.>.>.>.>.>.>.>.>.>.>.>.>.>.>.>.>.>.>.>.>.>.>.>.>.>.>.>.>.>.>.>.>.>.>.>.>.>.>.>.>.>.>.>.>.>.>.>.>.>.>.>.>.>.>.>.>.>.>.>.>.>.>.>.>.>.>.>.>.>.>.>.>.>.>.>.>.>.>.>.>.>.>.>.>.>.>.>.>.>.>.>.>.>.>.>.>.>.>.>.>.>.>.>.>.>.>.>.>.>.>.>.>.>.>.>.>.>.>.>.>.>.>.>.>.>.>.>.>.>.>.>.>.>.>.>.>.>.>.>.>.>.>.>.>.>.>.>.>.>.>.>.>.>.>.>.>.>.>.>.>.>.>.>.>.>.>.>.>.>.>.>.>.>.>.>.>.>.>.>.>.>.>.>.>.>.>.>.>.>.>.>.>.>.>.>.>.>.>.>.",
":.:.:.:.:.:.:.:.:.:.:.:.:.:.:.:.:.:.:.:.:.:.:.:.:.:.:.:.:.:.:.:.:.:.:.:.:.:.:.:.:.:.:.:.:.:.:.:.:.:.:.:.:.:.:.:.:.:.:.:.:.:.:.:.:.:.:.:.:.:.:.:.:.:.:.:.:.:.:.:.:.:.:.:.:.:.:.:.:.:.:.:.:.:.:.:.:.:.:.:.:.:.:.:.:.:.:.:.:.:.:.:.:.:.:.:.:.:.:.:.:.:.:.:.:.:.:.:.:.:.:.:.:.:.:.:.:.:.:.:.:.:.:.:.:.:.:.:.:.:.:.:.:.:.:.:.:.:.:.:.:.:.:.:.:.:.:.:.:.:.:.:.:.:.:.:.:.:.:.:.:.:.:.:.:.:.:.:.:.:.:.:.:.:.:.:.:.:.:.:.:.:.:.:.:.:.:.:.:.:.:.:.:.:.:.:.:.:.:.:.:.:.:.:.:.:.:.:.:.:.:.:.:.:.:.:.:.:.:.:.:.:.:.:.:.:.:.:.:.:.:.:.:.:.:.:.",
":.:.:.:.:.:.:.:.:.:.:.:.:.:.:.:.:.:.:.:.:.:.:.:.:.:.:.:.:.:.:.:.:.:.:.:.:.:.:.:.:.:.:.:.:.:.:.:.:.:.:.:.:.:.:.:.:.:.:.:.:.:.:.:.:.:.:.:.:.:.:.:.:.:.:.:.:.:.:.:.:.:.:.:.:.:.:.:.:.:.:.:.:.:.:.:.:.:.:.:.:.:.:.:.:.:.:.:.:.:.:.:.:.:.:.:.:.:.:.:.:.:.:.:.:.:.:.:.:.:.:.:.:.:.:.:.:.:.:.:.:.:.:.:.:.:.:.:.:.:.:.:.:.:.:.:.:.:.:.:.:.:.:.:.:.:.:.:.:.:.:.:.:.:.:.:.:.:.:.:.:.:.:.:.:.:.:.:.:.:.:.:.:.:.:.:.:.:.:.:.:.:.:.:.:.:.:.:.:.:.:.:.:.:.:.:.:.:.:.:.:.:.:.:.:.:.:.:.:.:.:.:.:.:.:.:.:.:.:.:.:.:.:.:.:.:.:.:.:.:.:.:.:.:.:.:.",
":.:.:.:.:.:.:.:.:.:.:.:.:.:.:.:.:.:.:.:.:.:.:.:.:.:.:.:.:.:.:.:.:.:.:.:.:.:.:.:.:.:.:.:.:.:.:.:.:.:.:.:.:.:.:.:.:.:.:.:.:.:.:.:.:.:.:.:.:.:.:.:.:.:.:.:.:.:.:.:.:.:.:.:.:.:.:.:.:.:.:.:.:.:.:.:.:.:.:.:.:.:.:.:.:.:.:.:.:.:.:.:.:.:.:.:.:.:.:.:.:.:.:.:.:.:.:.:.:.:.:.:.:.:.:.:.:.:.:.:.:.:.:.:.:.:.:.:.:.:.:.:.:.:.:.:.:.:.:.:.:.:.:.:.:.:.:.:.:.:.:.:.:.:.:.:.:.:.:.:.:.:.:.:.:.:.:.:.:.:.:.:.:.:.:.:.:.:.:.:.:.:.:.:.:.:.:.:.:.:.:.:.:.:.:.:.:.:.:.:.:.:.:.:.:.:.:.:.:.:.:.:.:.:.:.:.:.:.:.:.:.:.:.:.:.:.:.:.:.:.:.:.:.:.:.:.",
">.>.>.>.>.>.>.>.>.>.>.>.>.>.>.>.>.>.>.>.>.>.>.>.>.>.>.>.>.>.>.>.>.>.>.>.>.>.>.>.>.>.>.>.>.>.>.>.>.>.>.>.>.>.>.>.>.>.>.>.>.>.>.>.>.>.>.>.>.>.>.>.>.>.>.>.>.>.>.>.>.>.>.>.>.>.>.>.>.>.>.>.>.>.>.>.>.>.>.>.>.>.>.>.>.>.>.>.>.>.>.>.>.>.>.>.>.>.>.>.>.>.>.>.>.>.>.>.>.>.>.>.>.>.>.>.>.>.>.>.>.>.>.>.>.>.>.>.>.>.>.>.>.>.>.>.>.>.>.>.>.>.>.>.>.>.>.>.>.>.>.>.>.>.>.>.>.>.>.>.>.>.>.>.>.>.>.>.>.>.>.>.>.>.>.>.>.>.>.>.>.>.>.>.>.>.>.>.>.>.>.>.>.>.>.>.>.>.>.>.>.>.>.>.>.>.>.>.>.>.>.>.>.>.>.>.>.>.>.>.>.>.>.>.>.>.>.>.>.>.>.>.>.>.>.>.",
";.;.;.;.x x ;.;.x x x x x x x x x x x x x x x x x x x x x x x x x x x x ;.;.x x x x x x x x x x x x x x x x x x x x x x x x x x x x x x x x x x x x x ;.;.;.;.;.;.;.;.;.;.;.;.;.;.;.;.;.;.;.;.;.;.;.;.;.;.;.;.;.;.;.;.x x ;.;.x x x x x x x x x x x x x x x x x x x x x x x x x x x x ;.;.x x ;.x x x x x x x x x x x x x x x x x x x x x x x x x x x x x ;.;.x x x x x x x x x x x x x x x x x x x x x x x x x x x x x x x x x x x ;.;.x x x x x x x x x x x x x x x x x x x x x x x x x x x x x ;.x x ;.x x x x x x x x x x x ",
"6 6 6 6 & 6 8 8 9 9 9 9 9 9 9 9 9 9 9 9 9 9 9 9 9 9 9 9 9 9 9 9 9 9 9 9 8 8 :   & & & & & & & & & & & & & & & : : : & & & & & & & & & & & & & & & & 6 8 8 9 9 9 9 9 9 9 9 9 9 9 9 9 9 9 9 9 9 9 9 9 9 9 9 9 9 9 9 6 8 & : 8 8 a a a a a a a a a a a a a a a a a a a a a a a a a a a a 6 8 & : 8 8 a a a a a a a a a a a a a a a a a a a a a a a a a a a a 6 6   & & & & & & & & & & & & & & & : : : & & & & & & & & & & & & & & & & 6 6 s s s s s s s s s s s s s s s s s s s s s s s s s s s s 8 8 & & 8 8 s s s s s s s s s s ",
"8 8 8 6 & 6 8 >X6X6X6X6X6X6X6X6X6X6X6X6X6X6X6X6X6X6X6X6X6X6X6X6X6X6X6X6X>X> 4   & 4 a 8 p p p p p p p p p p p 6 6 6 p p p p p p p p p p p 8 a : & & 6 9 | eX| | | | | | | | | | | | | | | | | | | | | | | | | | eX! p : > 7 x.yXrXrXrXrXrXrXrXrXrXrXrXrXrXrXrXrXrXrXrXrXrXrXrXrXrXrXyXa.7 : > 4 dXGXGXGXGXGXGXGXGXGXGXGXGXGXGXGXGXGXGXGXGXGXGXGXGXGXGXGXGXk 4 . & : a p p p p p p p p p p p p 6 6 6 p p p p p p p p p p 8 p p & & & 4 1.NXNXNXNXNXNXNXNXNXNXNXNXNXNXNXNXNXNXNXNXNXNXNXNXNXNXNXNX!.: : 4 , @XDXDXDXDXDXDXDXDXDXDX",
"8 6 8 6 & 6 s 6X[.[.[.[.[.[.[.[.[.[.[.[.[.[.|.[.[.[.[.[.[.[.[.[.[.[.[.|.>X> 4   & 6 6 & & & & & & & & & & & & 4 p a & & & & & & & & & & & & 6 > & & 6 9 eX] ] ] ] ] ] ] ] ] ] ] ] ] ] ] ] ] ] ] ] ] ] ] ] ] ] ! | [ p : > - x.z._ k.k.k.k.k.k.k.k.k.k.k.k.k.k.k.k.k.k.k.k.k.k.k.k._ tXl.- : > - dXdXM.M.M.M.M.M.M.M.M.M.M.M.dXdXM.M.M.M.M.M.M.M.M.M.M.M.GX-.4 . & : p & & & & & & & & & & & & 6 6 p & & & & & & & & & & & : p & & & : T.NXlXxXxXxXxXxXxXxXxXxXxXxXxXnXnXxXxXxXxXxXxXxXxXxXxXlXmXcX@ : 4 , #X$X@X@X@X@X@X@X@X@X@X",
"8 6 8 6 & 6 a 6X[.[.[.[.[.[.[.[.[.[.[.[.}.6X%X[.[.[.[.[.[.[.[.[.[.[.[.|.>X> 4   & 6 6 & & & & & & & & & & & & h.;.d : & & & & & & & & & & & 6 > & & 6 9 | ] ] ] ] ] ] ] ] ] ] ] ] | | | ] ] ] ] ] ] ] ] ] ] ] ! | [ p : > - x.z._ k.k.k.k.k.k.k.k.k._ z.rXz.k.k.k.k.k.k.k.k.k.k.k._ tXl.- : > - dXdXM.M.M.M.M.M.M.M.M.M.M.dXGXdXM.M.M.M.M.M.M.M.M.M.M.M.GX-.4 . & : 8 & & & & & & & & & & & & ,.,.*.& & & & & & & & & & & : 8 & & & : u.NXlXxXxXxXxXxXxXxXxXxXxXxXNXnXnXzXxXxXxXxXxXxXxXxXxXlXmXzX@ : 4 , #X$X@X@X@X@X@X@X@X@X@X",
"8 6 8 6 & 6 a 6X[.[.[.[.[.[.[.[.[.[.[.[.%X%X|.[.[.[.[.[.[.[.[.[.[.[.[.|.>X> 4   & 6 6 & & & & & & & & & & & & <.*.*.& : & & & & & & & & & & 6 > & & 6 9 | ] ] ] ] ] ] ] ] ] ] ] ] | | | ] ] ] ] ] ] ] ] ] ] ] ! | [ p : > - x.z.k.k.k.k.k.k.k.k.k.k.k.z.z.z.k.k.k.k.k.k.k.k.k.k.k._ tXl.- : > - dXdXM.M.M.M.M.M.M.M.M.M.M.dXdXdXdXM.M.M.M.M.M.M.M.M.M.M.GX-.4 . & : 8 & & & & & & & & & & & & <.*.;.& & & & & & & & & & & : 8 & & & : u.NXlXxXxXxXxXxXxXxXxXxXxXxXmXnXxXxXxXxXxXxXxXxXxXxXxXlXmXzX@ : 4 , #X$X@X#X@X@X@X@X@X@X@X",
"8 6 8 6 & 4 s 6X[.].].].].].].].].].].].].].].].].].].].].].].].].].].[.>X> 4   & 6 6 & & & & & & & & & & & & & & : & & & & & & & & & & & & 6 > & & 6 9 | ! ! ! ! ! ! ! ! ! ! ! ! ! ! ] ! ! ! ! ! ! ! ! ! ! ] ! | [ p : > - x.z._ _ _ _ _ _ _ _ _ _ _ _ _ _ _ _ _ _ _ _ _ _ _ _ _ _ z.l.- : > - dXdXM.M.M.M.M.M.M.M.M.M.M.M.M.M.M.M.M.M.M.M.M.M.M.M.M.M.GX-.4 . & : 8 & & & & & & & & & & & & & & & & & & & & & & & & & & & 8 & & & : T.NXlXzXlXlXlXlXlXlXlXlXlXlXlXlXlXlXlXlXlXlXlXlXlXlXzXlXmXcX@ : 4 , #X$X@X@X@X@X@X@X@X@X@X",
"8 6 8 6 & 6 8 6X6X6X6X6X6X6X6X6X6X6X6X6X6X6X6X6X6X6X6X6X6X6X6X6X6X6X6X6X>X> 4   & 4 a 6 6 6 6 6 6 6 6 6 6 6 6 6 6 6 6 6 6 6 6 6 6 6 6 6 6 6 a : & & 6 9 eXeX| | | | | | | | | | | | | | | | | | | | | | | | eX| eX! p : > - x.yXrXrXrXrXrXrXrXrXrXrXrXrXrXrXrXrXrXrXrXrXrXrXrXrXrXrXyXa.- : > - dXGXGXGXGXGXGXGXGXGXGXGXGXGXGXGXGXGXGXGXGXGXGXGXGXGXGXGXGX-.4 . & : a 6 6 6 6 6 6 6 6 6 6 6 6 6 6 6 6 6 6 6 6 6 6 6 6 6 6 p p & & & 4 2.NXNXNXNXNXNXNXNXNXNXNXNXNXNXNXNXNXNXNXNXNXNXNXNXNXNXNXNXlX: : 4 , #XDXDXDXDXDXDXDXDXDXDX",
"8 6 8 6 & 6 8 t G G G G G G G G G G G G G G G G G G G G G G G G G G G G h 8 :   & & : > > > > > > > > > > > > > > > > > > > > > > > > > > > : & & & 6 8 u i u u u u u u u u u u u i i i u u u u u u u u u u u i u 9 8 & : 8 a k k k k k k k k k k k k k k k k k k k k k k k k k k k k a 8 & : 8 k -.-.-.-.-.-.-.-.-.-.-.-.-.-.-.-.-.-.-.-.-.-.-.-.-.-.-.-.a 6   & & : > > > > > > > > > > > > > > > > > > > > > > > > > > > : & & & 6 a <.<.<.<.<.<.<.<.<.<.<.<.<.<.<.<.<.<.<.<.<.<.<.<.<.<.<.<.s 6 & : 8 h 4.4.4.4.4.4.4.4.4.4.",
"8 6 8 6 & 6 8 > > > > > > > > > > > > > > > > > > > > > > > > > > > > > 6 8 :   & & & & & & & & & & & & & & & & & & & & & & & & & & & & & & & & & & 6 8 6 6 6 6 6 6 6 6 6 6 6 6 6 6 6 6 6 6 6 p p p p p p 6 6 6 6 6 8 & : 8 6 6 6 6 6 6 6 6 6 6 6 6 6 6 6 6 6 6 6 6 7 6 6 6 7 6 6 6 6 6 8 & : 8 6 4 4 4 6 6 6 4 4 4 4 4 4 4 4 4 4 4 4 7 7 7 7 7 7 4 4 4 6 8 6   & & & & & & & & & & & & & & & & & & & & & & & & & & & & & & & & & & 8 6 4 4 4 4 6 6 4 4 4 4 4 4 4 4 4 4 4 4 4 4 4 4 4 4 4 4 4 4 6 8 & : 8 6 > > > 6 6 6 > > > > ",
"8 6 8 6 & 6 8 8 8 8 8 8 8 8 8 8 8 8 8 8 8 4 4 8 8 8 8 8 8 8 8 8 8 8 8 8 8 8 :   & & & & & & & & & & & & & & & & & & & & & & & % & & & & & & & & & & 6 8 8 8 8 8 p p p 8 8 8 8 8 8 8 8 8 8 8 8 6 4 6 4 4 4 8 8 8 8 8 8 & : 8 8 8 8 8 6 7 7 6 8 8 8 8 8 8 8 8 8 8 8 6 4 4 6 6 4 8 8 8 8 8 8 & : 8 8 8 a 8 4 - 4 6 a 8 8 8 8 8 8 8 8 8 a 6 6 6 4 4 6 8 8 8 8 8 6   & & & & : & & % & & : & & & & & & & & & % & & & & & % & & & & & & & 8 8 8 a a 4 : @ 4 a a 8 8 8 8 8 8 8 a 6 4 6 4 6 4 6 4 a 8 8 8 8 & : 8 8 8 8 8 , , , > 8 8 8 ",
"8 6 8 6 & 6 8 6 8 8 8 8 8 8 8 8 8 8 8 8 4 D.V.4 8 8 8 8 8 8 8 8 8 8 8 8 6 8 :   & & & & & 4 0 0 4 & & & & & & & & & & & & l l <.& l ;.& & & & & & & 6 8 6 8 p 8 $ $ $ 8 p 8 8 8 8 8 8 8 8 8 6 x d.:.J.,.D.6 8 8 8 6 8 & : 8 6 8 6 6 2 ^ 2 8 7 8 8 8 8 8 8 8 8 8 6 :.J.D.d.,.D.6 8 8 8 6 8 & : 8 6 8 6 6 g.N.b.a 7 8 8 8 8 8 8 8 6 8 4 >.,.D.,.J.:.6 8 8 6 8 6   & & & : & 4 ;.<.l > & : & & & & & & & & ;.s <.s ;.l ,.s & & & & & & 8 6 8 6 4 1.lXlX2.4 6 a 6 8 8 8 8 8 6 x J.>.D.>.D.s D.6 8 8 6 8 & : 8 6 8 6 6 t.@Xi.4., 8 8 ",
"8 6 8 6 & 6 8 6 8 8 8 8 8 8 8 8 8 8 8 6 d R.R.s 6 8 8 8 8 8 8 8 8 8 8 8 6 8 :   & & & & 0 y 0 0 y y : & & & & & & & & & a T.h.,.d <.,.6 & & & & & & 6 8 8 p $ ! $ $ ! ! u p 8 8 8 8 8 8 8 8 6 ;.Q.G.W.(.H.l 6 8 8 6 8 & : 8 8 6 z z.^ 3 ^ ^ 2 6 8 8 8 8 8 8 8 8 8 8 R.(.R.s W.a 6 8 8 6 8 & : 8 8 6 k dXdXN.n.n.a.6 8 8 8 8 8 8 8 6 8 _.J.D.W.:.R.4 8 8 6 8 6   & & : & l h.d.<.h.h.d & : & & & & & & & h.;.D.:.E.s ,.d & & & & & & 8 8 8 4 xXBXxXlXBXmXf 6 8 6 8 8 8 8 6 s Q.(.W.bX(.J._.6 8 8 6 8 & : 8 8 6 j DX$X@X#XDX@X> 8 ",
"8 6 8 6 & 6 8 6 8 8 8 8 8 8 8 8 8 8 8 6 s R.W.s 6 8 8 8 8 8 8 8 8 8 8 8 6 8 :   & & & 0 y X       0 y & & & & & & & : & <.W.D.,.;.,.d.6 & & & & & & 6 8 p u ! o   * * # ! 5 6 8 8 8 8 8 8 6 6 a R.G.W.Q.R.l 6 8 8 6 8 & : 8 6 8 tX^ ,.;.o : ^ 2 7 8 8 8 8 8 8 8 4 ,.W.s W.W.J.4 8 8 8 6 8 & : a 6 a GXn.o g H.% n.&.7 8 8 8 8 8 8 6 s W.W.J.W.W.>.4 8 8 6 8 6   & : & s T.> O O O a d.: & & & & & & : % :.s l T.G.<.,.& : & & & & & 8 a 4 lXmX& O o   xXmX4 8 8 8 8 8 8 6 s W.R.(.(.(._.bXa 6 8 6 8 & : 8 6 6 DXi.. O O - DXi., ",
"8 6 8 6 & 6 8 6 8 8 8 8 8 8 8 8 8 8 6 8 4 ,.,.6 8 8 8 8 8 8 8 8 8 8 8 8 6 8 :   & & 4 y   O o .     y 4 & & & & & & & & & a d ;.a d l & & & & & & & 6 8 p | ! Q.D.X & * $ ! p 8 8 8 8 8 8 8 6 a x ;.d.:.d.6 8 8 8 6 8 & : a - a.k.O Q.PXO & , ^ 8 6 8 8 8 8 8 8 4 d.J.d.,.J.D.8 6 8 8 6 8 & : a - b.dXo O MXPXO 1 n.8 6 8 8 8 8 6 8 6 >.d.d.,.H.:.6 8 8 6 8 6   & : & h.k O . % Q.,.& d & & & & & & & & p a ;.a ;.s p & & & & & & & 8 6 *.BXp   & & O O BX2.4 a 8 8 8 8 6 ;.D.;.>.;.D.a :.8 6 8 6 8 & : a , y.$XO & & & . g DXs ",
"8 6 8 6 & 6 8 6 8 8 8 8 8 8 8 8 8 8 6 8 8 4 4 8 8 8 6 8 8 8 8 8 8 8 8 8 6 8 :   : & 0 0 6 T.d o X   0 0 & & & & & & & & & & & & & % % : & & & & & & 6 8 9 | @ W.PX: % & @ ! 6 8 8 8 8 8 8 6 8 6 6 6 : 4 4 8 6 8 8 6 8 & : a - x.^ o 6 J.& & & ^ < 6 8 8 8 8 8 6 8 4 : 4 4 : 4 8 8 6 8 6 8 & : a - dXa.o . :.;.. & n.2 6 8 8 8 8 6 8 6 4 4 4 4 : 6 8 6 8 6 8 6   & & > h.&   o f Q.& & k & & & & & & & & & & % & % % & : & & & & & & a 4 2.nXo &   l PXW.2.lX@ a 8 8 8 6 8 6 4 6 6 4 4 6 6 6 8 6 6 8 & : a , #Xp.O & & : o . $Xt.",
"8 6 8 6 & 6 8 6 8 8 8 8 8 8 8 8 8 6 8 6 6 8 6 6 6 6 8 8 8 8 8 8 8 8 8 8 6 8 :   : & 9 B d Q.;.O X   0 0 & & & & & & & & & & 4 & 6 6 6 & & & & & & & 6 8 9 | 5 o X & & & @ ! 6 8 8 8 8 8 8 8 6 a a 6 s s 8 6 8 6 8 6 8 & : a - x.^ X & o & & & ^ < 6 8 8 8 8 8 6 8 6 a s 8 a 8 6 8 6 8 6 8 & : a - dXa.o &     & & n.2 6 8 8 8 8 8 6 s 6 8 6 8 a 6 6 8 6 6 8 6   & & > h.&   .   O o & k & & & & & & & & & & 4 & 6 6 6 & & & & & & & a 4 2.nXo & X s Q.v 3.3.5 p 8 8 6 8 6 6 6 8 6 8 6 6 6 6 6 8 6 8 & : a , #Xp.O &   bXbX. ZXt.",
"8 6 8 6 & 6 8 6 8 8 8 8 8 8 8 8 8 8 4 J.J.G.R.W.G.4 8 8 8 8 8 8 8 8 8 8 6 8 :   : & 4 Z.X O o .     y 4 & & & & & & & & & :.h.l J.T.d & : & & & & & 6 8 p | ! * & & & * $ ! p 8 8 8 8 8 8 8 6 >.R.Q.G.d.W.8 6 8 8 6 8 & : a - ^ z.o & & & & , ^ 6 6 8 8 8 8 8 8 4 ,.R.,.W.D.R.8 6 8 8 6 8 & : a - b.dXo & & & X 1 n.6 6 8 8 8 8 8 6 D.W.R.H.W.d.D.J.: 8 6 8 6   & : & h.l O .   .   p s & & & & & & & & & ;.h.l J.T.d & : & & & & & 8 6 d BXf o & X O o VX*.5 8 8 8 8 6 l W.,.W.H.W.H.R.R.R.6 8 6 8 & : a , y.DX. & X d (.G DXs ",
"8 6 8 6 & 6 8 6 8 8 8 8 8 8 8 8 8 8 4 :.W.D.Q.W.H.s 6 8 8 8 8 8 8 8 8 8 6 8 :   & : % b o.&       0 y & & & & & & & & & 6 h.& G.d.D.p & & & & & & & 6 8 p u eX$ % & & $ ! 8 6 8 8 8 8 8 8 8 8 4 G.J.R.l H.8 6 8 8 6 8 & : 8 6 6 z._ & & & , ^ 2 6 8 8 8 8 8 8 a 4 W.W.:.Q.l H.8 6 8 8 6 8 & : 8 6 6 GXN.X & & , n.%.7 8 8 8 8 8 8 6 x _.W._._.W._.H.: a 6 8 6   & : & a E.a       > k : & & & & & & & & 6 h.& G.d.D.p & & & & & & & 8 a 4 lXBXp X & & 3.VX6 8 8 8 8 8 6 a R.H.J._.J._.R.Q.G.x 6 8 8 & : 8 8 > ZX#X. &   o p.t.> ",
"8 6 8 6 & 6 8 6 8 8 8 8 8 8 8 8 8 8 6 x G.H.W.W.R.6 8 8 8 8 8 8 8 8 8 8 6 8 :   & & & & b 9 % & & 0 & & & & & & & & & & & ,.,.<.;.<.4 & & & & & & & 6 8 8 p ! ! - 4 6 $ 5 p 8 8 8 8 8 8 8 8 : H.Q.x W._.H.6 8 8 8 6 8 & : 8 8 6 z l.6 4 4 2 2 7 8 8 8 8 8 8 8 8 4 J.Q.H.W._.H.6 8 8 8 6 8 & : 8 8 6 k b.6 4 4 2 &.7 8 6 8 8 8 8 8 6 D.W.H.Q.W.Q.Q.R.: a 6 8 6   & & : & l l % & & a 6 & & & & & & & & & & ,.,.<.;.<.4 & & & & & & & 8 8 8 4 lX1.: 4 p 3.p 6 8 8 8 8 6 8 6 G.D.Q.W.W.W.W.W.W.a 6 8 8 & : 8 8 6 j @X8 4 > j 4.> 8 ",
"8 6 8 6 & 6 8 6 8 8 8 8 8 8 8 8 8 8 6 a a d s d s 6 8 8 8 8 8 8 8 8 8 8 6 8 :   & & & & % & : : & & & & & & & & & & & & & : s & 4 4 : & & & & & & & 6 8 6 8 p p 8 8 8 p 6 8 8 8 8 8 8 8 8 8 6 l ;.;.l l ;.8 6 8 8 6 8 & : 8 6 8 6 7 8 8 8 6 6 8 6 8 8 8 8 8 8 8 6 a l l l l ;.8 6 8 8 6 8 & : 8 6 8 6 4 8 8 8 6 6 8 6 8 8 8 8 8 8 6 x s l 8 l a 4 a 6 8 6 8 6   & & & : & & : & & & & & & & & & & & & & & : s & 4 4 : & & & & & & & 8 6 8 8 4 6 a 8 8 5 6 8 6 8 8 8 8 8 8 a a l a l s d s d 6 8 6 8 & : 8 6 8 6 , 8 8 8 6 6 8 6 ",
"8 6 8 6 & 6 8 8 8 8 8 8 8 8 8 8 8 8 8 8 8 6 6 6 6 9 8 8 8 8 8 8 8 8 8 9 8 8 :   & & : : 4 : : : : : : : : : : : : : : : : & & : & & : : : : : & & & 6 8 8 8 8 8 8 8 8 8 8 8 8 8 8 8 8 8 8 8 8 6 4 6 6 6 4 8 8 8 8 8 8 & : 8 8 8 8 8 8 8 8 8 8 8 8 8 8 8 8 8 8 8 8 8 6 6 6 6 6 8 8 8 8 8 8 & : 8 8 8 8 a 8 8 8 8 8 8 8 8 8 8 8 8 8 8 6 6 6 8 6 6 a 6 8 8 8 8 6   & & > > > > > > > > > > > > > > > > > > > : & > : : > > > > : & & & 6 8 a a s a a a a a a a a a a a a a a a a 6 a 6 a 8 p 8 a a 8 8 & : 8 8 a a s a 8 a a a a a ",
"8 6 8 6 & 6 8 , , , , , , , , , , , , , , , , , , , , , , , , , , , , , , 8 :   : & * * * * * * * * * * * * * * * * * * * * * * * * * * * * * & & & 6 8 6 6 6 6 6 6 6 6 6 6 6 6 6 6 6 6 6 6 6 6 6 6 6 6 6 6 6 6 6 6 8 & : 8 7 - - - - - - - - - - - - - - - - - - - - - - - - - - - - 6 8 & : 8 6 6 6 6 6 6 6 6 6 6 6 6 6 6 6 6 6 6 6 6 6 6 6 6 6 6 6 6 6 8 6   & & X o X X X X X X X X X X X X X X X X X X + X X X X X X o X : & & 8 6 @ @ @ @ @ @ @ @ @ @ @ @ @ @ @ @ @ @ @ @ @ @ @ @ @ @ @ @ 4 a & : a > , , , , , , , , , , ",
"8 6 8 6 & 6 8 ].+X+X+X+X+X+X+X+X+X+X+X+X+X+X+X+X+X+X+X+X+X+X+X+X+X+X+X+XW 6 4   & 0 m m m m m m m m m m m m m m m m m m m m m m m m m m m m m 4 & & 6 8 d l l l l l l l l l l l l d l l l l l l l l l l l l l l l a 8 & : 7 a.x.l.l.l.l.l.l.l.l.l.l.l.l.l.l.l.l.l.l.l.l.l.l.l.l.l.l.x.2 6 & 4 8 s l l l l l l l l l l l l d l l l l l l l l l l l l l l l 8 6   & : n.aXaXaXaXaXaXaXaXaXaXaXaXaXaXaXaXaXaXaXaXaXaXaXaXaXaXaXn.& & & 4 ;.xXcXxXxXxXxXxXxXxXxXxXxXcXcXxXxXxXxXxXxXxXxXxXxXxXxXcXnX1.4 & 4 > r.#X#X#X#X#X#X#X#X#X#X",
"8 6 8 6 & 6 a 6X}.}.}.}.}.}.}.}.}.}.}.}.}.}.}.}.}.}.}.}.}.}.}.}.}.}.}.6X>X> 4 X * B OX} { { { { { { { { { { { { { { { { { { { { { { { { { { OX0 * & 6 a x s s s s s s s s s s s s d s a s s s s s s s s s s s a l d 6 & > - x.rXz.z.z.z.z.z.z.z.z.z.z.z.z.z.z.z.z.z.z.z.z.z.z.z.z.z.rXl.- : 4 6 x d s s s s s s s s s s s d s a s s s s s s s s s s s s x s 6 . & > jXjXjXjXjXjXjXjXjXjXjXjXjXjXjXjXjXjXjXjXjXjXjXjXjXjXsXjXjXX & & : T.NXnXmXmXmXmXmXmXmXmXmXmXmXmXmXmXmXmXmXmXmXmXmXmXmXmXnXNXcX@ : 4 , $XDX$X$X$X$X$X$X$X$X$X",
"8 6 8 6 & 4 s >X].{.{.{.{.{.{.{.{.{.{.].|.|.}.|.{.].{.{.{.{.{.{.{.].{.[.>X> 4 X * B { n n n n n n n n n n n n } { } n n n n n n n n n n n n { 0 * & 6 a l 6 6 6 6 6 6 6 6 6 6 6 d h.D.T.s 6 6 6 6 6 6 6 6 6 6 6 s d 6 & > - x.k._ _ _ _ _ _ _ _ _ _ _ z.z.z.k._ _ _ _ _ _ _ _ _ _ _ z.l.- : 4 6 l a 6 6 6 6 6 6 6 6 6 6 d h.D.T.s 6 6 6 6 6 6 6 6 6 6 6 l s 6 . & > jXn.n.n.n.n.n.n.n.n.n.n.aXsXjXsXn.n.n.n.n.n.n.n.n.n.n.aXjX& & & : u.NXlXzXlXlXlXlXlXlXlXlXlXnXnXmXnXlXlXlXlXlXlXlXlXlXzXlXmXzX@ : 4 , #X$Xi.@X@X@X@X@X@X@X@X",
"6 6 8 6 & 4 s 6X[.[.[.[.[.[.[.[.[.[.[.[.}.}.6X6X].[.[.[.[.[.[.[.[.[.].|.>X> 4 X * B { n n n n n n n n n n n } { { { n n n n n n n n n n n n { 0 * & 6 a x 6 8 8 8 8 8 8 8 8 8 6 ;.h.D.Q.<.4 8 8 8 8 8 8 8 8 8 6 s d 6 & > - x.z.k.k.k.k.k.k.k.k.k.k.k.z.z.rXtX_ k.k.k.k.k.k.k.k.k._ tXl.- : 4 6 l a 6 8 8 8 8 8 8 8 8 6 ;.h.D.Q.<.4 8 8 8 8 8 8 8 8 8 6 l s 6 . & > jXaXaXaXaXaXaXaXaXaXaXaXsXjXjXjXaXaXaXaXaXaXaXaXaXaXaXsXjX& & & : u.NXlXxXxXxXxXxXxXxXxXxXxXmXmXNXNXzXxXxXxXxXxXxXxXxXxXlXmXzX@ : 4 , #X$X@X#X#X#X#X#X#X#X#X",
"8 6 8 6 & 4 s >X{.{.{.{.{.{.{.{.{.{.{.{.[.[.].[.{.{.{.{.{.{.{.{.{.{.{.[.>X> 4 X * B { n n n n n n n n n n n n n n n n n n n n n n n n n n n { 0 * & 6 a l 6 6 6 6 6 6 6 6 6 6 6 6 ;.s d s 6 6 6 6 6 6 6 6 6 6 6 s d 6 & > - x.k._ _ _ _ _ _ _ _ _ _ _ k.k.k.k._ _ _ _ _ _ _ _ _ _ _ z.l.- : 4 6 l a 6 6 6 6 6 6 6 6 6 6 6 ;.s d s 6 6 6 6 6 6 6 6 6 6 6 l s 6 . & > jXn.n.n.n.n.n.n.n.n.n.n.aXaXn.aXn.n.n.n.n.n.n.n.n.n.n.aXjX& & & : u.NXlXzXlXlXlXlXlXlXlXlXlXxXxXzXxXlXlXlXlXlXlXlXlXlXlXlXmXzX@ : 4 , #X$Xi.@X@X@X@X@X@X@X@X",
"6 8 8 6 & 6 a 6X}.}.}.}.}.}.}.}.}.}.}.}.}.}.}.}.}.}.}.}.}.}.}.}.}.}.}.6X>X> 4 X * B OX} { { { { { { { { { { { { { { { { { { { { { { { { { { OX0 * & 6 a x s s s s s s s s s s s s 8 a a s s s s s s s s s s s s l d 6 & > - x.rXz.z.z.z.z.z.z.z.z.z.z.z.z.z.z.z.z.z.z.z.z.z.z.z.z.z.rXl.- : 4 6 x d s s s s s s s s s s s 8 a a s s s s s s s s s s s s x s 6 . & > jXjXjXjXjXjXjXjXjXjXjXjXjXjXjXjXjXjXjXjXjXjXjXjXjXjXjXjXjXX & & : T.NXmXmXmXmXmXmXmXmXmXmXmXmXmXmXmXmXmXmXmXmXmXmXmXmXmXmXNXcX@ : 4 , $XDX$XDXDXDXDXDXDXDXDX",
"4 8 8 6 & 6 8 W +X].].].].].].].].].].].+X+X+X].].].].].].].].].].].].+XW 6 4   & 0 m m m m m m m m m m m m m m m m m m m m m m m m m m m m m 4 & & 6 8 d d d d d d d d d d d d d l l d d d d d d d d d d d d d d a 8 & : 6 a.l.l.l.l.l.l.l.l.l.l.l.l.l.l.l.l.l.l.l.l.l.l.l.l.l.l.l.x.2 6 & : 8 s d d d d d d d d d d d d l l d d d d d d d d d d d d d d 8 6   & : n.aXaXaXaXaXaXaXaXaXaXaXaXaXaXaXaXaXaXaXaXaXaXaXaXaXaXaXn.& & & 4 ;.xXcXcXcXcXcXcXcXcXcXcXcXcXcXcXcXcXcXcXcXcXcXcXcXcXcXcXxX1.4 & 4 > 9.#X@X@X@X@X@X@X@X@X@X",
"4 8 8 6 & 6 8 < 1 < < < < < < < < < < < 1 , 1 < < < < < < < < < < < < 1 < 8 :   & & * * * * * * * * * * * * * * * * * * * * * * * * * * * * * & & & 6 8 s s s s s s s s s s s s s s 6 a s s s s s s s s s s s s s 8 8 & : p u ' # # ' ' ' ' ' ' # # ' # - 7 g g g g g g g g g g g g g 6 8 & : 8 a s s s s s s s s s s s s s 6 a s s s s s s s s s s s s s 8 6   & & + + + + + + + + + + + + + + X + + + + + + + + + + + + + + & & & 8 6 4 4 4 4 4 4 5 4 4 4 4 4 4 @ : 4 4 4 5 5 5 4 4 4 4 4 4 4 6 a & : 8 > , , , , , , , , , , ",
"6 8 8 6 & 6 8 x x l h d d d d d d h x h x s x x l l s s d d d d l l h x x 8 :   & 6 a 6 6 6 6 6 6 6 6 6 6 6 8 8 4 s 6 6 6 6 4 6 6 6 6 6 6 6 s : & & 6 a x d d d s d s s d s d d d x a x d d d s s s s d s d d d x d 6 & : ; ~ wXwXwXwXwXwXwXwXwXwXwXwXwX8 x l l l s s s d d d l l d x d 6 & 4 6 x l d d s d s s d s d d d x a x d d d s s s d d s d d d x a 6   & : a p p 6 6 6 6 6 6 6 p 6 p p > s 6 p 6 6 6 6 6 6 6 p p p a & & & 6 s ;.d l d d d d d d d l d ;.d l ;.d l d d d d d d l l d ;.l 6 & : 6 x x d d d d d d d d d ",
"8 6 8 6 & 6 a l 6 6 a ,.<.,.l x d.8 6 6 l a l 6 6 a <.,.:.l h.D.;.4 6 6 l 8 :   & 6 6 & & p d d d 6 d f & & : 6 > 6 & & p d l p f ;.;.> & & 6 > & & 6 a l 6 6 s ,.<.,.l ;.,.6 6 6 l a l 6 6 a <.,.:.l h.D.x 4 6 s d 6 & : ; ~ ~ ~ ~ ~ ~ ~ ~ ~ ~ ~ ~ ~ wX8 l 6 6 a <.,.:.l h.D.x 4 6 s d 6 & 4 6 l a 4 s ,.<.,.l ;.,.6 6 6 l a l 6 4 l <.,.l :.D.h.s 6 6 l s 6   & : 6 & & p d d d 6 d f & & : 6 > 6 & & s d d 6 d ;.d & & & 8 & & & 6 s d 6 6 <.:.,.;.d h.d 6 6 s s d s 6 8 <.,.<.l h.D.;.4 6 s d 6 & : 6 l a 6 a ,.<.,.l x d.8 ",
"6 6 8 6 & 6 a x 8 6 a G.J.h.D.,.h.l 6 6 l a l a 6 8 T.W.D.,.>.H.:.6 8 a x 8 :   & 6 6 & & p ,.d <.l l *.: & > 6 > 6 & & a h.1.*.d d <.4 & & 6 > & & 6 a x 6 6 a G.D.D.D.,.h.d 6 8 x a x 8 6 a E.W.D.,.>.T.;.6 6 s d 6 & : ; ~ ~ ~ ~ ~ ~ ~ ~ ~ ~ ~ ~ ~ wX8 x 8 6 a E.W.D.,.>.T.;.6 6 s d 6 & 4 6 l a 6 a G.D.h.D.,.h.l 6 8 x a x a 6 ;.W.R.d.,.,.T.s 6 6 l s 6   & : 8 & & p ,.d <.l l *.: & > 6 > 6 & & ;.h.<.*.d ;.;.& & : p & & & 6 s d 6 6 <.T.,.G.,.d.<.6 6 d s d s 6 8 T.W.D.,.>.H.<.6 6 s d 6 & : 6 l s 6 a J.G.h.D.,.h.l ",
"8 6 8 6 & 6 a l 6 6 8 <.,.<.<.:.,.8 6 6 l a l 8 6 6 :.:.;.:.s <.;.6 6 8 l 8 :   & 6 6 & & 6 d d s d d f & & : 6 > 6 & & > d a d p 6 d 4 & & 6 > & & 6 a l 6 6 a <.,.<.<.<.,.6 6 6 l a l 8 6 8 :.:.:.;.s <.x 6 6 s d 6 & : ; ~ ~ ~ ~ ~ ~ ~ ~ ~ ~ ~ ~ ~ wX8 x 8 6 8 :.:.:.;.s <.x 6 6 s d 6 & 4 6 l a 6 a <.,.<.<.<.,.6 6 6 l a l 8 6 s ,.x ,.l l ,.s 6 6 l s 6   & : 8 & & 6 d d s d d f & & : 6 > 6 & & p d p d 6 a d & & : 8 & & & 6 s d 6 6 ;.,.,.:.:.,.d 6 6 d s d s 6 6 ;.:.;.:.s <.;.6 6 s d 6 & : 6 l s 6 8 :.,.<.<.:.,.8 ",
"8 6 8 6 & 6 a x 8 8 a 6 6 6 6 6 6 8 a 8 x a x a 8 a 6 6 6 6 8 6 6 a 8 a x 8 :   & 6 6 & : : & & & & & & : & 4 6 > 8 & : & & & & & & & : : & p > & & 6 a x 8 a a 6 6 6 6 6 6 8 a 8 x a x a 8 8 6 6 6 6 8 6 8 a 6 d d 6 & : ; ~ ~ ~ ~ ~ ~ ~ ~ ~ ~ ~ ~ ~ wX8 x a 8 8 6 6 6 6 8 6 8 a 6 d d 6 & 4 6 l s 8 a 6 6 6 6 6 6 8 a 8 x a x a 8 8 6 6 6 6 6 6 8 a 8 x s 6   & : p : : : & & & & & & : & 4 6 > 8 & : & & & & & & & : : : p & & & 6 s l 6 a 8 6 6 6 6 6 8 a 6 d s d s 8 a 6 6 6 6 8 6 6 a 8 s l 6 & : 6 l s 8 a 6 6 6 6 6 6 8 ",
"8 6 8 6 & 6 8 l x l x x x x x x x x x x x 8 l x l x x x x x x x x x l x l 8 :   & > a 8 8 p p p p p p p 8 8 p 6 : a 8 8 p p p p p p p p 8 8 p : & & 6 8 x x x x x x x x x x x x x x 8 l x l x x x x x x x x x l x s 6 & : p ' wX~ ~ ~ ~ ~ ~ ~ ~ ~ ~ ~ ~ 8 l x l x x x x x x x x x l x s 6 & 4 8 d x l x x x x x x x x x x x 8 l x l x x x x x x x x x x x a 6   & : 8 p 8 p p p p p p p 8 8 p 6 : a 8 8 p p p p p p p 8 8 p 6 & & & 6 s x l x x x x x x x x x l x a s x l x x x x x x x x x l x s 6 & : 6 d x l x x x x x x x x ",
"8 6 8 6 & 6 8 6 8 8 8 8 8 8 8 8 8 8 8 8 6 8 6 8 8 8 8 8 8 8 8 8 8 8 8 8 6 8 :   & & & & & & & & & & & & & & & & & & & & & & & & & & & & & & & & & & 6 8 6 8 8 8 8 8 8 8 8 8 8 8 8 6 8 6 8 8 8 8 8 8 8 8 8 8 8 8 8 6 8 & : 8 p p p p p p p p p p p p p p 8 6 8 8 8 8 8 8 8 8 8 8 8 8 8 6 8 & : 8 6 8 8 8 8 8 8 8 8 8 8 8 8 6 8 6 8 8 8 8 8 8 8 8 8 8 8 8 6 8 6   & & & & & & & & & & & & & & & & & & & & & & & & & & & & & & & & & & 8 6 6 8 8 8 8 8 8 8 8 8 8 8 6 8 8 8 8 8 8 8 8 8 8 8 8 8 8 8 6 8 & : 8 6 8 8 8 8 8 8 8 8 8 8 ",
"6 6 8 6 & 6 8 : : : & : : & : : : : & : : & & & & & & & & & & 4 & : : & 4 a :   : & % % % % % % % % % % % % % % % % % % % % % % X % % % % % % & & & 6 8 : : : & : : & : : : : & : : & & & & & & & & & : 4 & : : & 6 8 & : a 4 : : : : : : : : : : : : : : & & & & & & & & : 4 & : : & 6 8 & : a 4 : : & : : & : : : : & : : & & & & & & & & & 4 : & : : : 6 6   & & % % % % % % % % % % % % % % % % % % % % % % % & % % % % % : & & 8 6 & : & & : : : & : : : & : : & & & & & & & & : 4 & : : & 6 a & : a 4 : : & : : & : & : : ",
"8 6 8 6 & 6 8 &   % % X X & & % % % & % % % & & & & & & & & & & & X   % & a :   : &   o                                           . .   o     & & & 6 8 &   % % X X & & % % % & % % % & & & & & & & & & & %   X % 4 a & : a :   X & %   & & & % % & % % % & & & & & & & & & & %   X % 4 a & : a :   X & % . & & & % % & % % % & & & & & & & % & & X   X & 6 6   & & . O                                           X     o   X : & & 8 6 X   & % X % & & % % % % % % & & & & & & & & & & %   . % 4 a & : a 4   . & %   & & & % % ",
"6 8 8 6 & 6 8 & d.8 & 6 a % % & & & & % >.s X & & & & & & & & :   ,.Q.X & a :   : & & l   . 4 %     % % . X % l                   %   & E.>   & & & 6 8 & D.6 & 6 a & % & & & & % >.a X & & & & & & & & &   Q.h.  6 a & : a & ,.,.X : d & & & & : & & d ;.  & & & & & & & & &   Q.D.  6 a & : a & :.x & : d & & & & : & & d :.  & & & & & & & & & 6 bXs X 8 6   & &   ;.&   & :     X X % .   d &                 % o *.T.  % : & & 8 4 6 d.& & s 4 & X : & & & & d.& & & & & & & & & :   Q.G.o 6 a & : a & ,.,.X & d & & & & : ",
"d 6 8 6 & 6 a % D.G.R.R.R.R.W.H.D.W.l G.W.a X & & & & & & & & : X ,.E.6 & a :   : % & <.,.<.D.<.h.h.;.,.<.p h.<.                  %   p h.p   & & & 6 8 & J.G.R.R.R.R.W.G.J.W.d H.W.8 X & & & & & & & & & : E.h.X 4 a & : a & W.:.G.H.W.H.W.R.d.Q.:.d.Q.:.  & & & & & & & & & : E.h.X 4 a & : a X >.G.R.H.W.H.W.R.d.Q.:.,.Q.:.  & & & & & & & : X d W.;.X 8 6   & :   ;.<.,.,.,.,.h.<.;.h.6 <.h.&                 %   *.1.& . : & & 8 4 6 H.R.H.W.G.W.W.D.R.G.x W.H.% & & & & & & & & & & T.G.% 4 a & : a & W.,.J.H.W.G.W.R.d.Q.",
"x 4 8 6 & 6 a % G.R.,.W.G.(.W.,.,.D.W.(._.p X & & & & & & & & :   G.bX& & a :   : % & d.;.;.,.,.D.h.p ;.;.D.R.,.  .               %   6 !.p   & & & 6 8 & H.H.,.W.G.(.Q.>.d.D.W._._.6 X & & & & & & & & & & MXT.  6 a & : a & Q.;.Q.R.D.Q.W.H.;.D.R.Q.bX:.  & & & & & & & & & & MXT.  6 a & : a X >.W.,.R.G.Q.W.H.;.D.R.Q.bX:.  & & & & & & & : X d bX;.X 8 6   & :   <.,.d d.<.G.D.d l ;.h.G.H.&                 % O <.E.% . : & & 8 4 8 W.D.D.R.R.Q.W.l D.J.Q.bXR.X & & & & & & & & & X MXE.  4 a & : a & W.:.W.W.D.Q.W.H.x D.",
"8 6 8 6 & 6 8 & ;.l 6 d x x x 6 8 p x :.l : & & & & & & & & & : X p :.. : a :   : & & d : & p p p 6 & : : s s 6                   X .   d .   & & & 6 8 & :.d 6 d x x l 6 a p x :.l & & & & & & & & & & :   ;.s X 6 a & : a & ;.>.s s ;.l x a 6 a d >.x 6 % & & & & & & & & :   ;.s X 4 a & : a & d ;.6 s x l x a 6 a d >.x 6 % & & & & & & & & & & ,.& & 6 6   & & . s 6 & 6 p p p & & & a d p %                 %   & f   % : & & 8 4 6 >.a p x l x d 4 a a :.;.s & & & & & & & & & :   ;.d   4 a & : a & x ,.d s ;.l x a 6 a ",
"6 8 8 6 & 6 8 &   . X .     . X X X       % & & & & & & & & & & & X   & & a :   : &   o                   o o                     X .   o     & & & 6 8 &   . X .     . % X X       & & & & & & & & & & & &   X & 4 a & : a :     . X   .   X % X .     X & & & & & & & & & & &   X & 4 a & : a :     X X   .   X % X .     X & & & & & & & & & & &   & & 6 6   & & . o                   o o                     %     o   X : & & 8 6 X   X X       X % X X     X & & & & & & & & & & & . X & 4 a & : a 4     . X   .   X % X ",
"8 6 8 6 & 6 8 6 6 6 6 6 6 6 6 6 6 6 6 6 6 6 6 6 6 6 6 6 6 6 6 6 6 6 6 6 6 8 :   & & & & & & & & & & & & & & & & & & & & & & & & & & & & & & & & & & 6 8 6 6 6 6 6 6 6 6 6 6 6 6 6 6 6 6 6 6 6 6 6 6 6 6 6 6 6 6 6 6 8 & : 8 6 6 6 6 6 6 6 6 6 6 6 6 6 6 6 6 6 6 6 6 6 6 6 6 6 6 6 6 6 6 8 & : 8 6 6 6 6 6 6 6 6 6 6 6 6 6 6 6 6 6 6 6 6 6 6 6 6 6 6 6 6 6 8 6   & & & & & & & & & & & & & & & & & & & & & & & & & & & & & & & & & & 8 6 6 6 6 6 6 6 6 6 6 6 6 6 6 6 6 6 6 6 6 6 6 6 6 6 6 6 6 6 6 8 & : 8 6 6 6 6 6 6 6 6 6 6 6 ",
"8 8 8 6 & 6 8 8 8 8 8 , , 8 6 , 6 8 8 8 8 8 8 8 8 8 8 8 , > 8 6 < 8 8 8 8 8 :   & & & : & % & & % & : & & & & & & & & & : & & : & & & : & & & & & & 6 8 8 8 8 p p 8 p p 8 8 8 8 8 8 8 8 8 8 8 p p p 8 p p 8 8 8 8 8 8 & : 8 8 8 8 7 7 8 6 7 8 8 8 8 8 8 8 8 8 8 8 6 - 8 8 7 6 8 8 8 8 8 8 & : 8 8 8 a 4 4 8 6 - 6 8 8 8 8 8 8 8 8 8 a 7 4 a 8 7 6 8 8 8 8 8 6   & & & : & & & : & & : & & & & & & & & : : & & : & & : & & & & & & & 8 8 8 a 6 @ 6 8 4 4 a 8 8 8 8 8 8 8 8 a 6 @ 6 a 5 6 p 8 8 8 8 8 & : 8 8 8 a > , 8 6 , 6 8 8 ",
"4 6 8 6 & 6 8 6 6 8 , Y |.}.}.].9 6 8 6 6 6 6 6 6 8 6 6 W }.{.Q M > 6 6 6 8 :   & & & & 4 K o.o...9 & & & & & & & & & & % 9 ....y 0 : & & & & & & & 6 8 6 6 6 ! | | | ! p 8 6 6 6 6 6 6 6 8 p 9 ] | ! ! u p 6 6 6 6 8 & : 8 6 8 7 ^ x.z.z.^ 6 6 6 6 6 6 6 6 6 8 6 a l.z.^ ^ < 6 8 6 6 6 8 & : 8 6 8 4 a.dXdXdXN.a 6 8 6 6 6 6 6 6 8 4 a.dXdXn.a.a 6 8 6 6 8 6   & & & & & ;.h.h.h.;.& & & & & & & & & & & ;.h.<.s a & & & & & & & & 8 6 a 4 d xXmXBXnX1.4 p 6 6 6 6 6 6 a 4 d xXBXVXVX*.5 8 6 6 6 8 & : 8 6 8 , t.$XDXDX#Xg 6 8 ",
"H.8 8 6 & 6 8 6 8 , W qXQ e N {.}.7 6 8 8 8 8 8 8 6 6 |.|.M e e Q Q 6 8 6 8 :   & & & 6 Z.C 4 4 y o.r & : & & & & & : & b o.r 4 & 0 y 4 & & & & & & 6 8 6 6 ] ] $ 5 $ | ! p 8 8 8 8 8 8 8 6 u | ! $ 5 $ ! $ p 8 8 6 8 & : 8 8 7 ^ tX^ 3 3 ^ ^ 8 6 8 8 8 8 8 8 6 z tX_ 2 , 3 ^ 2 6 8 8 6 8 & : 8 8 4 b.GXa.2 %.M.dXa 6 8 8 8 8 6 a 4 b.GXa.2 1 a.n.a 6 8 6 8 6   & : & & h.h.p > a h.,.& : & & & & & & & h.h.a > : k s & & & & & & & 8 8 4 *.BXlX*.*.2.BX2.4 a 6 8 8 8 8 6 *.BXxX*.*.3.VX3.5 p 6 6 8 & : 8 8 , y.DXp.j G @XDXg 6 ",
"W.l 6 6 & 6 8 8 > F qX- = . % -.Q Q < 8 8 8 8 8 8 , {.|.O k PX, % Q N < 6 8 :   & & & o.t O   O p 9 i : & & & & & & & 6 Z.4 O Q.<.O 0 y & & & & & & 6 8 p ! ] * *   f ;.! u p 8 8 8 8 8 8 6 | ! O !.bXO 5 ! 8 6 8 6 8 & : 8 6 2 tX, o 6 bX- 3 ^ 7 8 8 8 8 8 8 6 z.^ O !.bXo , ^ 8 6 8 6 8 & : a 4 %.GX1 o o X c a.a.7 8 8 8 8 8 6 -.GX< O bXG.O &.a.7 8 6 8 6   & : % :.h.O   O & a k 6 & & & & & : & ;.h.O & MX& o k a & & & & & & 8 8 4 mXu.O X O h 1.VXf 6 8 8 8 8 8 4 nXlXO J.bXO 1 VXf 6 8 6 8 & : a > j DXg O . . -.p.p.> ",
"J.D.a 6 & 6 8 8 , [.{.= - % PXbXo Q 7 6 8 8 8 8 6 6 }.N   d bX4 % e Q < 6 8 :   : & 9 o.  X O ,.bX& 0 0 & & & & & : % K K O o !.;.O X y 4 & & & & & 6 8 6 | $ * X d UXT.@ ! p 8 8 8 8 8 p u | & O R.bXo * $ $ p 8 6 8 & : a - l.^ X   D.PX  : ^ 8 6 8 8 8 8 7 2 z.& O R.bXO & ^ 2 7 8 6 8 & : a - N.N.o : % PXbX  n.a 6 8 8 8 a - N.M.o . bXG.o & n.a 6 8 8 6   & & & h.6     6 bX<.. k & & & & & & & h.a O > Q.& o : k & & & & & & a 4 1.BXX &   R.UX0 3.3.5 p 8 8 8 4 <.BX& o G.bX  X 3.3.5 p 6 8 & : a , @X@XO - X bXbX. p.g ",
"4 l 8 6 & 6 8 8 , |.Q = & & D.& % Q e 6 8 8 8 8 6 r }.- % & & & % q Q 6 6 8 :   : % h ..  X   d 6 O 0 0 & & & & & : % ..r   .         y 4 & & & & & 6 6 9 | @ & X s ,.  @ ! 6 6 8 8 8 8 p ! ] * & & & & * $ ! p 8 6 8 & : a - x.^ X & : 4 % & ^ < 6 8 8 8 8 - ^ k.X & & & & & 3 ^ 7 8 6 8 & : a - dXa.o & & D.& X n.2 6 8 8 8 a - dXn.o & & & & X a.%.7 8 8 6   & & > h.&     > d O & k & & & & & & : h.:           % k & & & & & & a 4 2.nXo &   >.d O 3.3.5 p 8 8 a 4 2.nX  & & & & X 3.3.5 p 6 8 & : a , #Xp.. & & h.& . p.j ",
"8 6 8 6 & 6 8 8 , [.W = & & o % - Q w 6 8 8 8 8 6 8 }.N % & & & % e Q < 6 8 :   : & 9 o.    . o     0 0 & & & & & : % K K O X         y 4 & & & & & 6 8 6 | $ * & X   * # ! p 8 8 8 8 8 p i | % & & & & * $ $ p 8 6 8 & : a - l.^ o & & % & & ^ 8 6 8 8 8 8 7 ^ z.& & & & & & ^ 2 7 8 6 8 & : a - dXn.o & &   & & n.a 6 8 8 8 a - N.N.o & & & & & n.2 6 8 8 6   & & & h.> o .   O   : k & & & & & & & h.6 o .       & k & & & & & & a 4 1.BXX & &   % X 3.3.5 p 8 8 8 4 1.BX& & & & & o 3.3.5 p 6 8 & : a , @X@XO & & o % & p.j ",
"8 8 8 6 & 6 8 8 > F qX- % & & % Q Q < 8 8 8 8 8 8 , {.|.% & & & % Q N < 6 8 :   & & & o.r     .   X y 4 & & & & & & & 9 Z.-         0 y & & & & & & 6 8 p ! ] % & & & & ! $ p 8 8 8 8 8 8 6 | ! * & & % @ ! 9 6 8 6 8 & : 8 6 2 tX, & & & & 3 ^ 6 8 8 8 8 8 8 6 z.^ X & & & , ^ 8 6 8 6 8 & : a 4 %.GX1 X & & X &.a.7 8 8 8 8 8 6 %.GX1 X & & X &.a.6 8 6 8 6   & : % <.h.      .   k a & & & & & : & ;.h.          s a & & & & & & 8 8 6 BX2.o & & X 1 VXf 6 8 8 8 8 8 4 mXlXo & & X * VX*.6 8 6 8 & : a > 4.DXg . & & . G p.6 ",
"6 8 8 6 & 6 8 6 8 , {.}.& & % e  X7 6 8 8 8 8 8 8 6 6 }.W % - % Q Q 6 8 6 8 :   & : & 9 Z.4   . % y 0 & & & & & & & : % b o.% .   4 y 4 & & & & & & 6 8 6 6 | ! * & & $ ! p 8 8 8 8 8 8 8 p u | $ * & : ! $ p 8 8 6 8 & : 8 8 7 l.z.& & & 3 ^ 8 6 8 8 8 8 6 8 6 2 tX2 & & : ^ 2 6 8 8 6 8 & : 8 8 - N.dX& & & 2 n.a 6 8 8 8 8 6 a - b.dX& & & 1 n.a 6 8 6 8 6   & : & & h.;.  .   a s & & & & & & & & & h.<.  .   a k & & & & & & & 8 a 4 1.BX*.X & & VX3.5 p 6 8 8 6 a 4 *.BX1.X & & VX3.5 p 6 6 8 & : 8 8 , i.DX& & % g p.g 6 ",
"8 6 8 6 & 6 8 6 8 6 6 N 8 8 8 r 7 6 8 6 8 8 8 8 6 8 6 s t 6 8 8 t 8 6 8 6 8 :   & & & & 6 4 & : : 4 & & & & & & & & & & & 9 : & & 4 4 & & & & & & & 6 8 8 6 9 u 6 8 a 9 8 6 8 8 8 8 8 8 6 8 p u 9 6 8 8 9 p 8 8 8 6 8 & : 8 6 6 6 k a 6 6 a 8 8 8 6 8 8 8 8 6 8 6 z a 6 8 a a 6 8 8 8 6 8 & : 8 6 6 6 -.8 8 8 a a 6 8 6 8 8 8 8 8 8 6 -.a 8 8 a a 6 8 6 6 8 6   & & & & > p & : & 6 & & & & & & & & & & : p & : & 6 : & & & & & & & 8 6 a 4 *.d 6 8 a *.6 8 6 8 8 8 8 6 a 4 *.d 6 8 a *.6 8 8 8 6 8 & : 8 6 8 6 4.a 8 8 s g 6 8 ",
"6 6 8 6 & 6 8 6 6 8 6 : 8 4 4 > > 8 6 8 8 8 8 8 8 6 8 > > 8 4 4 > 6 8 6 6 8 :   & & & & % & & % & % & & & & & & & & & & & % & & & & % & & & & & & & 6 8 6 8 4 4 8 4 4 : 6 8 6 8 8 8 8 8 6 8 6 & 6 6 4 4 : 6 8 6 8 6 8 & : 8 6 8 4 4 4 6 8 4 4 : 6 8 6 8 8 8 6 8 6 - 6 6 4 4 4 6 8 6 8 6 8 & : 8 6 8 6 - 8 4 4 4 4 8 6 8 8 8 8 8 6 8 6 - 6 6 4 4 4 8 6 8 6 8 6   & & & : % % & % & % & & & & & & & & & : & % : & & % & & & & & & & & 8 8 6 8 & 4 6 4 4 4 6 8 6 8 8 8 8 8 6 8 : 4 6 4 4 : 6 8 6 8 6 8 & : 8 6 8 6 : 6 6 4 > : 8 6 ",
"8 6 8 6 & 6 8 6 8 6 :.H.6 d.D.V.D.4 8 8 8 8 8 8 8 8 4 D.D.4 H.>.H.;.6 8 6 8 :   & & & : ,.p 6 ,.s ,.> & & & & & & & & & a ,.& d ;.l ;.& & & & & & & 6 8 8 4 D.D.4 H.>.H.;.6 8 8 8 8 8 8 8 6 a R.x s H.:.H.a 6 8 8 6 8 & : 8 6 4 d.;.d.x 6 H.>.H.l 6 8 8 8 8 8 6 a R.x s H.:.H.a 6 8 8 6 8 & : 8 8 6 ;.R.6 ,.D.d.D.4 8 8 8 8 8 8 8 6 x R.6 ,.J.d.J.6 8 8 6 8 6   & & & & ;.;.& <.d <.s & & & & & & & & & ;.;.& <.d <.s & & & & & & & 8 8 6 a R.x s H.:.R.s 6 8 8 8 8 8 8 6 8 R.;.a H.:.R.s 6 8 8 6 8 & : 8 8 6 x R.6 >.J.d.J.6 8 ",
"8 6 8 6 & 6 8 6 8 6 H.R.>.J.W.Q.H.d 6 8 8 8 8 8 8 6 d R.H.>.H._.R.H.6 8 6 8 :   & : % d ,.;.l ,.T.<.l % : & & & & & : & <.,.d ;.h.G.,.p & & & & & & 6 8 6 d R.H.>.H._.R.H.6 8 8 8 8 8 8 8 4 ,.R.D.d.R._.H.d.4 8 8 6 8 & : 8 s a H.D.H.,.x H._.R.G.4 8 8 8 8 8 4 ,.R.D.d.R._.H.d.4 8 8 6 8 & : 8 8 6 H.R.>.J.W.Q.H.d 6 8 8 8 8 8 8 4 G.R.>.J.W.(.H.x 6 8 6 8 6   & : & 6 ,.<.d <.G.,.<.& : & & & & & & 4 ,.,.d <.G.,.<.& & & & & & & 8 8 4 ,.R.D.d.R._.H.d.4 8 8 8 8 8 8 4 >.R.D.,.H._.H.D.4 8 8 6 8 & : 8 8 4 G.R.,.J.W.(.H.x 6 ",
"8 6 8 6 & 6 8 6 8 6 G.W.J.H.Q.Q.R.s 6 8 8 8 8 8 8 6 s R.W.D.R.(.W.H.4 8 6 8 :   & : & d h.,.;.,.G.,.l % : & & & & & : & ;.h.:.<.D.J.,.6 & & & & & & 6 8 6 s R.W.D.R.(.W.H.4 8 8 8 8 8 8 8 4 >.W.H.J.R._.R.d.4 8 8 6 8 & 4 6 l >.>.d.>.D.d.R._.W.J.4 8 8 8 8 8 4 >.W.H.J.R._.R.d.4 8 8 6 8 & : 8 8 4 G.W.J.H.Q.Q.R.s 6 8 8 8 8 8 8 4 J.W.J.H.W.Q.R.l 6 8 6 8 6   & : & 4 ,.,.;.,.G.d.<.& : & & & & & & > ,.d.;.,.G.h.,.& & & & & & & 8 8 4 >.W.H.J.R._.R.d.4 8 8 8 8 8 8 4 ;.W.R.J.R._.R.D.4 8 8 6 8 & : 8 8 4 J.W.G.H.W.Q.R.l 6 ",
"8 6 8 6 & 6 8 6 8 6 x D.x >.,.:.,.6 8 8 8 8 8 8 6 8 6 ,.d.x d.x D.x 6 8 6 8 :   & & & & ;.s a ;.p ;.: & & & & & & & & & 6 ;.a d l s l & & & & & & & 6 8 8 6 ,.d.x d.x D.x 6 8 8 8 8 8 8 8 6 8 D.:.x D.x D.a 6 8 8 6 8 & : 8 6 4 d l s ;.x D.x D.d 6 8 8 8 8 8 6 8 D.:.x D.x D.a 6 8 8 6 8 & : 8 8 6 l D.x >.,.:.,.6 8 8 8 8 8 8 8 6 l D.x >.,.:.d.6 8 8 6 8 6   & & & & d l p l a x p & & & & & & & & & d l p l s l a & & & & & & & 8 8 6 8 D.:.x D.x D.a 6 8 8 8 8 8 8 8 6 D.>.x D.x D.a 6 8 8 6 8 & : 8 8 6 l D.x >.,.:.d.6 8 ",
"8 6 8 6 & 6 8 6 6 8 6 4 6 4 4 4 4 8 6 8 8 8 8 8 8 6 8 4 4 6 4 6 4 6 8 6 6 8 :   & & & & % & & % & % & & & & & & & & & & & % & & & & & & & & & & & & 6 8 6 8 4 4 6 4 6 4 6 8 6 8 8 8 8 8 6 8 6 4 4 6 4 6 : 6 8 6 8 6 8 & : 8 8 8 6 6 6 6 6 4 6 4 6 8 6 8 8 8 6 8 6 4 4 6 4 6 : 6 8 6 8 6 8 & : 8 6 8 6 4 6 4 4 4 4 8 6 8 8 8 8 8 6 8 6 4 6 4 4 4 4 8 6 8 6 8 6   & & & & & & & & & % & & & & & & & & & & & & & & & & & & & & & & & & 8 8 8 6 4 4 6 4 6 : 6 8 6 8 8 8 8 8 8 8 4 4 6 4 6 : 6 8 6 8 6 8 & : 8 6 8 6 4 6 4 4 4 4 8 6 ",
"6 6 8 6 & 6 8 6 8 6 8 8 8 a a 8 8 6 8 8 8 8 8 8 8 8 6 8 8 8 a 8 8 8 6 8 6 8 :   & & & & : : : : : : & & & & & & & & & & & : : : : : : & & & & & & & 6 8 6 6 8 8 8 a 8 8 8 6 8 8 8 8 8 8 8 6 8 8 8 8 a 8 8 8 6 8 8 6 8 & : 8 6 6 8 8 8 a 8 a 8 8 8 6 8 8 8 8 8 6 8 8 8 8 a 8 8 8 6 8 8 6 8 & : 8 6 6 8 8 8 a a 8 8 6 8 8 8 8 8 8 8 6 8 8 8 8 a 8 8 6 8 8 6 8 6   & & & & : : : : : : & & & & & & & & & & : : : : : : & & & & & & & & 8 8 6 8 8 8 8 a 8 8 8 6 8 8 8 8 8 8 8 8 8 8 8 a 8 8 8 6 8 8 6 8 & : 8 6 6 8 8 8 a a 8 8 6 8 ",
"8 6 8 6 & 6 8 6 8 6 8 8 6 > > 6 8 6 8 8 8 8 8 8 8 8 6 8 8 6 7 6 8 8 6 8 6 8 :   & & & & & & & & & & & & & & & & & & & & & : & & & & & & & & & & & & 6 8 6 6 8 8 > > > 8 8 6 8 8 8 8 8 8 8 8 6 8 6 7 7 6 8 8 6 8 8 6 8 & : 8 6 6 8 8 6 > > 6 8 6 8 8 8 8 8 8 8 8 6 8 6 7 7 6 8 8 6 8 8 6 8 & : 8 6 6 8 8 6 > > 6 8 6 8 8 8 8 8 8 8 6 8 8 6 7 7 6 8 6 8 8 6 8 6   & & & & & & & & & & & & & & & & & & & & & & & & & & & & & & & & & & 8 8 6 6 8 6 > > 6 8 8 6 8 8 8 8 8 8 8 6 8 6 7 7 6 8 8 6 8 8 6 8 & : 8 6 6 8 8 6 > > 6 8 6 8 ",
"8 6 8 6 & 6 8 6 6 8 6 , j 8.4.8 > 8 6 8 8 8 8 8 8 6 8 6 6 2 ^ 2 7 6 8 6 6 8 :   & & & & & : 7 7 4 & & & & & & & & & & & & & 4 8 8 : & & & & & & & & 6 8 6 8 > > G 8.G > 6 8 6 8 8 8 8 8 8 8 8 7 8 ^ ^ a 7 6 8 6 8 6 8 & : 8 6 8 6 , j 8.4.8 > 8 6 8 8 8 8 8 8 8 8 7 8 ^ ^ a 7 6 8 6 8 6 8 & : 8 6 8 6 , j 8.4.8 > 8 6 8 8 8 8 8 6 8 6 - z ^ ^ 8 7 8 6 8 6 8 6   & & & & & & 6 9 6 & & & & & & & & & & & & & 6 8 6 & & & & & & & & & 8 8 6 8 > a 8.8.h > 6 8 6 8 8 8 8 8 6 8 7 8 ^ ^ z 7 6 8 6 8 6 8 & : 8 6 8 6 , h 8.8.8 > 8 6 ",
"8 6 8 6 & 6 8 6 8 6 8 @X4X#X$X4X8.> 8 6 8 8 8 8 6 8 7 2 z.z.z.tXz.a 6 8 6 8 :   & & & & h K G G K h & & & & & & & & & & & z ) z z ) 8 & & & & & & & 6 8 8 > j 4X$X#X4X4Xh 6 8 6 8 8 8 8 6 8 7 ^ tXz.z.tXl.6 6 8 8 6 8 & : 8 8 6 8 @X4X#X$X4X8.> 8 6 8 8 8 8 6 8 7 ^ tXz.z.tXl.6 6 8 6 6 8 & : 8 8 6 8 @X4X#X$X4X8.> 8 6 8 8 8 6 8 6 6 l.tXz.z.tX^ 7 8 6 6 8 6   & & & & 6 K G G K K 4 & & & & & & & & & 4 b ) z ) ) 4 & & & & & & & 8 8 8 > q.4X#X#X4Xy.6 6 8 6 8 8 8 6 8 7 ^ tXz.z.tXl.6 6 8 8 6 8 & : 8 8 6 6 @X4X#X#X4X9.> 8 ",
"8 6 8 6 & 6 8 8 8 6 4X@X- . % G 4X8.> 8 8 8 8 8 8 6 z tX^ & & & _ tX8 6 6 8 :   & & & h K -     X G c & & & & & & & & & z z .     > ) 8 & : & & & & 6 8 6 j 4X9.% . & y.4Xs 6 8 8 8 8 8 8 7 ^ tX3 & & , z.l.7 8 8 6 8 & : 8 6 6 #X@X- . % G 4X8.> 8 6 8 8 8 8 7 ^ tX3 & & : z.x.7 8 8 6 8 & : 8 6 6 #X@X- . % G 4X8.> 8 8 8 8 8 8 6 x.z.: X & 2 rX^ 7 8 6 8 6   & : & 4 K 7       w K 4 & & & & & & & > ) 8     . a ) : & & & & & & 8 8 > y.4Xj . . - #X@X> 8 8 8 8 8 8 7 ^ tX3 & & > z.x.7 8 8 6 8 & : 8 8 > @X@X- . % e 4Xq.> ",
"8 6 8 6 & 6 8 8 , q.#X  % & X , 8.@X> 8 8 8 8 8 8 - x.^ o & & O O k.l.- 8 8 :   & & : K -   X   % > t 4 & & & & & & & 8 )     . O O : ) & & & & & & 6 8 , @Xy.O & & & , @Xy., 8 8 8 8 8 6 a tX3 o & X O o tX^ 7 8 6 8 & : a > q.#X  % & o O 8.4X6 8 8 8 8 8 6 a tX3 o & . l l _ 2 6 8 6 8 & : a > q.#X  % & X , 8.@X> 8 8 8 8 8 7 ^ tX& & &   O 3 tX6 6 8 8 6   & : & c r O .     > h r & & & & & : & z u o   . O O z z & : & & & & 8 6 s 4Xj O & X > s #Xj > 8 8 8 8 6 8 tX3 o & % O o tX^ 7 8 6 8 & : a > 8.4X. . & X , 4.@X6 ",
"8 6 8 6 & 6 8 8 , @Xy.  -   MXIXs Y h 6 8 8 8 8 6 a tX, & & & Q.bX2 k.6 8 8 :   : & 7 G   X O d bX,.X 7 & & & & & : & z 9   . o ;.Q.f u 6 & & & & & 6 6 s 4Xw % & : IXbX- y.6 8 8 8 8 8 7 ^ z.& & X s bXT.^ ^ - 8 6 8 & : a , @Xy.  &   W.IX;.y.h 6 8 8 8 8 7 ^ z.& :   D.UXD.3 ^ 7 8 6 8 & : a , @Xy.  -   _.IXs Y h 6 8 8 8 8 - l.^ X :   h.bX;._ 2 6 8 8 6   & & : K &     % MXQ.X q & & & & & & & ) :       h.E.: z & & & & & & 8 > 8.#X. &   >.UXE.e Y > 8 8 8 8 7 ^ z.& & X a bX!.^ l.- 8 6 8 & : a , @Xy.  -   Q.UXl Y j ",
"8 6 8 6 & 6 8 8 , @X8.. & X >.s X y.j 6 8 8 8 8 6 a tX, & & & (.Q., ^ 8 6 8 :   : & 9 c   .   4 d   - 7 & & & & & : & z 8   . O <.E.p @ > & & & & & 6 6 s 4X7 % & : ,.& - y.6 8 8 8 8 8 - ^ z.X &   l bXD.3 ^ 7 8 6 8 & : a , @X8.. &   D.D.& Y j 6 8 8 8 8 - ^ z.X & X a s o 3 ^ 7 8 6 8 & : a , @X8.. & X <.s . y.j 6 8 8 8 8 - x.^ X &   G.bXl ^ 2 6 8 8 6   & & 4 K &     % d % X q & & & & & & : ) &       G.G.& : : & & & & & 8 , 9.@X. & X s >.. G Y > 8 8 8 8 7 ^ z.& & X s bXH.3 ^ 7 8 6 8 & : a , @Xy.  & X :.d . y.j ",
"6 6 8 6 & 6 8 8 , y.@XO & &     - y.8 6 8 8 8 8 8 6 z.^ o & & O O 3 ^ 7 6 8 :   & & 6 K X   .   O   q 4 & & & & & : & z z     . O O   5 : & & & & & 6 8 > 4X8.O & &   . G 8.> 8 8 8 8 8 6 z tX: & & X O o ^ 2 7 8 6 8 & : a , y.@XO & &   O - y.8 6 8 8 8 8 6 z tX: & & X X & ^ 2 7 8 6 8 & : a , y.@XO & &     - y.8 6 8 8 8 8 - a.z.o & &   O . ^ 8 6 6 8 6   & : & K 7   .   O   - 7 & & & & & & & z 6 o .   O O X 5 & & & & & & 8 6 j 4X- . & X   . Y G > 8 8 8 8 6 a tX, X & % O o ^ 2 7 8 6 8 & : a , y.@XO & &     - y.9 ",
"8 6 8 6 & 6 8 8 6 s 4X9.. & & & y.Y > 8 8 8 8 8 8 7 ^ tX, % & & , ^ < 6 6 8 :   & & & c G         - q & & & & & & & & : ) 8       X : > & & & & & & 6 8 > 8.4Xw . & % ; y.h 6 8 8 8 8 8 8 - l.z.& & & & 3 ^ 6 6 8 6 8 & : 8 6 s 4X9.. & & & y.Y > 8 8 8 8 8 8 - l.z.& & & & 3 ^ 6 6 8 6 8 & : 8 6 s 4X9.. & & & y.Y > 8 8 8 8 8 6 8 tX^ X & & & ^ ^ 7 8 6 8 6   & : & 7 K &       X q 4 & & & & & & & 6 ) :     . % 5 : & & & & & & 8 8 , @X#X& & & % G y.6 6 8 8 8 8 8 - l.z.& & & & 3 ^ 8 6 8 6 8 & : 8 6 a 4Xy.. & & & Y Y > ",
"8 6 8 6 & 6 8 6 8 > 8.@X4 4 : j Y 6 8 8 8 8 8 8 8 8 - l.^ - : 4 ^ 2 7 8 6 8 :   & & & & G 6 % % & 7 & & & & & & & & & & 6 z & % % : 4 & & & & & & & 6 8 8 , y.y.: 4 > Y G > 8 6 8 8 8 8 8 6 8 x.2 - : 6 ^ 8 6 8 8 6 8 & : 8 8 > 4.@X4 4 : j Y 6 8 8 8 8 8 8 8 6 8 x.2 - : 6 ^ 8 6 8 8 6 8 & : 8 8 > 4.@X4 4 : j Y 6 8 8 8 8 8 6 8 7 2 z.6 : - 3 ^ 6 8 8 6 8 6   & & & & h h % % % 4 4 & & & & & & & & & z z % % % : > & & & & & & & 8 8 6 8 @XG : : 6 8.g 6 8 8 8 8 8 8 6 6 x.^ - : 6 ^ < 6 8 8 6 8 & : 8 8 > G @X6 : : j 8.6 8 ",
"8 6 8 6 & 6 8 6 6 8 > > 8 8 a 6 6 8 8 8 8 8 8 8 8 8 8 7 6 8 8 8 6 6 8 6 6 8 :   & & & & & & & & : & & & & & & & & & & & & & : & : & & & & & & & & & 6 8 6 8 > 6 8 6 a 6 6 8 6 8 8 8 8 8 6 8 6 7 8 8 8 8 6 6 8 6 8 6 8 & : 8 6 8 > > a 6 8 8 6 8 8 8 8 8 8 8 6 8 6 4 8 8 8 8 6 6 8 6 8 6 8 & : 8 6 8 > > 8 6 a 6 6 8 8 8 8 8 8 8 6 8 6 6 8 8 8 6 6 8 8 8 6 8 6   & & & & & & & & : & & & & & & & & & & & & & : & : & & & & & & & & & 8 6 8 6 > 8 6 8 8 6 6 8 6 8 8 8 8 6 8 6 7 8 8 8 8 6 6 8 6 8 6 8 & : 8 6 8 6 > 8 6 a 6 6 8 8 ",
"8 6 8 6 & 6 8 6 8 6 s s 6 a 6 8 a 6 8 6 8 8 8 8 8 6 8 6 6 6 8 6 a 6 8 6 6 8 :   & & & & 6 & & & & : & & & & & & & & & & & & & > & > & & & & & & & & 6 8 6 6 s a 6 a 6 a a 6 8 6 8 8 8 8 8 6 8 6 6 a 6 a 6 6 8 8 8 6 8 & : 8 6 6 8 s 4 s 6 6 a 6 8 6 8 8 8 8 8 8 6 s 6 8 8 6 s 6 6 8 8 6 8 & : 8 6 6 s s 6 a 6 8 a 6 8 6 8 8 8 8 8 6 8 6 6 a 6 a 6 6 8 8 6 8 6   & & & & 6 & & & & : & & & & & & & & & & & & & > & > & & & & & & & & 8 8 6 8 s 6 a 6 6 a 6 8 6 8 8 8 8 8 6 8 6 6 6 a 6 a 6 8 6 8 6 8 & : 8 6 6 a s 6 a 6 8 a 6 8 ",
"6 8 8 6 & 6 8 6 8 6 :.W.R.W.a R.R.6 8 8 8 8 8 8 8 8 4 ,.R.D.W.R.R.8 6 8 6 8 :   & & & & ;.d.h.:.4 G.l & : & & & & & & & : D.l D.<.D.a & & & & & & & 6 8 8 6 :.W.R.W.a R.R.6 8 8 8 8 8 8 8 8 4 R.D.R.R.W.D.4 8 8 8 6 8 & : 8 8 6 s R.W.W.x ,.(.l 6 8 8 8 8 8 8 8 6 J.R.W.J.d Q.d.4 8 8 6 8 & : 8 8 6 :.W.R.W.a R.R.6 8 8 8 8 8 8 8 8 4 H.D.R.R.W.D.4 8 8 6 8 6   & & & & ;.d.h.:.4 G.l & : & & & & & & & : D.l D.<.D.a & & & & & & & 8 8 6 s R.R.Q.;.>.(.x 6 8 8 8 8 8 8 8 4 :.W.D.W.R.W.a 6 8 8 6 8 & : 8 8 6 ;.W.R.W.a H.W.8 6 ",
"4 8 8 6 & 6 8 6 8 8 4 R.W.J.d.J.H.l 6 8 8 8 8 8 8 8 6 d W.J.R.(.J.x 4 8 6 8 :   & & & & 4 J.:.:.l :.<.& : & & & & & & : & <.,.l R.;.;.% : & & & & & 6 8 6 8 4 R.W.J.d.J.H.l 6 8 8 8 8 8 8 8 4 ,.W.d._.H.H.6 8 8 8 6 8 & : 8 6 8 4 ,.W.Q.D.d.bXx 6 8 8 8 8 8 8 8 6 x bXG.G.:.Q.W.4 8 8 6 8 & : 8 6 8 4 H.W.J.d.J.H.x 6 8 8 8 8 8 8 8 4 ,.W.d._.H.H.6 8 8 6 8 6   & & & & > D.:.:.l :.<.& : & & & & & & : & <.,.l R.;.;.% : & & & & & 8 6 8 4 :.(.D.D.D.G.D.: a 8 8 8 8 8 8 6 s W.G.H._.J.:.4 8 8 6 8 & : 8 6 8 4 H.W.J.V.J.H.x 4 ",
"4 8 8 6 & 6 8 6 8 : H.Q.G.Q.D.R.W.8 6 8 8 8 8 8 8 8 6 s G.J.Q.W.W.a 6 8 6 8 :   & & & & G.<.d.d.;.D.;.& : & & & & & & : & ;.;.D.,.D.s & : & & & & & 6 8 8 : H.Q.G.Q.D.R.W.8 6 8 8 8 8 8 8 8 4 :.D.R.W.W.G.4 8 8 8 6 8 & : 8 8 4 ;._.;.Q.J.H.Q.;.4 8 8 8 8 8 8 6 8 D.W.W.W.:.W.D.4 8 8 6 8 & : 8 8 : H.Q.G.Q.D.R.W.8 6 8 8 8 8 8 8 8 4 :.D.R.W.W.G.4 8 8 6 8 6   & & & & G.<.,.d.x D.;.& : & & & & & & : & ;.;.D.,.D.s & : & & & & & 8 8 6 x _.D.Q.H.J.Q.;.4 8 8 8 8 8 8 6 6 a G.J.Q.W.W.s 6 8 8 6 8 & : 8 8 : G.Q.J.Q.D.R.W.a 6 ",
"6 8 8 6 & 6 8 6 8 6 d x s s a s s 6 8 6 8 8 8 8 8 8 6 8 8 a s a s 6 8 6 6 8 :   & & & & 8 6 6 4 : 6 : & & & & & & & & & & : & 6 & 6 & & & & & & & & 6 8 8 6 d x s s a s s 6 8 6 8 8 8 8 8 8 6 a 6 s a s a 6 8 8 8 6 8 & : 8 6 6 s x l s a s l 6 8 6 8 8 8 8 8 8 6 x a s s s d 6 8 8 8 6 8 & : 8 6 6 d x s s a s s 6 8 6 8 8 8 8 8 8 6 a 6 s a s a 6 8 8 6 8 6   & & & & 6 6 6 4 : 6 : & & & & & & & & & & : & 6 & 6 & & & & & & & & 8 8 6 a x s d s a d 6 8 6 8 8 8 8 8 8 6 8 a a s 8 d 6 8 6 8 6 8 & : 8 8 6 s x s s a s s 6 8 ",
"8 6 8 6 & 6 8 6 6 8 6 6 6 6 6 6 6 8 6 8 8 8 8 8 8 8 8 6 6 6 6 6 6 8 6 8 6 8 :   & & & & & & & & & & & & & & & & & & & & & & & & & & & & & & & & & & 6 8 6 8 6 6 6 6 6 6 6 8 6 8 8 8 8 8 8 6 8 6 8 6 6 6 6 8 6 8 8 6 8 & : 8 6 8 6 6 6 6 6 6 6 8 6 8 8 8 8 8 8 8 8 6 6 6 6 6 6 8 8 8 8 6 8 & : 8 6 8 6 6 6 6 6 6 6 8 6 8 8 8 8 8 8 6 8 6 8 6 6 6 6 8 6 8 6 8 6   & & & & & & & & & & & & & & & & & & & & & & & & & & & & & & & & & & 8 6 8 6 6 6 6 6 6 6 8 6 8 8 8 8 8 8 8 8 6 6 6 6 6 6 8 6 8 8 6 8 & : 8 6 8 6 6 6 6 6 6 6 8 6 ",
"6 6 8 6 & 6 8 6 8 6 8 8 a a a a 8 6 8 8 8 8 8 8 8 8 8 8 8 8 8 8 8 6 8 8 6 8 :   & & & & & : : : & & & & & & & & & & & & & & : : : : & & & & & & & & 6 8 6 6 8 a a a a a 8 6 8 8 8 8 8 8 8 8 6 8 8 8 8 8 8 6 8 8 8 6 8 & : 8 6 6 8 8 a a a a 8 8 8 8 8 8 8 8 8 8 6 8 8 8 8 8 8 8 8 8 8 6 8 & : 8 6 6 8 8 a a a a 8 6 8 8 8 8 8 8 8 8 6 8 a a a a 8 6 8 8 6 8 6   & & & & & : : : : & & & & & & & & & & & & : : : : : & & & & & & & & 8 8 6 8 8 a a a a 8 6 8 8 8 8 8 8 8 8 6 8 a a a a 8 6 8 8 8 6 8 & : 8 6 6 8 8 a a a a 8 6 8 ",
"8 6 8 6 & 6 8 6 8 6 a 6 : : : : a 8 6 8 8 8 8 8 8 6 8 8 > , , , > 8 6 8 6 8 :   & & & & & & % & & & & & & & & & & & & & : & % % % & & & & & & & & & 6 8 6 8 a > : : : > a 6 8 8 8 8 8 8 8 6 8 8 p p p p 6 8 6 8 8 6 8 & : 8 6 6 a 6 : : : : 8 8 6 8 8 8 8 8 8 6 8 8 7 - - - 6 8 6 8 8 6 8 & : 8 6 6 a 6 : : : : 8 8 6 8 8 8 8 8 8 6 8 6 - - - 4 8 8 6 8 6 8 6   & & & & & & & & & & & & & & & & & & & & : & % % % & : & & & & & & & 8 8 6 8 8 : : : : 6 a 6 8 8 8 8 8 8 6 8 8 4 @ @ @ 6 a 6 8 8 6 8 & : 8 6 6 a 6 : : : : 8 8 6 ",
"8 6 8 6 & 6 8 6 6 a > d i.CXCXr.: 6 8 6 8 8 8 8 8 8 8 , F {.|.{.N , 8 6 6 8 :   & & & & & s c :.h : & & & & & & & & & : & 4 b .. .r & & & & & & & & 6 8 6 8 : 4.pXCXpX=.: a 6 8 8 8 8 8 6 8 6 6 ! ] ] ! 8 p 8 6 8 6 8 & : 8 6 a > d i.CXCXr.> 6 8 6 8 8 8 8 6 8 6 6 ^ l.l.^ 8 6 8 6 8 6 8 & : 8 6 a > d i.CXCXr.> 6 8 6 8 8 8 8 6 a 4 a b.dXdXg.4 6 8 6 6 8 6   & & & & & 6 x :.x 6 & & & & & & & & & & & a <.h.,.a & : & & & & & & 8 6 8 6 4 u.CXCXi.s > a 6 8 8 8 8 6 8 6 4 2.xXnXlXf 4 a 6 8 6 8 & : 8 6 a > s i.CXCXu.> 6 8 ",
"8 6 8 6 & 6 8 6 a > w.SXCXi.i.SXCX4 8 8 8 8 8 8 8 8 , W qX{.R {.qXT , 8 6 8 :   & & & & >.5.s s :.6.6 & & & & & & & : & 9 o.J r b o...& & & & & & & 6 8 8 > i.SXi.i.CXSXi.: a 6 8 8 8 8 8 6 8 | | ! ! ] | u p 8 6 6 8 & : 8 p > w.SXCXi.i.SXCX6 8 8 8 8 8 8 8 6 8 z.z.^ ^ k.tXz 6 8 6 6 8 & : 8 p > w.SXCXi.i.SXCX4 6 8 8 8 8 6 8 4 %.GXdXa.n.GXdX6 6 8 6 8 6   & & & & h 6.h 7 j 7.s & & & & & & & : & ;.h.;.l <.T.;.& : & & & & & 8 8 6 a ZXZXi.i.CXSX=.> a 6 8 8 8 8 6 6 nXBXu.2.nXBX1.4 a 6 6 8 & : 8 8 > 4.SXCXi.i.SXCX6 6 ",
"6 6 8 6 & 6 8 8 6 d SXt.O O O O ZXpX: a 8 8 8 8 8 , T qX- = = = e qXF > 8 8 :   & & & :.c       O 7 6.& & & & & & & & 4 o.r O       ..K % : & & & & 6 a : u.SX- O O O ; SXw.> a 8 8 8 8 8 p ] ] * * * * ! | 6 6 8 6 8 & : a 6 d SXt.O O O . ZXpX: a 8 8 8 8 8 7 l.k.X X X o ^ tX6 6 8 6 8 & : a 6 d SXt.O O O O ZXpX: a 8 8 8 8 6 a GXa.o o o X dXN.- a 6 8 6   & : & s 6.%     O X 7.8 & & & & & : & d h.& O o O & T.s & : & & & & 8 a : CXCXO O O O i.SX8 6 8 8 8 8 a 4 xXnXo O o O 2.BXa 6 8 6 8 & : a 6 s SXu.O O O   ZXCX: ",
"8 6 8 6 & 6 8 a : pXCXO - & 6 :.=.ZXf 6 8 8 8 8 8 > }.Y = - & X = R [., 8 8 :   & & 6 5..   . . f p j s & & & & & : % b J O X .     & o.4 & & & & & 6 8 > ZXt.O - & d z i.CX: a 8 8 8 8 p u | & & & X X * ] ! p 8 6 8 & : a : pXCXO - & X O g SXs 6 8 8 8 8 6 z tX& & & X & X z.^ 7 8 6 8 & : a : pXCXO - & 6 :.=.ZXf 6 8 8 8 a - b.dXo & & % X , GXk 6 8 8 6   & : & 5.6   X   6 f 9 x & & & & & & & h.d O %     O k h.& : & & & & 8 4 =.SX- . & & ;.z CXu.: a 8 8 8 6 *.BXp X & % & O nX!.: a 6 8 & : a : i.CXO & & & . ; SXd ",
"8 6 8 6 & 6 8 a : CXu.O &   bXIXl p.=.6 8 8 8 8 6 r qX- % & 4 d O N }.6 6 8 :   : & s :.  X O d bXh.X 7 & & & & & : % ..h   .   p . o ..9 & & & & & 6 6 d SXg % % 4 IXbX; i.6 8 8 8 8 8 p ! ] * & X a 8   ! ! p 8 6 8 & : a : CXi.O & X d.;.. ZX4.> 8 8 8 8 - ^ z.X & X a : o ^ l.- 8 6 8 & : a : CXi.O &   bXIXl p.=.6 8 8 8 a - dXn.o & % l & o dXa.4 8 8 6   & & 4 5.&     & MXQ.& 7 & & & & & & : h.:     % p O : h.: & & & & & a : u.ZX  &   ,.UXW.=.p.> 8 8 8 a 4 2.mXX & X a s O u.nX@ a 6 8 & : a @ CXi.O & & &   . ZXt.",
"6 6 8 6 & 6 8 a : CXi.O & % 6 & % i.j 6 8 8 8 8 6 9 }.q % X p IXQ.N }.> 8 8 :   : & s :.  .   % & O 4 7 & & & & & : % K b   X O E.MX& o.9 & & & & & 6 6 s SXg . & & 6 O g i.6 8 8 8 8 8 p ) ] * &   D.UX<.! ! p 8 6 8 & : a : CXi.O &   Q.IXd ZX4.> 8 8 8 8 7 ^ z.X & o T.IXg _ l.- 8 6 8 & : a : CXi.O & % 6 & X i.j 6 8 8 8 a - N.n.o :   bXIX4 dXa.4 8 8 6   & & : 5.&     . & o & 7 & & & & & & & h.>     & bXT.> h.& & & & & & a : t.ZX  & % 4 6 O p.p.> 8 8 8 a 4 1.mXX &   ,.UX>.lXxX@ a 6 8 & : a @ CXi.O & & PXG.O ZXw.",
"8 6 8 6 & 6 8 a : i.SX. % & & . =.i.6 8 8 8 8 8 8 , |.{.= & X s -. X{., 8 8 :   & & : 6.-   .     . 7 4 & & & & & : & r o.        *.7 ..: & & & & & 6 a : CXpXO & & % . p.t.> 8 8 8 8 8 6 8 | $ * &   <.l ] u p 8 6 8 & : a : u.SX. % &   : 4.pX6 6 8 8 8 8 6 8 tX3 X & X T.x z.2 6 8 6 8 & : a : u.SX. % & & . =.i.6 8 8 8 8 8 4 g.GX& & & & 6.%.dXa 6 8 8 6   & : & :.h   .       4 6 & & & & & : % d.,.O .   : d l <.& : & & & & 8 6 s SX4.O & & . & i.=.6 8 8 8 8 6 8 BX1.O &   ;.l nX2.4 a 6 8 & : a : t.SX% %   T.(.t.SX6 ",
"8 6 8 6 & 6 8 8 8 > ZXCX. & X g i.=.6 8 8 8 8 8 8 6 t qXT % & . Q Q 6 6 6 8 :   & & & s 7.&     . 7 7 & & & & & & & & & ....      o y 4 & & & & & & 6 a 4 j SXu.. & . t.i.p 6 8 8 8 8 8 8 p ! | 5 % &   $ $ p 8 6 6 8 & : 8 8 > ZXCX. & % ; i.=.6 8 6 8 8 6 8 7 ^ tX, & & o ^ ^ 6 8 8 6 8 & : 8 8 > ZXCX. & X ; i.=.6 8 8 8 8 8 8 4 dXdX& & & % n.2 7 8 6 8 6   & : & 4 7.7       - 7 & & & & & & & & > T.l   .   & k & & & & & & & 8 a : i.SXg . & & p.p.> 8 8 8 8 6 a 4 2.BX*.X &   3.3.4 8 8 6 8 & : 8 8 : CXZXX &   - ZXu.: ",
"8 6 8 6 & 6 8 6 8 6 s i.6 6 4 =.=.6 8 6 8 8 8 8 6 8 , F Y > 6 8 N w 6 8 6 8 :   & & & & s 6 & & & 6 & : & & & & & & & & : b : & & 4 6 & & & & & & & 6 8 a : 4.r.> 6 6 4.f 6 8 6 8 8 8 8 6 8 p ! u 6 6 8 $ 8 8 8 8 6 8 & : 8 8 6 s i.8 6 4 =.=.6 a 6 8 8 8 8 6 8 7 ^ z 6 6 a 2 6 8 8 8 6 8 & : 8 8 6 s i.6 6 4 =.=.6 8 6 8 8 8 6 8 6 a b.a 6 6 k %.7 8 6 6 8 6   & & & & 6 s & & & 6 : & & & & & & & : & p l & & & p > & & & & & & & 8 6 8 > u.=.> 6 f t.8 8 6 8 8 8 8 6 a 4 2.1.4 6 a 3.a 6 8 8 6 8 & : 8 8 6 a i.a 6 6 =.=.> 8 ",
"8 6 8 6 & 6 8 6 6 8 : : 6 6 a : > 4 6 8 6 8 8 8 8 6 8 > , 6 6 4 > > 8 6 6 8 :   & & & & . & & & & % & & & & & & & & & & & % & : & & % & & & & & & & 6 8 6 a : : 8 6 a : 6 4 6 8 6 8 8 8 8 6 8 p 4 8 6 4 6 4 8 6 8 6 8 & : 8 6 8 6 : 6 4 a : > 6 6 8 6 8 8 8 8 6 8 7 - 6 6 4 6 4 8 6 8 6 8 & : 8 6 8 : : 6 6 a : > 4 6 8 6 8 8 8 6 8 6 4 4 8 6 4 4 6 8 6 6 8 6   & & & & % & & & & % & & & & & & & & & : & % & : & & & & & & & & & & 8 6 8 6 @ 6 6 8 4 : 6 6 8 6 8 8 8 8 6 a 4 4 6 8 4 5 4 8 8 8 6 8 & : 8 6 8 6 : 4 8 4 4 : 8 8 ",
"8 6 8 6 & 6 8 6 8 6 ,.;.a x 6 ,.d ,.s 6 8 8 8 8 8 6 8 6 :.s a ,.d ,.6 8 6 8 :   & & & : l > 6 6 > d 6 d & & & & & & & & & 6 s & d 6 d 6 & & & & & & 6 8 8 6 ,.x a x 6 ,.d ,.s 6 8 8 8 8 8 8 6 a >.6 x ;.x :.6 8 6 6 8 & : 8 8 6 d ;.x >.4 >.x l x 6 8 8 8 8 8 8 6 s ,.s a ,.d ,.6 8 8 6 8 & : 8 8 6 ,.;.a x 6 ,.d ,.s 6 8 8 8 8 8 8 6 a :.6 x :.x :.6 8 6 8 6   & : & : l > 6 6 > d 6 d & & & & & & & & & 6 s & d 6 d 6 & & & & & & 8 8 6 l ,.6 ;.6 x ;.x ;.6 8 8 8 8 8 6 8 6 ;.d 8 ,.d ,.6 6 8 6 8 & : 8 6 8 6 s x 6 ,.l ;.s 6 ",
"8 6 8 6 & 6 8 6 8 6 >.R.H.R.d W.Q.W.D.4 8 8 8 8 8 8 4 ;._.s d.W.Q.W.:.4 8 8 :   & & & & <.;.D.d l D.G.h.s & & & & & & & & G.;.6 h.J.D.:.& : & & & & 6 8 6 6 >.R.G.R.d W.Q.W.D.4 8 8 8 8 8 8 : H.Q.6 R.Q.Q.R.s 6 8 6 8 & : 8 8 4 >.Q.s Q.s (.J.(.D.4 8 8 8 8 8 8 4 :.bXa V.W.(.W.>.4 8 6 8 & : 8 6 6 >.W.G.R.d W.Q.W.D.4 8 8 8 8 8 8 : H.Q.6 R.Q.Q.R.s 6 8 8 6   & : & & <.:.D.d l D.G.h.s & & & & & & & & G.;.6 h.J.D.<.& : & & & & 8 8 6 s W.d._.a R.Q.Q.R.a 6 8 8 8 8 8 6 x _.d ,.W.Q.W.>.4 8 6 8 & : 8 6 8 4 d.Q.6 bX:.Q.;.4 ",
"8 6 8 6 & 6 8 6 l ,.,.H._.Q.,.J._.G.H.4 a 8 8 8 8 6 :.R.Q.J.J.H._.J.d.: 8 8 :   : & d s ;.,.W.;.;.<.T.:.l % : & & & & 6 :.D.,.;.;.T.,.<.& : & & & & 6 6 l ,.,.H._.Q.,.J._.G.H.4 a 8 8 8 6 a d.W.Q.D.J.W.Q.H.l 6 8 6 8 & : 8 8 D.d H.x H.s l _._.R.a 6 8 8 8 8 6 ,.;.D.H.D.H.W.(.,.4 8 6 8 & 4 6 l ,.,.H._.Q.,.J._.H.H.4 a 8 8 8 6 a d.W.Q.D.J.W.Q.H.l 6 8 8 6   & & d s ;.,.W.:.;.<.T.:.l % : & & & & 6 :.D.,.;.;.T.,.,.& : & & & & 8 6 d.;.H.W.bX,.G.W.Q.H.d 6 8 8 8 8 6 ;.R.Q.G.D.G.bXJ.D.: a 6 8 & : 8 6 d D.(._.s ,.R.J.:.4 ",
"8 6 8 6 & 6 8 6 6 8 Q.J.;.H.>.R.d.R.;.6 8 8 8 8 8 8 6 s H.D.,.R.d.R.s 6 8 8 :   & & & a G.d l <.l ,.l ,.: & & & & & & & & ;.<.d ,.;.,.d & : & & & & 6 8 6 6 Q.J.;.H.>.R.d.R.;.6 8 8 8 8 8 8 6 :.R.d.D.H.J.G.6 8 8 6 8 & : 8 6 6 s ,.R.R.,.D.D.J.D.6 8 8 8 8 8 8 6 d H.D.,.R.>.G.8 6 8 6 8 & : 8 6 6 W.J.;.H.>.R.d.R.;.6 8 8 8 8 8 8 6 :.R.d.D.H.J.G.6 8 6 8 6   & : & a G.d l <.l ,.l ,.: & & & & & & & & ;.<.d ,.;.,.d & : & & & & 8 8 4 D.W.x G.D.J.G.J.J.6 8 8 8 8 8 8 6 s H.J.,.R.d.W.s 6 8 6 8 & : 8 6 6 8 ;.H.,.G.>.>.l 6 ",
"8 6 8 6 & 6 8 6 6 6 4 6 4 4 6 4 4 4 6 8 6 6 6 6 6 6 8 6 4 4 6 4 4 4 6 8 6 8 :   & & & & & & % & & & & & & & & & & & & & & & & & & & & & & & & & & & 6 8 6 6 4 6 4 4 6 4 4 4 6 8 6 6 6 6 6 6 8 6 4 4 4 4 4 4 6 6 6 6 8 & : 8 6 6 6 6 4 6 6 6 4 4 4 6 6 6 6 6 6 6 6 6 6 4 6 4 6 6 6 6 6 6 8 & : 8 6 6 4 6 4 : 6 4 4 4 6 8 6 6 6 6 6 6 8 6 4 4 4 4 4 4 6 6 6 8 6   & & & & & & % & & & & & & & & & & & & & & & & & & & & & & & & & & & 6 6 8 4 4 6 : 4 4 4 4 4 6 6 6 6 6 6 6 8 6 4 4 6 4 4 4 6 8 6 6 8 & : 8 6 6 6 4 : 6 6 6 6 6 8 ",
"8 8 8 8 & 6 a 8 8 8 a a a a a a a a a 8 8 8 8 8 8 8 8 8 a a a a a a 8 8 8 a :   : & & : : : : : : : : : : & & & & & & & & : : : : : : : & & & & & & 6 a 8 8 a a a a a a a a a 8 8 8 8 8 8 8 8 a a a a a a a 8 8 8 8 a & 4 a 8 8 8 a a a a a a a a 8 8 8 8 8 8 8 8 8 a a a a a a 8 8 8 8 a & 4 a 8 8 a a a a a a a a a 8 8 8 8 8 8 8 8 a a a a a a a 8 8 8 a 6   & : & : : : : : : : : : : & & & & & & & & : : : : : : : & & & : & & 8 8 8 a a a a a a a a a 8 8 8 8 8 8 8 8 8 a a a a a a 8 8 8 8 a & : a 8 8 8 a a a a a a 8 8 ",
": : : : & & : : : : : : : : : : : : : : : : : : : : : : : : : : : : : : : : & X & & & & & & & & & & & & & & & & & & & & & & & & & & & & & & & & & & & : : : : : : : : : : : : : : : : : : : : : : : : : : : : : : : : & & : : : : : : : : : : : : : : : : : : : : : : : : : : : : : : : : & & : : : : : : : : : : : : : : : : : : : : : : : : : : : : : : : & X & & & & & & & & & & & & & & & & & & & & & & & & & & & & & & & & & & : : : : : : : : : : : : : : : : : : : : : : : : : : : : : : : : & & : : : : : : : : : : : : ",
"& & & & & & & & & & & & & & & & & & & & & & & & & & & & & & & & & & & & & & & : & & & & & & & & & & & & & & & & & & & & & & & & & & & & & & & & & & & & & & & & & & & & & & & & & & & & & & & & & & & & & & & & & & & & & & & & & & & & & & & & & & & & & & & & & & & & & & & & & & & & & & & & & & & & & & & & & & & & & & & & & & & & & & & & & & & & & & & : & & & & & & & & & & & & & & & & & & & & & & & & & & & & & & & & & & & & & & & & & & & & & & & & & & & & & & & & & & & & & & & & & & & & & & & & & & & & & & & & ",
"8 8 d x x x a 8 8 8 8 8 8 8 8 8 8 8 8 8 a d s s s 8 8 8 8 8 8 8 8 8 8 8 8 8 8 8 8 8 8 8 8 8 8 8 8 8 8 8 8 8 8 8 8 8 8 8 8 8 8 8 8 8 8 8 8 8 8 8 8 8 8 8 8 8 8 8 8 8 8 8 8 8 8 8 8 8 8 8 8 8 8 8 8 8 8 8 8 8 8 8 8 8 8 8 8 8 8 8 8 8 8 8 8 8 8 8 8 8 8 8 8 8 8 8 8 8 8 8 8 8 8 8 8 8 8 8 8 8 8 8 8 8 8 8 8 8 8 8 8 8 8 8 8 8 8 8 8 8 8 8 8 8 8 8 8 8 8 8 8 8 8 8 8 8 8 8 8 8 8 8 8 8 8 8 8 8 8 8 8 8 8 8 8 8 8 8 8 8 8 8 8 8 8 8 8 8 8 8 8 8 8 8 8 8 8 8 8 8 8 8 8 8 8 8 8 8 8 8 8 8 8 8 8 8 8 8 8 8 8 8 8 8 8 8 6 8 8 6 8 8 8 p ",
"8 6 ,.,.>.d.d 6 8 6 a 6 6 6 6 6 6 6 6 6 a >.d.d.,.6 8 6 8 a 6 8 6 6 6 6 6 6 6 6 6 6 6 6 6 6 6 6 6 6 6 6 6 6 6 6 6 6 6 6 6 6 6 6 6 6 6 6 6 6 6 6 6 6 6 6 6 6 6 6 6 6 6 6 6 6 6 6 6 6 6 6 6 6 6 6 6 6 6 6 6 6 6 6 6 6 6 6 6 6 6 6 6 6 6 6 6 6 6 6 6 6 6 6 6 6 6 6 6 6 6 6 6 6 6 6 6 6 6 6 6 6 6 6 6 6 6 6 6 6 6 6 6 6 6 6 6 6 6 6 6 6 6 6 6 6 6 6 6 6 6 6 6 6 6 6 6 6 6 6 6 6 6 6 6 6 6 6 6 6 6 6 6 6 6 6 6 6 6 6 6 6 6 6 6 6 6 6 6 6 6 6 6 6 6 6 6 6 6 6 6 6 6 6 6 6 6 6 6 6 6 6 6 6 6 6 6 6 6 6 6 6 6 6 a d d s d x l l d 8 6 u ",
"8 6 >.:.d.,.d 6 6 s g.k 6 a k k a 6 8 6 a x ;.D.x 8 6 8 -.-.a 6 s k k 6 8 8 8 8 8 8 8 8 8 8 8 8 8 8 8 8 8 8 8 8 8 8 8 8 8 8 8 8 8 8 8 8 8 8 8 8 8 8 8 8 8 8 8 8 8 8 8 8 8 8 8 8 8 8 8 8 8 8 8 8 8 8 8 8 8 8 8 8 8 8 8 8 8 8 8 8 8 8 8 8 8 8 8 8 8 8 8 8 8 8 8 8 8 8 8 8 8 8 8 8 8 8 8 8 8 8 8 8 8 8 8 8 8 8 8 8 8 8 8 8 8 8 8 8 8 8 8 8 8 8 8 8 8 8 8 8 8 8 8 8 8 8 8 8 8 8 8 8 8 8 8 8 8 8 8 8 8 8 8 8 8 8 8 8 8 8 8 8 8 8 8 8 8 8 8 8 8 8 8 8 8 8 8 8 8 8 8 8 8 8 8 8 8 8 8 8 8 8 8 8 8 8 8 8 8 8 8 6 a x :.:.;.4 :.>.a a 6 ' ",
"8 6 >.d.x a s 6 6 a -.s 6 a s s a 6 8 6 s s s D.d a 6 6 k -.8 6 a s a 6 8 8 8 8 8 8 8 8 8 8 8 8 8 8 8 8 8 8 8 8 8 8 8 8 8 8 8 8 8 8 8 8 8 8 8 8 8 8 8 8 8 8 8 8 8 8 8 8 8 8 8 8 8 8 8 8 8 8 8 8 8 8 8 8 8 8 8 8 8 8 8 8 8 8 8 8 8 8 8 8 8 8 8 8 8 8 8 8 8 8 8 8 8 8 8 8 8 8 8 8 8 8 8 8 8 8 8 8 8 8 8 8 8 8 8 8 8 8 8 8 8 8 8 8 8 8 8 8 8 8 8 8 8 8 8 8 8 8 8 8 8 8 8 8 8 8 8 8 8 8 8 8 8 8 8 8 8 8 8 8 8 8 8 8 8 8 8 8 8 8 8 8 8 8 8 8 8 8 8 8 8 8 8 8 8 8 8 8 8 8 8 8 8 8 8 8 8 8 8 8 8 8 8 8 8 8 8 6 8 :.x ;.:.d x ;.l 8 6 ' ",
"8 6 x :.x l s 6 8 6 8 6 8 6 6 6 6 8 8 6 a l x :.d 8 8 6 6 8 6 8 6 6 6 8 8 8 8 8 8 8 8 8 8 8 8 8 8 8 8 8 8 8 8 8 8 8 8 8 8 8 8 8 8 8 8 8 8 8 8 8 8 8 8 8 8 8 8 8 8 8 8 8 8 8 8 8 8 8 8 8 8 8 8 8 8 8 8 8 8 8 8 8 8 8 8 8 8 8 8 8 8 8 8 8 8 8 8 8 8 8 8 8 8 8 8 8 8 8 8 8 8 8 8 8 8 8 8 8 8 8 8 8 8 8 8 8 8 8 8 8 8 8 8 8 8 8 8 8 8 8 8 8 8 8 8 8 8 8 8 8 8 8 8 8 8 8 8 8 8 8 8 8 8 8 8 8 8 8 8 8 8 8 8 8 8 8 8 8 8 8 8 8 8 8 8 8 8 8 8 8 8 8 8 8 8 8 8 8 8 8 8 8 8 8 8 8 8 8 8 8 8 8 8 8 8 8 8 8 8 8 8 6 s x 6 8 a s a 8 s 8 6 8 ",
"6 8 6 6 6 6 6 8 6 8 6 8 8 8 8 8 8 6 8 8 6 6 6 6 6 6 8 8 8 6 8 6 8 8 8 8 8 8 8 8 8 8 8 8 8 8 8 8 8 8 8 8 8 8 8 8 8 8 8 8 8 8 8 8 8 8 8 8 8 8 8 8 8 8 8 8 8 8 8 8 8 8 8 8 8 8 8 8 8 8 8 8 8 8 8 8 8 8 8 8 8 8 8 8 8 8 8 8 8 8 8 8 8 8 8 8 8 8 8 8 8 8 8 8 8 8 8 8 8 8 8 8 8 8 8 8 8 8 8 8 8 8 8 8 8 8 8 8 8 8 8 8 8 8 8 8 8 8 8 8 8 8 8 8 8 8 8 8 8 8 8 8 8 8 8 8 8 8 8 8 8 8 8 8 8 8 8 8 8 8 8 8 8 8 8 8 8 8 8 8 8 8 8 8 8 8 8 8 8 8 8 8 8 8 8 8 8 8 8 8 8 8 8 8 8 8 8 8 8 8 8 8 8 8 8 8 8 8 8 8 8 8 8 6 a 8 6 8 6 6 6 6 6 6 8 6 "
};
