/* XPM */
static char *sc_mb_gate_ms[] = {
/* columns rows colors chars-per-pixel */
"256 256 256 2 ",
"   c #15161B",
".  c #17181E",
"X  c #1A1A1E",
"o  c #171418",
"O  c #0E1013",
"+  c #231B1E",
"@  c #29321A",
"#  c #151C22",
"$  c #1C1E24",
"%  c #191B28",
"&  c #131827",
"*  c #221E24",
"=  c #251D29",
"-  c #2A1E2E",
";  c #1F2026",
":  c #1D232A",
">  c #192628",
",  c #1C2C33",
"<  c #1D2737",
"1  c #1A353A",
"2  c #153629",
"3  c #222226",
"4  c #24262D",
"5  c #2B252C",
"6  c #26282F",
"7  c #282A27",
"8  c #37252A",
"9  c #293429",
"0  c #373928",
"q  c #242531",
"w  c #262931",
"e  c #2A2C35",
"r  c #2C2E39",
"t  c #272737",
"y  c #382B35",
"u  c #25333B",
"i  c #2E313A",
"p  c #2B3936",
"a  c #31333D",
"s  c #393839",
"d  c #1C221D",
"f  c #5B3907",
"g  c #673D00",
"h  c #6F261A",
"j  c #6D2E17",
"k  c #481E27",
"l  c #432429",
"z  c #482629",
"x  c #472934",
"c  c #46393D",
"v  c #46363B",
"b  c #593031",
"n  c #66332D",
"m  c #733936",
"M  c #67181D",
"N  c #0E5713",
"B  c #354C13",
"V  c #087509",
"C  c #17781A",
"Z  c #0B7010",
"A  c #2A6E19",
"S  c #075735",
"D  c #0C4D2E",
"F  c #384938",
"G  c #36533B",
"H  c #395439",
"J  c #2F4E2D",
"K  c #1A7727",
"L  c #186F32",
"P  c #276726",
"I  c #276738",
"U  c #2E7030",
"Y  c #415C0C",
"T  c #4C4D09",
"R  c #6C440A",
"E  c #4B6813",
"W  c #4E700A",
"Q  c #48493D",
"!  c #4B543C",
"~  c #4D593C",
"^  c #485538",
"/  c #525C3E",
"(  c #4E4E2A",
")  c #4C6834",
"_  c #4F6D34",
"`  c #6B632B",
"'  c #1A3449",
"]  c #2E2D4A",
"[  c #2C2C44",
"{  c #302E42",
"}  c #332949",
"|  c #263A43",
" . c #293644",
".. c #333542",
"X. c #373944",
"o. c #383A46",
"O. c #32314E",
"+. c #3A3D4B",
"@. c #373948",
"#. c #2B3956",
"$. c #343352",
"%. c #383C57",
"&. c #312A59",
"*. c #3B3A63",
"=. c #262E65",
"-. c #1D1E6A",
";. c #761B56",
":. c #6C1B4F",
">. c #4A3C42",
",. c #483643",
"<. c #50304B",
"1. c #403D65",
"2. c #423C69",
"3. c #47336F",
"4. c #652B58",
"5. c #174A55",
"6. c #284648",
"7. c #3E414E",
"8. c #374945",
"9. c #2D574C",
"0. c #335E4C",
"q. c #365946",
"w. c #264957",
"e. c #3D4152",
"r. c #3B4E56",
"t. c #374659",
"y. c #2A5756",
"u. c #3B545C",
"i. c #355756",
"p. c #10724A",
"a. c #35614E",
"s. c #3B674A",
"d. c #2A6659",
"f. c #346352",
"g. c #376758",
"h. c #32714F",
"j. c #0E576E",
"k. c #364866",
"l. c #275768",
"z. c #3A5B64",
"x. c #3C5D69",
"c. c #375766",
"v. c #2C506E",
"b. c #016576",
"n. c #186778",
"m. c #147072",
"M. c #276867",
"N. c #3C6363",
"B. c #39636C",
"V. c #2B776A",
"C. c #266877",
"Z. c #366977",
"A. c #307770",
"S. c #4A4A42",
"D. c #4A4746",
"F. c #564948",
"G. c #4A5844",
"H. c #535B44",
"J. c #565847",
"K. c #424554",
"L. c #464A5A",
"P. c #4A4D5D",
"I. c #444758",
"U. c #575654",
"Y. c #4D4E58",
"T. c #6C5349",
"R. c #44614D",
"E. c #576349",
"W. c #466656",
"Q. c #496F58",
"!. c #626844",
"~. c #636A4D",
"^. c #494B64",
"/. c #4E5162",
"(. c #465A68",
"). c #515466",
"_. c #56596C",
"`. c #55586B",
"'. c #475479",
"]. c #595C74",
"[. c #4A4779",
"{. c #43666B",
"}. c #426472",
"|. c #476978",
" X c #5E6277",
".X c #487467",
"XX c #62667B",
"oX c #614A77",
"OX c #953539",
"+X c #8F312F",
"@X c #AA3933",
"#X c #912F19",
"$X c #874439",
"%X c #851A5E",
"&X c #8D3B4D",
"*X c #871B63",
"=X c #9F3B5D",
"-X c #935249",
";X c #B04444",
":X c #A14369",
">X c #C34345",
",X c #C23239",
"<X c #078707",
"1X c #039604",
"2X c #0C8715",
"3X c #128318",
"4X c #0F8D0F",
"5X c #10882E",
"6X c #22891C",
"7X c #678917",
"8X c #0B894E",
"9X c #0B8971",
"0X c #2A8363",
"qX c #62A254",
"wX c #C7C70D",
"eX c #979C19",
"rX c #102D9A",
"tX c #212392",
"yX c #054D88",
"uX c #045497",
"iX c #04508F",
"pX c #335987",
"aX c #096C82",
"sX c #06778A",
"dX c #167887",
"fX c #0F748C",
"gX c #347384",
"hX c #2F6F8A",
"jX c #1E6FAE",
"kX c #524C91",
"lX c #605999",
"zX c #604D99",
"xX c #566A8A",
"cX c #516C8D",
"vX c #6A6F89",
"bX c #5B53A7",
"nX c #5553AE",
"mX c #645CB1",
"MX c #6960BF",
"NX c #4966AA",
"BX c #153BC7",
"VX c #3F61CB",
"CX c #6D63C5",
"ZX c #4D60C8",
"AX c #653989",
"SX c #993BA7",
"DX c #05859A",
"FX c #0D878F",
"GX c #2B8699",
"HX c #0292A7",
"JX c #3495AA",
"KX c #2793AA",
"LX c #23A4BD",
"PX c #7C83A4",
"IX c #28A1C5",
"UX c #848BAC",
/* pixels */
"6 6 6 4 6 4 6 w 6 6 6 6 6 6 6 6 6 6 6 w 4 4 6 4 5 3 4 5 4 6 4 6 6 6 6 6 6 6 6 6 6 6 6 6 6 6 6 6 6 6 6 6 6 6 6 6 6 6 6 6 6 6 6 6 6 6 6 6 6 6 6 6 6 6 6 6 6 6 6 6 6 6 6 6 6 6 6 6 6 6 6 6 6 6 6 6 6 6 6 6 6 6 6 6 6 6 6 6 6 6 6 6 6 6 6 6 6 6 6 6 6 6 6 6 6 6 6 6 6 6 6 6 6 6 6 6 4 6 4 3 4 3 4 ; 4 4 3 4 3 3 4 4 4 4 3 4 3 3 4 4 6 3 4 4 3 4 4 4 4 6 3 3 3 4 3 3 4 3 4 3 4 4 3 3 4 6 4 3 4 6 3 4 3 3 3 3 6 3 4 4 3 3 4 3 3 4 3 4 3 4 3 4 4 3 4 4 4 4 4 3 4 6 4 4 6 4 4 4 3 4 3 4 3 4 3 4 4 3 4 4 3 4 4 4 3 4 3 4 6 4 4 6 6 4 6 6 ",
"4 3 4 6 4 6 4 3 3 3 3 3 4 4 4 3 3 3 3 3 6 6 4 t ' i.i.' q 4 6 4 6 6 6 6 6 6 6 6 6 6 6 6 6 6 6 6 6 6 6 6 6 6 6 6 6 6 6 6 6 6 6 6 6 6 6 6 6 6 6 6 6 6 6 6 6 6 6 6 6 6 6 6 6 6 6 6 6 6 6 6 6 6 6 6 6 6 6 6 6 6 6 6 6 6 6 6 6 6 6 6 6 6 6 6 6 6 6 6 6 6 6 6 6 6 6 6 6 6 6 6 6 6 6 6 6 4 a K.@.7.X./.r ..L.e K.7...e ..r X...+.+.i X.3 +.i ..+.a i ....6 I.L.K.X.7.K.4 o.r +.i a +.^.i 4 e I.X.4 +.r /.K.e.K.4 o.a a +.e.a P.@.e K.o.K.a /...r P.r i X...X.K.e 4 e 6 4 | 6.w w.| 6.6 | | w.u w w.u u 6.u | w 6.u 6.w 4 6 4 9 N N D 6 ",
"w.KX6.3 w 4 w C.GXGXGXGXu u GXGXGXGXGXw.4 4 ' .XqXqXqXqXQ.u 4 6 4 6 6 6 6 6 6 6 6 6 6 6 6 6 6 6 6 6 6 6 6 6 6 6 6 6 6 6 6 6 6 6 6 6 6 6 6 6 6 6 6 6 6 6 6 6 6 6 6 6 6 6 6 6 6 6 6 6 6 6 6 6 6 6 6 6 6 6 6 6 6 6 6 6 6 6 6 6 6 6 6 6 6 6 6 6 6 6 6 6 6 6 6 6 6 6 6 6 6 6 6 6 6 6 6 3 K./.o.L.L.e.P././.I.I.e _.`.I.I. X+.K.).`.P.; `./.).`.K.X.^.P.$ K.L.K.7.`. Xr  XL./._.I./.+./.; L.L.e.i vXi /.+._.L.$ /././.).L.K.I.L.L.`...^.K.K.L.L.].r 3  XI.K.vXi 4 e 6 4 l.6.w.6.e C.| C.w.C.w.w.w.| w.C.| C.6.l.w.w.4 4 6 q 2 N N N 9 ",
"w.IXw.* w * l.LXKXKXKXKXu u LXKXKXKXLXLXu q Q.qX^ 4 4 ) qXl.w 4 6 6 6 6 6 6 6 6 6 6 6 6 6 6 6 6 6 6 6 6 6 6 6 6 6 6 6 6 6 6 6 6 6 6 6 6 6 6 6 6 6 6 6 6 6 6 6 6 6 6 6 6 6 6 6 6 6 6 6 6 6 6 6 6 6 6 6 6 6 6 6 6 6 6 6 6 6 6 6 6 6 6 6 6 6 6 6 4 4 4 4 4 4 4 4 4 4 4 4 4 4 4 4 4 6 4 e `./.I.L.I.P./.L.K.L.e ).I./.`.].).K.K./. X$ I.].].L.P.P.K.).e +.e.K.K.).`.P.].].^./.].P.K./.; L.L.)./. XI.K.X.`.K.3 K.].].I.^.K.L./...P./.L.K.L.P.L.`.e w ].L.L. XX.3 e 6 4 u l.y.6.u l.l.w.w.l.w.w.w.l.w.l.6.l.l.w.u l.u 4 6 4 2 N D N 9 ",
"w.LXw.3 w * C.LX| + 3 * 3 | LXC.* * l.LX| w.qXF % 4 | ' #.hX| 4 6 6 6 6 6 6 6 6 6 6 6 6 6 6 6 6 6 6 6 6 6 6 6 6 6 6 6 6 6 6 6 6 6 6 6 6 6 6 6 6 6 6 6 6 6 6 6 6 6 6 6 6 6 6 6 6 6 6 6 6 6 6 6 6 6 6 6 6 6 6 6 6 6 6 6 6 6 6 6 6 6 6 6 6 6 6 4 6 6 6 6 6 6 6 6 6 6 6 6 6 6 6 6 6 6 4 ..e.X.+...P.r ..I.e K.+.a w +.a w I.o.a r +.4 a X.X.i X.K.w K.7.i a +.X.7.7.X.e a +.e +.o.P.r 4 e I.+.X.w X...e +.e.4 a X.X...e.a L.X.r K...7.a P.a r L.r i a ..o.e.e 4 e w 4 | | w w.| u | u u w.u e w.| u 6.u | | u | 6.w 6 6 q 9 D N D 6 ",
"w.IXw.3 w 3 l.LXKXGXGXM.3 | LXC.3 4 C.LX| u dXdXu 4 u u 4 hXw.4 6 6 6 6 6 6 6 6 6 6 6 6 6 6 6 6 6 6 6 6 6 6 6 6 6 6 6 6 6 6 6 6 6 6 6 6 6 6 6 6 6 6 6 6 6 6 6 6 6 6 6 6 6 6 6 6 6 6 6 6 6 6 6 6 6 6 6 6 6 6 6 6 6 6 6 6 6 6 6 6 6 6 6 6 4 4 6 3 3 3 3 3 3 3 3 3 3 3 3 3 3 3 3 3 3 3 $ $ $ $ $ # ; ; $ ; $ $ $ 3 $ ; 3 $ $ $ ; $ 3 ; $ $ ; $ $ 3 $ $ ; ; $ $ $ $ $ ; ; $ ; $ $ $ ; 3 ; $ $ $ 3 $ $ ; $ $ 4 3 ; ; 3 $ 3 $ ; 3 $ ; $ 3 $ ; 3 $ 3 3 3 3 ; $ 3 3 3 3 3 * * 3 * 3 3 * 3 3 * 3 3 * * 3 * 3 * * 3 * * 3 3 3 3 3 3 = 3 3 ",
"w.IXw.3 w 6 4 C.KXKXKXLXw.u LXKXKXKXLXKXu | GXLX| * 4 4 6 hXw.4 6 6 6 6 6 6 6 6 6 6 6 6 6 6 6 6 6 6 6 6 6 6 6 6 6 6 6 6 6 6 6 6 6 6 6 6 6 6 6 6 6 6 6 6 6 6 6 6 6 6 6 6 6 6 6 6 6 6 6 6 6 6 6 6 6 6 6 6 6 6 6 6 6 6 6 6 6 6 6 6 6 6 6 4 4 6 3 $ $ $ # $ $ $ $ $ $ $ $ $ $ $ $ $ $ $ $ $ $ $ $ $ . . $ $ . $ $ $ X # $ $ $ $ $ $ $ $ $ $ . $ $ $ $ $ $ $ $ $ $ $ $ $ $ $ $ $ $ $ $ X $ $ $ $ $ $ $ $ $ $ $ ; = * ; ; ; : : ; ; ; ; $ 3 * $ 3 ; ; ; ; ; 3 $ X X X X # . # . . . . # . # . # $ $ X X X $ $ . #   X .   X X X   o . ",
"w.LXw.+ 3 4 4 * 3 * e LXC.e LXKXdXdXhXw.* l.hXKXGXu e * w.dX| 4 6 6 6 6 6 6 6 6 6 6 6 6 6 6 6 6 6 6 6 6 6 6 6 6 6 6 6 6 6 6 6 6 6 6 6 6 6 6 6 6 6 6 6 6 6 6 6 6 6 6 6 6 6 6 6 6 6 6 6 6 6 6 6 6 6 6 6 6 6 6 6 6 6 6 6 6 6 6 6 6 6 6 4 4 6 3 $ $ $ X : $ $ $ $ $ $ $ $ $ $ $ $ $ $ $ $ $ $ $ $ # r ... # ... . X 6 4 X $ . X # . . $ . $ w $ $ $ $ $ $ $ $ $ $ $ $ $ $ $ $ $ $ $ $ : $ $ $ $ $ $ $ $ $ ; ; = N 2 = ; ; * * + * ; * , j.5.; ; ; ; ; ; ; $ $ : 1 1 > 3 i $ a a a i $ r 4 w 3 $ $ , , , $ $ r 4 +.4 w +.4 4 4 a K.w ",
"w.LXGXdXGXl.6 dXGXdXGXLXy.u IXC.+ 3 * 3 w * w.LXKXLXC.u hXM.e 4 6 6 6 6 6 6 6 6 6 6 6 6 6 6 6 6 6 6 6 6 6 6 6 6 6 6 6 6 6 6 6 6 6 6 6 6 6 6 6 6 6 6 6 6 6 6 6 6 6 6 6 6 6 6 6 6 6 6 6 6 6 6 6 6 6 6 6 6 6 6 6 6 6 6 6 6 6 6 6 6 6 4 4 6 3 $ $ $ X , 6.$ $ $ $ $ $ $ $ $ $ $ $ $ $ $ $ $ $ $ $ . `.o.K.`././.P.7.].7.6 ).7.P.I.)./.X.P.].`.. $ $ $ $ $ $ $ $ $ $ $ $ $ $ $ $ $ $ X : 5.$ $ $ $ $ $ $ ; ; $ ; V N = ; ; ' 5.j.1 * * , b.j.: $ ; ; ; ; $ $ X , C.dX' r XX+.XX_.+.XXK.).a e.r . : ' 5.1 # r XX+.XXL.L...].X.+.+._.3 ",
"w.KXKXKXLXl.6 KXKXKXKXhX4 u KXl.3 w w 6 6 3 w.w.hXKXC.hXC.u 4 6 4 4 4 4 4 4 4 4 4 4 4 4 4 4 4 4 4 4 4 4 4 4 4 4 4 4 4 4 4 4 4 4 4 4 4 4 4 4 4 4 4 4 4 4 4 4 4 4 4 4 4 4 4 4 4 4 4 4 4 4 4 4 4 4 4 4 4 4 4 4 4 4 4 4 4 4 4 4 4 4 4 4 6 3 $ $ $ $ X 1 5.X $ $ $ $ $ $ $ $ $ $ $ $ $ $ $ $ $ $ $ # e _.vX/. XXX_.K.7.a a /.].I._.`.L.].XX/.K.  $ $ $ $ $ $ $ $ $ $ $ $ $ $ $ $ $ $ $ : 5.$ $ $ $ $ $ ; ; ; = D N N ; $ ; ' ' 5.1 * * , j.j., * ; ; ; $ $ $ X , C.dX' 5  X XP.`.X.I. X_.+.L.w . : 1 5.1 # P.XX].).).P.e  XK.I.r L.X ",
"6 w 6 6 6 6 6 6 6 6 6 3 4 6 w 6 4 6 6 6 4 6 3 + l.6.6.w.e 4 6 6 6 6 6 6 6 6 6 6 6 6 6 6 6 6 6 6 6 6 6 6 6 6 6 6 6 6 6 6 6 6 6 6 6 6 6 6 6 6 6 6 6 6 6 6 6 6 6 6 6 6 6 6 6 6 6 6 6 6 6 6 6 6 6 6 6 6 6 6 6 6 6 6 6 6 6 6 6 6 6 6 4 6 3 $ $ $ $ $ $ X : $ $ $ $ $ $ $ $ $ $ $ $ $ $ $ $ $ $ $ $ # ..o.a X.r o.r +.o.i a ].i w r o...o.o.i o.$ $ $ $ $ $ $ $ $ $ $ $ $ $ $ $ $ $ $ $ : ; X $ $ $ $ ; ; ; ; $ > * > ; $ ; * * + * ; ; : 1 , * ; ; ; $ $ $ $ $ : 6.6., 3 a X.r 7.o.w a a +.+.X $ $ 1 ' 1 $ a $ 7.I.e i L.3 +.+.$ a $ ",
"6 4 4 4 4 4 6 4 4 4 4 6 6 6 4 4 6 6 6 6 6 6 6 w 3 4 4 4 4 6 6 6 6 6 6 6 6 6 6 6 6 6 6 6 6 6 6 6 6 6 6 6 6 6 6 6 6 6 6 6 6 6 6 6 6 6 6 6 6 6 6 6 6 6 6 6 6 6 6 6 6 6 6 6 6 6 6 6 6 6 6 6 6 6 6 6 6 6 6 6 6 6 6 6 6 6 6 6 6 6 6 6 6 3 $ $ $ $ $ $ $ $ X $ $ $ $ $ $ $ $ $ $ $ $ $ $ $ $ $ $ $ $ $ . . . . . . X . .   e e   # . . . . . X . $ $ $ $ $ $ $ $ $ $ $ $ $ $ $ $ $ $ $ $ $ $ $ $ $ $ ; ; ; ; ; ; * ; $ $ ; ; ; : : ; ; ; ; * * ; ; ; $ $ $ $ $ $ $ X X X $ . . X . . # . . . . $ $ $ X X X $ . $     . .   # .   $ . $ ",
"$ $ $ $ $ $ $ $ $ $ $ $ $ $ $ $ $ $ $ $ $ $ $ $ $ $ $ $ $ $ $ $ $ $ $ $ $ $ $ $ $ $ $ $ $ $ $ $ $ $ $ $ $ $ $ $ $ $ $ $ $ $ $ $ $ $ $ $ $ $ $ $ $ $ $ $ $ $ $ $ $ $ $ $ $ $ $ $ $ $ $ $ $ $ $ $ $ $ $ $ $ $ $ $ $ $ $ $ $ $ $ $ $ # # $ $ $ $ $ $ $ $ $ $ $ $ $ $ $ $ $ $ $ $ $ $ $ $ $ $ $ $ # $ $ $ $ $ $ $ $ $ $ . X $ $ $ $ $ $ $ $ $ $ $ $ $ $ $ $ $ $ $ $ $ $ $ $ $ $ $ $ # $ $ $ # $ $ $ $ $ $ $ $ $ $ $ $ $ $ $ $ $ $ $ $ $ $ $ $ $ $ $ $ $ $ $ $ $ $ $ $ $ $ $ $ $ $ $ $ $ $ $ # $ $ $ $ $ $ $ $ $ $ $ $ $ $ $ $ $ $ $ ",
"a i i i i i i r r r r i a i i i a a r i r a i i r a a a a a a a a a a a a a a a a a a a a a a a a a a a a a a a a a a a a a a a a a a a a a a a a a a a a a a a a a a a a a a a a a a a a a a a a a a a a a a a a a a a a a a a a a a a a a a a a a a a a a a a a a a a a a a a a a a a a a a a a a a a a a a a a a a a a a a a a a a a a a a a a a a a a a a a a a a a a a a a a a a a a a a a a a a a a a 3 $ 4 4 4 4 3 3 4 4 4 4 $ $ 4 3 3 4 4 4 3 $ 4 ; 3 4 4 4 4 $ i a i a a a a a a a i a a a a a a a a a a a a a a a a a ",
"o.K.K.K.K.K.7.L.L.I.K.7.+.K.+.+.+.o.L.7.I.o.+.7.K.+.o.+.o.o.o.o.o.o.o.o.o.o.o.o.o.o.o.o.o.o.o.o.o.o.o.o.o.o.o.o.o.o.o.o.o.o.o.o.o.o.o.o.o.o.o.o.o.o.o.o.o.o.o.o.o.o.o.o.o.o.o.o.o.o.o.o.o.o.o.o.o.o.o.o.o.o.o.o.o.o.o.o.o.o.o.o.o.o.o.o.o.o.o.o.o.o.o.o.o.o.o.o.o.o.o.o.o.o.o.o.o.o.o.o.o.o.o.o.o.o.o.o.o.o.o.o.o.o.o.o.o.o.o.o.o.o.o.o.o.o.o.o.o.o.o.o.o.o.o.o.o.o.o.o.o.o.o.o.o.o.o.o.o.o.o.o.o.o.o.o.o.+.4 ; w 6 6 ..I.e.a 4 6 w ; ; 4 i r ; 4 w 4 $ 4 X.i 3 4 6 4 $ ..o.K.K.X.....X.X.+.K.X.o.o.o.o.o.o.o.o.o.o.o.o.o.o.o.o.",
"I.]._.vX X`._.K.].].vX].K.vX]. XP.)./._.vX/. X_.vX]._.P.a X.X.X.X.X.X.X.X.X.X.X.X.X.X.X.X.X.X.X.X.X.X.X.X.X.X.X.X.X.X.X.X.X.X.X.X.X.X.X.X.X.X.X.X.X.X.X.X.X.X.X.X.X.X.X.X.X.X.X.X.X.X.X.X.X.X.X.X.X.X.X.X.X.X.X.X.X.X.X.X.X.X.X.X.X.X.X.X.X.X.X.X.X.X.X.X.X.X.X.X.X.X.X.X.X.X.X.X.X.X.X.X.X.X.X.X.X.X.X.X.X.X.X.X.X.X.X.X.X.X.X.X.X.X.X.X.X.X.X.X.X.X.X.X.X.X.X.X.X.X.X.X.X.X.X.X.X.X.X.X.X.X.X.X.X.X.X.X.o.4 ; 6 6 4 L.7.e.+.4 6 6 ; ; 3 +./.P.a 4 4 X X.P.P.+.o.].e $ a K. XL./.`.)./.K.]./.a o.X.X.X.X.X.X.X.X.X.X.X.X.X.X.X.",
"o._.vXI.]._.].../.).vX].). XvXvXI.).`.vX X XXXvXI._. XP.a X.X.X.X.X.X.X.X.X.X.X.X.X.X.X.X.X.X.X.X.X.X.X.X.X.X.X.X.X.X.X.X.X.X.X.X.X.X.X.X.X.X.X.X.X.X.X.X.X.X.X.X.X.X.X.X.X.X.X.X.X.X.X.X.X.X.X.X.X.X.X.X.X.X.X.X.X.X.X.X.X.X.X.X.X.X.X.X.X.X.X.X.X.X.X.X.X.X.X.X.X.X.X.X.X.X.X.X.X.X.X.X.X.X.X.X.X.X.X.X.X.X.X.X.X.X.X.X.X.X.X.X.X.X.X.X.X.X.X.X.X.X.X.X.X.X.X.X.X.X.X.X.X.X.X.X.X.X.X.X.X.X.X.X.X.X.X.X.o.4 ; 6 6 4 I.+./.P.3 6 6 ; ; 3 o._.).K.3 4 . +.I.P._._._.6 $ a o.`.vX X X X_.XXvX/.a o.X.X.X.X.X.X.X.X.X.X.X.X.X.X.X.",
"+./.I.X.L.L.L.P.K.K.K.I./.K.I.L.+.7.).I.K.P.o.P.X.K.+.7.X.o.o.o.o.o.o.o.o.o.X.X.o.X.X.o.X.o.o.o.o.o.o.o.o.o.o.o.o.o.o.o.o.o.o.o.o.o.o.o.o.o.o.o.o.o.o.o.o.o.o.o.o.o.o.o.o.o.o.o.o.o.o.o.o.o.o.o.o.o.o.o.o.o.o.o.o.o.o.o.o.o.o.o.o.o.o.o.o.o.o.o.o.o.o.o.o.o.o.o.o.o.o.o.o.o.o.o.o.o.o.o.o.o.o.o.o.o.o.o.o.o.o.o.X.o.o.o.o.o.o.o.o.o.o.o.o.o.o.o.o.o.o.o.o.o.o.o.o.o.o.o.o.o.o.o.o.o.o.o.o.o.o.o.o.o.o.o.o.o.4 ; 6 4 4 X.7.).P.3 6 6 ; ; 4 a +.i i 4 4 $ 4 K.....7.X.e $ ..+.P.K./.vXK.K./.P.7.X.o.o.o.o.o.o.o.o.o.o.o.o.o.o.o.o.",
"a i i a r r r r i i i r r i r r a i e r i r a r a i i i a a a a a a a a a a | @.........6.i a a a a a a a a a a a a a a a a a a a a a a a a a a a a a a a a a a a a a a a a a a a a a a a a a a a a a a a a a a a ..a a a a a a a a a a a a a a a a a a a a a a a a a a a a a a a a a a a a a a a a a a a a i ....a a a a a a a a a a a a a a a a a a a a a a a a a a a a a a a a a a a a a a a a a a a a X.4 ; 6 4 4 6 4 3 4 6 4 6 ; ; w 4 3 4 4 6 3 $ 6 3 4 4 3 3 4 $ i a i i o.+.i a i i a a a a a a a a a a a a a a a a a a ",
"b 8 5 3 $ $ $ $ $ $ $ $ ; $ $ $ 3 3 $ $ $ $ $ $ $ $ $ 4 $ $ $ $ $ $ 4 ; ; + 5.w.i u u e n., X $ 3 3 $ ; 4 $ 5 y y Q ^ 9 9 7 ; $ $ $ $ $ $ $ $ $ $ $ $ 4 ; $ $ $ $ $ $ $ $ 3 3 $ $ $ $ $ ; 4 $ $ $ $ 3 3 $ 3 7 0 9.j.1 1 , $ 3 3 $ 3 3 $ 4 ; $ $ $ $ $ $ $ $ $ $ $ $ $ $ $ ; 4 $ $ $ $ $ $ $ $ $ 4 $ $ $ : 1 1 v.[.{ r 4 $ 4 ; $ $ $ 4 $ $ ; 4 $ $ 4 $ $ 4 $ ; 4 $ $ $ $ $ $ $ $ $ $ $ $ $ $ $ $ 3 4 q { ..].{ $ w 4 6 4 $ $ 4 6 4 6 ; ; 6 6 6 6 6 6 3 $ 6 6 6 6 6 6 4 $ 4 4 4 6 4 4 6 6 6 4 4 4 4 4 4 4 4 4 4 4 4 4 4 4 4 4 4 4 ",
"b >.,.5 ; ; ; ; ; ; ; ; ; ; ; $ 4 4 $ ; ; ; ; ; ; ; ; 4 ; ; ; ; ; ; 4 3 : * j.6.i u u e n.1 $ ; 4 4 $ 3 4 $ 5 y v J./ 0 9 7 3 ; ; ; ; ; ; ; ; ; ; ; ; 4 3 ; ; ; ; ; ; ; ; 3 4 $ ; ; ; ; 3 4 ; ; ; ; 3 4 ; 7 9 0 y.j.1 | , ; 4 3 $ 4 4 $ 6 3 ; ; ; ; ; ; ; ; ; ; ; ; ; ; ; 3 4 ; ; ; ; ; ; ; ; ; 4 ; ; ; , 1 1 v.kX..{ w ; 4 3 ; ; 3 4 ; ; 3 4 ; ; 4 3 ; 4 3 3 w $ ; ; ; ; ; ; ; ; ; ; ; ; ; ; $ 4 4 t ..@.lX..$ w 4 6 4 # $ 4 6 4 6 ; ; 8 8 8 8 8 8 4 $ 5 8 8 8 8 8 5 $ 4 6 6 6 3 3 3 * 3 6 6 6 6 6 6 6 6 6 6 6 6 6 6 w 6 6 6 6 ",
"F.D.K.5 $ ; ; ; ; ; ; ; ; ; ; $ 3 4 $ ; ; ; ; ; ; ; ; 4 ; ; ; ; ; $ 4 * + + j.6.i u u e j.1 + $ 4 3 $ 3 4 $ 5 y v J.E.p 9 7 3 ; ; ; ; ; ; ; ; ; ; ; $ 4 3 ; ; ; ; ; ; ; $ 3 4 $ ; ; ; ; 3 4 $ ; ; $ 3 4 $ 7 9 0 y.j.1 | , ; 4 3 $ 4 3 $ 6 3 ; ; ; ; ; ; ; ; ; ; ; ; ; ; ; 3 4 $ ; ; ; ; ; ; ; ; 4 ; ; ; , 1 1 v.]...{ w $ 4 3 ; ; ; 4 ; ; 3 4 $ ; 4 3 $ 4 ; 3 6 $ ; ; ; ; ; ; ; ; ; ; ; ; ; ; $ 3 4 w ....kX..$ w 4 6 4 : : 4 6 4 6 ; ; 8 8 8 8 8 8 4 $ 5 8 8 8 8 8 5 $ 4 6 4 4 l.hXGXgXw.3 6 6 4 6 4 6 4 4 3 4 3 4 4 3 4 6 4 6 ",
"F.>.o.5 $ ; ; ; ; ; ; ; ; ; ; $ 3 4 $ ; ; ; ; ; ; ; ; 4 ; ; ; ; ; ; 4 1 ' ' b.| a u u e l.n.5.; 3 3 $ 3 4 $ 5 y v J.E.s 9 7 3 ; ; ; ; ; ; ; ; ; ; ; $ 4 3 ; ; ; ; ; ; ; $ 3 4 $ ; ; ; ; 3 4 $ ; ; $ 3 4 $ 7 9 0 y.j.1 | , ; 4 3 $ 4 3 $ 6 3 ; ; ; ; ; ; ; ; ; ; ; ; ; ; ; 3 4 $ ; ; ; ; ; ; ; ; 4 ; ; ; , 1 1 v.]...{ w $ 4 3 ; ; ; 4 ; ; 3 4 $ ; 4 3 $ 4 ; 3 6 $ ; ; ; ; ; ; ; ; ; ; ; ; ; ; $ 3 4 t ....kX..$ w 6 4 | JXGXu 4 6 6 ; ; 8 8 8 8 8 8 4 $ 5 8 8 8 8 8 5 $ 4 4 w gXJXl.w.l.JXZ.3 6 6 6 6 3 K.+.a i X.e e K.i 4 6 6 ",
"b y 8 3 ; ; ; ; ; ; ; ; ; ; ; $ 3 4 $ ; ; ; ; ; ; ; ; 4 ; ; ; ; ; $ 4 n.j.l.5.u ..u u u p 6.n., 3 4 $ 3 4 $ 5 y v J.E.s 9 7 3 ; ; ; ; ; ; ; ; ; ; ; $ 4 3 ; ; ; ; ; ; ; $ 3 4 $ ; ; ; ; 3 4 $ ; ; $ 3 4 $ 7 9 0 y.j.1 | , ; 4 3 $ 4 3 $ 6 3 ; ; ; ; ; ; ; ; ; ; ; ; ; ; ; 3 4 $ ; ; ; ; ; ; ; ; 4 ; ; ; , 1 1 v.]...{ w $ 4 3 ; ; ; 4 ; ; 3 4 $ ; 4 3 $ 4 ; 3 6 $ ; ; ; ; ; ; ; ; ; ; ; ; ; ; $ 3 4 t ....kX..$ w 6 3 | JXJXu 4 6 6 ; ; 8 8 8 8 8 8 4 $ 5 8 8 8 8 8 5 $ 4 * Z.GX$ o o o , JXl.* w 4 6 3 7.`.`._.`._.I.XXi 4 6 6 ",
"b y 8 3 ; ; ; ; ; ; ; ; ; ; ; $ 3 4 $ ; ; ; ; ; ; ; ; 4 ; ; ; ; ; $ w j.e e e u ..u u u p i j.1 3 4 $ 3 4 $ 5 y v J.E.F 9 7 3 ; ; ; ; ; ; ; ; ; ; ; $ 4 3 ; ; ; ; ; ; ; $ 3 4 $ ; ; ; ; 3 4 $ ; ; $ 3 4 $ 7 9 0 y.j.1 | , ; 4 3 $ 4 3 $ 6 3 ; ; ; ; ; ; ; ; ; ; ; ; ; ; ; 3 4 $ ; ; ; ; ; ; ; ; 4 ; ; ; , 1 1 v.]...{ w $ 4 3 ; ; ; 4 ; ; 3 4 $ ; 4 3 $ 4 ; 3 6 $ ; ; ; ; ; ; ; ; ; ; ; ; ; ; $ 3 4 t ....kX..$ w 6 3 | JXJXu 4 6 6 ; ; 8 8 8 8 8 8 4 $ 5 8 8 8 8 8 5 $ 3 u JX1 o ; $   O 6.JX6 4 6 6 3 K.P.X.].).L.).P.a 4 6 6 ",
"F.v 8 3 ; ; ; ; ; ; ; ; ; ; ; $ 3 4 $ ; ; ; ; ; ; ; ; 4 ; ; ; ; ; $ w j.u u u u ..u u u p i j.1 * 4 $ 3 4 $ 5 s c J.E.F 9 7 3 ; ; ; ; ; ; ; ; ; ; ; $ 4 3 ; ; ; ; ; ; ; $ 3 4 $ ; ; ; ; 3 4 $ ; ; $ 3 4 $ 7 9 0 y.j.1 | , ; 4 3 $ 4 3 $ 6 3 ; ; ; ; ; ; ; ; ; ; ; ; ; ; ; 3 4 $ ; ; ; ; ; ; ; ; 4 ; ; ; , 1 1 v.]...{ w $ 4 3 ; ; ; 4 ; ; 3 4 $ ; 4 3 $ 4 ; 3 6 $ ; ; ; ; ; ; ; ; ; ; ; ; ; ; $ 3 4 w ....kX..$ w 6 3 | JXJXu 4 6 6 ; ; 8 8 8 8 8 8 4 $ 5 8 8 8 8 8 5 $ * w.GX$ $ $ $  XvX .GXu 4 6 6 4 3 6 $ X.w 3 6 3 3 4 6 4 ",
"F.v 8 3 ; ; ; ; ; ; ; ; ; ; ; ; 3 4 $ ; ; ; ; ; ; ; ; 4 ; ; ; ; ; $ w n.i u u p a p p p p i j.1 * 4 $ 3 4 $ 5 D.>.F.E.F 9 7 3 ; ; ; ; ; ; ; ; ; ; ; ; 4 3 ; ; ; ; ; ; ; $ 3 4 $ ; ; ; ; 3 4 ; ; ; ; 3 4 ; 7 9 0 y.j.1 | , ; 4 3 $ 4 4 $ 6 3 ; ; ; ; ; ; ; ; ; ; ; ; ; ; ; 3 4 ; ; ; ; ; ; ; ; ; 4 ; ; ; , 1 1 v.]...{ w ; 4 3 ; 3 3 6 ; ; 3 4 ; ; 4 ; ; 4 ; 3 6 ; ; ; ; ; ; ; ; ; ; ; ; ; ; ; ; 4 4 w ....kX..$ w 6 3 | JXJXu 4 6 6 ; ; 8 8 8 8 8 8 4 $ 5 8 8 8 8 8 5 $ * 6.GX$ $ $ $ I./.w l.e 4 6 4 a o.4 7.a +.4 w +.+.a 4 6 ",
"b x 8 3 $ * $ $ $ $ $ $ $ $ * $ 3 4 $ * $ $ $ $ $ $ $ 4 $ $ $ $ $ * u n.r i i i ..r r r { y l.' $ > # ; 4 $ 5 >.r.N.E.F p 7 ; $ $ $ $ $ $ $ $ $ $ $ $ 4 ; $ $ $ $ $ $ $ ; 3 4 $ $ $ $ $ ; 4 $ $ $ $ 3 3 $ 3 9 0 9.j.1 | , $ 3 3 $ 3 3 $ 6 3 $ $ $ $ $ $ $ $ $ $ $ $ $ $ $ ; 4 $ $ $ $ $ $ $ $ $ 4 $ $ $ > 1 1 v.]...r q $ 4 ; X X X 3 * = = - * * 4 * $ 4 * * 6 $ * * * * * * * * * * * * * * $ 3 4 t { O.kX..$ w 6 3 | JXJXu 4 6 6 ; ; 8 8 8 8 8 8 4 $ 5 8 8 8 8 8 5 $ 4 w JX6.o $ $   O ' y.4 6 6 4 P.P.o.). X/.../.]. X/.3 6 ",
"C C Z V V V V V V V V V V V V V V V V V V V V V V V V V V V V V V V V 2XV Z Z Z C Z Z Z C P p.J b b x e , > r D.C.dXg.Q 8.9 6 6 6 6 6 6 6 6 6 6 6 6 6 e 6 6 6 6 6 6 6 6 e e e 4 6 6 6 6 6 e 6 6 6 6 w e 4 e p 0 y.j.| | u 6 e w 4 e w 4 e w 6 6 6 6 6 6 6 6 6 6 6 6 6 6 6 6 e 6 6 6 6 6 6 6 6 6 e 6 6 6 u | ' v.kX@.@.r 3 7 r $.*.*.t.G P N Z Z Z Z V V V V V Z V V V V V V V V V V V V V V V V V Z Z C C h.{ $ w 6 3 | JXJXu 4 6 6 ; ; 8 8 8 8 8 8 4 $ 5 8 8 8 8 8 5 $ 4 3 l.JXu X $ $ 1 l.u 4 6 6 4 L.).I.).]./.o.`.`. X/.4 6 ",
"( ( v 0 0 0 0 0 0 0 0 0 0 0 0 0 0 0 0 0 0 0 0 0 0 0 0 0 0 0 0 0 0 0 G d.F F F F H J J P I K 5X5X6XE ` OX+Xz 5 8.C.Y.FXM.F 7 3 3 3 3 3 3 3 3 3 3 3 3 3 6 3 3 3 3 3 3 3 3 e 6 6 3 3 3 3 3 4 6 3 3 3 3 4 4 3 7 9 0 y.j.' | , 3 4 4 3 4 4 3 w 4 3 3 3 3 3 3 3 3 3 3 3 3 3 3 3 3 6 3 3 3 3 3 3 3 3 3 6 3 3 3 , 1 ' v.].@.r w %.kXzXkXV.5X5XK P I J J J 6.F F 6.F 6.6.F F F F F F F F F F F F F F F F 6.6.6.r.r.xX{ $ w 6 3 | JXJXu 4 6 6 ; ; 8 8 8 8 8 8 4 $ 5 8 8 8 8 8 5 $ 4 6 3 C.y.* 4 3 6.| 4 6 4 6 4 i X.r ..i ..3 X.a X.i 4 6 ",
"m b b z k k k k k k k k k k k k z z k k k k k k k k k x k l k w.n.l.C.c.v ,.,.,.,.,.,.,.,.<.,.e.y.p.5X2X( &XOXF.n.F.Q.m.F p 4 3 w 4 $ $ $ % % % % % % = % % % % % % % % q % = % % % % % % 4 % $ $ $ 3 4 $ 3 9 0 y.j.1 | , $ 3 3 $ 3 3 $ 6 3 $ $ $ $ $ $ $ $ $ $ $ $ $ $ $ ; 4 $ ; $ $ $ $ $ $ $ 4 ; $ ; , 1 1 v.].r *.kXkX*.P V N p O.} } } &.} } $.} ] $.} } $.] } } } } } } } } } } } } } } ] O.$.&.2.2.lX{ $ w 6 3 | JXJXu 4 6 6 ; ; 8 8 8 8 8 8 4 $ 5 8 8 8 8 8 5 $ 4 6 6 3 4 w w w 4 4 6 4 6 4 6 4 3 4 3 4 3 6 3 4 3 4 6 4 ",
"m b b z l l l l l l l l l l l l z z l l l l l l l l l x l l k l.r.v >.v c c c c >.c c c c >.v v v <.k.FX5XZ c -XZ.J.E.m.F p u u u u 3 @ 9 @ B B B B B B B B B B B B B B J B B B B B B B B B @ @ 7 ; = = $ 7 9 0 y.j.1 | , ; 4 3 $ 4 3 $ 6 3 ; ; ; ; ; ; ; ; ; ; ; ; ; ; ; 3 4 $ ; ; ; ; ; ; ; ; 4 ; ; ; , 1 1 v.[.kXbX*.r V C  .&.} $.] ] ] O.] ] $.] ] $.] ] $.] ] ] ] ] ] ] ] ] ] ] ] ] ] ] ] O.O.$.*.*.lX{ $ w 6 3 | JXJXu 4 6 6 ; ; 8 8 8 8 8 8 4 $ 5 8 8 8 8 8 5 $ 4 6 6 w 4 * * * 4 w 4 6 6 6 4 6 w 6 6 6 6 6 6 6 6 6 4 6 ",
"m b b z l l l l l l l l l l l l z z l l l l l l l l l x l l k l.7.v >.c c c c c >.c c c c >.c c >.c c dXDX8X<XM.|.-XR.m.8.i p J H H J B H B B B B B B J B B B B B B B B J J B B B B B B B B B B B B B B 7 3 7 0 y.j.1 | , ; 4 3 $ 4 3 $ 6 3 ; ; ; ; ; ; ; ; ; ; ; ; ; ; ; 3 4 $ ; ; ; ; ; ; ; ; 4 ; ; ; , 1 ' w.MXkX%.O.2XP &.] ] ] $.] ] ] $.] ] $.] ] $.] ] $.] ] ] ] ] ] ] ] ] ] ] ] ] ] ] ] O.$.$.*.1.lX{ $ w 6 3 | JXJXu 4 6 6 ; ; 8 8 8 8 8 8 4 $ 5 8 8 8 8 8 5 $ 4 6 6 * u l.Z.l.e 3 6 4 6 4 6 4 ; 4 6 4 4 4 4 6 4 4 6 4 ",
"m b b z l l l l l l l l l l l l z z l l l l l l l l l x l l k l.7.v >.c c c c c >.c c v c >.c c >.>.c D.i.HX9X4XG.-X-Xm.8.H ) H J F p p p p 3 3 3 3 3 p e 3 3 3 3 3 3 p p p 7 3 3 3 3 3 7 9 3 3 3 7 @ B B B 9 0 9.j.1 | , ; 4 3 $ 4 3 $ 6 3 ; ; ; ; ; ; ; ; ; ; ; ; ; ; ; 3 4 $ ; ; ; ; ; ; ; ; 4 ; ; ; , 1 1 pXmX%.*.2XD &.] ] ] ] $.] ] ] $.] ] $.] ] $.] ] $.] ] ] ] ] ] ] ] ] ] ] ] ] ] ] ] O.$.$.*.1.lX{ $ w 6 3 | JXJXu 4 6 6 ; ; 5 5 5 5 5 5 4 $ 9 0 0 0 0 0 5 $ 4 6 3 l.JXhXC.hXJXw.3 w 4 6 4 i P.e 4 e i w 4 4 e i 4 6 ",
"m b b x l l l l l l l l l l l l z z l l l l l l l l l x l l l l.D.v >.c c c c c >.c c Q >.,.c c >.>.c v >.7.hX9X<XU -XZ.U ^ p p p p p p p p 7 7 7 7 7 F 9 7 7 7 7 7 7 p p p 7 7 7 7 7 7 p p d 7 7 7 7 7 3 B E Y y.j.1 | , ; 4 3 $ 4 3 $ 6 3 ; ; ; ; ; ; ; ; ; ; ; ; ; ; ; 3 4 $ ; ; ; ; ; ; ; ; 4 ; ; ; , , k.MXkX2.C L &.O.] ] ] ] $.] ] ] $.] ] $.] ] $.] ] $.] ] ] ] ] ] ] ] ] ] ] ] ] ] ] ] O.$.$.*.1.lX{ $ w 6 3 | JXJXu 4 6 6 ; $ 7XeXeXeXeXeX0 % 9 0 0 0 0 0 7 $ 4 3 l.JX| o o o w.JX6.3 6 6 4 /.o.].o.`._./.).+.].P.3 6 ",
"m <.b v l l l l l l l l l l l l z z l l l l l l l l l x l l l l.>.v >.c c c c ,.<.F C A C Q c c >.>.c c >.v b hX8X1X_ A.! p p p p p p p p p 9 7 7 7 7 F p 7 7 7 7 7 7 p p p 7 7 7 7 7 7 F F 3 7 7 7 7 9 7 7 9 Y U j.1 | , ; 4 3 $ 4 3 $ 6 3 ; ; ; ; ; ; ; ; ; ; ; ; ; ; ; 3 4 ; ; ; ; ; ; ; ; ; 4 ; ; ; > | nXpXzXL C &.] $.] ] ] ] $.] ] ] $.] ] $.] ] $.] ] $.] ] ] ] ] ] ] ] ] ] ] ] ] ] ] ] O.$.$.*.1.lX{ $ w 6 3 | JXJXu 4 6 6 ; $ ` eXeX7XeXeX9 % 9 0 0 0 0 0 7 $ 4 w JX6.o $ $   O l.GX3 6 6 3 I.P./._.`.)._.)._._.7.3 6 ",
"m b >.x l l l l l l l l l l l l z z l l l l l l l l l z k k k l.>.v >.c c c c P H C H D.U A C c >.>.c c >.c c ) FX8X4XA.-XF p p F F p p p p p 7 7 7 9 F p 7 7 7 7 7 9 p p p 7 7 7 7 7 7 F F 3 7 7 7 7 7 7 9 9 0 E I ' | , ; 4 4 ; 4 4 $ 6 3 $ * * * * * * * * * * * * * * * 3 $ * * * * $ ; ; ; 6 ; ; 3 > kXv.pX|.<X*.$.] $.] ] ] ] $.] ] ] $.] ] $.] ] $.] ] $.] ] ] ] ] ] ] ] ] ] ] ] ] ] ] ] O.$.$.*.1.lX{ $ w 6 3 | JXJXu 4 6 6 ; ; w 9 w 4 4 q 3 $ 9 0 0 0 0 0 7 $ 3 6.GX$ $ $ $ K.L.u GXu 4 6 4 6 ..4 i w o.P.4 i w r 4 6 ",
"m b b z l l l l l l l l l l l l z z l l l l l l l l l 7.6.@.6.n.>.c >.c c ,.P A U P S.S.D.F.P F ,.>.c c >.,.H C s.FX2X5XT.m p F G F p p p p p 9 9 F p F p 7 7 7 9 9 p p p p 9 7 7 7 7 7 G F 7 9 7 7 7 7 7 9 9 J 9.U J ' , : 4 * + * 3 $ w : , , , , , , , , , , , , , , , , u , , , , : : ; * + 3 + * X %.nX#.v.3Xr.*.$.] $.] ] ] ] $.] ] ] $.] ] $.] ] $.] ] $.] ] ] ] ] ] ] ] ] ] ] ] ] ] ] ] O.$.$.*.1.lX{ $ w 6 3 | JXJXu 4 6 6 ; $ 0 F 0 ( ` ` 7 % 9 0 0 0 0 0 6 $ * w.GX$ $ $ $  XvXi l.u 4 6 4 e w 4 e 6 e 3 4 r r w 4 6 ",
"m b b x x x x x x x x x x x x x x x x x x x x x x z o.dXc.l.l.u.>.>.D.>.>.<.P ^ F.D.S.S.S.F.P F >.>.>.>.D.,.J ) ` A.FX1X5X-XQ F q.G F F F F F p p F F 8.F 9 9 9 p F F F F F 9 9 9 9 9 9 q.8.9 p 9 7 9 9 9 9 0 F 0.M.A 6.u 3 w 6.5.j.j.j.n.j.j.j.j.j.j.j.j.j.j.j.j.j.j.j.j.j.n.j.j.j.j.j.j.j.j.j.j.5.u 4 bXk.k.3Xh.3.*.%.$.$.$.$.$.$.$.$.$.$.$.$.$.$.$.$.$.$.$.%.$.$.$.$.$.$.$.$.$.$.$.$.$.$.$.$.$.$.%.1.^.lX{ $ w 6 3 | JXJXu 4 6 6 ; $ 0 0 9 eXwXwX0 & 9 0 0 ( ( ( 0 % 3 u JX, o $ $   O , y.4 4 6 4 L./.a `.`.).e K.].].P.3 6 ",
"m b b z l l l l l l l l l l l l z z l l l l l l l k 6.c.x v v v c c >.c F F C ^ D.S.S.S.S.D.P J ,.c v c >.,.J U / T.0X9X3XC -XF G F F p p p p p p p p p p p 3 3 p F F F F p p p 3 3 3 7 G 8.7 p 7 7 7 7 7 7 9 0 0.j.J B ' j.n.j.5.5.' , u , , , : w w : : : : : : : : : : , w : , , , , , , 1 ' 5.j.j.pXkX&.L 5XzX*.%.$.] O.] ] ] ] $.] ] ] O.] ] $.] ] $.] ] $.] ] ] ] ] ] ] ] ] ] ] ] ] ] ] ] O.$.$.*.1.lX{ $ w 6 3 | JXJXu 4 6 6 ; $ ( ( ( eXwXwX0 & 0 ( ( ` wXwX( & 6 3 Z.GX$ $ $ $ : l.6.4 6 6 4 P./.I./.XXP.7.`._. X/.3 6 ",
"m b b z l l l l l l l l l l l l z z l l l l l l l k w.c.v c c c c c >.A A P P S.S.S.S.S.S.F.P J ,.c c c >.<.P _ F.!.!.FXFX3X6XQ F H H J H H H H H H H ) H H J B H ) ) ) ) ) ) H B B B B ) ) J J J 0 7 7 3 9 9 0 0.M.F d.A.l.6.6 : w w , u , , , , u u , , , , , , , , , , , u , , , , , , , , , w : u nXpXm.<XZ.lX*.*.$.] $.] ] ] ] $.] ] ] $.] ] $.] ] $.] ] $.] ] ] ] ] ] ] ] ] ] ] ] ] ] ] ] O.$.$.*.1.lX{ $ w 6 3 | JXJXu 4 6 6 3 % eXwXwXeXwXwX0 & ` wXwX` 9 0 7 $ 4 4 6 GXl.X ; * w.w.4 6 6 6 4 X.I...K.+.K.4 K.7.I.o.4 6 ",
"m b b z l l l l l l l l l l l l z z l l l k k k k k w.c.v c c c c c Q A D.D.D.S.S.S.S.S.S.F.P J <.>.c c >.F C ) F.!.!.K DX(.A 4XA ) ) ) H J J J H H J H J J J J J H H H H H F J B B B J H H J H H P E J J 9 p F 9.M.C.n.U F 6.1 , u , , u , , , , u p , p , , , , , , , , , u , , , , , , , , , u > pXkX| 2Xm.pXlX*.*.$.] $.] ] ] ] $.] ] ] $.] ] $.] ] $.] ] $.] ] ] ] ] ] ] ] ] ] ] ] ] ] ] ] O.$.$.*.1.lX{ $ w 6 3 | JXJXu 4 6 6 ; $ -X-X-XXXvXvXe # y x 0 r [ [ w $ 4 6 4 6 w 6 6 6 w 4 4 6 4 4 6 4 3 4 3 3 3 4 3 3 3 3 6 4 ",
"m b b z l l l l l l l l l l l l z z l l l y.l.l.l.y.n.r.v c c c c c Q P S.S.S.S.S.S.S.S.S.D.H C P J <.<.Q 3XA J.J.!.~.A p.HX) ) 6X2XP J F F s s F F s 8.F p p p F F G G G F F p 9 9 7 p G G F p F F F H ) ) H F q.FXM.6.s.U 6.u , u , , u , , , , u 6., 6., , , , , , , , , u , , , , , , , , , u  .nX#.2XI pXjXkX1.*.$.] $.] ] ] ] $.] ] ] $.] ] $.] ] $.] ] $.] ] ] ] ] ] ] ] ] ] ] ] ] ] ] ] O.$.$.*.1.lX{ $ w 6 3 | JXJXu 4 6 6 ; $ T.-X-X].xXxXe # 5 8 8 e t r w $ 4 6 6 4 4 q q q 4 6 6 4 6 6 4 6 6 6 w 6 6 6 6 6 6 6 4 6 ",
"m b v z l l l l l l l l l l l l z z l k s C.7.r.e.r.7.>.c c c c c v Q P D.S.S.S.S.S.S.S.S.S.S.Q H C J J P A F.J.J.!.~.) 4XV.DXG.-XH C 2X2XC C P P P P U P J J J J I I I I J J J J J J J H H F F F s s 8.F F ) ) dXm.9.y.9.U q.u , u , , u , , , , 6.6., 8.u , , , , , , , , u , , , , , , , , , 2 kXk.<XL =.w.pXjX1.%.$.] $.] ] ] ] $.] ] ] $.] ] $.] ] $.] ] $.] ] ] ] ] ] ] ] ] ] ] ] ] ] ] ] O.$.$.*.1.lX{ $ w 6 3 | JXJXu 4 6 6 ; $ T.-X-X].xXxXe $ 6 5 5 *.NXNX#.X 4 6 4 q 7 0 T 0 6 q 6 4 6 6 6 4 6 4 3 4 w 6 6 6 4 6 6 6 ",
"Z.B.Z.C.l k k k k k k k k k y y s s y y w.l.x v v v v >.c c c c c c F A D.S.S.S.S.S.S.S.S.S.S.S.D.H J J A ^ D.J.J.T._ _ U A FXFXh.A F G I P K C C C 3X3X3X3XV V 3X2X2X2X3X3X2X2X2X2X2X2X4X4X2X2XV C C P P J F V.GXM.i.y.9.q.U | 1 u u , u , , , , 6.6., 8.u , , , , , , , , u , , , , , , , , , $.cX<XL =.k.v.pXNXpX%.$.] $.] ] ] ] $.] ] ] $.] ] $.] ] $.] ] $.] ] ] ] ] ] ] ] ] ] ] ] ] ] ] ] O.$.$.*.1.lX{ $ w 6 3 | JXJXu 4 6 6 ; $ T.-X-X].xXxXe # b +X#X[.VXZX*.X 4 6 q 0 T T f T T 0 q 6 4 6 6 6 4 6 o.e ; 4 4 4 6 4 6 6 ",
"T.U.U.Z.l.w.w.w.w.w.w.w.w.l.n.l.M.M.M.M.C.7.v c c c c >.c c ,.J C P C P D.S.S.S.S.S.S.S.S.S.S.S.S.D.>.>.) c Q J.J./ _ / ~ A 5X8X9X8XG F F F G 8.8.8.G q.G G F F G G G G P H F G F F F G C C G J J P K C 3X2X2X5X6XU d.y.i.8.s.8.' u u , u u , , , 6.6., 9.6., , , , , , , , u , , , , , < < < 2 L 2XJ &.#.k.v.pXkXhXv.O.] $.] ] ] ] $.] ] ] $.] ] $.] ] $.] ] $.] ] ] ] ] ] ] ] ] ] ] ] ] ] ] ] O.$.$.*.1.lX{ $ w 6 3 | JXJXu 4 6 6 ; $ T.-X-X].xXxXe # m @X@XoXVXZX*.X 4 q 0 T @ % % % @ T 9 q 6 6 6 6 3 a ).P.P.K.+.e 4 6 6 6 ",
"T.F.F.D.r.i.i.i.i.i.i.i.i.r.c v v v v v v v c c c c c >.c c ,.P H Q S.S.S.S.S.S.S.S.S.S.S.S.S.S.S.S.S.) ~ Q ! J./ _ E./ / H.C 5XC.9XFXm.d.G H F F F F H F F F F H F F P 1XP F F F 0 F F A <XF F 0 F F Q F H V.P K 3X4X2XC C P U 1 u | u  . .t t [ 6.6.t 8. .< < < < < < < < t < < < , 2 D N Z 2Xh. .&.#.#.k.v.pXlXk.jX$.] O.] ] ] ] O.] ] ] O.] ] O.] ] O.] ] $.] ] ] ] ] ] ] ] ] ] ] ] ] ] ] ] O.O.$.*.*.lX{ $ w 6 3 | JXJXu 4 6 6 ; $ T.-X-X].xXxXe # n @X@XoXVXZX*.X 4 6 T @ & $ $ $ & @ T q 6 6 6 6 3 ..P.`./.K.].3 6 6 6 6 ",
"T.F.>.>.v v v v v v v v v v >.>.>.>.>.>.>.>.>.>.>.>.>.>.>.>.,.P ^ D.S.S.S.S.S.S.S.S.S.S.S.S.S.S.S.D.S._ G.S.J.J._ !.!./ H.~ ~ ! N.5X!.C.dXFXdXm.m.M.M.M.d.d.y.y.d.d.y.5X8Xp.d.d.y.y.y.y.p.5Xd.d.y.d.d.d.d.m.dXM.A.dX0Xm.8X8X8X5X5X2X2X2XC C Z Z C C C Z K C Z Z Z Z Z Z Z Z Z Z Z Z V 2XV C N k.kX#.#.#.k.v.v.pXlXk.pXpX} $.$.O.O.O.$.O.O.$.$.O.O.$.O.O.$.O.$.%.O.O.O.O.O.O.O.O.O.O.O.O.O.O.O.O.$.$.%.1.2.lX{ $ w 6 3 | JXJXu 4 6 6 ; $ T.-X-X].xXxXe # n @X@XoXVXZX*.X q 9 T $ $ . . $ # d T 7 4 6 4 6 4 w L.X.w K.K.; w 6 4 6 ",
"T.F.F.>.>.>.>.>.>.>.>.>.>.>.>.>.>.>.>.>.>.>.>.>.>.>.>.D.>.>.>.P ^ D.S.S.S.S.S.S.D.S.S.S.S.S.S.S.S.D.) ) S.G.F._ _ !.!.H.H./ ~ ~ ! U A A A q.y.d.M.m.m.m.m.m.m.m.m.m.9X9XDX9XdXm.m.m.m.9X9X9Xm.m.m.m.m.m.dXFXm.m.9XFXm.0Xm.n.n.n.V.j.d.p.p.L L L L L L L L L D N N N N N D D D D D D 1 1 u t [ nXt.#.#.#.k.v.v.pXlXk.k.hX#.$.$.$.O.O.$.O.} $.$.$.$.$.$.O.$.$.$.%.O.$.$.$.$.$.$.$.$.$.$.$.$.$.$.O.$.$.%.1.^.lX{ $ w 6 3 | JXJXu 4 6 6 ; $ T.-X-X].xXxXe # n @X@XoXVXZX*.X q 0 T $   i r . $ d T 7 4 6 4 6 w 4 $ 3 w i 4 6 4 4 6 4 ",
"T.>.>.c c c c c c c c c c c c v c >.v c c c c c c c c >.v v v P Q S.S.S.S.S.S.S.S.S.S.S.S.S.S.S.S.S._ Q S.Q ~ _ J.!.!./ / ~ ! ^ ! I 5XE.L C H F J J F H F F F F F J <XK 9XA Q F F F F A <XC J F F F H F V.f.H ^ s.V.0.) ) G H 8.H G  . .#. . .|  .8.8.| 8.6. .t t [ t < < < t < < < < , , > k.kX#.#.#.#.#.k.v.pXlXk.*.v.pX} ] [ #.O.O.] l.O.O.[ [ $.] ] $.] ] $.] ] ] ] ] ] ] ] ] ] ] ] ] ] ] ] O.O.$.*.*.lX{ $ w 6 3 | JXJXu 4 6 6 ; $ T.-X-X].xXxXe # n @X@XoXVXZX*.X q 7 T d % UX+.  % @ T 4 4 4 6 3 e X.a P.I.3 /./.).e 4 6 ",
"T.F.>.c c c c c c c c c c c c c >.>.c c c c c c c c c F F F F C S.S.S.S.S.S.S.S.S.S.S.S.S.S.S.S.D.) ~ S.G.Q _ E.J.!.!./ / ~ ! ! ! ! g.gXhX5XJ 8.C 3XG q.8.G G G G I P i.9X5XH G G G 8.K I K I G G G H f.V.H a.s.g.V.f.f._ q.q.9.6.U 6.| 6.| 6.6.6.9.8.6.9.6.6.u u | 1 , 1 , u , , , , , , , nX#.#.#.#.#.#.k.v.pXlXk.k.%.hXk.] } n.w.} ] DXw.} w.#.} l.#.} ] ] $.] ] ] ] ] ] ] ] ] ] ] ] ] ] ] ] O.$.$.*.1.lX{ $ w 6 3 | JXJXu 4 6 6 ; $ T.-X-X].xXxXe # n @X@XoXVXZX*.X 4 q T T a _.o $ d T 0 q 6 6 4 i K.].). Xa I.].]. Xa 4 6 ",
"T.F.>.c c c c c c c c c c c c c >.>.c c c c c c c ,.F C P P P P S.S.S.S.S.S.S.S.S.S.S.S.S.S.S.S.S._ Q ! S.) _ J.J.!.!./ / ~ ! ! ! ! ^ ! T.5XP 8.C C 0.9XP F G G G P A i.m.5XH G G G H 4XH P P G G G H A.0.q.s.R.g.V.a.f.s.) q.q.6.H q.| 6.| 6.6.6.8.8.6.8.6.6.6.| | u , u , u , , 1 , , > *.kX .%.#.#.#.#.k.v.pXlXk.k.%.v.pX} } n.l.} ] fXn.$.sXn.} fXw.l.#.} l.l.} ] ] ] ] ] ] ] ] ] ] ] ] ] ] O.$.$.*.1.lX{ $ w 6 3 | JXJXu 4 6 6 ; $ T.-X-X].xXxXe # n @X@XoXVXZX*.X 4 6 4 T T & 3 % f T q 6 6 6 4 w o.P.o.P.e +.).P.).r 4 6 ",
"T.F.>.c c c c c c c c c c c c c >.>.c c c c c c c ,.J P <.,.,.>.S.S.S.S.S.S.S.S.S.S.S.S.S.S.S.D.) ) Q Q G._ ~ H.J.!.!./ / ~ ! ! ! ! ! ^ T._ I P C C y.8X<XC G G G C 0.FXd.K H G G F P A l.L P 8.G F f.V.G q.s.R.h.V.f.f.0.U s.q.8.q.) | 6.| 6.6.6.9.9.6.9.6.6.6.| | | | | u u 1 1 u , , , kX#.#.#.#.#.#.#.k.v.pXlXk.k.*.#.hXk.y aXj.} l.n.DXDXFXn.$.DXfXn.fX] DXn.} ] ] ] ] ] ] ] ] ] ] ] ] ] ] O.$.$.*.1.lX{ $ w 6 3 | JXJXu 4 6 6 ; $ T.-X-X].xXxXe # n @X@XoXVXZX*.X 4 6 4 6 e w w w 6 4 4 6 4 4 6 4 4 4 4 4 4 4 4 4 6 4 6 4 ",
"T.F.>.>.c c c c c c c c c c c c >.>.c c c c c c c ,.J U D.Q S.S.S.S.S.S.S.S.S.S.S.S.S.S.S.S.S.Q _ S.Q S._ ) G.H.J.!.!./ / ~ ! ! ! ! ! ^ J._ <XC G C L 5Xp.<XH G I C M.m.G K H G G G P P fX8XP P H G A.0.q.q.s.R.g.V.a.f.0.q._ q.8.8.) G 6.| 6.6.6.8.8.6.8.8.6.| u u u u | u u w w u : > k.kX .#.#.#.#.#.#.k.v.pXlXk.k.*.#.v.pXt fXn.#.DXl.C.HXdXl.j.dXDXfXDXaXDXn.} ] ] ] ] ] ] ] ] ] ] ] ] ] ] O.$.$.*.1.lX{ $ w 6 3 | JXJXu 4 6 6 ; $ T.-X-X].xXxXe # n @X@XoXVXZX*.X 4 6 6 q 4 * * * 4 w 4 4 6 6 4 6 6 6 6 6 6 6 6 6 4 6 4 6 ",
"T.U.U.>.c c c c c c c c c c c c >.>.c c c c c c c ,.J U D.S.S.S.S.S.S.S.S.S.S.S.S.S.S.S.S.S.D.) ) S.Q ! _ ! ~ H.J.!.!./ / ~ ! ! ! ! ! ! ! / 8XG F J 2XI C.K P 8.P P M.9.F K P H H 8.A p.M.p.4X1XJ d.V.I I q.s.R.g.5X3Xg.0.q.) H 9.y.g.h.M.M.M.M.M.M.M.C.M.M.M.n.n.n.n.n.C.n.n.n.n.n.j.j.NXpXv.v.k.#.O.#.#.v.v.pXxXk.k.*.%.v.fXw.FXn.l.HXl.t.n.t.n.n.C.DXDXDXHXn.n.} ] aXw.} ] ] ] ] ] ] ] ] ] ] O.$.$.*.1.lX{ $ w 6 3 | JXJXu 4 6 6 ; $ T.-X-X].xXxXe # n @X@XoXVXZX*.X 4 6 6 3 u v.pXv.e 3 w 4 6 6 6 4 6 4 4 4 4 w 6 6 6 6 6 6 ",
"T.U.U.D.v c c c c c c c c c c c >.>.c c c c c c c ,.J H D.S.S.S.S.S.S.S.S.S.S.S.S.S.S.S.S.S.S._ G.S.Q ) ) ! ~ H.J.!.!./ / ~ ! ! ! ! ! ! ^ / |.M.G d.m.d.M.L P 8.P P m.q.F p.K <XP 8.A p.i.h.2XK P A.i.3X3Xq.s.R.g.5X3Xf.L a.V.0XA.A.M.V.V.l.M.d.d.d.M.y.y.y.y.y.y.y.y.y.y.y.l.l.l.l.5.C.NXC.pXhXhXhXpXv.t.v.v.pXcXk.k.k.v.l.HXfXfXfXdXl.t.%.t.%.n.n.k.fXHXfXn.t.n.w.O.DXn.} ] ] ] ] ] ] ] ] ] ] O.$.$.*.1.lX{ $ w 6 3 | JXJXu 4 6 6 ; $ T.-X-X].xXxXe # n @X@XoXVXZX*.X 4 w 3 v.IXjXhXjXIXw.3 w 4 6 6 6 4 e e e w ; 4 6 4 4 6 6 ",
"T.F.F.>.c c c c c c c c c c c v c >.v c c c c c c c P H D.S.S.S.S.S.S.S.S.S.S.S.S.S.S.S.S.D.~ ) S.S.! _ ! ! ~ H.J.!.!./ / ~ ! ! ! ! ! ! ! ^ T.A.m.M.d.H M.L P 8.C p.m.H F M.5X<XP G C m.q.d.d.L p.M.H 2XK q.s.R.g.5X3Xh.1XV.M.h.s.9.9.q.R.6.9.9.8.M.m.8.9.9.9.9.6.6.6.9.9.6.w.6.6.6.1 kXv.t.t.k.c.v.v.hXhXC.v.pXcXx.k.k.sXaXdXDXl.fXC.@.%.t.t.%.n.fX@.l.HXn.%.t.l.fXaXDXn.} ] ] ] ] ] ] ] ] ] ] O.O.$.*.*.lX{ $ w 6 3 | JXJXu 4 6 6 ; $ T.-X-X].xXxXe # n @X@XoXVXZX*.X w 3 v.IX| o o o w.IXw.3 w 4 6 6 3 K.].).K.L.].r 4 6 6 6 ",
"T.F.>.>.,.,.,.,.,.,.,.,.,.>.>.>.>.>.>.>.Q C P P P P A G.D.S.S.S.S.S.S.S.S.S.S.S.D.S.S.S.S.D._ G.G.S._ ) G.~ H.H.J.!.!.H.H./ ~ ~ ~ ~ ~ ~ ~ ! / .Xm.H H ^ C.p.A H 3XdXd.H H M.5X4XI S.C m.q.d.M.8X8Xu.U 3XK q.s.R.h.5X5X0X2XI 0.a.Q.f.0.i.h.f.i.i.i.m.m.i.i.i.i.i.i.y.w.i.i.y.w.w.w.9.v.NXc.v.v.c.c.c.k.k.Z.hXhXpXcX'.x.c.FXfXC.fXv.dXC.%.t.t.k.%.dXfX1.l.C.v.t.I.C.fXdXHXaX} $.O.$.$.$.$.$.$.$.O.$.$.%.1.^.lX{ $ w 6 3 | JXJXu 4 6 6 ; $ T.-X-X].xXxXe # n @X@XoXVXZX*.X 4 w JXw.o $ $   O v.jX3 6 6 6 6 3 7.XX].`.XX].e 4 6 6 6 ",
"/ Q Q F J J J J J J J J J F c c >.>.c ,.J P ,.c c c c D.S.S.S.S.S.S.S.S.S.S.S.S.S.S.S.S.D.~ ) S.S.~ _ ! ~ ! ~ H.J.!.!./ / ~ ! ! ! ! ! ! ! ! ! A.dXH G H 0.m.3X4XK F G G F d.9X8XC K C m.G f.m.9XK i.K I K I s.R.U 8X8XL 8X5X5XI s.s.i.9.s.s.9.9.i.p.K i.i.9.9.9.9.9.9.9.9.w.w.w.w.6.kXpXk.v.v.v.c.v.v.v.v.v.hXhXxX'.k.k.fXFXl.DXhXdXl.%.t.t.t.%.l.C.%.%.e.%.t.e.l.fXn.HXaX} ] l.#.} ] ] ] ] ] ] O.$.$.*.1.lX{ $ w 6 3 | JXJXu 4 6 6 ; $ T.-X-X].xXxXe # n @X@XoXVXZX*.X 3 #.JX$ $ $ $ e.I. .JXu 4 6 6 6 4 e ....i o.o.r 4 6 6 6 ",
"U P P P P P P P P P P P P C F <.,.,.v <.J P >.Q S.S.S.S.S.S.S.S.S.S.S.S.S.S.S.S.S.S.S.S.S._ ! Q S._ ~ ! ~ ! ~ H.J.!.!./ / ~ ! ! ! ! ! ! ! ! ^ H.J.G G H F d.5X8X9.H G G G q.M.I <XP G m.G H FXFX8XFXK H C 1Xs.R.U 8X8XK 9Xp.4XL 0.Q.0.9.i.s.0.9.i.L 2X9.L 9.9.9.9.9.9.9.9.w.w.6.6.i.NXc.v.k.k.k.c.k.k.v.v.v.v.hXhXC.c.C.fXfXl.FXpXDXv.%.%.t.t.%.%.t.%.%.t.t.t.e.l.dXn.HXsXO.} aXw.} ] ] ] ] ] ] O.$.$.*.1.lX{ $ w 6 3 | JXJXu 4 6 6 ; $ T.-X-X].xXxXr # n @X@XoXVXZX*.X 3 w.jX$ $ $ $ XXvXi n.u 4 6 4 4 4 4 3 ; 3 3 ; 4 4 4 6 4 ",
"T.F.F.D.>.>.>.>.>.>.>.>.>.H C P P P P P C H D.S.S.S.S.S.S.S.S.S.S.S.S.S.S.S.S.S.S.S.S.D.! ) S.Q ! _ ! ! ~ ! ~ H.J.!.!./ / ~ ! ! ! ! ! ! ! ! ! ^ T.^ G H G F 0.dXG G G G G H Q I 3XQ G m.G H m.V.C m.8Xm.9X5Xm.dX8X8X8X8XI a.1XK i.s.s.9.i.s.s.9.i.L 3XI 1X9.i.9.9.9.9.9.9.9.y.w.6.cXkXc.v.c.k.k.c.c.k.v.v.v.C.gXGXfXv.HXdXn.l.sXk.DXv.%.%.t.t.%.%.t.%.%.t.%.t.t.t.l.t.fXHXfX#.sXw.} ] ] ] ] ] ] O.$.$.*.1.lX{ $ w 6 3 | JXJXu 4 6 6 ; $ T.-X-X].xXxXe # n @X@XoXVXVX#.X 4  .IX< o $ $   O < v.4 4 6 3 K.P.e ).L./.4 o.).).K.3 6 ",
"T.F.F.S.S.S.S.S.S.S.S.S.S.S.F F F F F F F S.S.S.S.S.S.S.S.S.S.S.S.S.S.S.S.S.S.S.S.S.S.D._ ~ Q S.) ) ! ! ~ ! ~ H.J.!.!./ / ~ ! ! ! ! ! ! ! ! ! ^ J.T.G H G G G G G G G G G H q.P C M.0.m.G H V.a.C K 5Xm.HX8X9XFX5X9X5X1Xh.0.1XK i.a.h.9.0.0.s.9.i.L 3XL 1XI i.9.9.9.9.9.9.9.y.6.y.cXc.c.k.c.c.k.c.c.k.v.v.v.v.gXcXDXfXdXk.k.v.n.t.hXv.%.%.t.t.%.%.t.%.%.t.%.t.t.%.%.%.dXDXdXn.sXw.} ] ] ] ] ] ] O.$.$.*.1.lX{ $ w 6 3 | JXJXu 4 6 6 ; $ m $Xm ^.'.'.w # b +X#X*.BXBX=.X q 3 hXjX$ $ $ $ : v.#.3 6 6 6 P.P.K.P.XXP.7.)._. X/.3 6 ",
"T.F.F.S.S.S.S.S.S.S.S.S.S.S.D.D.D.D.D.D.D.S.S.S.S.S.S.S.S.S.S.S.S.S.S.S.S.S.S.S.S.S.S.! _ S.Q ! _ ! ! ! ~ ! ~ H.J.!.!./ / ~ ! ! ! ! ! ! ! ! ! ! ! T.H H G G G G G G G G G H H H 8XHXDXd.F f.V.q.C 1X3Xq.m.K V.A.8X9X5X1Xh.a.1X5XC.0.s.s.i.9.s.s.y.8XK L 5XL i.9.9.9.9.9.9.9.i.6.'.cXu.z.k.c.c.k.c.c.k.v.v.v.dXgXgXDXHXv.t.c.k.t.t.v.hX%.t.t.t.%.%.t.%.%.t.%.t.t.%.t.%.dXFXl.fXdXw.} ] ] ] ] ] ] O.$.$.*.1.lX{ $ w 6 3 | JXJXu 4 6 6 ; $ m $Xm ^.'.'.e # b +X#X3.BXBX=.X 4 4 6 jXv.X : * w.v.4 6 6 6 3 K./.7./.P./.r /.P.).I.4 6 ",
"T.U.U.D.S.S.S.S.S.S.S.S.S.S.S.S.S.S.S.S.S.S.S.S.S.S.S.S.S.S.S.S.S.S.S.S.S.S.S.S.S.S.D.) ~ S.Q ) ) ! ! ! ~ ! ~ H.J.!.!./ / ~ ! ! ! ! ! ! ! ! ! ! ^ T.J.G H G G G G G G G G H H G DXm.M.G F A.f.q.C 1XK q.G K 8X5X8X9XL 2Xa.a.1X5XDX0.d.h.M.M.0.s.M.8XK L L 8Xy.9.9.9.9.9.9.9.i.9.cXx.c.z.k.c.c.c.x.c.k.c.c.C.HXFXFXdXDXv.u.c.k.k.k.t.hXt.%.%.t.%.%.t.%.%.t.%.t.t.%.t.%.n.fXl.sXn.w.} ] ] ] ] ] ] O.$.$.*.1.lX{ $ w 6 3 | JXJXu 4 6 6 ; $ m $Xm ^.'.'.e # b +X#X3.BXBX=.X 4 6 4 w e 6 6 6 w 4 4 6 4 6 4 4 4 4 4 4 4 4 6 4 6 4 4 6 ",
"T.U.U.F.Q S.S.S.S.S.S.S.S.S.S.S.S.S.S.S.S.S.S.S.S.S.S.S.S.S.S.S.S.S.S.S.S.S.S.S.S.S.! _ S.S.! _ ! ! ! ! ~ ! ~ H.J.!.!./ / ~ ! ! ! ! ! ! ! ! ! ! ! ! T.H G G G G G G G G G H H F m.9.F G 0.V.G q.K K H q.q.8X1X3X5XV.d.g.f.a.<X5XFXM.DX9XV.FX9.s.V.8XK 5XL 8XM.9.9.9.9.9.9.9.9.x.cXu.z.z.c.c.c.c.x.z.k.c.c.C.HXGXcX}.Z.hX0.0.k.i.k.t.pXC.6.9.t.%.%.t.t.%.t.%.t.t.%.t.%.n.l.t.FXl.DX#.} ] ] ] ] ] O.$.$.*.1.lX{ $ w 6 3 | JXJXu 4 6 6 ; $ m $Xm ^.'.'.e # b +X#X3.BXBX=.X 4 6 6 6 4 q : q 4 6 6 4 6 4 6 6 6 6 6 6 6 6 6 6 4 6 6 4 ",
"T.U.U.F.Q S.S.S.S.S.S.S.S.S.S.S.S.S.S.S.S.S.S.S.S.S.S.S.S.S.S.S.S.S.S.S.S.S.S.S.S.D.) ~ S.S.) ) ! ! ! ! ~ ! ~ H.J.!.!./ / ~ ! ! ! ! ! ! ! ! ! ! ! ^ T.J.G G G G G G G G G G H G G G G F V.g.G q.K P q.H M.8XC K 5XV.d.g.f.a.3X5XdXdXHXFX0XHXm.h.FXL L 3XI 8XM.9.9.9.9.9.9.9.9.cXx.z.z.z.z.z.c.c.x.z.k.c.z.dXHXgXxX}.(.hX5XK y.2Xt.I c.hX9.L I 6.%.L 9.%.t.%.%.t.%.%.%.l.t.t.dXl.HXj.} ] ] ] ] ] O.$.$.*.1.lX{ $ w 6 3 | JXJXu 4 6 6 ; $ m $Xm ^.'.'.e # b +X#X3.BXBX=.X 4 6 6 q 9 ( E ( 6 q 6 4 4 6 4 3 6 6 6 6 4 4 4 4 w 6 6 4 ",
"T.F.F.S.S.S.S.S.S.S.S.S.S.S.S.S.S.S.S.S.S.S.S.S.S.S.S.S.S.S.S.S.S.S.S.S.S.S.S.S.D.S._ Q S.G._ ! ~ ~ ! ! ~ ! ~ H.J.!.!./ / ~ ! ! ! ! ! ! ! ! ! ! ! ! ~ T.G G G G G G G G G H H G G G H q.A.q.q.q.I I q.0.A.a.s.K 5XV.d.g.f.0.3X3Xm.FXm.FX9XdX9X5XFXL I 2XI 8Xm.9.y.y.y.9.9.9.x.cXu.z.z.z.z.z.z.c.x.z.c.c.z.dXHXV.A.h.B.B.5XL 0.1XI K C V.d.P L 9.*.L K I k.t.t.t.t.t.t.%.%.t.t.t.DXn.} O.] ] ] ] O.$.$.*.1.lX{ $ w 6 3 | JXJXu 4 6 6 ; $ m $Xm ^.'.'.e # b +X#X3.BXBX=.X 4 6 4 ( 7XW E W 7XJ 4 6 6 4 a ..3 3 4 4 i e e w ; 4 4 6 ",
"T.J.F.F.S.S.S.S.S.S.S.S.S.S.S.S.D.F.S.S.S.S.S.S.S.S.S.F.S.S.S.S.S.S.F.S.S.S.S.S.F.) ) S.S.) ) G.G.G.~ G.H.~ H.J.J.!.!.E.H.H.G.G.G.G.G.G.G.G.G.G.G.G.! T.H.G H H H H H H H q.q.H H q.H V.g.q.q.q.q.q.q.A.M.a.W.K 2XA.g.g.g.f.I K m.dX^ dXV.V.9X3Xa.K h.2Xq.8XHXi.d.DXm.i.i.9.cX}.z.x.x.x.x.x.x.x.B.x.c.x.B.FXDX5X4X3X5XL 8X8XK h.3X1X1Xd.9XK K 9.2.L C L ^.t.t.k.t.t.t.t.t.t.t.%.dXDX$.$.$.$.$.$.$.%.%.^.^.lX{ $ w 6 3 | JXJXu 4 6 6 ; $ m $Xm ^.'.'.e # b +X#X3.BXBX=.X 4 q ( 7X@ & & & B 7XJ 4 6 4 /.P.P.I.o.+.]._.`.K.L.].i 4 ",
"T.F.F.S.S.S.S.S.S.S.S.S.S.S.S.S.S.S.S.S.S.S.S.S.S.S.S.S.S.S.S.S.S.S.S.S.S.S.S.S.S._ Q Q Q _ ^ ! ! ! ^ ! ~ ! ~ H.J.!.!./ / ~ ! ! ! ! ! ! ! ! ! ! ! ! ^ / T.G G G G G G G G G H G G G q.V.q.q.q.q.q.G a.A.0.a.f.U 5XA.d.g.f.0.i.K 8XdXC m.M.h.5X3XI 6XI 2X9.L FXm.m.HXm.8.m.c.cXu.z.z.z.z.z.z.z.z.x.z.c.u.dXdXdX5X1X5X1X5Xh.5X1Xi.i.2X2X9.M.K K C %.K 2XK *.%.%.t.%.%.%.%.%.%.t.%.dXfX#.[ ] ] ] ] O.O.$.*.*.lX{ $ w 6 3 | JXJXu 4 6 6 ; $ m $Xm ^.'.'.e # b +X#X3.BXBX=.X 4 6 7XB & $ $ $ & Y W 4 6 4 P.I.XXX. X/.I.XX].).XX].e 4 ",
"T.F.F.S.S.S.S.S.S.S.S.S.S.S.S.S.S.S.S.S.S.S.S.S.S.S.S.S.S.S.S.S.S.S.S.S.S.S.S.D.) ) S.Q ~ ) ! ! ! ! ! ! ~ ! ~ H.J.!.!./ / ~ ! ! ! ! ! ! ! ! ! ! ! ! ! ! T.! G G G G G G G H H G G F M.d.G q.q.q.q.G V.d.q.a.a.s.h.V.d.g.f.0.0.I 5Xm.<X0.i.s.6XK L I U 1X9.L C 9XDXHXm.8.sXcX|.u.B.C.z.z.z.z.z.z.x.z.z.dXFXB.dX5X4Xg.4X2X0.M.5Xi.c.I h.K 2X2X2X1Xt.K <XC *.6.9.k.%.%.%.%.%.%.t.%.l.n.#.} ] ] ] ] O.$.$.*.1.lX{ $ w 6 3 | JXJXu 4 6 6 ; $ m $Xm ^.'.'.e # b +X#X3.BXBX=.X q J 7X$ $ $ . X % 7 7X9 4 4 +.K.i i ).i r X...i o.o.i 4 ",
"T.F.F.S.S.S.S.S.S.S.S.S.S.S.S.S.S.S.S.S.S.S.S.S.S.S.S.S.S.S.S.S.S.S.S.S.S.S.S.S._ ! Q Q _ ~ ! ! ! ! ! ! ~ ! ~ H.J.!.!./ / ~ ! ! ! ! ! ! ! ! ! ! ! ! ! ! / T.G G G G G G G H H G G G A.q.q.q.q.q.q.a.A.0.0.a.a.s.V.V.d.g.f.0.a.0.K L 4XI I 0.6XK K 9.U 1X9.L <Xp.dXdXDXm.DXhXz.z.C.dXz.z.x.z.B.z.z.u.C.HXFXx.Z.5X5Xg.5X3Xh.'.hXu.u.c.a.4XK 1X1X1XL K <X2XL 6.K k.t.%.%.%.%.%.%.t.+.n.w.} ] ] ] ] O.$.$.*.1.lX{ $ w 6 3 | JXJXu 4 6 6 ; $ m $Xm ^.'.'.e # b +X#X3.BXBX=.X : J 7X$ $ . ..w   3 7X9 4 6 3 3 ; e r ; 4 3 3 3 3 3 4 6 ",
"T.F.F.S.S.S.S.S.S.S.S.S.S.S.S.S.S.S.S.S.S.S.S.S.S.S.S.S.S.S.S.S.S.S.S.S.S.S.D.~ ) Q Q ~ _ ! ! ! ! ! ! ! ~ ! ~ H.J.!.!./ / ~ ! ! ! ! ! ! ! ! ! ! ! ! ! ~ ^ T.^ G G G G G G H H G F d.M.G q.q.q.q.G V.d.0.0.a.a.s.h.V.d.g.f.0.a.0.K 3XK 4X2X0.6X6XC 9.a.4X9.I 1XL i.M.FXHXDXdXC.dXDXFXL.C.dXu.dXdXdXC.FXDXZ.d.d.5X5XB.h.h.f.z.Z.B.u.c.f.3Xu.2X3XI K C 1X3X3XK L 9.I %.t.%.%.%.%.t.%.C.w.} ] ] ] ] O.$.$.*.1.lX{ $ w 6 3 | JXJXu 4 6 6 ; $ m $Xm ^.'.'.e # b +X#X3.BXBX=.X 4 9 7X7 % o /.PXO 0 7X4 4 6 w 4 o.K.K.P./.i I.I.r 4 6 4 ",
"T.F.F.S.S.S.S.S.S.S.S.S.S.S.S.S.S.S.S.S.S.S.S.S.S.S.S.S.S.S.S.S.S.S.S.S.S.S.S._ ~ Q Q _ ~ ! ! ! ! ! ! ! ~ ! ~ H.J.!.!./ / ~ ! ! ! ! ! ! ! ! ! ! ! ! ! ~ ^ / T.G H G G G G H H G G V.q.q.q.q.q.q.f.A.0.a.0.a.a.s.h.V.d.g.f.0.a.i.L 2XI 1X1XK K 6X2X0.9.2X9.9.1XK i.9.y.dX5X9XHXDXDXFXC.dXFXdXdXHXdXDXHXFX(.L L 0XA.}.(.x.z.z.x.gXu.c.f.K u.5XV.I.3X1X2XK <X1XC L 3X%.t.%.6.t.%.t.%.C.w.} ] ] ] ] O.$.$.*.1.lX{ $ w 6 3 | JXJXu 4 6 6 ; $ m $Xm ^.'.'.e # b +X#X3.BXBX=.X 4 q E W $ $ X ].e 7X( q 6 6 6 4 i _.I.XX).+./.vXL.3 6 6 ",
"T.U.U.F.S.S.S.S.S.S.S.S.S.S.S.S.S.S.S.S.S.S.S.S.S.S.S.S.S.S.S.S.S.S.S.S.S.D.! ) S.Q ~ _ ! ~ ! ! ! ! ! ! ~ ! ~ H.J.!.!./ / ~ ! ! ! ! ! ! ! ! ! ! ! ! ! ~ ! ^ T.^ G G G G G H H F f.V.G q.q.q.q.G V.d.0.a.0.a.a.s.h.V.d.g.f.0.a.0.I 2Xh.1X1X1XK I K i.9.4Xs.9.1XL r.9.i.0.1X9XZ.FXDXdXDXdXdXDXFXC.(.dXDXB.x.L K 0XcX}.B.x.z.x.z.gXB.u.f.L c.i.gXc.q.2X3Xq.2X1X1X1X1X6.%.%.I I %.t.%.l.l.} ] ] ] ] O.$.$.*.1.lX{ $ w 6 3 | JXJXu 4 6 6 ; $ m $Xm ^.'.'.e # b +X#X3.BXBX=.X 4 4 6 7X( % ;   E E 4 6 6 6 6 4 e 7.L.P.).i a P.I.3 6 6 ",
"U.U.U.F.S.S.S.S.S.S.S.S.S.S.S.S.S.S.S.S.S.S.S.S.S.S.S.S.S.S.S.S.S.S.S.S.S.D.) ! S.Q _ ~ ! ~ ! ! ! ! ! ! ~ ! ~ H.J.!.!./ / ~ ! ! ! ! ! ! ! ! ! ! ! ! ! ~ ! ^ T.T.G H G G G H H G A.0.q.q.q.q.q.a.A.0.a.a.0.a.a.s.V.V.d.g.f.0.a.0.0.K a.K 3X1XK i.Q.0.0.3XU 9.3X2XK I i.5X1X9X(.n.dXB.DXdXC.DXFXz.z.z.C.u.x.L 5X0XcX}.}.x.z.x.z.B.gXu.z.i.u.u.Z.Z.r.K q.L.I 1X2XL 3XL 9.I L I %.t.%.l.l.} ] ] ] ] O.$.$.*.1.lX{ $ w 6 3 | JXJXu 4 6 6 ; $ m $Xm ^.'.'.e # b +X#X3.BXBX=.X 4 6 4 6 w 6 6 w 9 4 4 6 4 6 6 6 4 4 4 4 4 4 4 4 4 4 6 6 ",
"T.U.U.D.S.S.S.S.S.S.S.S.S.S.S.S.S.S.S.S.S.S.S.S.S.S.S.S.S.S.S.S.S.S.S.S.S.! _ Q S.! _ ! ! ! ! ! ! ! ! ! ~ ! ~ H.J.!.!./ / ~ ! ! ! ! ! ! ! ! ! ! ! ! ! ~ ! ! ! T.H G G G G G H 0.V.G q.q.q.q.G V.d.q.a.a.0.a.a.s.h.V.d.g.f.0.a.0.0.0.0.0.i.K K i.s.s.9.K h.s.9.L 1X2XI 4X3Xp.x.c.h.C dXC.z.FXFXx.h.h.c.z.x.K 2X0XcX}.B.x.z.z.z.z.gXz.u.u.u.u.z.gXr.u.r.r.u.K q.^.r.1XC 2X1XI *.L 8.v.l.} ] ] ] ] O.O.$.*.*.lX{ $ w 6 3 | JXJXu 4 6 6 ; $ m $Xm ^.'.'.e # b +X#X3.BXBX=.X 4 6 6 4 4 4 4 4 4 4 6 4 4 4 4 4 4 6 4 6 4 6 4 6 6 4 4 4 ",
"T.F.F.S.S.S.S.S.S.S.S.S.S.S.S.S.S.S.S.S.S.S.S.S.S.S.S.S.S.S.S.S.S.S.S.S.D.) ~ S.S.) ) ! ~ G.! ! ~ ~ ! ~ G.! H.H.J.!.!./ H.~ ~ ! ! ! ! ! ! ! ! ! ! ! ! G.~ ~ ^ T.J.G H H H H H V.f.q.q.q.q.q.a.A.0.a.f.f.a.a.s.s.V.V.g.g.f.a.f.f.a.f.f.a.i.L K i.a.h.0.0.a.s.i.9.4X2Xh.f.g.L (.x.h.4Xx.z.x.d.V.'.I L x.z.d.2X2X0XcX}.}.x.z.x.x.z.Z.Z.u.z.u.z.u.Z.B.L.u.r.^.L 0.^.i.2X3X1X1XK K <X8.v.j.O.O.O.O.O.$.$.%.1.2.lX{ $ w 6 3 | JXJXu 4 6 6 ; $ m $Xm ^.'.'.e # b +X#X3.BXBX=.X q w 6 6 6 6 6 6 6 6 6 6 6 6 6 6 6 6 6 6 6 6 6 6 6 6 6 6 ",
"T.F.F.S.S.S.S.S.S.S.S.S.S.S.S.S.S.S.S.S.S.S.S.S.S.S.S.S.S.S.S.S.S.S.S.S.S._ S.S.G._ ! ! ~ ~ ! ! ~ ~ ! ! G.! H.H.J.!.!./ H.~ ! ! ! ! ! ! ! ! ! ! ! ! ! G.! ! ! ~ T.H H H H H a.V.q.q.q.q.q.q.V.M.0.a.a.f.0.a.s.s.V.V.g.g.f.a.f.a.0.f.a.0.f.I I 0.0.s.s.i.i.s.s.i.L 1X3Xz.i.K N.x.I 3Xg.K x.L h.'.L K '.h.4Xh.2XV.cX}.}.x.z.x.z.z.z.gXx.u.u.z.u.x.Z.L.u.r.L.0.i.P.r.C C 2X1X3X1X1XP v.aXj.} O.O.O.$.$.%.1.2.lX{ $ w 6 3 | JXJXu 4 6 6 ; $ m $Xm ^.'.'.e # b +X#X3.BXBX=.X : 3 3 3 3 3 3 3 3 3 3 3 3 3 3 3 3 3 3 3 3 3 3 3 3 3 3 3 ",
"T.F.F.S.S.S.S.S.S.S.S.S.S.S.S.S.S.S.S.S.S.S.S.S.S.S.S.S.S.S.S.S.S.S.S.D.) ~ Q Q ) ) ! ! ! ! ! ! ! ! ! ! ~ ! ~ H.J.!.!./ / ~ ! ! ! ! ! ! ! ! ! ! ! ! ! ~ ! ! ! ^ T./ G G G H V.f.G q.q.q.q.0.A.0.0.0.0.a.0.a.a.s.h.V.d.g.f.0.a.0.0.a.0.0.a.0.0.0.0.a.s.9.9.0.s.9.9.K 3Xc.i.K K c.I 3Xf.3Xc.L h.'.K K '.L 1XB.2XV.cX}.B.x.z.z.z.z.u.Z.Z.u.u.u.z.u.Z.z.r.r.u.r.r.u.r.I I K C 2XC 1X1Xy.fXn.} ] ] ] O.O.$.*.*.lX{ $ w 6 3 | JXJXu 4 6 6 ; $ m $Xm ^.'.'.e # b +X#X3.BXBX=.X 4 4 4 4 4 4 4 4 4 4 4 3 4 4 4 4 4 4 4 4 4 4 4 4 4 4 4 4 ",
"T.F.F.S.S.S.S.S.S.S.S.S.S.S.S.S.S.S.S.S.S.S.S.S.S.S.S.S.S.S.S.S.S.S.S.S._ Q Q ! _ ! ! ! ! ~ ! ! ! ! ! ! ~ ! ~ H.J.!.!./ / ~ ! ! ! ! ! ! ! ! ! ! ! ! ! ~ ! ! ! ! ~ T.G G G q.A.G q.q.q.q.G V.M.q.0.0.a.a.0.a.a.s.V.V.d.g.f.0.a.a.0.a.a.0.f.0.0.0.0.0.s.a.9.9.s.a.c.cXz.z.z.3X4Xi.L K L 4Xz.K h.z.4X2Xc.K 4XB.d.Z.cX}.}.x.z.x.z.z.z.z.gXu.u.u.z.u.Z.Z.r.r.u.r.r.u.r.r.r.q.r.K C 2X<Xy.fXn.} ] ] ] O.$.$.*.1.lX{ $ w 6 3 | JXJXu 4 6 6 ; $ m $Xm ^.'.'.e # b +X#X3.BXBX=.X ..o.X.X.X.o.X.o.o.X.X.o.X.o.o.o.o.o.o.o.o.o.o.o.o.o.o.o.",
"T.F.F.S.S.S.S.S.S.S.S.S.S.S.S.S.S.S.S.S.S.S.S.S.S.S.S.S.S.S.S.S.S.S.D.) ) Q Q ) ) ! ! ! ! ! ! ! ! ! ! ! ~ ! ~ H.J.!.!./ / ~ ! ! ! ! ! ! ! ! ! ! ! ! ! ~ ! ! ! ! ^ T.! G F M.d.G q.q.q.q.q.A.0.0.0.0.0.a.0.a.a.s.h.V.d.g.f.0.a.a.0.a.a.0.f.0.0.0.0.0.s.s.9.9.a.U cX|.u.z.z.f.4X1XL L 3XL f.1Xh.h.K L h.L h.B.B.gXcX}.}.x.z.x.z.z.z.z.gXB.u.u.z.u.z.gXr.r.u.r.r.u.r.r.r.r.r.q.I L I 9.sXaX} ] ] ] O.$.$.*.1.lX{ $ w 6 3 | JXJXu 4 6 6 ; $ m $Xm ^.'.'.e # b +X#X3.BXBX=.X ..../.7.7.o.+.).+.+.K.K.7.o.X.X.X.X.X.X.X.X.X.X.X.X.X.X.",
"T.F.F.S.S.S.S.S.S.S.S.S.S.S.S.S.S.S.S.S.S.S.S.S.S.S.S.S.S.S.S.S.S.S.S._ ! Q Q _ ~ ! ! ! ! ! ! ! ! ! ! ! ~ ! ~ H.J.!.!./ / ~ ! ! ! ! ! ! ! ! ! ! ! ! ! ~ ! ! ! ! ^ / T.G q.A.q.q.q.q.q.G M.V.q.0.0.0.0.a.0.a.a.s.h.V.d.g.f.0.a.a.0.a.a.0.f.0.0.0.0.0.0.s.a.0.9.s.cXz.z.z.z.x.g.1Xh.L 3Xh.I 2X4X3Xg.h.4XL z.B.B.gXcX}.}.x.z.x.z.z.z.z.B.gXu.u.z.u.u.Z.z.r.u.r.r.u.r.r.r.r.r.t.q.I I L DXaX} } ] ] O.$.$.*.1.lX{ $ w 6 3 | JXJXu 4 6 6 ; $ m $Xm ^.'.'.e # b +X#X3.BXBX=.X ..o.vX X X). XvX].]. X]. XK...X.X.X.X.X.X.X.X.X.X.X.X.X.",
"T.U.F.S.S.S.S.S.S.S.S.S.S.S.S.S.S.S.S.S.S.S.S.S.S.S.S.S.S.S.S.S.S.D.~ ) Q Q ~ ) G.! ! ! ! ! ! ! ! ! ! ! ~ ! ~ H.J.!.!./ / ~ ! ! ! ! ! ! ! ! ! ! ! ! ! ~ ! ! ! ! ! ^ T.^ d.M.q.q.q.q.q.q.A.f.0.0.0.0.0.a.0.a.a.s.h.V.d.g.f.0.a.a.0.a.a.0.f.0.0.0.0.0.0.s.s.9.9.|.|.u.z.z.z.z.'.3Xh.h.K h.1XL 1X1Xg.f.1X5Xx.B.B.gXcX}.}.x.z.x.z.z.z.z.z.gXz.u.z.u.u.B.Z.r.u.r.r.u.r.r.r.r.r.r.r.r.q.2XDXaX] w.] ] O.$.$.*.1.lX{ $ w 6 3 | JXJXu 4 6 6 ; $ m $Xm ^.'.'.e # b +X#X3.BXBX=.X a I./.].P.].vX_.]./._.]._.L.a X.X.X.X.X.X.X.X.X.X.X.X.X.",
"T.U.U.F.Q S.S.S.S.S.S.S.S.S.S.S.S.S.S.S.S.S.S.S.S.S.S.S.S.S.S.S.S.S._ ! Q Q _ ~ ! ! ! ! ! ! ! ! ! ! ! ! ~ ! ~ H.J.!.!./ / ~ ! ! ! ! ! ! ! ! ! ! ! ! ! ~ ! ! ! ! ! ^ / T.V.q.q.q.q.q.G d.V.0.0.0.0.0.0.a.0.a.a.s.h.V.d.g.f.0.a.a.0.a.a.0.f.0.0.0.0.0.0.0.s.0.i.cXQ.z.z.z.z.z.x.3Xf.z.i.f.4XL 3X2Xz.f.1XL x.B.B.gXcX}.}.x.z.x.z.z.z.z.z.Z.Z.u.z.u.u.z.gXu.u.r.r.u.r.r.r.r.r.r.r.r.I.L FXaX#.sXj.[ O.$.$.*.1.lX{ $ w 6 3 | JXJXu 4 6 6 ; $ m $Xm ^.'.'.e # b +X#X3.BXBX=.X ..o...X.o.X.o.X.).+.o.X.+.X.o.o.o.o.o.o.o.o.o.o.o.o.o.o.",
"T.U.U.D.S.S.S.S.S.S.S.S.S.S.S.S.S.S.S.S.S.S.S.S.S.S.S.S.S.S.S.S.D.! _ S.Q ~ _ ! ~ ! ! ! ! ~ ! ! ! ! ! ! ~ ! ~ H.J.!.!./ / ~ ! ! ! ! ! ! ! ! ! ! ! ! ! ~ ! ! ! ! ! ! ^ Q.M.H q.q.q.q.q.A.f.a.0.0.0.0.a.a.0.a.a.s.h.V.d.g.f.0.a.a.0.a.a.0.f.0.0.0.0.0.0.0.s.s.(.cXg.Q.c.z.z.z.x.f.i.z.z.z.z.f.h.K x.f.3Xx.z.B.B.gXcX}.}.x.z.x.z.z.z.z.x.z.gXz.z.u.u.u.Z.x.r.r.r.u.r.r.r.r.r.r.r.r.r.L M.n.#.DXaX} O.$.$.*.1.lX{ $ w 6 3 | JXJXu 4 6 6 ; $ m $Xm ^.'.'.e # b +X#X3.BXBX=.X w e e e e e e e w w e e w e e 5 5 5 5 5 5 e t t t t t e ",
"T.F.F.S.S.S.S.S.S.S.S.S.S.S.S.S.S.S.S.S.S.S.S.S.S.S.S.S.S.S.S.S.S._ ~ Q Q _ ~ ! ~ ! ! ! ! ! ! ! ! ! ! ! ~ ! ~ H.J.!.!./ / ~ ! ! ! ! ! ! ! ! ! ! ! ! ! ~ ! ! ! ! ! ! ^ A.E.q.q.q.q.G d.V.q.f.0.0.0.0.0.a.0.a.a.s.h.V.d.g.f.0.a.0.0.a.a.0.f.0.0.0.0.0.0.0.0.s.cXx.z.Q.z.z.z.z.x.c.z.z.z.z.z.z.z.i.x.f.I c.z.B.B.gXcX}.B.x.z.x.z.z.z.z.x.u.Z.Z.u.u.u.u.z.Z.r.r.r.u.r.r.r.r.r.r.r.r.r.I G n.w.HXaX[ O.$.$.*.1.lX{ $ w 6 3 | JXJXu 4 6 6 ; $ m $Xm ^.'.'.e # b +X#X3.BXBX=.X 4 4 3 4 3 3 4 4 4 6 4 4 4 4 3 5.sXm.m.m.j.9 V Z Z Z V 9 ",
"T.J.F.F.S.S.S.S.S.S.S.S.S.S.S.S.F.F.S.S.S.S.S.S.S.S.S.F.S.S.S.D.G._ G.G.~ _ G.G.H.G.G.G.G.H.G.G.G.G.~ G.H.G.H.J.J.!.!.E.H.H.G.G.G.G.G.G.G.G.G.G.G.G.G.H.G.G.G.G.G.~ W.A.T.q.0.q.q.q.A.g.a.f.f.f.f.f.f.f.f.f.g.W.V.V.g.g.g.f.f.f.f.f.f.f.f.f.f.f.f.f.f.f.0..XcXz.x..X{.x.x.x.B.x.x.x.x.x.x.x.x.x.B.x.x.x.B.B.Z.cXcX}.}.B.x.B.x.x.x.x.B.x.B.gX(.z.z.z.z.gXx.L.L.(.u.u.u.u.u.u.u.u.^.I G pXfXHXfXO.%.%.%.^.^.lX{ $ w 6 3 | JXJXu 4 6 6 ; $ m $Xm ^.'.'.e # b +X#X3.BXBX=.X 4 w a r a ..e r 6 ; 4 6 6 w * n.sXb.b.b.sXJ <XV V V 1X9 ",
"T.F.F.S.S.S.S.S.S.S.S.S.S.S.S.S.S.S.S.S.S.S.S.S.S.S.S.S.S.S.S.D.) ~ S.S.) ) ! ! ~ ! ! ! ! ~ ! ! ! ! ! ! ~ ! ~ H.J.!.!./ / ~ ! ! ! ! ! ! ! ! ! ! ! ! ! ~ ! ! ! ! ! ! A.a.J.J.q.q.G f.A.q.a.a.0.0.0.0.a.a.0.a.a.s.V.V.d.g.f.0.a.a.0.a.a.0.f.0.0.0.0.0.0.0.0.cX.Xu.z.N.Q.z.z.z.x.z.z.z.z.z.z.z.z.z.x.z.z.z.x.B.B.gXcX}.}.x.z.x.z.z.z.z.x.z.z.gXB.u.u.z.u.Z.Z.r.u.u.r.r.r.r.r.r.r.r.r.I I *.dXFXfX] O.$.$.*.1.lX{ $ w 6 3 | JXJXu 4 6 6 ; $ m $Xm ^.'.'.e # b +X#X3.BXBX=.X ; K.).`.K.].a I.L.I.w 4 6 w = j.b.b.sXb.aXJ <XV V N <X9 ",
"T.F.F.S.S.S.S.S.S.S.S.S.S.S.S.S.S.S.S.S.S.S.S.S.S.S.S.S.S.S.S.! _ Q S.! _ ! ! ! ~ ! ! ! ! ! ! ! ! ! ! ! ~ ! ~ H.J.!.!./ / ~ ! ! ! ! ! ! ! ! ! ! ! ! ! ~ ! ! ! ! ^ G.A.G.G.T.q.q.G V.d.q.0.a.0.0.0.0.0.a.0.a.a.s.h.V.d.g.f.0.a.a.0.a.a.0.f.0.0.0.0.0.0.0.N.cXQ.W.z.z.Q.N.c.z.x.z.z.z.z.z.z.z.z.z.x.z.z.z.x.B.B.gXcX}.}.x.z.x.z.z.z.z.x.z.z.Z.Z.u.u.z.u.z.gXr.r.u.r.r.r.r.r.r.r.r.r.I I %.+.n.aX] O.$.$.*.1.lX{ $ w 6 3 | JXJXu 4 6 6 ; ; b m n K.k.k.w # z h h &.rXrX=.X $ I.P.`...L.6 K.`.`...3 6 w = j.b.b.b.b.aXJ <XN V N <X9 ",
"T.F.F.S.S.S.S.S.S.S.S.S.S.S.S.S.S.S.S.S.S.S.S.S.S.S.S.S.S.S.D.) ~ Q S.) ) ! ! ! ~ ! ! ! ! ! ! ! ! ! ! ! ~ ! ~ H.J.!.!./ / ~ ! ! ! ! ! ! ! ! ! ! ! ! ! ~ ! ! ! ! ^ A.g.G.G.!.H.G a.A.q.0.0.a.0.0.0.0.a.a.0.a.a.s.h.V.d.g.f.0.a.a.0.a.a.0.f.0.0.0.0.0.0.q.cX}.g.Q.z.z.N.Q.c.z.x.z.z.z.z.z.z.z.z.z.x.z.z.z.x.B.B.gXcX}.}.x.z.x.z.z.z.z.x.z.z.z.gXz.u.z.u.u.Z.z.r.u.r.r.r.r.r.r.r.r.r.I I %.t.%.n.] O.$.$.*.1.lX{ $ w 6 3 | JXJXu 4 6 6 ; ; b n b +.t.%.q # z h h &.rXrX' X 3 a e a 4 X.6 +.+.a r 4 6 w * n.sXb.b.b.sXJ 1XV V V 1X9 ",
"T.F.F.S.S.S.S.S.S.S.S.S.S.S.S.S.S.S.S.S.S.S.S.S.S.S.S.S.S.S.Q _ Q Q G._ ! ! ! ! ~ ! ! ! ! ! ! ! ! ! ! ! ~ ! ~ H.J.!.!./ / ~ ! ! ! ! ! ! ! ! ! ! ! ! ! ~ ! ! ! ! G.A.G.G.G.G.~.G V.d.q.0.0.a.0.0.0.0.0.a.0.a.a.s.h.V.d.g.f.0.a.a.0.a.a.0.f.0.0.0.0.0.0.g.cXg.N.Q.g.z.z.Q.N.c.x.z.z.z.z.z.z.z.z.z.x.z.z.z.x.B.B.gXcX}.}.x.z.x.z.z.z.z.x.z.z.z.Z.B.u.z.u.u.B.Z.r.u.r.r.r.r.r.r.r.r.r.I I %.t.%.dXw.} $.$.*.1.lX{ $ w 6 3 | JXJXu 4 6 6 ; ; b n n %.k.t.w # z h h &.rXrX' X 6 4 6 4 w 4 6 4 4 4 4 6 6 w 5 5.m.m.m.m.j.9 Z Z Z Z Z 9 ",
"T.F.F.S.S.S.S.S.S.S.S.S.S.S.S.S.S.S.S.S.S.S.S.S.S.S.S.S.S.D.) ) Q Q ) ) ! ! ! ! ~ ! ! ! ! ! ! ! ! ! ! ! ~ ! ~ H.J.!.!./ / ~ ! ! ! ! ! ! ! ! ! ! ! ! ! ~ ! ! ! ^ B.g.G.G.G.G.T.R.A.0.0.0.0.a.0.0.0.0.0.a.0.a.a.s.h.V.d.g.f.0.a.a.0.a.a.0.f.0.0.0.0.0.q.|.|.g.N.N.Q.z.z.N.Q.c.x.z.z.z.z.z.z.z.z.z.x.z.z.z.x.B.B.gXcX}.}.x.z.x.z.z.z.z.x.z.z.z.B.gXu.z.u.u.z.gXr.u.r.r.r.r.r.r.r.r.r.I I %.t.%.fXn.} $.$.*.1.lX{ $ w 6 3 | JXJXu 4 6 6 ; ; b n n %.k.t.w # z h h &.rXrX' X 3 3 3 3 3 3 3 4 4 3 3 3 3 3 3 * * * * * * 3 = = = = = 3 ",
"T.U.F.D.S.S.S.S.S.S.S.S.S.S.S.S.S.S.S.S.S.S.S.S.S.S.S.S.S.S._ ! Q Q _ ! ! ! ! ! ~ ! ! ! ! ! ! ! ! ! ! ! ~ ! ~ H.J.!.!./ / ~ ! ! ! ! ! ! ! ! ! ! ! ! ! ~ ! ! ! G.A.G.G.G.G.G.H..XM.q.0.0.0.a.0.0.0.0.0.a.0.a.a.s.h.V.d.g.f.0.a.a.0.a.a.0.f.0.0.0.0.0.f.cXN.N.N.N.Q.N.z.z.Q.N.x.z.z.z.z.z.z.z.z.z.x.z.z.z.x.B.B.gXcX}.}.x.z.x.z.z.z.z.x.z.z.z.z.gXz.u.u.u.u.Z.z.L.r.r.r.r.r.r.r.r.r.I I %.t.%.dXn.} $.$.*.1.lX{ $ w 6 3 | JXJXu 4 6 6 ; ; b n n %.k.t.w # z h h &.rXrX' X $ $ $ $ $ $ $ $ $ $ $ $ $ $ $ $ $ $ $ $ $ $ $ $ $ $ $ $ ",
"T.U.U.Y.Q S.S.S.S.S.S.S.S.S.S.S.S.S.S.S.S.S.S.S.S.S.S.S.D.~ ) S.Q ~ _ ! ! ! ! ! ~ ! ! ! ! ~ ! ! ! ! ! ! ~ ! ~ H.J.!.!./ / ~ ! ! ! ! ! ! ! ! ! ! ! ! ! ~ ! ! ^ N.N.! G.G.G.G.G.A.s.0.0.0.0.a.0.0.0.0.a.a.0.a.a.s.h.V.d.g.f.0.a.a.0.a.a.0.f.0.0.0.0.q.|.|.g.N.N.N.W.Q.z.z.g.Q.z.z.z.z.z.z.z.z.z.z.x.z.z.z.x.B.B.gXcX}.}.x.z.x.z.z.z.z.x.z.z.z.z.Z.Z.u.u.u.u.B.Z.I.r.r.r.r.r.r.r.r.r.0.I %.t.%.dXn.} $.$.*.1.lX{ $ w 6 3 | JXJXu 4 6 6 ; ; b n n %.k.t.w # z h h &.rXrX' X 4 w w w w w 6 6 w 6 6 6 6 6 4 u 6.6.6.6.u 6 J J J J 9 6 ",
"T.U.U.F.Q S.S.S.S.S.S.S.S.S.S.S.S.S.S.S.S.S.S.S.S.S.S.S.S._ ! Q Q _ ~ ! ! ! ! ! ~ ! ! ! ! ! ! ! ! ! ! ! ~ ! ~ H.J.!.!./ / ~ ! ! ! ! ! ! ! ! ! ! ! ! ! ~ ! ! ! A.G.G.G.G.G.G.B..XE.0.0.0.0.a.0.0.0.0.0.a.0.a.a.s.h.V.d.g.f.0.a.0.0.a.a.0.f.0.0.0.0.0.cXN.N.N.N.N.N.Q.N.z.z.Q.N.z.z.z.z.z.z.z.z.z.x.z.z.z.x.B.B.gXcX}.B.x.z.x.z.z.z.z.x.z.z.z.z.z.gXz.u.u.z.u.gXu.r.r.r.r.r.r.r.r.r.q.I %.t.$.dXaX} $.$.*.1.lX{ $ w 6 3 | JXJXu 4 6 6 ; ; b n n %.k.t.w # z h h &.rXrX' X 4 4 3 3 4 3 4 4 3 4 6 4 4 w * n.DXsXsXDXsX9 1XV <X<X1X9 ",
"T.F.F.S.S.S.S.S.S.S.S.S.S.S.S.S.S.S.S.S.S.S.S.S.S.S.S.D.~ ) S.S.~ _ G.! ! ! ! ! ~ ! ! ! ! ~ ! ! ~ ~ ! ! ~ ! ~ H.J.!.!./ / ~ ! ! ! ! ! ! ! ! ! ! ! ! ! ~ ! ! g.B.G.G.G.G.G.G.A.f.~.s.0.0.a.f.0.0.0.0.a.a.0.a.s.s.V.V.d.g.f.0.a.a.0.a.a.0.f.a.0.0.0.}.cXg.N.N.N.N.N.Q.Q.z.z.Q..Xc.z.z.z.z.z.z.z.z.x.z.z.z.x.B.B.gXcX}.}.x.z.x.z.z.z.z.x.z.z.z.x.z.Z.Z.u.u.z.u.Z.B.r.u.r.r.r.r.r.r.r.0.I %.t.%.n.aX} $.$.*.1.lX{ $ w 6 3 | JXJXu 4 6 6 ; ; b n n %.k.t.w # z h h &.rXrX' X 3 ..K.K.7./...i P.i 4 r a 4 = j.b.b.b.b.aXJ V Z V N <X9 ",
"T.J.F.S.S.S.S.S.S.S.S.S.S.S.S.S.S.S.S.S.S.S.S.S.S.S.S.D._ ~ S.S._ ~ G.~ ~ ~ ~ ~ G.~ ~ ~ ~ G.! ~ G.G.! ~ G.! H.H.J.!.!.H.H./ ~ ~ ~ ~ ~ ~ ~ ~ ~ ~ ~ ~ ~ G.~ ~ A.R.G.G.G.G.G.g.A.G.E.E.0.a.a.f.a.a.a.a.f.f.a.a.s.s.V.V.g.g.f.a.f.f.a.f.f.a.f.f.a.a.a.cX{.N.N.N.N.N.N.N.Q.N.N.N.Q.x.x.x.x.x.x.x.x.x.x.x.x.x.B.B.B.gXcX}.}.x.z.x.x.z.x.x.x.z.z.x.x.z.B.gXu.z.z.u.B.Z.r.u.u.u.u.u.u.u.L.a.I *.t.%.n.fX} $.%.1.^.lX{ $ w 6 3 | JXJXu 4 6 6 ; ; b n n %.k.t.w # z h h &.rXrX' X $ L.).].7./.e P.X.].+._.P.: = j.b.sXsXb.aXJ <XV V V <X9 ",
"T.F.F.S.S.S.S.S.S.S.S.S.S.S.S.S.S.S.S.S.S.S.S.S.S.S.S.G.) Q Q ^ _ ! ~ ! ! ! ! ! ~ ! ! ! ! ! ! ! ! ! ! ! ~ ! ~ H.J.!.!./ / ~ ! ! ! ! ! ! ! ! ! ! ! ! ! ~ ^ g.A.! G.G.G.G.G.A.W.G.R.~.0.0.0.a.0.0.0.0.0.a.0.a.a.s.h.V.d.g.f.0.a.0.0.a.0.0.f.0.0.q.N.cXg.N.N.N.N.N.N.z.Q.W.z.z..Xg.c.z.z.z.z.z.z.z.x.z.z.z.z.B.B.gXcX}.B.x.z.z.z.z.z.z.x.z.z.z.z.z.z.gXz.u.z.u.u.gXu.r.r.r.r.r.r.r.r.q.L %.t.%.C.aX} $.$.*.*.lX{ $ w 6 3 | JXJXu 4 6 6 ; ; b n n %.k.t.w # z h h &.rXrX' X ; 7.+.L.e I.w K.P.P.`._.K.4 = j.b.j.b.b.aXJ <XN V N <X9 ",
"T.F.F.S.S.S.S.S.S.S.S.S.S.S.S.S.S.S.S.S.S.S.S.S.S.S.D._ ^ Q Q ) ~ ! ~ ! ! ! ! ! ~ ! ! ! ! ! ^ ^ ! ! ! ! ~ ! ~ H.J.!.!./ / ~ ! ! ! ! ! ! ! ! ! ! ! ! ! ~ ! A.R.G.G.G.G.G.g.A.G.R.s.E.E.0.0.a.0.0.0.0.0.0.0.a.a.s.V.V.d.g.f.0.a.a.0.a.a.0.f.0.0.0.cX}.g.N.N.N.N.N.N.N.N.Q.z.z.N.Q.z.z.z.z.z.z.z.z.x.z.z.z.x.B.B.gXcX}.B.x.z.x.z.z.z.z.x.z.z.z.x.z.z.Z.Z.r.z.u.u.Z.x.r.r.r.r.r.r.r.r.0.L %.t.%.t.n.] $.$.*.1.lX{ $ w 6 3 | JXJXu 4 6 6 ; ; b n n %.k.t.w # z h h &.rXrX' X 4 w 4 6 4 w 4 4 a 4 i e e w * j.DXsXsXDXfX9 1X<X<X<X1X9 ",
"T.F.F.S.S.S.S.S.S.S.S.F.F.S.S.S.S.S.S.S.S.S.S.S.S.S.! _ S.G.G._ ! ! ~ ! ! ! ! ! ~ ! ! ! ! ~ G.G.G.! ! ! ~ ! ~ H.J.!.!./ / ~ ! ~ G.G.! ! ! ! ! ! ! ! ! ! R.A.! G.G.G.G.G.A.g.R.R.R.R.~.0.0.a.0.0.0.0.a.g.f.a.a.s.h.V.d.g.f.0.a.a.0.a.a.0.f.f.a.N.cXg.N.N.N.N.N.N.N.N.z.Q.g.z.B..X{.c.z.z.z.z.z.z.x.z.z.z.x.B.B.gXcX}.}.x.z.x.z.z.z.z.x.z.z.z.x.z.z.B.gXz.z.u.u.B.Z.r.r.r.r.r.r.r.r.0.L %.t.%.t.n.O.$.$.*.1.lX{ $ w 6 3 | JXJXu 4 6 6 ; ; b n n %.k.t.w # z h h &.rXrX' X 4 6 6 4 6 4 6 6 4 6 4 4 4 6 4 u | | | | u 6 9 9 9 9 9 6 ",
"T.F.F.S.S.S.S.S.S.S.J.D.U.F.S.S.S.S.S.S.S.S.S.S.S.D.) / J.S._ ) ! ! ~ ! ! ! ! ! ~ ! ! ! ! H.G.~ H.! ! ! ~ ! ~ H.J.!.!./ / ~ ! H.! H.G.! ! ! ! ! ! ! ! ! A.g.G.G.G.R.G..XA.G.R.R.R.0.E.R.0.a.0.0.0.0.g.f.g.f.a.s.h.V.d.g.f.0.a.a.0.a.a.0.g.f.g.cX}.g.N.N.N.N.N.N.N.N.N.N.Q.z.{.N..Xc.z.z.z.z.z.z.x.z.z.z.x.B.B.cXcX|.|.x.z.x.z.z.z.z.x.z.z.z.x.z.z.{.gX|.(.u.u.z.gXu.r.r.r.r.r.r.r.0.L %.t.%.t.n.O.$.$.*.1.lX{ $ w 6 3 | JXJXu 4 6 6 ; ; b n n %.k.t.w # z h h &.rXrX' X $ $ $ $ $ $ $ $ $ $ $ $ $ $ $ $ X X X X $ $ $ % % % $ $ ",
"T.F.F.S.S.S.S.S.S.S.F.F.U.S.S.S.S.S.S.S.S.S.S.S.S.Q _ G.J.G._ ! ! ! ~ ! ! ! ! ! ~ ! ! ! ! H.H.H.H.! ! ! ~ ! ~ H.J.!.!./ / ~ ! H.G.H.~ ! ! ! ! ! ! ! ^ G.A.G.G.G.G.R.G.A.g.G.R.R.R.R.R.~.0.a.0.0.0.0.f.g.f.g.a.s.h.V.d.g.f.0.a.a.0.a.a.0.g.f.{.cXg.N.N.N.N.N.N.N.N.N.N.N.Q.N.{.N..XN.c.z.z.z.z.z.x.z.z.z.x.B.B.gXcX|.|.x.z.x.z.z.z.z.x.z.z.z.x.z.z.{.Z.gX(.u.u.u.Z.x.r.r.r.r.r.r.r.0.L %.t.%.t.n.O.$.$.*.1.lX{ $ w 6 3 | JXJXu 4 6 6 ; ; b n n %.k.t.w # z h h &.rXrX' X 3 3 3 4 3 * * * 4 4 3 3 3 4 4 3 4 4 4 4 4 3 3 3 4 3 3 3 ",
"T.U.U.D.S.S.S.S.S.S.S.S.S.S.S.S.S.S.S.S.S.S.S.S.D.) ~ S.S.) ) ! ! ! ~ ! ! ! ! ! ~ ! ! ! ! ! ! ! ~ ! ! ! ~ ! ~ H.J.!.!./ / ~ ! ! ! ! ! ! ! ! ! ! ! ! ^ A.g.G.G.G.G.G.G.A.G.R.R.R.R.R.0.~.R.a.0.0.0.0.0.a.0.a.a.s.V.V.d.g.f.0.a.a.0.a.a.0.f.0.|.|.g.N.N.N.N.N.N.N.N.N.N.N.N.Q.x.z.g.Q.c.z.z.z.z.z.x.z.z.z.z.B.B.gXcX}.}.x.z.x.z.z.z.z.x.z.z.z.z.z.z.x.z.gXz.u.u.u.B.Z.r.r.r.r.r.r.r.0.L %.t.%.t.n.O.$.$.*.1.lX{ $ w 6 3 | JXJXu 4 6 6 ; ; b n n %.k.t.w # z h h &.rXrX' X 4 6 w 3 6 w.y.6.4 4 w 6 6 4 3 6 w 6 w 6 4 6 w 6 4 6 w 6 ",
"T.U.).F.S.S.S.S.S.S.S.U.F.Q U.D.S.U.F.U.Q F.U.Q F._ Q J.G._ ! ! H.! G.H.H.H.! H.H.! H.G.! H.G.H.! H.H.! H.H.J.H.J.~.E.H.E.~ G.H.H.H.! H.G.! H.H.H.! G.A.G.R.R.G.R.G.A.N.G.W.R.R.W.W.W.G.~.f.0.g.f.0.g.f.g.a.g.Q.h.A.g.g.f.0.g.0.0.g.0.f.f.g.cXg.{.{.N.{.{.{.N.{.{.N.{.{.z.Q.{.{.z.Q.{.z.z.}.}.x.z.}.x.z.}.B.B.cXcX|.x.}.}.z.x.B.}.z.z.}.z.z.}.z.x.B.(.gXB.(.z.u.(.gX(.r.P.(.u.r.r.0.L %.t.%.t.n.O.$.$.*.1.lX{ $ w 6 3 | JXJXu 4 6 6 ; ; b n n %.k.t.w # z h h &.rXrX' X 4 w 3 w.GXGXGXGXGX| 3 w 4 a o.4 3 4 3 6 e e 3 w e 4 3 4 ",
"T.F.F.D.Q S.S.S.S.S.S.U.F.Q U.F.Q U.U.U.Q F.U.D./ _ Q J.) _ G.! E.! G.H.E.H.! E.H.! E.H.! H.H.E.! H.J.^ H.H.E.H.J.~.E.H.E.~ G.H.H.H.! E.H.! H.H.E.^ N..X! R.W.G.R.R.0XR.R.Q.R.R.W.Q.W.0.~.W.9.W.f.0.g.g.g.0.g.Q.h.A.N.N.f.a.W.0.0.W.0.f.a.cXcXi.{.{.N.{.{.{.N.{.{.u.{.{.z..X.X}.x.g..Xc.x.}.}.}.c.}.B.c.|.Z.B.cXcX|.x.}.}.c.}.}.}.x.z.|.z.z.|.z.x.}.}.Z.Z.(.(.u.(.gX}.r.(.{.u.r.r.r.4X9.%.%.t.n.O.O.$.*.*.lX{ $ w 6 3 | JXJXu 4 6 6 ; ; b n n %.k.t.w # z h h &.rXrX' X 6 3 w.JXy.$ X ; M.JX| 4 ; P.XXP.P.K.P.L._.P.7.I._./.7.r ",
"T.J.F.S.S.S.S.S.S.S.S.U.F.Q U.F.Q U.U.U.Q F.U.Q _ J.Q J._ E.! ! E.! G.H.J.H.! J.H.! E.H.! H.H.J.! H.J.! H.H.E.H.J.~.E.H.E.~ G.H.H.H.! J.H.! H.H.J.! A.W.G.R.W.G.H.A.A.G.R.Q.R.R.W.W.W.0.Q.~.9.W.f.0.g.g.g.0.g.Q.h.A.N.N.f.a.W.0.0.W.0.f.g.cX{.g.{.{.N.{.{.{.N.{.{.u.{.{.u.{..X{.x.N..Xz.x.}.}.B.c.}.B.z.|.Z.B.cXcX|.x.}.}.c.B.}.}.x.z.|.z.z.|.z.x.B.}.{.gX}.(.u.(.Z.Z.r.(.(.P.u.u.u.1XL *.t.t.n.$.$.%.2.^.lX{ $ w 6 3 | JXJXu 4 6 6 ; ; b n n %.k.t.w # z h h &.rXrX' X 4 4 GXy.o $ $ X o C.gX3 3 P.]. X]. XvXK.).). X).`.P. X4 ",
"T.F.F.S.S.S.S.S.S.S.S.U.F.Q U.F.Q U.U.U.Q F.U.^ _ U.Q / _ J.! ! E.! G.H.J.H.^ J.H.^ E.G.! H.H.E.^ H.J.^ H.H.E.H.J.~.E.H.E.~ G.H.H.H.^ J.H.! H.H.J.g.A.E.G.R.W.G.R.A.Q.R.R.Q.G.R.W.W.W.q.W.~.0.g.f.0.g.g.g.0.g.Q.h.A.N.N.f.0.W.0.0.W.0.a.|.cXN.u.{.{.g.{.{.{.u.{.{.u.{.{.u.{..X.Xz.z..Xg.z.}.}.B.c.}.B.c.|.Z.B.cXcX|.x.}.}.c.B.}.}.z.z.|.z.z.|.z.x.B.}.(.Z.cX(.u.(.}.gXr.(.(.u.r.u.r.4XK *.t.t.n.$.$.%.1.2.lX{ $ w 6 3 | JXJXu 4 6 6 ; ; b n n %.k.t.w # z h h &.rXrX' X 3 | GX; $ $ $ 3 . , JXu 4 r r ....o.a o.o.i a i i L.K.3 ",
"T.F.F.S.S.S.S.S.S.S.S.U.U.S.U.F.D.U.U.U.S.U.U._ E.J.S._ ~ J.G.H.E.G.H.H.J.H.~ E.H.G.E.H.G.H.H.E.! H.J.! H.H.E.J.J.~.!.E.E.H.H.H.H.H.G.E.H.G.H.H.J.A.W.E.G.W.W.G.N.A.W.W.W.Q.W.W.W.W.W.R.W.E.E.g.g.f.g.g.g.a.g.Q.V.A.N.N.g.f.W.f.f.W.f.g.cX|.{.N.{.{.N.{.{.{.N.{.{.N.{.{.N.{.{..XN.B.{.Q.B.}.}.}.x.}.}.x.|.Z.Z.cXcX|.}.}.}.z.}.}.}.x.x.}.x.x.}.x.B.B.}.}.B.gX(.z.{.(.gXz.(.(.u.r.r.r.2XC %.%.%.n.O.O.$.*.*.lX{ $ w 6 3 | JXJXu 4 6 6 ; ; b n n %.k.t.w # z h h &.rXrX' X * w.GX$ $ $ $ vXPX .GX .4 4 4 3 4 4 3 3 3 4 3 ; $ e 4 4 ",
"T.F.F.S.S.S.S.S.S.S.S.U.U.U.U.U.U.U.U.U.U.U.E._ U.U.E._ G.E.H.E.E.H.E.H.J.J.H.E.J.J.E.J.E.H.H.E.H.E.E.H.E.H.E.E.~.~.!.E.E.E.E.H.H.E.J.E.H.E.E.H..XA.E.W.W.W.W.E.A.W.Q.W.Q.Q.W.Q.W.W.W.W.Q.W.~.Q.g.g.g.g.W.g.Q.Q.A.A.N.N.g.g.W.g.g.W.g.|.cX{.{.{.{.{.{.{.{.{.{.{.{.{.{.{.{.{.{..X.X}.|..X.X}.}.}.}.|.}.}.|.Z.Z.cXcX|.|.|.}.}.|.}.}.}.}.|.}.}.}.}.|.B.}.}.}.gX}.{.}.(.|.Z.(.{.P.r.r.r.3XK %.%.%.n.$.O.$.*.1.lX{ $ w 6 3 | JXJXu 4 6 6 ; ; b n n %.k.t.w # z h h &.rXrX' X 3 | JX, X $ $ 4 r u l.w 4 4 P.P.w /.)./.).+.r K.o.a ..4 ",
"T.F.F.S.S.S.S.S.S.S.S.U.U.U.U.U.U.U.U.U.J.U._ H.J.J._ E.G.H.H.H.H.H.H.H.H.H.H.H.H.H.H.H.H.H.H.H.H.H.H.H.H.H.J.J.!.~.!.E.E.H.H.H.H.H.H.H.H.H.H.H.A.W.E.W.R.W.E.{.A.R.W.W.W.W.W.W.W.W.W.W.W.W.E.~.g.g.g.f.g.g.Q.Q.V.A.g.g.g.g.g.g.g.g.f.cX}.{.{.{.{.{.{.{.{.{.{.{.{.{.{.{.{.{.{.{..X{.{.{..XB.}.}.}.}.}.}.}.Z.Z.cXcX|.|.|.}.B.}.B.}.B.}.}.B.}.}.B.}.B.}.}.(.gXZ.(.{.(.}.gX(.(.u.r.r.r.K K t.%.%.n.#.O.$.*.1.lX{ $ w 6 3 | JXJXu 4 6 6 ; ; b n n %.k.t.w # z h h &.rXrX' X 4 3 hXC.o $ $ X   5.w.4 4 w P./.e L.)._.].K.I. X`.)./.4 ",
"T.F.F.S.S.S.S.S.S.S.S.S.S.S.S.S.S.S.Q Q S.! _ Q Q ! _ ! ^ ^ ! ! ! ! ~ ! ! ! ! ! ~ ^ ^ ^ ! ! ! ! ! ! ! ! ~ ! ~ H.J.!.!./ / ~ ! ! ! ! ! ! ! ! ^ R.A.! G.G.G.G.G.A.g.G.R.R.R.R.R.G.R.R.R.R.R.R.R.~.0.0.0.a.0.a.a.s.h.V.d.g.f.0.a.a.0.0.N.cXg.N.N.N.N.N.N.N.N.N.N.N.N.N.N.N.N.N.N.z.Q.g.z.z.Q.N.c.z.x.z.z.z.x.B.B.gXcX}.B.x.z.x.z.z.z.z.x.z.z.z.x.z.z.x.z.z.z.x.gXu.u.u.u.gXu.r.r.r.r.r.K K t.%.%.n.#.O.$.*.*.lX{ $ w 6 3 | JXJXu 4 6 6 ; ; b n n %.k.t.w # z h h &.rXrX' X 4 4 u JXl.X ; $ 6.l.6 4 6 4 K.P.K.).K.P.P.o...+.+.7.L.4 ",
"T.F.F.S.S.S.S.S.S.S.S.S.S.S.S.S.S.S.D.D.D.) ~ Q S.) ) G.G.G.G.! ! ! ~ ! ! ! ! ! G.G.G.G.! ~ ! ! ! ! ! ! ~ ! ~ H.J.!.!.H.H.H.G.! ! ! ! ! ! ! ^ A.R.G.G.G.G.G.W.A.G.R.R.R.R.R.R.R.R.R.R.R.R.R.0.E.E.0.a.f.0.f.g.W.h.V.d.g.f.0.a.a.0.0.cX}.N.{.N.N.N.N.N.N.N.N.N.N.N.N.N.N.N.N.N.{.{.Q.z.z.N.Q.c.z.x.z.x.z.x.B.B.gXcX}.}.x.z.z.x.z.z.z.x.z.z.z.x.z.z.x.z.z.x.z.gXB.u.z.u.Z.B.r.r.r.r.r.I K t.%.%.n.#.$.%.^.1.lX{ $ w 6 3 | JXJXu 4 6 6 ; ; b n n %.k.t.w # z h h &.rXrX' X 4 w 3 u u 4 6 4 e w 4 6 4 6 4 4 4 4 4 3 3 4 4 4 4 4 4 4 ",
"U.U.U.D.S.S.S.S.S.S.S.S.S.S.S.S.S.S.Y.U.J._ Q Q ! _ ! ~ J.U.J.! ! ! ~ ! ! ! ! ! G.U.U.J.! ~ ! ! ! ! ! ! ~ ! ~ H.J.!.~.U.E.U.J.! ! ! ! ! ! ! G.A.G.G.G.G.G.U.|.{.W.R.R.R.R.R.R.{.W.{.W.R.R.R.R.R.~.0.0.g.W.W.{.W.h.V.d.g.f.0.a.a.0.g.cXg.N.{.{.{.N.N.N.N.N.N.N.N.N.N.N.N.N.N.N.{.{.Q.g.z.z.Q.N.z.z.x.}.(.z.B.B.gXcX}.}.x.z.z.(.(.(.z.x.z.z.z.x.z.z.x.z.z.x.z.Z.Z.(.(.(.}.Z.r.r.r.r.r.r.K t.%.%.n.#.$.^.^.).lX{ $ w 6 3 | JXJXu 4 6 6 ; ; b n n %.k.t.w # z h h &.rXrX' X 4 6 6 4 4 w w w 4 4 6 4 6 6 6 6 6 6 6 6 6 6 6 6 6 6 6 6 ",
"U.U.U.S.S.S.S.S.S.S.S.S.S.S.S.S.S.D.U.Y.E.~ Q Q ) ) ! ~ J.U.J.! ! ! ! ! ! ! ! ! ~ J.U.G.! ! ! ! ! ! ! ! ! ! ~ H.J.!.!.J.U.U.J.! ! ! ! ! ! ^ A.g.G.G.G.G.G.W.Z.W.W.G.G.G.G.R.R.W.W.W.W.G.R.R.G.0.~.G.0.a.W.W.W.W.h.V.g.g.f.0.0.0.q.|.|.g.N.{.{.{.N.N.N.N.N.N.N.N.N.N.N.N.N.N.{.{.{.{.Q.z.z.g.Q.c.z.x.(.(.z.B.B.gXcX}.B.x.z.z.x.(.(.z.z.z.z.z.z.z.z.z.z.z.z.z.x.gX(.(.(.(.Z.r.r.r.r.r.r.K t.%.%.n.#.%.^.^.^.lX{ $ w 6 3 | JXJXu 4 6 6 ; ; b n n %.k.t.w # z h h &.rXrX' X 4 6 4 w 4 * * * 4 w 4 6 6 6 6 6 4 6 6 6 4 6 6 6 4 6 6 6 ",
"T.J.F.S.S.S.S.S.S.S.S.S.S.S.S.S.S.S.S.S._ ! ! ! _ ~ ~ H.~ ~ ~ ~ ~ ! ~ ~ ~ ~ ~ ~ H.~ ~ ~ ~ ~ ! ! ~ ~ ! ~ ~ ! / H.J.!.!./ E./ ~ ~ ~ ~ ~ ~ ! G.A.G.G.G.G.R.G.A.N.R.R.R.R.R.R.R.W.R.R.R.R.R.R.W.R.R.W.~.a.f.a.f.g.W.V.V.d.g.f.a.f.a.g.cXN.N.{.N.N.N.N.N.N.N.N.N.N.N.N.N.N.N.N.N.{.{.N.N..XN.N.N..XN.B.x.x.x.B.B.Z.gXcX}.}.B.x.B.x.x.x.x.B.x.x.x.B.x.x.B.x.x.B.x.z.gXB.u.z.u.gXx.r.u.u.u.u.K t.%.%.n.#.$.%.1.2.lX..$ w 6 3 | JXJXu 4 6 6 ; ; b n n %.k.t.w # z h h &.rXrX' X 4 6 6 * u l.C.y.w 3 6 4 6 6 6 4 6 3 3 4 6 4 3 4 6 4 6 6 ",
"D.Q c s s s s s s s s s s s s s s F s F ^ s F F ^ F F F F F F F F F F F F F F F F F F F F F F F F F F F F F Q Q Q Q Q Q Q Q F F F F F F Q i.i.F 8.8.8.8.8.y.8.8.8.8.8.8.8.8.8.8.8.8.8.8.8.8.8.8.8.F.8.8.8.8.8.8.9.9.9.9.8.8.8.8.u.c.8.r.r.r.r.r.r.r.r.r.r.r.r.r.r.r.r.r.r.r.r.r.r.r.i.i.r.t.i.r.t.t.t.t.t.t.t.u.u.r.r.t.t.t.t.t.t.t.t.t.t.t.t.t.t.t.t.t.t.t.t.c.i.8.t.8.i.i.o.8.8.8.7.J X.@.@.l. .{ ] O.O.%.w ; w 6 4  .GXGXu 4 6 6 ; ; b n n %.k.t.w # z h h &.rXrX' X 4 6 3 l.JXhXhXGXJXw.3 6 4 6 6 6 4 o.7.+.4 X.P.r 4 6 6 6 ",
"# $ $ $ $ $ $ $ $ $ $ $ $ $ $ $ $ $ $ $ % $ $ $ % $ $ $ $ $ $ $ $ $ $ $ $ $ $ $ $ $ $ $ $ $ $ $ $ $ $ $ $ $ $ $ $ # % $ $ $ $ $ $ $ $ $ $ $ $ $ $ $ $ $ $ X $ $ $ $ $ $ $ $ $ $ $ $ $ $ $ $ $ $ $ # $ $ $ $ $ $ $ X $ $ $ $ $ $ $ X $ $ $ $ $ $ $ $ $ $ $ $ $ $ $ $ $ $ $ $ $ $ $ $ # $ $ $ $ $ $ $ $ $ $ $ $ X X X X X X X X X X X X X X X X X X X X X X X # X X $ $ $ X X $ $ $ $ # $ $ $ $ X $ $ $ $ $ X # 3 6 4 4 4 4 4 4 4 4 6 ; ; b n b +.t.t.q # z h h &.rXrX' X 6 3 l.JX| o o O w.hXu 4 6 6 6 6 3 /.P. XL.).XXP.3 6 6 6 ",
"6 4 6 4 4 4 6 4 4 4 4 4 4 4 4 4 4 4 4 4 4 4 4 4 4 4 4 4 4 4 4 4 6 4 4 4 4 4 4 6 6 6 4 6 4 4 4 4 4 4 4 4 4 4 4 4 4 4 6 4 4 4 4 4 4 4 4 4 4 4 4 6 4 4 4 4 4 6 6 6 6 6 6 6 6 6 6 6 6 6 6 4 4 6 6 4 6 4 4 4 4 4 4 4 4 w w w w w w 4 6 6 6 6 6 6 4 4 4 4 4 4 4 4 4 4 4 4 4 4 4 4 4 6 w w w w w w 6 w w w w w 6 6 3 $ 6 w e e e e e e e e e e e e e e e e e e e e e e e e e e e e e e e e e e e e e e e e e e w 6 $ 3 6 4 /.o.X./.P.K.4 w ; ; 6 4 6 q q q 4 $ 6 4 4 w q q 4 $ 4 w JXw.o $ . /.`.1 l.4 6 6 4 6 4 o. XI.).).I.I.3 6 4 6 ",
"4 4 4 4 6 6 4 6 6 6 3 $ $ $ $ $ $ $ $ $ $ $ $ $ $ $ $ $ $ $ ; $ X $ $ 4 6 6 4 4 4 3 4 4 w 6 6 6 6 6 4 6 4 $ # $ $ $ $ $ $ # $ # $ $ $ $ $ ; $ X $ $ 6 6 6 a i r i r i i i i i r i i a w 6 4 3 4 4 4 6 6 6 6 6 4 e FXsXsXsXsXFXu V <X<X<XV 1XJ q 6 6 6 6 6 6 6 6 6 6 6 6 6 4 w a i i i i i i i i r i i i i i 3 $ 4 i i r r r r r r r r r r r r r r r e e e e e e e e r r r r r r r r r r r r r r r r r r a 6 $ 3 4 i /.I.K._.].L.w 6 ; 3 q ( 0 ( ( ( % ; : ( ( 0 ( ( 7 $ 3 6.GX$ $ . r PXa > l.w 4 6 6 4 4 a e w w e e r 4 4 6 4 ",
"a e a w 4 3 o.4 3 6 3 $ $ $   . X 4     .   . $ $ $ $ $ $ $ $ . r 4 X 4 6 4 i X.a +.r X.; 4 3 4 3 6 e 6 4 $ 4 $ X   4 X $ 4 3 w $ # $ $ $ $ X i ; $ 6 4 6 i 4 e w w w w 6 4 w e 6 4 i w 4 i +.i o.w 4 3 4 4 6 4 u FXb.b.b.b.sX| V V V V N <XD - 6 4 4 4 4 4 4 4 4 4 4 4 6 4 w i 4 6 6 4 w w 4 w e 4 4 6 w i 3 $ 4 r w 4 4 4 4 4 4 4 4 4 4 4 4 4 4 4 e e ..r w e r w 4 4 4 4 4 4 4 4 4 4 4 4 4 4 4 4 4 4 i 6 $ 3 6 4 P.L.K././.K.4 w ; $ 0 ` ( ` ` ( % $ 9 ` ` ( ` ` 0 % * w.GX$ $ $ $ #   : l.e 4 6 4 w e 3 e 6 e 3 3 e r w 4 6 ",
"/.). X/.I.I.]././.i $ ).o.)...r 7.P.a o...7.e X $ $ $ $ $ $ $ X ].I.  4 w 3 L././.i a  XK.P.K.P.I./._.o.; a  X+...o.L.r w ].I.`.4 # $ $ $ $ $  XX.. 6 4 6 i e ^.L.L.^.i +.K.L.K.L.w r e ; I.`.K.].).P.).L.P.r 3 u sXb.sXsXb.sX| V V V V N <XD - 6 6 6 6 6 6 6 6 6 6 6 6 6 4 w e ..L.I.@.L......./.I.L.e.4 i 3 $ 4 i w 4 6 6 6 6 6 6 6 6 6 6 6 6 4 w e.r L.`.e./.^.3 4 4 6 6 6 6 6 6 6 6 6 6 6 6 6 6 6 6 i 6 $ 3 6 4 4 4 3 ; ; 4 4 6 ; ; 6 0 0 0 9 w 3 $ 6 9 9 ( F 0 6 $ 3 u JX, o $ $ $ X , l.4 4 6 4 L./.a `.`.).e K._.].L.3 6 ",
"7.XX]._.`._._.XX/.r $ /.]. XP.`./._.XX].+.).K.. $ $ $ $ $ $ $ # `.K.. 4 6 4 i ]._.r a _.].)._.)./._.`...; +.L.7._.I.vXI.4 XXK.7.$ $ $ $ $ $ ; ].@.X 6 4 6 r r I.+.^.L...K.`.I.K.^.w r w ; K.K./.`.).XX XX.`.o.3 u sXb.DXsXb.sX| V V V V N <XD - 6 6 6 6 6 6 6 6 6 6 6 6 6 4 w r r `.^.+.@.e.+.+.L.).`.K.4 i 3 $ 4 i w 4 6 6 6 6 6 6 6 6 6 6 6 6 4 w L.@.L.e.).L.^.i ..r 4 6 6 6 6 6 6 6 6 6 6 6 6 6 4 6 i 6 $ 3 6 6 4 4 +.7.o.4 6 6 ; ; q 0 9 0 ( 0 : $ 4 9 0 : 0 0 4 $ 4 3 gXhX$ $ $ $ : l.6.4 6 6 4 P./.I.P.XXP.7.`._. X/.3 6 ",
"e a r a a a X.i ..r ; r o.i +.i +.X.X.a 4 r e # $ $ $ $ $ $ ; . +.i . 4 6 4 a ..i +.4 +.r X.e X.i X.....3 e 3 6 a e X.a 4 I.i r $ $ $ $ $ $ X I.w # 6 4 6 i 6 w 4 e a e w r e a e w r w 4 e 6 r i a a a w X.e 3 u sXj.b.b.j.sX| V V V V N V D - 6 6 6 6 6 6 6 6 6 6 6 6 6 4 w r 4 r r w r e r ..r e r e w i 3 $ 4 r w 4 4 4 4 4 4 4 4 4 4 4 4 4 4 4 ....i w r e e a i e 4 4 4 4 4 4 4 4 4 4 4 4 4 4 4 4 i 6 $ 3 6 4 6 P.]. X_.4 4 6 ; $ 9 ` ( ( ` ( % $ 6 ` ` ( ` ` 0 # 4 4 6 GXl.X ; * w.w.4 6 6 6 3 o.I.X.I.+.I.6 K.K.L.+.4 6 ",
"4 4 4 3 4 4 3 4 3 4 3 .   . . . . . . . # . X $ $ $ $ $ $ $ $ $   . $ 4 6 6 4 4 4 3 4 3 4 3 4 3 4 3 3 4 4 # $ # . X . . # . . . $ $ $ $ $ $ $   X $ 4 4 4 a r r r e e e e e e e e e a w 4 4 4 4 4 4 4 4 4 3 4 4 u DXsXsXsXsXDX| <X<X<X<XV 1XD q 6 4 4 4 4 4 4 4 4 4 4 4 4 4 w a e e e e e e e e e e e e r a 3 $ 4 i e w e e e e e e e e e e e e e e 6 6 6 w w w w 6 w w e e e e e e e e e e e e e e e e a 6 $ 3 6 4 w ).`.].`.6 4 6 ; $ e ( ( 0 9 0 : $ 6 ( ( ( ( ( 7 $ 4 6 4 w e 4 6 6 w 4 4 6 4 4 6 4 3 4 3 3 3 4 3 3 3 3 6 4 ",
"6 w w w w w w w w 6 6 4 6 4 6 4 6 6 6 4 4 4 4 4 4 4 4 4 4 4 4 4 6 4 4 6 6 6 w w w w 6 w w w 6 w w w w w 6 4 4 4 6 4 6 4 4 6 4 4 4 4 4 4 4 4 4 6 4 4 6 6 6 e e e e e e e e e e e e e e 6 6 6 6 w w w w w 6 w 6 6 w | 6.6.6.6.| w 9 J J J J J 6 6 6 6 6 6 6 6 6 6 6 6 6 6 6 6 6 e e e e e e e e e e e e e e e 4 $ 6 e i r i i i i i i i i i i i i i i i i i i i i i i i i i i i i i i i i i i i i i i r i e w ; 3 w 6 4 a a ..a 4 6 w ; ; q q q q 4 q 4 $ w q q q : q 4 $ 4 6 w 6 4 6 6 6 6 6 6 6 6 6 6 w w w w w w 6 w w w w 6 6 ",
"$ $ $ $ $ $ $ $ $ $ $ $ $ $ $ $ $ $ $ $ $ $ $ $ $ $ $ $ $ $ $ $ $ $ $ $ $ $ $ $ $ $ $ $ $ $ $ $ $ $ $ $ $ $ $ $ $ $ $ $ $ $ $ $ $ $ $ $ $ $ $ $ $ $ $ $ $ $ $ $ $ $ $ $ $ $ $ $ $ $ $ $ $ $ $ $ $ $ $ $ $ $ $ $ $ X X X X X X $ $ % % % % % $ $ $ $ $ $ $ $ $ $ $ $ $ $ $ $ $ $ $ $ $ $ $ $ $ $ $ $ $ $ $ $ $ # $ $ $ $ $ $ $ $ $ $ $ $ $ $ $ $ $ $ $ $ $ $ $ $ $ $ $ $ $ $ $ $ $ $ $ $ $ $ $ $ $ $ $ $ $ $ # $ $ $ $ # X X X $ $ $ $ $ $ $ $ $ $ $ $ # $ $ $ $ $ $ $ # $ $ $ $ $ $ $ $ $ $ $ $ $ $ $ $ $ $ $ $ $ $ $ $ $ $ $ $ ",
"r w r r r e r r e r r r e e r e r r r r r r r r r r r r r r r r r r r r r r r r r r r r r r r r r r r r r r r r r r r r r r r r r r r r r r r r r r r r r r r r r r r r r r r r r r r r r r r r r r r r r r r r r r r r r r r r r r r r r r r r r r r r r r r r r r r r r r r r r r r r r r r r r r r r r r r r r r r r r r r r r r r r r r r r r r r r r r r r r r r r r r r r r r r r r r r r r r r r r r r r r r r r r r r r r r r r r r r r r r r r r r r r r r r r r r r r r r r r r r r r r r r r r r r r r r r r r r r r ",
"o.).+.o.o.K.X...K.+.X.o.7.7.X.7.X.X.o.o.o.o.o.o.o.o.o.o.o.o.o.o.o.o.o.o.o.o.o.o.o.o.o.o.o.o.o.o.o.o.o.o.o.o.o.o.o.o.o.o.o.o.o.o.o.o.o.o.o.o.o.o.o.o.o.o.o.o.o.o.o.o.o.o.o.o.o.o.o.o.o.o.o.o.o.o.o.o.o.o.o.o.o.o.o.o.o.o.o.o.o.o.o.o.o.o.o.o.o.o.o.o.o.o.o.o.o.o.o.o.o.o.o.o.o.o.o.o.o.o.o.o.o.o.o.o.o.o.o.o.o.o.o.o.o.o.o.o.o.o.o.o.o.o.o.o.o.o.o.o.o.o.o.o.o.o.o.o.o.o.o.o.o.o.o.o.o.o.o.o.o.o.o.o.o.o.o.o.o.o.o.o.o.o.o.o.o.o.o.o.o.o.o.o.o.o.o.o.o.o.o.o.o.o.o.o.o.o.o.o.o.o.o.o.o.o.o.o.o.o.o.o.o.o.o.o.o.o.o.o.o.o.o.o.o.o.",
"K.PXL.a /._.L./._.).).K. XI.P. XP.L...X.X.X.X.X.X.X.X.X.X.X.X.X.X.X.X.X.X.X.X.X.X.X.X.X.X.X.X.X.X.X.X.X.X.X.X.X.X.X.X.X.X.X.X.X.X.X.X.X.X.X.X.X.X.X.X.X.X.X.X.X.X.X.X.X.X.X.X.X.X.X.X.X.X.X.X.X.X.X.X.X.X.X.X.X.X.X.X.X.X.X.X.X.X.X.X.X.X.X.X.X.X.X.X.X.X.X.X.X.X.X.X.X.X.X.X.X.X.X.X.X.X.X.X.X.X.X.X.X.X.X.X.X.X.X.X.X.X.X.X.X.X.X.X.X.X.X.X.X.X.X.X.X.X.X.X.X.X.X.X.X.X.X.X.X.X.X.X.X.X.X.X.X.X.X.X.X.X.X.X.X.X.X.X.X.X.X.X.X.X.X.X.X.X.X.X.X.X.X.X.X.X.X.X.X.X.X.X.X.X.X.X.X.X.X.X.X.X.X.X.X.X.X.X.X.X.X.X.X.X.X.X.X.X.X.X.X.",
"K.vXL.a 7.].XX X XXX`.X.].vX X XvX]...X.X.X.X.X.X.X.X.X.X.X.X.X.X.X.X.X.X.X.X.X.X.X.X.X.X.X.X.X.X.X.X.X.X.X.X.X.X.X.X.X.X.X.X.X.X.X.X.X.X.X.X.X.X.X.X.X.X.X.X.X.X.X.X.X.X.X.X.X.X.X.X.X.X.X.X.X.X.X.X.X.X.X.X.X.X.X.X.X.X.X.X.X.X.X.X.X.X.X.X.X.X.X.X.X.X.X.X.X.X.X.X.X.X.X.X.X.X.X.X.X.X.X.X.X.X.X.X.X.X.X.X.X.X.X.X.X.X.X.X.X.X.X.X.X.X.X.X.X.X.X.X.X.X.X.X.X.X.X.X.X.X.X.X.X.X.X.X.X.X.X.X.X.X.X.X.X.X.X.X.X.X.X.X.X.X.X.X.X.X.X.X.X.X.X.X.X.X.X.X.X.X.X.X.X.X.X.X.X.X.X.X.X.X.X.X.X.X.X.X.X.X.X.X.X.X.X.X.X.X.X.X.X.X.X.X.X.",
"o. X+...K./.XX/.L.L.P.+./.P.P./.P.I.X.o.o.o.o.o.o.o.o.o.o.o.o.o.o.o.o.o.o.o.o.o.o.o.o.o.o.o.o.o.o.o.o.o.o.o.o.o.o.o.o.o.o.o.o.o.o.o.o.o.o.o.o.o.o.o.o.o.o.o.o.o.o.o.o.o.o.o.o.o.o.o.o.o.o.o.o.o.o.o.o.o.o.o.o.o.o.o.o.o.o.o.o.o.o.o.o.o.o.o.o.o.o.o.o.o.o.o.o.o.o.o.o.o.o.o.o.o.o.o.o.o.o.o.o.o.o.o.o.o.o.o.o.o.o.o.o.o.o.o.o.o.o.o.o.o.o.o.o.o.o.o.o.o.o.o.o.o.o.o.o.o.o.o.o.o.o.o.o.o.o.o.o.o.o.o.o.o.o.o.o.o.o.o.o.o.o.o.o.o.o.o.o.o.o.o.o.o.o.o.o.o.o.o.o.o.o.o.o.o.o.o.o.o.o.o.o.o.o.o.o.o.o.o.o.o.o.o.o.o.o.o.o.o.o.o.o.o.",
"..r a ..a a +.a a a a ..a a a a a a ..a ..........................................................a a a a a a a a a a a a a a a a a a a a a a a a a a a a a a a a ........................................................a a a a a a a a a a a a a a a a a a a a a a a a a a a a a a a ........................................................a a a a a a a a a a a a a a a a a a a a a a a a a a a a a a a ........................................................a a a a a a a a a a a a a a a a a a a a a a a a a a a a a ",
"4 6 4 4 6 6 4 6 6 6 6 6 6 6 6 6 6 6 4 $ 4 4 > > > > > > > > > > > > > > > > > > > > > > > > > : 6 ; $ $ $ $ $ $ $ $ $ $ $ $ $ $ $ $ $ $ $ $ $ $ $ $ $ $ $ $ $ $ 3 6 4 q q q q q q q q q q q q q q q q q q q q q q q q 4 6 ; $ $ $ $ $ $ $ $ $ $ $ $ $ $ $ $ $ $ $ $ $ $ $ $ $ $ $ $ $ $ 4 4 3 * * * * * * * * * * * * * * * * * * * * * * * 3 6 3 $ $ $ $ $ $ $ $ $ $ $ $ $ $ $ $ $ $ $ $ $ $ $ $ $ $ $ $ $ $ 4 4 ; ; ; ; ; ; ; ; ; ; ; ; ; ; ; ; ; ; ; ; ; ; ; ; 3 6 3 $ $ $ $ $ $ $ $ $ $ $ $ $ $ $ $ $ $ $ $ $ $ $ $ $ $ $ $ ",
"6 6 6 4 6 4 4 6 6 6 6 6 4 6 4 6 4 6 4 $ 4 e b b b b b b b b b b b b b b b b b b b b b b b b b x 4 ; $ $ 3 4 3 3 3 3 3 3 3 3 3 4 3 3 3 3 3 3 3 3 3 3 3 3 4 : $ $ 3 6 0 J J J J J J J J J J J J J J J J J J J J J J J J 0 6 ; $ $ 3 4 3 3 3 3 3 3 3 3 4 4 4 3 3 3 3 3 3 3 3 3 3 3 4 ; $ $ 3 w 5.5.5.5.5.5.5.5.5.5.5.5.5.5.5.5.5.5.5.5.5.5.5.5.5.w 3 $ $ ; 4 3 3 3 3 3 3 3 3 3 4 3 3 3 3 3 3 3 3 3 3 3 3 3 ; $ $ 3 e *.1.1.1.1.1.1.1.1.1.1.1.1.1.1.1.1.1.1.1.1.1.1.1.%.6 3 $ $ : 4 3 3 3 3 3 3 3 3 3 4 3 3 3 3 3 3 3 3 3 3 3 3 3 ; ",
"6 6 6 6 4 w w 3 4 3 4 4 e 4 6 6 6 6 4 $ > b >X>X>X;X;X;X;X;X;X>X;X;X>X;X>X;X>X;X;X;X;X;X>X;X>X;X: 3 $ ; w 4 4 4 4 4 4 4 4 4 4 3 4 4 4 4 4 4 4 4 4 4 4 4 4 w $ $ 3 6 7XW W W W W W W W W W W W W W W W W W W W W W W W W q ; $ ; w 4 4 4 4 4 4 4 4 4 4 3 4 4 4 4 4 4 4 4 4 4 4 4 4 4 $ $ * | HXsXDXDXDXDXDXDXDXDXDXDXDXDXDXDXDXDXDXDXDXDXDXDXHXu 3 $ $ 6 4 4 4 4 4 4 4 4 4 4 3 4 4 4 4 4 4 4 4 4 4 4 4 4 4 $ $ ; %.CXMXCXMXMXMXMXMXMXMXMXMXCXCXCXMXMXMXMXMXMXMXMXMXCXe ; $ $ q 4 4 4 4 4 4 4 4 4 4 3 4 4 4 4 4 4 4 4 4 4 4 4 6 4 ",
"6 6 6 6 4 )./.a ..7.e P.7.3 6 6 4 6 4 $ > b ;X+XOXOXOXOXOXOXOX+XOX;XOXOXOX+XOXOXOXOXOXOXOX+XOX;X4 3 $ ; 4 $ $ $ $ $ $ $ $ $ $ ..r t r $ $ $ $ $ $ $ $ $ $ 4 $ $ ; w W B B B B B B B B B B W E Y E B B B B B B B B B Y W q ; $ ; 4 $ $ $ $ $ $ $ $ $ 4 ..r t t $ $ $ $ $ $ $ $ $ ; 4 $ $ * | DXj.b.b.b.b.b.b.b.b.b.sXaXaXb.b.b.b.b.b.b.b.b.b.DXu 3 $ $ 4 $ $ $ $ $ $ $ $ $ $ ..{ q r $ $ $ $ $ $ $ $ $ : 4 $ $ ; %.MXkXkXkXkXkXkXkXkXkXbXbXbXbXkXkXkXkXkXkXkXkXkXkXMXe ; $ $ 4 $ $ $ $ $ $ $ $ $ : ....t r $ $ $ $ $ $ $ $ $ 3 4 ",
"6 6 6 6 4 ].]._.vX).].].K.; w 6 4 6 4 $ > b >XOXOXOXOXOXOXOXOXOX;X>X@X@X;XOXOXOXOXOXOXOXOXOXOX;X4 3 $ ; 4 $ $ $ $ $ $ $ ; $ 4 %.{ w { 4 $ $ $ $ $ $ $ $ ; 4 $ $ ; 6 W Y Y Y Y Y Y Y Y Y Y W W W W Y Y Y Y Y Y Y Y Y Y W q ; $ ; 4 $ $ $ $ $ $ $ ; $ t %.@.e { $ $ $ $ $ $ $ $ $ 3 4 $ $ * | DXb.b.b.b.b.b.b.b.b.sXDXsXsXsXb.b.b.b.b.b.b.b.b.DXu 3 $ $ 4 ; $ $ $ $ $ $ ; $ 4 %.@.t { 3 $ $ $ $ $ $ $ $ 3 4 $ $ ; %.CXkXkXkXkXkXkXkXkXkXMXMXbXbXbXkXkXkXkXkXkXkXkXkXMXe ; $ $ 4 ; $ $ $ $ $ $ ; $ q %.@.e { ; $ $ $ $ $ $ $ $ 3 4 ",
"6 6 6 6 4 L.P././.X.K./.X.3 6 6 4 6 4 $ > b >X+XOXOXOXOXOXOXOXOXOXOXOXOXOXOXOXOXOXOXOXOXOXOXOX;X4 3 $ ; 4 $ $ $ $ $ $ $ $ $ $ $ 4 : 3 $ $ $ $ $ $ $ $ $ $ 4 $ $ ; w W Y Y Y Y Y Y Y Y Y Y Y Y Y Y Y Y Y Y Y Y Y Y B Y W q ; $ ; 4 $ $ $ $ $ $ $ $ $ $ $ $ : 3 $ $ $ $ $ $ $ $ $ ; 4 $ $ * | DXb.b.b.b.b.b.b.b.b.b.b.b.b.b.b.b.b.b.b.b.b.b.b.DXu 3 $ $ 4 $ $ $ $ $ $ $ $ $ $ $ ; : 3 $ $ $ $ $ $ $ $ $ : 4 $ $ ; %.MXkXkXkXkXkXkXkXkXkXkXkXkXkXkXkXkXkXkXkXkXkXkXkXMXe ; $ $ 4 $ $ $ $ $ $ $ $ $ $ $ : : 3 $ $ $ $ $ $ $ $ $ 3 4 ",
"6 6 6 6 4 4 4 3 3 4 3 4 4 6 4 6 4 6 4 $ : x >X;X>X>X>X>X>X>X>X>X>X>X>X>X;X>X>X>X>X>X>X>X>X;X>X;X: 3 $ ; w 4 4 4 4 4 4 4 4 4 4 4 4 4 4 4 4 4 4 4 4 4 4 4 4 q $ $ 3 6 W W W W W W W W W W W W W W W W W W W W W W W W W W q ; $ ; w 4 4 4 4 4 4 4 4 4 4 4 4 4 4 4 4 4 4 4 4 4 4 4 q 4 $ $ 3 | HXDXDXDXDXDXDXDXDXDXDXDXDXDXDXDXDXDXDXDXDXDXDXDXHXu 3 $ $ 4 4 4 4 4 4 4 4 4 4 4 4 4 4 4 4 4 4 4 4 4 4 4 4 w 4 $ $ ; %.CXMXCXCXCXCXCXCXCXCXCXCXCXCXCXCXCXCXCXCXCXCXCXCXCXw 3 $ $ 6 4 4 4 4 4 4 4 4 4 4 4 4 4 4 4 4 4 4 4 4 4 4 4 w 4 ",
"6 6 6 6 6 6 6 6 6 6 6 6 6 4 6 6 4 6 4 $ 4 6 y y y y y y y y y y y y y y y y y y y y y y y y y y 6 ; $ $ ; ; ; ; ; ; ; ; ; ; ; : : : : ; ; ; ; ; ; ; ; ; ; ; $ $ 3 6 9 9 9 9 9 9 9 9 9 9 9 9 9 9 9 9 9 9 9 9 9 9 9 9 9 9 6 ; $ $ ; ; ; ; ; ; ; ; ; ; ; : ; : : ; ; ; ; ; ; ; ; ; ; $ $ $ 4 w u | | | | | | | | | | | | | | | | | | | | | | | u 6 3 $ $ ; ; ; ; ; ; ; ; ; ; ; : : : : ; ; ; ; ; ; ; ; ; ; $ $ $ 4 w { ..............................................r 6 3 $ $ ; ; ; ; ; ; ; ; ; ; ; : : : : ; ; ; ; ; ; ; ; ; ; $ ",
"6 6 6 4 6 6 4 6 6 6 6 6 6 6 6 6 4 6 4 $ 4 6 4 : : : : : : : : : : : 4 4 : : : : : : : : : : : 4 6 ; $ $ $ $ $ $ $ $ $ $ $ $ $ $ $ $ $ $ $ $ $ $ $ $ $ $ $ $ $ $ 3 6 4 4 4 4 4 4 4 4 4 4 4 4 4 4 4 4 4 q 4 q q q 4 4 4 4 6 ; $ $ $ $ $ $ $ $ $ $ $ $ $ $ $ $ $ $ $ $ $ $ $ $ $ $ $ $ $ $ 4 6 4 4 4 4 4 4 4 4 4 4 4 4 4 4 4 4 4 4 4 4 4 4 4 4 4 6 3 $ $ $ $ $ $ $ $ $ $ $ $ $ $ $ $ $ $ $ $ $ $ $ $ $ $ $ $ $ $ 4 6 3 3 3 3 4 3 3 3 3 3 3 3 3 3 3 3 3 3 3 4 3 3 3 3 4 6 3 $ $ $ $ $ $ $ $ $ $ $ $ $ $ $ $ $ $ $ $ $ $ $ $ $ $ $ $ ",
"6 6 4 6 4 4 6 6 6 6 6 6 6 6 4 6 4 6 4 $ 4 6 6 6 6 6 6 6 6 6 6 6 6 6 4 4 6 6 6 6 6 6 6 6 6 6 6 6 6 ; $ $ $ $ $ $ $ $ $ $ $ $ $ $ $ $ $ $ $ $ $ $ $ $ $ $ $ $ $ $ 3 6 6 6 6 6 q 4 6 6 6 6 6 6 6 6 6 6 6 4 4 4 4 4 6 6 6 4 6 ; $ $ $ $ ; $ $ $ $ $ $ $ $ $ $ $ $ $ $ $ $ $ $ $ $ $ $ $ $ $ 4 6 6 6 w 4 3 4 w 6 6 6 6 6 6 6 6 6 4 4 4 4 4 6 6 6 6 6 3 $ $ $ $ ; $ $ $ $ ; $ $ $ $ $ $ $ $ $ $ $ $ $ $ $ $ $ $ $ $ 4 6 6 6 w 4 3 4 w w 6 6 6 6 6 6 6 4 4 4 4 4 6 4 6 6 6 6 3 $ $ $ $ ; $ $ $ $ ; $ $ $ $ $ $ $ $ $ $ $ $ $ $ $ $ $ $ ",
"6 6 6 4 w w 4 3 3 4 3 4 3 4 6 4 4 6 4 $ 4 6 4 6 6 6 6 6 6 6 6 4 6 4 a r 4 6 6 6 6 6 6 6 6 6 6 4 6 ; $ $ $ $ $ $ 3 3 $ $ $ $ $ $ $ $ $ $ $ 4 w 4 $ e $ $ $ $ $ $ 3 6 4 6 q 6 9 7 q q 6 4 6 6 6 6 6 6 4 i e a r a 4 6 4 4 6 ; $ $ $ ; $ $ 4 : $ $ $ $ $ $ $ $ $ $ : e 4 w w 4 $ $ $ $ $ $ 4 6 6 6 * t 6.u 5 4 6 4 6 6 6 6 6 4 e a a a ..4 6 6 4 6 3 $ $ $ ; $ $ w w $ $ $ $ $ $ $ $ $ $ 4 4 w 4 w r 4 $ $ $ $ $ 4 6 6 4 3 r $.[ 3 4 6 4 6 6 6 6 4 i i a r a w i 4 6 4 6 3 $ $ $ ; $ $ w w $ $ ; $ $ $ $ $ $ 4 3 w 4 4 w 4 w $ $ $ ",
"6 6 6 3 P._.a ..7.a +...o.e 4 6 4 6 4 $ 4 6 4 6 6 6 6 6 6 6 6 6 4 e ).L.4 6 6 6 6 6 6 6 6 6 6 4 6 ; $ $ $ $ 7 8 7 8 8 3 $ $ $ $ $ $ $ $ 4 L.e...r K.w $ $ $ $ $ 3 6 4 q @ B B B B 7 q 6 6 6 6 6 6 6 3 P.P.).]./.e 4 6 4 6 ; $ $ ; $ p p > 9 9 : $ $ $ $ $ $ $ $ $ ..L.@.r @.$ ; $ $ $ $ 4 6 4 4 n.sXaXj.5.w 4 6 6 6 6 6 6 3 ).I.P.I.P.a 4 6 4 6 3 $ $ ; $ w r.t.t.r.i $ $ $ $ $ $ $ $ +.+.+.e.+.@...# ; $ $ $ 4 6 4 4 kXnXnXMXkX4 4 6 4 6 6 6 4 X. X`.]. XK._.3 6 4 6 3 $ $ ; # e F.>.D.F.e $ ; $ $ $ ; $ +.@.e.K.e.e.K.e.w $ $ ",
"6 6 w ; ). XP.vX`.].). XvXo.3 6 4 6 4 $ 4 6 4 6 6 6 6 6 6 6 6 6 4 e ).P.4 6 6 6 6 6 6 6 6 6 6 4 6 ; $ ; $ 7 8 $     3 0 ; $ $ $ $ $ ; $ ..`.e.@...e.e $ ; $ $ $ 3 6 q 9 B O . $ @ B 6 4 6 6 6 6 6 6 3 +././. X/.r 4 6 4 6 ; $ ; $ p 8.e t o ; 9 ; $ $ $ $ $ $ $ 3 +.e +.e.r $ ; $ $ $ $ 4 w 3 n.aX. a o.' 5.4 6 6 6 6 6 6 4 `.).P.).P.w 4 6 4 6 3 $ ; $ w u.4   O : e.4 $ $ $ $ $ ; # ..e +.^.+.X.4 $ $ $ $ $ 4 w 3 bXkX$ . $ kXbX3 w 6 6 6 6 4 a ].).XX XXX X4 6 4 6 3 $ ; $ e F.3     5 F.6 $ $ $ $ ; $ i +.+.I.K.e.L.+.e $ ; ",
"6 6 6 4 o.+././.X.+._.).I.r 4 6 4 6 4 $ 4 6 4 6 6 6 6 6 6 6 6 4 6 4 +...4 6 4 6 6 6 6 6 6 6 6 4 6 ; $ $ $ 8 X O   .   7 7 $ $ $ $ $ $ $ ; w r r w a ; $ $ $ $ $ 3 6 6 Y 0 vXe X % @ @ q 6 6 6 6 6 6 4 i i 7.X.+.4 6 6 4 6 ; $ $ $ 8.$ t xX    : 6 $ $ $ $ $ $ $ 4 X.r r X.e $ $ $ $ $ $ 4 5 | sX$ O vX_.O 5.' 5 6 6 6 6 6 4 ..+.+.K.K.w 4 6 4 6 3 $ ; $ e.u O   @.).# e $ $ $ $ $ $ $ 4 e r r r w $ $ $ $ $ $ 4 3 $.nXo X $ . o mX%.3 w 6 6 6 4 X.o.X...7.r ..6 4 4 6 3 $ ; # D.5 O .   O y >.# ; $ $ $ $ 4 q i e r i e i ; $ $ ",
"6 6 4 6 4 4 ; $ 4 3 K.r 3 6 4 4 4 6 4 $ 4 6 4 6 6 6 6 6 6 6 4 6 4 4 ; 3 4 4 6 4 6 6 6 6 6 6 6 4 6 ; $ $ 3 7 t ].w   . X 8 $ $ $ $ $ $ $ $ # . # X . $ $ $ $ $ $ 3 q 9 W $  XK.  $ d B q 6 6 6 6 6 4 6 3 3 $ ; ; 6 4 6 4 6 ; $ $ 4 8.. . t .   $ w $ $ $ $ $ $ $ $ . X # . # $ $ $ $ $ $ 4 3 5.b.o # r 4 X ' 5.5 6 6 6 4 6 4 ; ; 3 $ ; 4 6 4 4 6 3 $ $ $ t.;     +.r   u ; $ $ $ $ $ $ $ # . # . # $ $ $ $ $ $ 4 d [.kXo $ $ vX X=.*.3 w 6 4 6 4 ; 3 3 ; ; 3 ; 4 6 4 6 3 $ $ ; F.$ .   w # $ F.$ $ $ $ $ $ $ $ . # # . # $ $ $ $ ",
"6 6 6 4 6 4 i 7.e ..e a 4 6 6 6 4 6 4 $ 4 6 4 6 6 6 6 6 6 6 6 4 e r a i X.6 4 6 6 6 6 6 6 6 6 4 6 ; $ $ 3 Q w +.$     3 7 $ $ $ $ $ $ $ $ w e 4 ..r $ $ $ $ $ $ 3 q 7 W X O . $ % @ B q 6 6 6 6 4 6 4 r a ......4 6 6 4 6 ; $ $ : 8.X     .   ; 6 $ $ $ $ $ $ $ $ w e 4 ..r $ $ $ $ $ $ 4 3 5.aXo $ . # X ' ' 5 6 6 6 6 4 i a a i ..w i 6 6 4 6 3 $ ; $ t.4 o . O O # u $ $ $ $ $ $ $ $ w e 4 ..e $ $ $ $ $ $ 4 3 *.bXO $ $ ..7 -.&.7 6 6 6 4 r X.w a ..i a a i 4 6 6 3 $ $ $ F.*   O L.].3 F.$ $ $ $ $ $ ; $ e w q ..e $ $ $ $ ",
"6 6 6 6 6 3 K.]._.).).P.4 6 6 6 4 6 4 $ 4 6 4 6 6 6 6 6 6 6 6 3 o.`.L.].`.o.3 6 6 6 6 6 6 6 6 4 6 ; $ ; # Q 0 O   . . 8 3 $ $ $ $ $ $ $ 3 +...I.^.@.# ; $ $ $ $ 3 6 q E B % $ $ $ B 9 q 6 6 6 6 6 4 w ].7.).7./.w 4 6 4 6 ; $ ; $ F p   .   . 9 4 $ $ $ $ $ $ $ 3 +...I.^.@.# ; $ $ $ $ 4 6 4 sX5.o $ $ > j.w 4 6 6 6 6 4 a  X_.].XXI._.4 6 4 6 3 $ ; $  .t.    .   w w $ $ $ $ $ $ $ 4 +...I.^.X.# ; $ $ $ $ 4 4 w MX&.  $ o < tXw 4 6 6 6 4 e /.L. X/.].).].L.4 6 6 3 $ ; # c >.  .   : s y # ; $ $ $ $ $ q +...I.^...# ; $ $ ",
"6 6 6 6 6 3 K.).7.].P.P.6 6 6 6 4 6 4 $ 4 6 4 6 6 6 6 6 6 6 6 4 e /.L. X).+.3 6 6 6 6 6 6 6 6 4 6 ; $ ; $ 3 Q 4 . # 7 7 $ $ $ $ $ $ $ $ 4 +...e.@.r $ ; $ $ $ $ 3 6 4 6 E 9 $ $ @ @ q 6 6 6 6 6 6 4 e ]././.`.L.4 6 6 4 6 ; $ ; $ ; 8.4 . # 4 6 $ $ $ $ $ $ $ $ 4 +...e.@.r $ ; $ $ $ $ 4 w 3 ' fX: $ * 5.' 5 6 4 6 6 6 4 i _.).XX].XXXXw 4 4 6 3 $ $ $ $ e.u   . : e $ $ $ $ $ $ $ $ 4 +...e.@.e $ ; $ $ $ $ 4 w 3 %.nX; $ 3 -.] 7 6 4 6 6 4 X.)._.vXP. X).].P.4 6 6 3 $ $ $ $ >.e . # * 5 $ $ $ $ $ $ $ $ w @...+.@.w $ $ $ $ ",
"6 6 6 6 6 4 a ..3 r X.X.4 6 6 6 4 6 4 $ 4 6 4 6 6 6 6 6 6 6 6 4 w r o...+.w 4 6 6 6 6 6 6 6 6 4 6 ; $ $ $ $ $ ; $ $ ; $ $ $ $ $ $ $ $ $ $ e i 4 w 4 $ $ $ $ $ $ 3 6 4 4 4 6 6 6 6 4 6 6 6 6 6 6 6 6 4 X.o.o.K.+.4 4 6 4 6 ; $ $ $ $ $ ; $ $ ; $ $ $ $ $ $ $ $ $ $ e i 3 w 4 $ $ $ $ $ $ 4 6 6 4 4 w 6 6 6 4 6 4 6 6 6 6 4 ..o...a +.e a 6 4 4 6 3 $ $ $ $ $ ; $ $ ; $ $ $ $ $ $ $ $ $ $ e r 4 w 3 $ $ $ $ $ $ 4 6 6 3 6 w 6 6 6 4 6 4 6 6 6 4 X.K.e a +...o.X...4 6 6 3 $ $ $ $ $ ; $ $ ; $ $ $ $ $ $ $ $ $ $ r r 4 w 3 $ $ $ $ ",
"6 6 6 6 4 6 4 4 6 4 3 4 6 4 6 6 4 6 4 $ 4 6 6 6 6 6 6 6 6 6 6 6 6 4 4 4 3 6 6 6 6 6 6 6 6 6 6 6 6 ; $ $ ; ; ; $ ; $ $ ; ; ; ; ; ; ; ; $ ; $ $ $ $ $ ; ; ; ; $ $ 3 6 6 6 6 6 6 6 6 6 6 6 6 6 6 6 6 6 6 3 3 3 3 3 6 6 6 6 6 ; $ $ ; ; ; ; ; ; ; ; ; ; ; ; ; ; ; ; ; $ $ $ $ $ ; ; ; ; $ $ 4 6 w w 6 6 6 6 6 w w w w w w 6 w 4 4 4 4 3 4 4 6 w w 6 3 $ $ ; ; ; ; ; ; ; ; ; ; ; ; ; ; ; ; ; $ $ $ $ $ ; ; ; ; $ $ 4 6 w w w w w w 6 w w w w w w w 4 3 6 4 4 4 4 4 4 w w 6 3 $ $ $ $ $ $ $ $ $ $ $ $ $ $ $ $ $ $ $ $ $ $ $ $ $ $ $ $ ",
"6 6 6 6 6 4 6 6 6 6 6 6 4 6 6 6 4 6 4 $ 4 4 > : : : : : : : : : : : : : : : : : : : : : : : : : 6 ; $ $ % % % % % % % % % % % % % % % % % % % % % % % % % % ; $ 3 6 q q q q q q q q q q q q q q q q q q q q q q q q q q 6 ; $ $ $ $ $ $ $ $ $ $ $ $ $ $ $ $ $ $ $ $ $ $ $ $ $ $ $ $ ; $ 4 4 3 3 3 3 3 3 3 3 3 3 3 3 3 3 3 5 5 5 5 5 3 5 3 3 3 6 3 $ ; X X X X X X X X X X X X X X X X X X X X X X X X X $ $ $ 4 4 3 3 3 3 3 3 3 3 3 3 3 3 3 3 3 3 3 3 3 3 3 3 3 3 3 6 3 $ $ # # # # # # # # # # # # # # # # # > > > > # # # # $ ",
"6 6 6 6 6 6 6 6 6 6 6 6 6 6 6 6 4 6 4 $ : y ;X;X;X;X;X;X;X;X;X;X;X;X;X;X;X;X;X;X;X;X;X;X;X;X;X&X: 3 $ $ R R R R R R R R R R R R R R R R R R R R R R R R R f % $ 3 6 E W E W W W W W W W W E E E E W W W W W W W W E W E q ; $ $ S S S S S S S S S S S S S S S S S S S S S S S S S D $ $ 3 u fXfXfXfXfXfXfXfXfXfXfXfXfXfXfXfXfXfXfXfXfXfXfXfXfXw 3 $ X j.uXuXuXuXuXuXuXuXuXuXuXuXuXuXuXuXuXuXuXuXuXuXuXuX' X $ 3 O.mXmXmXmXmXmXmXmXmXmXmXbXbXmXmXmXmXmXmXmXmXmXmXmXbXw 3 $ ; :.*X%X*X*X*X*X*X*X*X*X%X%X%X*X*X*X*X*X*X*X*X*X%X*Xx ",
"6 6 6 6 6 6 6 6 6 6 6 6 6 6 6 6 4 6 4 $ > b >XOX@X@X@X@X@X@X@X@XOX@X@X@X@X@X@X@X@X@X@X@X@XOX@X;X: 3 $ 3 R g g g g g g g g g g R R g g g g g g g g g g g g R % $ ; 6 W E Y Y Y Y Y Y Y Y Y W W W E Y Y Y Y Y Y Y Y Y W W q ; $ ; S S S S S S S S S S S S S S S S S S S S S S S S S S $ $ * | HXb.aXaXaXaXaXaXaXaXaXsXsXsXaXaXaXaXaXaXaXaXaXaXHXu 3 $ X uXuXyXiXiXiXiXiXiXiXiXuXuXuXiXiXiXiXiXiXiXiXiXyXuXj.X $ ; *.CXkXbXbXbXbXbXbXbXbXbXmXbXbXbXbXbXbXbXbXbXbXbXbXCXe ; $ > *X%X;.;.;.;.;.;.;.;.;.%X*X%X;.;.;.;.;.;.;.;.;.;.*X:.",
"6 6 4 6 6 4 6 4 6 6 4 6 6 6 6 6 4 6 4 $ > b ;X+X+X+X+X+X+X+X+X+XOX@X@X>X@X+X+X+X+X+X+X+X+X+XOX;X4 3 $ 3 R f f f f f f f f f f R R R g f f f f f f f f f g R % $ ; 6 W Y Y Y Y Y Y Y Y Y Y W W W E Y Y Y Y Y Y Y Y Y Y W q ; $ ; S D D D D D D D D D D S S S S D D D D D D D D D S D $ $ * | DXb.b.b.b.b.b.b.b.b.aXsXDXDXb.b.b.b.b.b.b.b.b.b.DXu 3 $ X iXiXj.yXyXyXyXyXyXyXyXuXuXjXiXj.yXyXyXyXyXyXyXj.uXj.X $ ; %.MXkXkXkXkXkXkXkXkXkXbXmXCXMXkXkXkXkXkXkXkXkXkXkXMXe ; $ ; *X;.:.;.:.:.:.:.;.:.;.*X*X*X;.:.;.:.:.:.:.:.;.:.*X:.",
"6 4 6 3 3 6 6 6 4 4 6 6 6 4 6 4 6 6 4 $ > b ;X+X+X+X+X+X+X+X+X+X+X@X@X@XOX+X+X+X+X+X+X+X+X+XOX;X4 3 $ 3 R f f f f f f f f f f g g g g f f f f f f f f f f R % $ ; 6 W Y Y Y Y Y Y Y Y Y Y E E W Y B Y Y Y Y Y Y Y Y Y W q ; $ ; S D D D D D D D D D D S S S S D D D D D D D D D S D $ $ * | DXb.b.b.b.b.b.b.b.b.b.sXaXsXb.b.b.b.b.b.b.b.b.b.DXu 3 $ X iXiXj.j.j.j.j.j.j.j.j.iXiXuXyXj.j.j.j.j.j.j.j.j.uXj.X $ ; %.MXkXkXkXkXkXkXkXkXkXkXbXbXbXkXkXkXkXkXkXkXkXkXkXMXe ; $ ; *X;.:.:.:.:.:.:.:.:.:.%X;.%X;.:.:.:.:.:.:.:.:.:.*X:.",
"4 6 4 X.o.4 4 4 w e 4 4 4 o.4 6 4 6 4 $ > b >X@X@X@X@X@X@X@X@X@X@X@X@X@X@X@X@X@X@X@X@X@X@X@X@X;X: 3 $ 3 R g g g g g g g g g g g g g g g g g g g g g g g R R % $ ; 6 W W W W W W W W W W W W W W W W W W W W W W W W W W q ; $ ; S S S S S S S S S S S S S S S S S S S S S S S S S S $ $ * | HXaXsXsXsXsXsXsXsXsXsXsXsXsXsXsXsXsXsXsXsXsXsXsXHXu 3 $ X uXuXiXuXuXuXuXuXuXuXuXuXuXuXuXuXuXuXuXuXuXuXuXiXuXj.X $ ; *.CXbXbXbXbXbXbXbXbXbXbXbXbXbXbXbXbXbXbXbXbXbXbXbXCXe ; $ > *X*X%X%X%X%X%X%X%X%X%X%X%X%X%X%X%X%X%X%X%X%X%X;.*X:.",
"6 4 i /.a P.I./.).`.L.I.P.)./.e 4 6 4 $ : y &XOXOX&X&X&XOX&XOXOXOX&X&X&XOXOXOXOXOXOX&X&XOXOX&Xm 4 3 $ $ f f f f f f f f f f f f f f f f f f f f f f f f f f % $ 3 6 Y E E E E E E E E E E E E E E E E E E E E E E E E Y q ; $ $ D S S S S S S S S S S S S S S S S S S S S S S D S 2 $ $ 3 u aXaXaXaXaXaXaXaXaXaXaXaXaXaXaXaXaXaXaXaXaXaXaXaXn.w 3 $ $ 5.iXyXyXyXyXyXyXyXyXyXyXyXyXyXyXyXyXyXyXyXyXyXyXiX' X $ 3 ..lXzXzXzXzXzXzXzXzXzXzXlXlXzXzXzXzXzXzXzXzXzXzXlXkXw 3 $ ; :.;.;.;.;.;.;.;.;.;.;.;.;.;.;.;.;.;.;.;.;.;.;.;.;.y ",
"6 4 i /.o.`._.L.`.`.K.P._./.`.o.3 6 4 $ 4 6 , , , , , , , , , , , , > , , , , , , , , , , , , , 6 ; $ $ % : : : % % : : % : : : % % : : : : : : % % : : : % $ $ 3 6 t t t t t t t t t t t t q q t t t t t t t t t t t t 6 ; $ $ = = = = = = = = = = = = $ = = = = = = = = = = = = * $ $ 4 6 5 5 5 5 5 5 5 5 5 5 5 5 * 5 5 5 5 5 5 5 5 5 5 5 5 6 3 $ $ * + * + + + * + + * * * + + * * + + + + + + + * + * $ $ 4 4 7 7 7 7 7 7 7 7 7 7 7 3 ; 7 7 7 7 7 7 7 7 7 7 7 7 6 3 $ $ > > > > > > > > > > > > > > > > > > > > > > > > > ; ",
"4 6 4 ......i e r X.w a ..e X.e 4 6 4 $ 3 e a e e r a a e a r e e a e a e e r e r r a a r e r a 6 ; $ ; w 3 3 4 4 6 3 4 4 3 3 6 3 4 4 3 4 4 4 4 6 6 4 3 4 6 $ $ 3 w a e e r i i e r i e e a e i r e e e r e a a r e e a 6 ; $ ; w 4 4 4 4 4 3 4 4 3 3 w : w 4 4 4 4 4 4 w q 4 3 4 4 $ $ 3 e a e r i i i e i e e r i e i e r r r r i i i e e a w 3 $ $ w 4 4 4 q q 4 q q 4 4 w 4 q 4 4 4 4 4 4 w q 4 : q 4 $ $ 4 e a e r i a r r a r r r a r a e r r r r a a i r r a w 3 $ $ w 4 4 4 4 q 4 4 4 4 4 w 3 w 4 4 4 4 4 4 w q 4 3 q 4 ",
"6 4 6 3 3 3 4 4 4 3 4 4 3 4 3 4 6 6 4 $ 3 e e 4 4 +.e.e...+.X.4 4 r e r 4 3 +.L.+.X.K.I.w 4 4 i 6 ; $ ; 4 $ $ t { { r t { $ $ 4 3 4 ; $ w @...t { @.q $ $ 4 $ $ 3 w i 4 3 ..e.e.@.X.+.6 4 e e r w 3 a L.I...e.L.i 3 4 i 6 ; $ ; 4 $ $ r { { t r r $ $ 4 3 4 $ $ r @.{ t ....: $ ; 4 $ $ 3 e r 3 w e.+.e...e.i 3 4 r e r 3 e I.L...+.L.X.3 4 r w 3 $ $ 4 ; $ t { { r r r $ $ 4 3 4 $ $ r @.i t ....; $ : 4 $ $ 4 e e 3 e e.+.e...e.i 3 6 r e e 3 r L.I...+.L...3 4 i w 3 $ $ 4 $ $ r { { t r r $ $ 4 3 4 $ $ { @.r e ....$ $ 3 4 ",
"6 6 4 6 6 6 6 6 6 6 6 6 6 6 6 6 4 6 4 $ 3 e r 4 4 +.I.e.e.e.@.4 4 i e i 6 4 @.^.e.+...I.e 4 6 i 6 ; $ ; 4 $ $ w @.{ ..{ i ; $ 4 3 4 ; $ q %...{ w ..w $ ; 4 $ $ 3 w i 6 4 a L.e.K.+.+.w 4 e e r w 4 i /.K.e.a I.a 4 6 i 6 ; $ ; 4 $ $ r @.{ { { r $ $ 4 3 4 $ $ r %.{ r t ..3 $ 3 4 $ $ 3 e r 4 6 K.K.e.e.e.a 4 w i e r 4 w ^.I.e...e.@.4 6 i w 3 $ $ 4 ; $ t @.{ ..{ r ; $ 4 3 4 ; $ r +.{ r t ..: $ 3 4 $ $ 4 e r 4 w I.e.K.e.e.i 4 w r e r 4 e ^.K.e...e.X.4 6 i w 3 $ $ 4 ; $ t @.{ ..{ r $ $ 4 3 4 ; $ { @.{ r e ..; $ 3 4 ",
"6 6 6 6 6 6 6 6 6 6 6 6 6 6 6 6 4 6 4 $ 3 e r 4 4 w w w w e 6 4 4 i e i 4 4 4 4 w w 4 w 6 4 6 i 6 ; $ ; 4 $ $ ; ; : ; : : $ $ 4 3 4 ; $ $ $ $ : $ : ; $ $ 4 $ $ 3 w i 4 4 w w w w e w 4 4 e e r w 4 4 6 6 w 4 w w 4 4 i 6 ; $ ; 4 $ $ : ; : ; 3 ; $ $ 4 3 4 $ $ $ $ ; ; $ : ; $ ; 4 $ $ 3 e r 4 6 w w w w e 4 4 6 i e r 4 4 6 4 w 4 w w 4 4 i w 3 $ $ 4 ; $ : ; : ; : ; $ $ 4 3 4 $ $ $ $ ; ; $ : $ $ 3 4 $ $ 4 e r 4 6 w w w w e 4 4 6 r e e 4 4 6 4 w 4 w w 4 4 i w 3 $ $ 4 $ $ : ; : ; : ; $ $ 4 3 4 $ $ $ $ ; ; $ : $ $ 3 4 ",
"6 6 6 6 6 6 6 6 6 6 6 6 6 6 6 6 4 6 4 $ 4 e a i i i i i i r i i i a w a i i i i i i i r i i i i 6 ; $ ; q 4 4 4 4 4 4 4 4 4 4 w 3 4 6 4 4 4 4 4 4 4 4 4 4 4 $ $ 3 6 a i i i i r i r i i i a e r a i i i i r i i i i i i 6 ; $ $ q 4 4 4 4 4 4 4 4 4 4 w ; q 4 4 4 4 4 4 4 4 4 4 w 4 $ $ 3 w a i i i i i r r i i i i w a i i i i r i i i i i a w 3 $ $ 4 6 4 4 4 4 4 4 4 4 4 w : 4 6 4 4 4 4 4 4 4 4 4 w 4 $ $ 4 e a i i i i i r r i i a i w a i i i i r i i i i i a 6 3 $ $ 4 4 4 4 4 4 4 4 4 4 4 w ; 4 4 4 4 4 4 4 4 4 4 4 w 4 ",
"6 6 6 6 6 6 6 6 6 6 6 6 6 6 6 6 4 6 4 $ 4 6 6 w w w w w w w w w w 6 4 6 w w w w w w w w w w w 6 6 ; $ $ $ ; ; ; ; ; ; ; ; ; ; ; $ $ ; ; ; ; ; ; ; ; ; ; ; $ $ $ 3 6 6 w w w w w w w w w w 6 4 6 w w w w w w w w w w w 6 6 ; $ $ $ ; ; ; ; ; ; ; ; ; ; $ $ $ ; ; ; ; ; ; ; ; ; ; ; $ $ $ 4 6 6 w w w w w w w w w w 6 4 6 w w w w w w w w w w 6 6 3 $ $ $ ; ; ; ; ; ; ; ; ; ; ; $ $ ; ; ; ; ; ; ; ; ; ; ; $ $ $ 4 6 6 w w w w w w w w w w 6 4 6 w w w w w w w w w w 6 6 3 $ $ $ ; ; ; ; ; ; ; ; ; ; ; $ $ ; ; ; ; ; ; ; ; ; ; ; $ ",
"6 4 6 6 4 6 6 4 4 6 6 4 6 6 6 6 4 6 4 $ 4 6 4 4 4 4 4 4 4 4 4 4 4 6 6 4 4 4 4 4 4 4 4 4 4 6 4 4 6 ; $ $ $ $ $ $ $ $ $ $ $ $ $ $ $ $ $ $ $ $ $ $ $ $ $ $ $ $ $ $ 3 6 4 4 4 4 4 4 4 4 4 4 4 4 6 4 4 4 4 4 4 4 4 4 4 6 4 4 6 ; $ $ $ $ $ $ $ $ $ $ $ $ $ $ $ $ $ $ $ $ $ $ $ $ $ $ $ $ $ $ 4 6 4 6 4 4 4 4 4 4 4 4 4 6 6 4 4 4 4 4 4 4 4 4 6 4 4 6 3 $ $ $ $ $ $ $ $ $ $ $ $ $ $ $ $ $ $ $ $ $ $ $ $ $ $ $ $ $ $ 4 6 4 4 4 4 4 4 4 4 4 4 4 6 6 4 4 4 4 4 4 4 4 4 6 4 4 6 3 $ $ $ $ $ $ $ $ $ $ $ $ $ $ $ $ $ $ $ $ $ $ $ $ $ $ $ $ ",
"4 6 3 4 6 4 4 6 6 4 4 6 6 6 6 6 4 6 4 $ 4 4 $ $ $ $ $ $ $ $ $ $ $ $ $ $ $ $ $ $ $ $ $ ; $ X $ ; 6 ; $ $ .   . . . . . . . . . .   . . . . . . . . # .   . # ; $ 3 6 $ # $ $ $ $ $ $ $ $ $ $ $ $ $ $ $ $ $ $ $ ; $ X $ ; 6 ; $ ; .   . . . . . . . . . .   . . . . . . . # # .   . $ ; $ 4 4 $ # $ $ $ $ $ $ $ $ $ $ $ $ $ $ $ $ $ $ ; $ X $ $ 6 3 $ ; #   . . . . . . . . . .   . . . . . . . # . .   . $ $ $ 4 4 $ $ $ $ $ $ $ $ $ $ $ $ $ $ $ $ $ $ $ $ ; $ X $ $ 6 3 $ ; #   . . . . . . . . . .   . . . . . . . # .     . $ ",
"6 4 X.X.4 a a ; 3 X.r 4 4 e 4 4 6 6 4 $ 4 4 $ 3   . .     .   X   3 ; # $ $ $ $ $ $ $ $ $ ..$ $ w ; $ $ . $                   . $   . . . . .   . .   q . . ; $ 3 6 $ 4 .   . .   .   . . $ 4 # $ $ $ $ $ $ $ $ $ ..$ $ w ; $ $ . $                   . $   . . . . .   . . # q   $ ; $ 4 4 $ w . . . .   .   .   3 3 # $ $ $ $ $ $ $ . i 3 # 6 3 $ ; # $   O                 $   . . . . .   .   $ q   $ ; $ 4 4 $ 3   . .     .   X   3 ; # $ $ $ $ $ $ $ X i ; $ 6 3 $ ; . $   o                 $   . . . . .   .   $ 4   $ ",
"4 4 `.K.K._.).).I.).].X./.I.).K.3 6 4 $ 4 3 e L.o.+.K...o...7.r r L.w . $ $ $ $ $ $ $ $ w xXe $ w ; $ $ # @.r r ..e r e r e $ ..e   . . . . . . . . $ ^.4   ; $ 3 6 ; L.+.o.I...o.X.o.X.w K.o.  $ $ $ $ $ $ $ $ 4 xXr # w ; $ $ # X.r r ..e r e r e $ ..r   . . . . . . #   t ^.# # ; $ 4 ; o.P.r +.I...o...+.r e L.e . $ $ $ $ $ $ $ $ ].+.. w 3 $ ; . ..i e ..e e e e r $ r ..  . . . . . . #   [ ^.  $ ; $ 4 3 r L.X.+.K...o...7.r r P.w . $ $ $ $ $ $ $ $ xX... w 3 $ ; . ..r r ..e r e e r $ i i   . . . . . . #   ..t.  $ ",
"6 4 7. X].).XXXX`.I.P._.vX XP.P.4 6 4 $ 4 3 w /.P.)./. X X+.P.P.].XX4 X $ $ $ $ $ $ $ $ w ].r $ w ; $ $ . @.+.+.+.I.^.....+.+./.e   . . . . . . . . $ ^.4   ; $ 3 6 $ L././.).].XXI.I./.).vXX.  $ $ $ $ $ $ $ $ q ].r # w ; $ ; . X.+.+.+.I.^.....+.+./.e   . . . . . . #   t t.# # ; $ 4 $ e.K./._.P. X X7.P.P._.vXw . $ $ $ $ $ $ $ $ ].+.. w 3 $ ; . i +.@.e.e.^.+.a +.+./.X.  . . . . . . #   r t.. # ; $ 4 3 w ).P.)./. X X+./.P.].XX4 X $ $ $ $ $ $ $ 3 ].X.. w 3 $ ; . ..+.+.+.K.^.@...+.+./...  . . . . . . #   { t.  $ ",
"4 4 X.a r o.i a a o.e ..X.i r r 4 6 4 $ 4 3 6 7.w a X.o.a 4 e ..K.+.3 # $ $ $ $ $ $ $ $ $ L.; $ w ; $ $ # i 4 4 e e e $ : 4 ..i ;   . . . . . . . . . O.# . ; $ 3 6 $ +.r e X.X.X.w w r K.7.w X $ $ $ $ $ $ $ $ $ L.3 $ w ; $ $ # r 4 4 e e e $ : 4 ..i :   . . . . . . .   : ..  $ ; $ 4 3 e 7...a X.o...4 e a K.+.3 # $ $ $ $ $ $ ; . K.e X 6 3 $ ; . e w : e e e 3 ; 4 i ..4   . . . . . . .   4 ..  $ ; $ 4 3 w 7.w a X.o.a 4 e ..K.o.; # $ $ $ $ $ $ $ X I.w # 6 3 $ ; . r w 3 e e e : ; 4 i i 4   . . . . . . #   q { o $ ",
"6 6 3 4 4 3 4 4 4 3 4 3 3 4 4 4 6 6 4 $ 4 4 # . X . . . . # X .     $ $ $ $ $ $ $ $ $ $ #   # $ 6 ; $ ; .                   o     . . . . . . . . .   O   . ; $ 3 6 $   . . . . . X X .     X $ $ $ $ $ $ $ $ $ $   # $ 6 ; $ ; .                   o     . . . . . .   . .   o   # ; $ 4 4 X . . . . . . # X .     # $ $ $ $ $ $ $ $ $   . $ 6 3 $ ; #                         . . . . . .   . .   o   $ ; $ 4 4 # . X . . . . # X .   . $ $ $ $ $ $ $ $ $ $   X $ 6 3 $ ; #                         . . . . . .   . .   o . $ ",
"6 4 6 6 6 6 6 6 6 6 6 6 6 6 6 6 4 6 4 $ 4 6 4 4 4 4 4 4 4 4 4 4 4 4 4 4 4 4 4 4 4 4 4 4 4 4 4 4 6 ; $ $ $ $ $ $ $ $ $ $ $ $ $ $ $ $ $ $ $ $ $ $ $ $ $ $ $ $ $ $ 3 6 4 4 4 4 4 4 4 4 4 4 4 4 4 4 4 4 4 4 4 4 4 4 4 4 4 4 6 ; $ $ $ $ $ $ $ $ $ $ $ $ $ $ $ $ $ $ $ $ $ $ $ $ $ $ $ $ $ $ 4 6 4 4 4 4 4 4 4 4 4 4 4 4 4 4 4 4 4 4 4 4 4 4 4 4 4 6 3 $ $ $ $ $ $ $ $ $ $ $ $ $ $ $ $ $ $ $ $ $ $ $ $ $ $ $ $ $ $ 4 6 4 4 4 4 4 4 4 4 4 4 4 4 4 4 4 4 4 4 4 4 4 4 4 4 4 6 3 $ $ $ $ $ $ $ $ $ $ $ $ $ $ $ $ $ $ $ $ $ $ $ $ $ $ $ $ ",
"6 6 6 6 6 6 6 6 6 6 6 6 6 6 6 6 4 6 4 $ 4 6 6 6 6 6 6 6 6 6 6 6 6 6 6 6 6 6 6 6 6 6 6 6 6 6 6 6 6 ; $ $ $ $ $ ; ; ; $ $ $ $ $ $ $ $ $ $ $ $ ; ; $ $ $ $ $ $ $ $ 3 6 6 6 6 6 6 6 6 6 6 6 6 6 6 6 6 6 6 6 6 6 6 6 6 6 6 6 6 ; $ $ $ $ $ ; ; ; $ $ $ $ $ $ $ $ $ $ $ $ ; ; $ $ $ $ $ $ $ $ 4 6 6 6 6 6 6 6 6 6 6 6 6 6 6 6 6 6 6 6 w 6 6 6 6 6 6 6 3 $ $ $ $ $ $ ; ; ; $ $ $ $ $ $ $ $ $ $ $ ; ; $ $ $ $ $ $ $ $ 4 6 6 6 6 w w w 6 6 6 6 6 6 6 6 6 6 6 w w 6 6 6 6 6 6 6 3 $ $ $ $ $ $ ; ; $ $ $ $ $ $ $ $ $ $ $ $ ; ; $ $ $ $ $ $ ",
"6 6 6 6 6 6 6 4 6 6 6 6 6 6 6 6 4 6 4 $ 4 6 4 4 6 6 : > > 4 6 4 4 4 4 4 4 4 4 6 4 > > 4 6 4 4 4 6 ; $ $ $ $ ; $ # % $ $ $ $ $ $ $ $ $ $ $ $ $ $ $ $ $ $ $ $ $ $ 3 6 4 4 6 4 q q 4 4 4 4 4 4 4 4 4 4 6 6 q q q 4 4 4 4 4 6 ; $ $ $ $ ; $ $ $ $ ; $ $ $ $ $ $ $ $ ; $ $ $ $ $ $ $ $ $ $ $ 4 6 4 6 6 4 5 4 4 6 4 4 4 4 4 4 4 6 6 3 3 4 4 6 4 4 4 6 3 $ $ $ $ ; $ $ $ $ ; $ $ $ $ $ $ $ $ ; $ $ $ $ $ $ $ $ $ $ $ 4 6 4 6 6 3 ; 3 6 6 4 4 4 4 4 4 4 6 w 3 3 7 6 6 4 4 4 6 3 $ $ $ $ ; $ # # $ ; $ $ $ $ $ $ $ $ ; $ # $ $ $ $ $ $ $ ",
"4 3 4 3 4 3 4 6 6 6 6 6 6 6 6 6 6 4 4 $ 4 6 4 6 4 > x n b 4 : 6 4 6 6 6 6 4 6 : 4 b b 8 , 6 6 4 6 ; $ $ $ $ # 4 y e ; $ $ $ $ $ $ $ $ $ $ $ e e 3 $ $ $ $ $ $ $ 3 6 4 6 q 9 B 0 4 q 6 4 6 6 6 6 4 6 4 q 0 B 7 q 4 6 6 4 6 ; $ $ $ $ $ 4 p e ; $ ; $ $ $ $ $ $ ; $ ; e 6 ; $ $ $ $ $ $ $ 4 6 6 4 3 u ' 1 4 4 6 4 6 6 6 4 6 4 3 | 5.1 4 4 6 4 4 6 3 $ $ $ ; $ : i i 4 $ $ $ $ $ $ $ $ ; $ ; i w ; $ $ $ $ $ $ $ 4 6 6 4 3 $.*.$.3 4 6 4 6 6 6 4 6 4 3 $.*.[ 4 4 6 4 4 6 3 $ $ $ $ # 3 y y 3 # $ $ $ $ $ $ $ $ # 3 y 5 ; $ $ $ $ $ ",
"w X.e +.w a a 3 4 3 4 3 3 3 4 4 4 6 4 $ 4 6 6 4 4 OX@X+X@X@Xy : 6 6 6 6 4 6 : x @X+XM M M 4 6 4 6 ; $ $ $ $ s Q v Q Q e $ $ $ $ $ $ $ $ 3 Q Q 7 7 8 $ $ $ $ $ $ 3 6 6 q B W B B B 9 q 6 6 6 6 4 6 4 9 E Y B B B 6 4 6 4 6 ; $ $ $ $ p 8.F 8.8.e $ ; $ $ $ $ ; $ w 8.F 7 9 6 $ $ $ $ $ $ 4 6 4 w n.5.' 5.5.w 4 6 4 6 6 6 4 4 aXsXj.5.5.w 4 6 4 6 3 $ $ ; $ i r.+.7.r. .$ $ $ $ $ $ ; $ u r.@.q u w $ $ $ $ $ $ 4 w 4 t nXnXkXnXnXr 4 6 4 6 4 6 4 w bXnX=.tXtXt 4 6 4 6 3 $ $ $ # s F.>.>.F.a $ $ $ $ $ $ ; # a F.c 5 y 5 $ $ $ $ ",
"X.).L.K.4 ].].L.K.P.+.L././.+./.X.3 6 $ 4 6 6 > OX+X#     n +X4 6 6 6 6 6 4 8 ,Xk u (.  M k , 6 6 ; $ ; # s Q .   O 5 v ; $ $ $ $ $ $ $ Q 8 # t.  7 7 $ $ $ $ $ 3 6 q B W . t ^.d B 7 4 6 6 6 6 4 4 W B q ].% @ B q 6 4 6 ; $ ; $ p 8.. o O 6 p ; $ $ $ $ $ $ 4 8.; t +.o 9 4 $ $ $ $ $ 4 w 3 aXj.,.* o ' 5.4 4 6 6 6 6 3 aXb.o `.5 1 j.6 4 4 6 3 $ ; $ e r.$ o O : @.4 $ $ $ $ $ $ w u.# e @.  u 4 $ $ $ $ $ 4 6 3 nX[.o O o [.tX3 6 6 6 6 6 3 nXkXo `.3 -.tX4 6 4 6 3 $ ; # y F.$   O 4 ,.3 $ $ $ $ ; $ e F.. [ ..o y 4 $ $ $ ",
"w /. X..4 `.o.P./.XX].vX)./.).].P.4 6 $ 4 6 : x @X# # * vXt.M z , 6 6 6 6 > +Xm O K.vXO * M 6 4 6 ; $ $ ; Q $     ).t.X 7 $ $ $ $ ; # y c O 4  X.   8 3 $ $ $ $ 3 6 6 W 7 O ).vXO @ @ q 6 6 6 6 q B Y   e PX$ # B 7 q 4 6 ; $ $ $ 8.$     ).^.. 6 $ $ $ $ ; $ F p O @.`.O # 9 $ $ $ $ $ 4 5 ' sXO vX].O + 5.' 5 6 6 6 4 | sXX X PXi o 5.' 5 6 6 3 $ ; $ t.w o   e._.. u $ $ $ $ ; $ e.r O e.^.O $ u $ $ $ $ $ 4 3 %.nXo # w PXs -.] 7 6 6 w 3 $.nXo ; PXt o tX&.7 6 6 3 $ ; $ F.5   o L.).X y $ $ $ $ $ # D.e O L.^.O * y $ $ $ ",
"e +.i K.e i 6 r e o.+.o.i r 7./.o...4 $ 4 6 > b OX# $ 4 L.# k M , 6 6 6 6 > OXz # $ 3 $ # M 8 4 6 ; $ $ 4 Q . . . @.$ X 8 $ $ $ $ ; # v 0   . $ .   7 7 $ $ $ $ 3 q 9 W $ $ 4 3 # d B q 6 6 6 6 q B B & $ 3 $ % @ @ q 4 6 ; $ $ 4 8.. . . @.$ X 9 $ $ $ $ ; $ 8.3   # $ . . 6 : $ $ $ $ 4 3 5.b.o 4 e # X ' 5.5 6 6 6 3 5.aXo $ 3 $ X ' 5.5 6 6 3 $ $ $ t.$     ..4   u ; $ $ $ $ $ t.:   # #   . e ; $ $ $ $ 4 d [.kXo # e I.o -.-.7 q 6 w ; 2.kXo $ 3 $ X -.-.7 q 6 3 $ $ ; F.$ .   ..: . y $ $ $ $ $ $ F.$   # #   X y $ $ $ ",
"4 3 4 $ 4 3 4 4 4 ; $ 3 3 $ 4 6 4 6 4 $ 4 6 : x @X# $ # o # M k , 6 6 6 6 > +Xn & $ # # $ M 5 4 6 ; $ $ 3 Q X   . O   3 7 $ $ $ $ ; # s v O .   .   7 3 $ $ $ $ 3 6 6 W d % # # % @ B q 6 6 6 6 q B B & $ # $ % B 9 q 4 6 ; $ $ ; 8.#   . O   ; 6 $ $ $ $ ; $ 8.w o .     . 9 ; $ $ $ $ 4 5 ' sXo # . $ X 5.' 5 6 6 6 3 ' sXo $ # $ X ' ' 5 6 6 3 $ ; $ t.q o . O o $ u $ $ $ $ ; $ e.w O .     # u $ $ $ $ $ 4 3 *.nXO $ X   X -.&.7 6 6 w 3 %.nXo $ # $ o -.&.7 6 6 3 $ ; $ F.3   . O   $ y $ $ $ $ $ $ F.5   .     $ y $ $ $ ",
"6 w 3 ).o.).r K.+.i X.r i +.e 4 6 6 4 $ 4 6 6 : @Xm # $ # 8 h 5 4 6 6 6 6 : x ,X8 # $ # M M , 6 6 ; $ ; # c c   . . X 8 3 $ $ $ $ $ $ ; Q 7   .   3 8 $ $ $ $ $ 3 6 q B B # $ $ d B 9 q 6 6 6 6 4 6 W @ # $ % @ B q 6 4 6 ; $ ; $ p 8.    . . 9 3 $ $ $ $ ; $ 6 8.$   .   7 6 $ $ $ $ $ 4 6 3 fXj.X $ X , j.w 4 6 6 6 6 3 fXj.X $ X , j.w 4 4 6 3 $ ; $ i r.#   . . w w $ $ $ $ ; $ r r.#   .   w w $ $ $ $ $ 4 6 4 MX*.o $ X ] tX4 4 6 6 6 6 4 mX*.o $ X < tXq 4 4 6 3 $ ; # s F..   . . y 5 $ $ $ $ ; # a F..   . . y 5 $ $ $ ",
"6 6 3 _. X X).vX X_.vXP.`._.P.3 6 6 4 $ 4 6 6 4 8 OX5 ; : M l , 6 6 6 6 4 6 > n m > ; 5 M 6 4 4 6 ; $ ; $ $ c 7 # # 7 7 $ $ $ $ $ $ ; $ 5 c # # $ 7 3 $ $ $ $ $ 3 6 4 4 E 9 $ $ @ @ q 6 6 6 6 4 6 q 0 B : ; 3 B 7 4 6 4 6 ; $ ; $ $ 8.4 . # 4 4 $ $ $ $ $ $ ; $ p p . # ; 6 $ $ $ $ $ $ 4 w 4 u aX4 ; 3 5.1 4 6 4 6 4 6 4 u aXq $ 3 5.1 5 6 4 6 3 $ $ $ $ @.u . # : w $ $ $ $ $ $ ; $ ..i . # : w $ $ $ $ $ $ 4 w 3 O.kX3 ; 3 -.[ 7 6 4 6 4 6 3 ] bX4 ; 3 -.[ 7 6 4 6 3 $ $ $ $ ,.e . # 4 5 $ $ $ $ $ $ $ # ,.y . # 3 5 $ $ $ $ ",
"6 6 4 7./.I._.).L.P.K.P.). X+.4 6 6 4 $ 4 6 4 6 4 : 6 6 6 4 4 6 4 6 6 6 6 4 6 : 4 6 6 6 4 4 6 4 6 ; $ $ $ $ $ $ ; ; $ $ $ $ $ $ $ $ $ $ $ $ ; ; ; $ $ $ $ $ $ $ 3 6 4 4 q 6 6 6 6 q 6 4 6 6 6 6 4 6 4 q 6 6 6 q 4 6 6 4 6 ; $ $ $ $ $ $ ; ; $ $ $ $ $ $ $ $ $ $ $ $ ; ; $ $ $ $ $ $ $ $ 4 6 6 4 3 6 6 6 4 4 6 4 6 6 6 4 6 4 3 6 6 6 4 4 6 4 4 6 3 $ $ $ $ $ $ ; ; $ $ $ $ $ $ $ $ $ $ $ $ ; ; $ $ $ $ $ $ $ $ 4 6 6 4 3 6 6 6 4 4 6 4 6 6 6 4 6 4 3 6 6 6 4 4 6 4 4 6 3 $ $ $ $ $ $ ; ; $ $ $ $ $ $ $ $ $ $ $ $ ; ; $ $ $ $ $ $ ",
"6 4 6 3 3 3 ; $ 3 4 4 ; 6 a ; 6 4 6 4 $ 4 6 4 4 6 6 6 6 6 6 6 4 6 6 6 6 6 6 4 6 6 6 6 6 6 6 4 4 6 ; $ $ $ $ ; $ $ ; ; ; $ $ $ $ $ $ $ $ ; ; $ ; ; ; $ $ $ $ $ $ 3 6 4 6 6 6 6 6 6 6 6 6 4 6 6 6 6 4 6 6 4 6 6 6 6 4 6 4 6 ; $ $ $ $ ; $ $ ; ; ; $ $ $ $ $ $ $ $ ; ; $ ; ; ; $ $ $ $ $ $ 4 6 4 6 w 6 6 6 6 6 6 4 6 6 6 6 4 6 w 6 6 6 6 6 4 6 4 6 3 $ $ $ $ ; $ $ ; ; ; $ $ $ $ $ $ $ $ ; ; $ ; ; ; $ $ $ $ $ $ 4 6 4 w w 4 6 6 w 6 4 6 6 6 6 6 4 w w 4 6 6 w 6 4 6 4 6 3 $ $ $ $ ; $ $ ; ; ; $ $ $ $ $ $ $ $ ; $ $ ; ; ; $ $ $ $ ",
"6 6 4 i e +.K.7.w 4 r K.7.o.e 4 6 6 4 $ 4 6 4 6 4 3 4 3 3 3 4 6 4 6 6 6 6 4 6 3 3 4 3 3 3 4 6 4 6 ; $ $ $ $ $ $ $ $ $ $ $ $ $ $ $ $ $ $ $ $ $ $ $ $ $ $ $ $ $ $ 3 6 6 4 3 3 4 4 3 3 3 4 6 4 6 6 4 6 4 3 4 3 3 3 4 6 4 4 6 ; $ $ $ $ $ $ $ $ $ $ $ $ $ $ $ $ $ $ $ $ $ $ $ $ $ $ $ $ $ $ 4 6 6 4 3 3 4 4 4 3 3 6 4 6 6 4 6 4 3 4 3 3 3 4 6 4 4 6 3 $ $ $ $ $ $ $ $ $ $ $ $ $ $ $ $ $ $ $ $ $ $ $ $ $ $ $ $ $ $ 4 6 6 4 3 4 3 3 3 4 6 4 6 6 6 4 6 4 3 4 3 3 3 4 6 4 4 6 3 $ $ $ $ $ $ $ $ $ $ $ $ $ $ $ $ $ $ $ $ $ $ $ $ $ $ $ $ ",
"6 6 3 K./._.]. Xw e `.]. X_.7.3 6 6 4 $ 4 6 6 4 r P.w K.K.L.a 4 6 6 6 6 6 6 3 7.K.w P.7.I.4 6 4 6 ; $ $ $ ; @.4 e ....e $ $ $ $ $ $ $ $ e @.$ X.i @.: $ $ $ $ $ 3 w 3 e K.I.+.w P.7.I.4 6 6 6 6 6 4 ..P.6 L.7.L.e 4 6 4 6 ; $ $ $ $ @.q e ....r $ $ $ $ $ $ $ $ a i 3 @.i ..$ $ $ $ $ $ 4 w ; X.K.K.X.o.K.7.7.3 6 6 6 6 4 r P.w K.K.L.i 4 6 4 6 3 $ $ $ $ ..r 4 @.....$ $ $ $ $ $ $ $ ..r 4 @.....$ $ $ $ $ $ 4 6 4 a P.6 I.7.P.e 4 6 6 6 6 6 4 i P.6 K.K.L.r 4 6 4 6 3 $ $ $ $ X.e w X...i $ $ $ $ $ $ $ $ ..e 4 @...i $ $ $ $ ",
"6 6 3 L.`.)._.]...a _.`.].`.K.3 6 6 4 $ 4 6 6 3 +.).7.K. X).K.3 6 6 6 6 6 6 6 P.P.7./.XXP.a 4 6 6 ; $ ; $ e +.....I.K...$ ; $ $ $ $ ; $ ..+.i @.P.+.r $ ; $ $ $ 3 4 i a /.I.L.o.).XXP.a 4 6 6 6 6 3 I./.7.L.XX/.o.3 6 4 6 ; $ ; $ w +.....I.K.X.$ $ $ $ $ $ $ ; +.@.i +.L.@.4 $ $ $ $ $ 4 6 a a _.+.7.a ].).P.w 4 6 6 6 3 +.).7.K. X).K.3 6 4 6 3 $ $ $ 4 +...i e.L.@.3 $ $ $ $ $ $ 3 +.X.i e.L.@.4 $ $ $ $ $ 4 w 3 K./.7.I.XX).+.3 6 6 6 6 6 3 K.).7.I.XX).7.3 6 4 6 3 $ ; $ 4 +...a e.I.@.; $ $ $ $ $ $ 4 +...i e.L.@.3 $ $ $ ",
"6 6 4 ..o.a i ..+.4 ..i a o.a 4 6 6 4 $ 4 6 6 4 ..`.K.P.).`.o.3 6 6 6 6 6 6 4 I.).K.).).).e 4 6 6 ; $ ; $ 4 e.@.X.e.e...$ ; $ $ $ $ ; $ i e...+.e.e.w $ $ $ $ $ 3 4 i e K.X.).K.).)./.e 4 6 6 6 6 3 +.`.K./.).`.a 4 6 4 6 ; $ ; $ 4 e.@.X.e.e...$ ; $ $ $ $ $ $ @.+...e.e.+.; $ $ $ $ $ 4 6 i +.).].K.X./.`.L.4 6 6 6 6 4 ..`.K.P.).`.o.3 6 4 6 3 $ $ $ $ +.+...e.e.@.$ $ $ $ $ $ $ $ @.+...e.e.+.$ $ $ $ $ $ 4 w 3 o.`.K./.).`...4 6 6 6 6 6 3 X._.K.P.).`.X.3 6 4 6 3 $ $ $ ; +.@...e.e.@.$ $ $ $ $ $ $ ; +.+...e.e.@.$ $ $ $ ",
"6 4 6 4 4 4 4 3 4 6 3 4 3 4 4 6 4 6 4 $ 4 6 4 6 4 e w e w e 4 4 4 6 6 6 6 6 4 w e w e 6 e 4 6 4 6 ; $ $ $ $ 3 ; : ; : ; $ $ $ $ $ $ $ $ $ 4 ; 3 $ 3 $ $ $ $ $ $ 3 6 4 4 6 r e w e 6 e 4 6 4 6 6 6 4 6 e 6 e 6 e 4 6 4 4 6 ; $ $ $ $ 3 : : ; : ; $ $ $ $ $ $ $ $ ; 3 ; 3 ; 3 $ $ $ $ $ $ 4 6 3 e e r r r e w w 4 6 6 6 4 6 4 e w e 6 e 4 4 4 4 6 3 $ $ $ $ : 3 ; 3 ; : $ $ $ $ $ $ $ $ : 3 ; 3 ; 3 $ $ $ $ $ $ 4 6 4 6 e 6 e 6 e 4 6 4 6 6 6 4 4 4 e w e 6 e 4 6 4 4 6 3 $ $ $ $ 3 : ; : ; : $ $ $ $ $ $ $ $ 3 3 ; 3 ; : $ $ $ $ ",
"6 6 4 6 6 6 6 6 6 6 6 6 6 6 6 4 4 6 4 $ 4 6 4 4 6 4 4 4 4 4 4 6 6 6 6 6 6 4 6 4 4 4 4 4 4 6 4 4 6 ; $ $ $ $ $ $ $ $ $ $ $ $ $ $ $ $ $ $ $ $ $ $ $ $ $ $ $ $ $ $ 3 6 6 6 4 4 4 4 4 4 4 6 4 6 6 6 4 6 4 4 4 4 4 4 6 4 6 4 6 ; $ $ $ $ $ $ $ $ $ $ $ $ $ $ $ $ $ $ $ $ $ $ $ $ $ $ $ $ $ $ 4 6 6 4 4 4 4 4 4 4 4 6 4 6 6 6 4 6 4 4 4 4 4 4 6 6 4 6 3 $ $ $ $ $ $ $ $ $ $ $ $ $ $ $ $ $ $ $ $ $ $ $ $ $ $ $ $ $ $ 4 6 4 4 4 4 4 4 4 6 4 6 6 6 6 6 6 6 4 4 4 4 4 6 4 6 4 6 3 $ $ $ $ $ $ $ $ $ $ $ $ $ $ $ $ $ $ $ $ $ $ $ $ $ $ $ $ ",
"6 6 6 6 6 6 6 6 6 6 6 6 6 6 6 6 4 6 4 $ 4 6 4 6 6 6 6 6 6 6 6 4 6 6 6 6 6 6 4 6 6 6 6 6 6 4 6 4 6 ; $ $ $ $ $ $ $ $ $ $ $ $ $ $ $ $ $ $ $ $ $ $ $ $ $ $ $ $ $ $ 3 6 4 6 6 6 6 6 6 6 6 4 6 6 6 6 6 4 6 6 6 6 6 6 6 6 6 4 6 ; $ $ $ $ $ $ $ $ $ $ $ $ $ $ $ $ $ $ $ $ $ $ $ $ $ $ $ $ $ $ 4 6 4 6 6 6 6 6 6 6 6 4 6 6 6 6 6 6 6 6 6 6 6 6 4 6 4 6 3 $ $ $ $ $ $ $ $ $ $ $ $ $ $ $ $ $ $ $ $ $ $ $ $ $ $ $ $ $ $ 4 6 4 6 6 6 6 6 6 6 6 6 6 6 6 6 4 6 6 6 6 6 6 6 4 6 4 6 3 $ $ $ $ $ $ $ $ $ $ $ $ $ $ $ $ $ $ $ $ $ $ $ $ $ $ $ $ ",
"6 6 6 6 6 6 6 6 6 6 6 6 6 6 6 6 4 6 4 $ 4 6 4 6 4 6 6 6 6 6 4 6 6 6 6 6 6 6 6 4 6 6 6 6 6 4 6 4 6 ; $ $ $ $ $ $ $ $ $ $ $ $ $ $ $ $ $ $ $ $ ; ; ; $ $ $ $ $ $ $ 3 6 4 4 6 6 6 6 6 4 6 6 6 6 6 6 6 6 4 6 6 6 6 6 4 6 6 4 6 ; $ $ $ $ $ $ $ $ $ $ $ $ $ $ $ $ $ $ $ $ ; ; ; $ $ $ $ $ $ $ 4 6 4 4 6 6 6 6 6 4 6 6 6 6 6 6 6 4 6 6 6 6 6 4 6 6 4 6 3 $ $ $ $ $ $ $ $ $ $ $ $ $ $ $ $ $ $ $ $ ; ; ; $ $ $ $ $ $ $ 4 6 4 4 6 6 6 6 6 4 6 6 6 6 6 6 6 4 6 6 6 6 6 4 6 6 4 6 3 $ $ $ $ $ $ $ $ $ $ $ $ $ $ $ $ $ $ $ $ ; ; $ $ $ $ $ $ ",
"6 6 6 4 6 6 6 6 6 6 6 6 6 6 6 6 4 6 4 $ 4 6 4 4 6 4 > > > 4 6 4 6 6 6 6 6 4 4 6 4 = = = 4 6 4 4 6 ; $ $ $ $ $ $ $ # $ $ $ $ $ $ $ $ $ $ ; $ $ $ $ $ $ $ $ $ $ $ 3 6 4 6 6 > > > : 6 6 4 6 6 6 6 6 4 6 4 = = = 4 6 4 6 4 6 ; $ $ $ $ $ $ $ # $ $ $ $ $ $ $ $ $ $ $ $ $ $ $ $ $ $ $ $ $ $ 4 6 4 6 4 > > > 4 6 4 6 6 6 6 6 4 6 4 = = = 4 6 4 6 4 6 3 $ $ $ $ $ $ $ $ $ $ $ $ $ $ $ $ $ $ $ $ $ $ $ $ $ $ $ $ $ $ 4 6 4 6 4 > > > 4 6 4 6 6 6 6 6 4 6 4 = = = 4 6 4 6 4 6 3 $ $ $ $ $ $ $ # $ $ $ $ $ $ $ $ $ $ $ $ $ $ $ $ $ $ $ $ ",
"6 6 4 6 4 4 4 3 4 6 4 4 4 4 6 6 4 6 4 $ 4 6 4 6 : w 4.&X4.y > 6 4 6 6 6 6 4 6 5 1 p.p.S 4 4 6 4 6 ; $ $ $ $ $ e y y 5 $ $ $ $ $ $ $ $ $ $ 3 p p 9 ; $ $ $ $ $ $ 3 6 6 4 4 <.&X4.,.> 6 6 6 6 6 6 4 6 5 u p.p.p.w 4 6 4 4 6 ; $ $ $ $ $ 5 y y 5 $ $ $ $ $ $ $ $ $ $ 4 p p 6 $ $ $ $ $ $ $ 4 6 6 : e 4.&X4.y > 6 4 6 6 6 4 6 4 6 S p.p.u 5 6 4 4 6 3 $ $ $ $ $ 5 y y 5 $ $ $ $ $ $ $ $ $ $ 4 p p 6 $ $ $ $ $ $ $ 4 6 6 : e 4.&X4.y : 6 4 6 6 6 4 6 4 w 5.p.p.u 5 6 4 4 6 3 $ $ $ $ $ 5 y y 5 $ $ $ $ $ $ $ $ $ $ 6 p p 6 $ $ $ $ $ ",
"6 6 6 4 ....a ..e 4 e K.w 6 4 6 4 6 4 $ 4 6 6 4 y :X4.<.4.:X<.: 6 4 6 6 6 6 5 S p.D D p.p.w 4 6 6 ; $ $ $ ; v y 5 5 v y $ $ $ $ $ $ $ $ 6 F 7 3 9 F 3 $ $ $ $ $ 3 6 4 w =X&X<.4.:X4.: 6 6 6 6 4 6 5 D 8XS D p.8X1 4 6 4 6 ; $ $ $ $ v y 5 5 v y $ $ $ $ $ $ $ $ p p 7 4 p p ; $ $ $ $ $ 4 6 : y :X4.<.4.:X<.: 6 4 6 4 6 4 u p.S D S 8XD 5 6 4 6 3 $ $ $ $ y v 5 5 v y $ $ $ $ $ $ $ $ p p 7 7 p p $ $ $ $ $ $ 4 6 : v :X4.<.4.:X,.: 6 4 6 4 6 4 1 8XS D S 8XD 5 6 4 6 3 $ $ $ $ y y 5 5 v y $ $ $ $ $ $ $ $ p p 7 7 p p $ $ $ $ ",
"6 6 6 ; ]. X_._.K. XK.XXK.; 6 4 4 6 4 $ 4 6 6 4 :X<.O   O - :Xy 4 6 6 6 6 4 1 p.$ X o O S p.= 6 6 ; $ ; $ y 8     O   v 5 $ $ $ $ $ $ ; F $     O ; F $ $ $ $ $ 3 w > &X4.O . O . :X,.: 6 6 6 6 4 w 8X2 o X O 2 p.4 4 4 6 ; $ ; $ y y     O   v 5 $ $ $ $ $ $ 6 p       O 9 p $ ; $ $ $ 4 6 4 :Xx O   O 8 :Xe 4 6 6 6 6 4 p.D o $ O # 8Xu 4 6 6 3 $ ; $ e y     O O y y $ $ $ $ ; $ 6 p     o O 9 p $ ; $ $ $ 4 4 w :Xx O   O x :X6 4 6 6 6 4 6 p.2 o X O > 8Xw 4 4 6 3 $ ; $ y y     O O y 5 $ $ $ $ ; $ 9 p     O O p e $ ; $ ",
"6 6 4 r /.).).P._.vXL._./.e 4 6 4 6 4 $ 4 6 : v =X  $ # vX Xk x : 6 6 6 6 = p.D X # 4 /.a p.w 4 6 ; $ $ 3 v . . o e.'.* 5 $ $ $ $ ; $ 9 9   . # @.r 9 4 $ $ $ $ 3 4 e :X* $ . `.vX8 <.: 6 6 6 6 = S S o $ ; P.@.S D 5 6 6 ; $ $ ; v X . o %.].* 5 $ $ $ $ ; $ p 3     $ +.q p ; $ $ $ $ 4 : ,.=X  $ $ vX].k x : 6 6 6 5 1 p.X $ # e.1.S S = 6 6 3 $ ; $ v *     i ].4 5 $ $ $ $ $ $ p ;     3 +.4 p ; $ $ $ $ 4 > <.&X  $ $ vX(.x x : 6 6 6 5 D p.X $ $ I.,.S D = 6 6 3 $ $ $ v $   o ..].3 5 $ $ $ $ $ $ p ;     4 +.4 p $ $ $ ",
"6 6 4 w 3 6 i e a w a w ..X.4 6 4 6 4 $ 4 6 > <.&X  $ $ P.e 8 x : 6 6 6 6 = p.2 $ . r vX+.D u 4 6 ; $ $ 3 v   .   ..t X 5 $ $ $ $ ; $ p 7     $ `.@.d 3 $ $ $ $ 3 4 y =X$ $ . K...- <.4 6 6 6 6 = p.S X # 3 vX^.2 1 5 4 6 ; $ $ 3 v . .   ..e X 5 $ $ $ $ $ $ p ;     t ].e d ; $ $ $ $ 4 > <.&X  $ $ ^.w l x : 6 6 6 5 D p.X $ X XX].2 D 5 6 6 3 $ $ $ v $ .   r ... 5 $ $ $ $ $ $ p $ . o r ].w ; ; $ $ $ $ 4 > 4.4.  $ ; ^.4 x x : 6 6 6 = D S X $ $ vX_.2 D 5 6 6 3 $ $ ; v X .   r i . 5 $ $ $ $ $ $ p # . o { ].4 ; ; $ $ ",
"6 6 4 e a 4 ; i $ 3 ; 3 3 $ 4 6 4 6 4 $ 4 6 4 y :X$ # $ o   b x : 6 6 6 6 = p.S o $ # O . D 6 4 6 ; $ $ $ v $   . O O * 5 $ $ $ $ $ $ 6 p   . . O O > ; $ $ $ $ 3 6 4 :X8   $ o O x x : 6 6 6 6 5 D p.X $ $ O o D , 4 4 6 ; $ $ $ v *   . O O * 5 $ $ $ $ ; $ p 9   .   O   7 $ $ $ $ $ 4 4 y :X# # $ o   b y 4 6 6 6 4 u p.$ $ $ o O D 2 4 4 6 3 $ ; $ y 5   .   O X 5 $ $ $ $ ; $ p 7   .   O . 7 $ $ $ $ $ 4 : v :X. $ $ O   b y 4 6 6 6 4 1 p.$ $ $ O o D , 4 4 6 3 $ ; $ v 3   . o O $ 5 $ $ $ $ $ $ p 3   .   O X 3 $ $ $ ",
"6 w 3 K.XX7.L./.K.o.K.K.+.L.e 4 6 6 4 $ 4 6 6 > 4.=X# $ # x :.4 6 6 6 6 6 4 w 8XD X $ ; D 2 5 4 6 ; $ ; $ e v X   . $ 5 $ $ $ $ $ $ $ $ p 9   . . ; : $ $ $ $ $ 3 w > <.:X= # # 8 :.5 4 6 6 6 6 6 4 p.S $ $ $ D D 5 6 4 6 ; $ ; $ 5 v X   . $ 5 $ $ $ $ $ $ $ : F ;   . # > ; $ $ $ $ $ 4 w > &X&X. $ # x b 4 6 6 6 6 6 = p.p.$ $ $ 2 D 4 4 4 6 3 $ ; $ 4 v *   . # 5 3 $ $ $ $ $ $ 3 F ;   . # > ; $ $ $ $ $ 4 6 > =X4.. $ # x <.4 6 6 6 6 6 5 p.p.$ $ $ 2 D 4 6 4 6 3 $ ; $ 5 v $   . $ 5 3 $ $ $ $ $ $ 4 F $   . # > ; $ $ $ ",
"6 w ; I. X XXX].vX_.vX_.XXvXi 4 6 6 4 $ 4 6 6 4 4 4.5 3 4 x 5 4 6 4 6 6 4 6 5 1 D 3 4 6 2 4 6 4 6 ; $ $ $ $ e 3 $ $ 3 3 $ $ $ $ $ $ $ $ : 6 $ $ $ ; $ $ $ $ $ $ 3 6 6 : <.y : 3 y y 4 6 4 6 6 4 6 4 w S 4 3 4 2 6 4 6 4 6 ; $ $ $ $ 5 3 $ $ 3 3 $ $ $ $ $ $ $ $ 4 6 $ $ ; ; $ $ $ $ $ $ 4 6 4 6 4.6 3 4 x 5 4 6 6 6 6 6 4 4 S 6 3 4 2 6 4 6 4 6 3 $ $ $ $ 5 5 # $ * 3 $ $ $ $ $ $ $ $ 4 4 $ $ ; ; $ $ $ $ $ $ 4 6 4 w 4.4 3 4 x 6 4 6 6 6 6 6 4 6 S 4 3 4 2 6 4 6 4 6 3 $ $ $ $ 5 5 $ $ 3 3 $ $ $ $ $ $ $ $ 6 4 $ $ ; ; $ $ $ $ ",
"6 6 4 a ..+.+.X.+.7.K.+.7.+.w 4 6 6 4 $ 4 6 4 6 6 > 4 6 6 4 4 6 4 6 6 6 6 4 6 4 5 6 6 6 4 6 6 4 6 ; $ $ $ $ $ $ ; $ $ $ $ $ $ $ $ $ $ $ $ $ $ ; $ $ $ $ $ $ $ $ 3 6 4 6 > 4 6 6 4 4 6 4 6 6 6 6 4 6 4 5 6 6 6 4 4 6 4 4 6 ; $ $ $ $ $ $ ; $ $ $ $ $ $ $ $ $ $ $ $ $ ; ; $ $ $ $ $ $ $ $ 4 6 6 4 > 6 6 6 4 4 6 4 6 6 6 4 6 4 5 6 6 6 4 4 6 4 4 6 3 $ $ $ $ $ $ ; $ $ $ $ $ $ $ $ $ $ $ $ $ ; ; $ $ $ $ $ $ $ $ 4 6 6 4 > 6 6 6 4 4 6 4 6 6 6 4 6 4 5 6 6 6 4 4 6 4 4 6 3 $ $ $ $ $ $ ; $ $ $ $ $ $ $ $ $ $ $ $ $ ; ; $ $ $ $ $ $ ",
"4 6 4 3 3 $ 3 ; 3 3 $ ; ; ; 4 4 6 6 4 $ 4 6 4 6 4 6 6 4 6 4 6 4 6 6 6 6 6 6 4 6 6 4 6 4 6 6 6 4 6 ; $ $ $ $ $ $ $ $ $ $ $ $ $ $ $ $ $ $ $ ; $ $ $ $ $ $ $ $ $ $ 3 6 4 6 6 6 4 6 6 6 6 4 6 6 6 6 6 4 6 6 4 4 4 6 6 4 6 4 6 ; $ $ $ $ $ $ $ $ $ $ $ $ $ $ $ $ $ $ $ ; $ $ $ $ $ $ $ $ $ $ 4 6 4 4 6 6 4 6 4 6 4 6 6 6 6 6 4 6 6 6 4 6 4 6 4 6 4 6 3 $ $ $ $ $ $ $ $ $ $ $ $ $ $ $ $ $ $ $ $ $ $ $ $ $ $ $ $ $ $ 4 6 4 4 6 6 4 6 4 6 4 6 6 6 6 6 4 6 6 6 4 6 4 6 4 6 4 6 3 $ $ $ $ $ $ $ $ $ $ $ $ $ $ $ $ $ $ $ $ $ $ $ $ $ $ $ $ ",
"6 4 w 7.a ..e a w w ....e a 7.6 4 6 4 $ 4 6 4 4 6 w 4 w 4 w 4 6 4 6 6 6 6 4 6 4 4 6 4 6 4 6 4 4 6 ; $ $ $ $ 3 $ ; $ $ $ $ $ $ $ $ $ $ $ $ $ $ $ $ $ $ $ $ $ $ $ 3 6 4 4 e 4 6 4 4 6 4 6 4 6 6 6 4 6 4 4 4 4 4 4 4 6 6 4 6 ; $ $ $ $ 3 $ ; $ $ $ $ $ $ $ $ $ $ $ $ $ $ $ $ $ $ $ $ $ $ $ 4 6 4 w w 4 6 4 w 4 6 4 6 6 6 6 4 6 4 4 w 4 6 4 6 4 4 6 3 $ $ $ $ 3 $ ; $ $ $ $ $ $ $ $ $ $ $ $ $ $ $ $ $ $ $ $ $ $ $ 4 6 4 w w 4 6 4 w 4 6 4 6 6 6 6 6 6 4 4 6 4 6 4 6 4 4 6 3 $ $ $ $ 3 $ ; $ $ $ $ $ $ $ $ $ $ $ $ $ $ $ $ $ $ $ $ $ ",
"6 4 a `.].].P.`.4 a  X]./.)./.a 4 6 4 $ 4 6 6 4 e P.).P.r `.X.3 6 6 6 6 6 6 4 a /.K./.).o.3 6 4 6 ; $ $ $ $ i +.e.w ..+.$ $ $ $ $ $ $ $ 3 +...+.+...$ ; $ $ $ $ 3 6 6 4 +.).).a K./.4 6 6 6 6 6 6 4 w /.K.).).K.3 6 6 4 6 ; $ $ $ $ i +.e.w ..+.$ $ $ $ $ $ $ $ : +...+.+...$ ; $ $ $ $ 4 6 4 e /.).L.r `...4 6 6 6 6 6 6 3 K.I.P./.).e 4 6 4 6 3 $ $ $ $ i +.e.w ..@.$ $ $ $ $ $ $ $ 4 +...+.+.i $ ; $ $ $ $ 4 6 4 r /.).I.i _.a 4 6 6 6 6 6 6 3 I.I./././.w 4 6 4 6 3 $ $ $ $ ..+.+.4 @.X.$ $ $ $ $ $ $ $ 4 +...+.e.r $ ; $ $ ",
"6 4 i ).7.K.7.).7.r K.7.K.P.`.r 4 6 4 $ 4 6 4 6 4 P.`.P.K./.K.3 w 6 6 6 6 6 4 w ).I. X`.K.3 6 4 6 ; $ $ $ $ w K.+.....+.4 $ $ $ $ $ $ $ $ +.@.K.K.X.$ $ $ $ $ $ 3 6 6 4 .._.P.I.I.).r 4 6 6 6 6 6 6 4 P.P._.].L.4 6 6 4 6 ; $ $ $ $ w K.+.....+.4 $ $ $ $ $ $ ; $ @.@.e.I.X.$ $ $ $ $ $ 4 6 4 6 P.).P.K./.K.3 w 6 6 6 6 6 3 X.`.I.XX/.o.3 6 4 6 3 $ $ $ $ e K.@...X.+.3 $ $ $ $ $ $ $ $ +.@.K.K.X.$ ; $ $ $ $ 4 6 4 w /.).L.K./.7.3 6 6 6 6 6 6 3 o.`.L.XXP...3 6 4 6 3 $ $ $ $ r K.@...@.+.; $ $ $ $ $ $ $ ; +.X.I.e...$ ; $ $ ",
"6 4 6 a 4 4 6 e a 4 4 4 6 w a 6 4 6 4 $ 4 6 6 3 X.`.K.P.o./...4 6 6 6 6 6 6 4 w o.K.L.P...4 6 4 6 ; $ $ $ $ +...@.i ..X.$ $ $ $ $ $ $ $ $ r i @.@.i $ ; $ $ $ $ 3 6 6 4 ).I.P.7.K.L.4 6 6 6 6 6 4 6 4 o.7.P.P.7.3 6 6 4 6 ; $ $ $ $ +...@.a ..@.$ $ $ $ $ $ $ $ $ r i @.@.i $ ; $ $ $ $ 4 w 3 o.).K.P.+./.a 4 6 6 6 6 6 6 4 i o.L.I.P.e 4 6 4 6 3 $ $ $ $ e...@.i ....$ $ $ $ $ $ $ $ $ r i @.@.r $ ; $ $ $ $ 4 w 3 +.).K.P.+./.i 4 6 6 6 6 6 6 4 a o.P.I.P.w 4 6 4 6 3 $ $ $ ; e...+.i X...$ $ $ $ $ $ $ $ $ r ..@.@.r $ $ $ $ ",
"6 6 4 4 6 6 4 4 4 6 6 6 4 4 4 4 4 6 4 $ 4 6 4 6 4 4 4 4 4 4 4 6 4 6 6 6 6 6 6 4 4 4 3 3 4 6 4 4 6 ; $ $ $ $ $ $ $ $ $ $ $ $ $ $ $ $ $ $ $ $ $ $ $ $ $ $ $ $ $ $ 3 6 4 6 4 4 4 4 4 4 4 6 4 6 6 6 6 4 6 4 4 3 3 4 6 4 6 4 6 ; $ $ $ $ $ $ $ $ $ $ $ $ $ $ $ $ $ $ $ $ $ $ $ $ $ $ $ $ $ $ 4 6 6 4 4 4 4 4 4 4 6 4 6 6 6 6 4 6 4 4 4 3 4 4 6 4 4 6 3 $ $ $ $ $ $ $ $ $ $ $ $ $ $ $ $ $ $ $ $ $ $ $ $ $ $ $ $ $ $ 4 6 6 4 4 4 4 4 4 4 6 4 6 6 6 6 4 6 4 4 4 3 4 4 6 4 4 6 3 $ $ $ $ $ $ $ $ $ $ $ $ $ $ $ $ $ $ $ $ $ $ $ $ $ $ $ $ ",
"6 4 6 6 6 6 6 6 6 4 6 6 6 6 6 6 4 6 4 $ 4 6 4 4 6 6 6 6 6 6 6 4 6 6 6 6 6 6 4 6 6 6 6 6 6 4 6 4 6 ; $ $ $ $ $ $ $ $ $ $ $ $ $ $ $ $ $ $ $ $ $ ; ; $ $ $ $ $ $ $ 3 6 4 4 6 6 6 6 6 6 6 4 6 6 6 6 6 6 4 6 6 6 6 6 4 6 6 4 6 ; $ $ $ $ $ $ $ $ $ $ $ $ $ $ $ $ $ $ $ $ $ ; ; $ $ $ $ $ $ $ 4 6 4 6 6 6 6 6 6 6 4 6 6 6 6 6 6 4 6 6 6 6 6 6 4 6 4 6 3 $ $ $ $ $ $ $ $ $ $ $ $ $ $ $ $ $ $ $ $ $ ; ; $ $ $ $ $ $ $ 4 6 4 6 6 6 6 6 6 6 4 6 6 6 6 6 6 4 6 6 6 6 6 6 4 6 4 6 3 $ $ $ $ $ $ $ $ $ $ $ $ $ $ $ $ $ $ $ $ $ ; ; $ $ $ $ $ ",
"6 6 6 6 6 6 6 6 6 6 6 6 6 6 6 6 4 6 4 $ 4 6 4 6 6 6 6 6 6 6 6 6 6 6 6 6 6 6 6 6 6 6 6 6 6 6 6 4 6 ; $ $ $ $ $ $ $ $ $ $ $ $ $ $ $ $ $ $ $ $ $ $ $ $ $ $ $ $ $ $ 3 6 4 6 6 6 6 6 6 6 6 6 6 6 6 6 6 6 6 6 6 6 6 6 6 6 6 4 6 ; $ $ $ $ $ $ $ $ $ $ $ $ $ $ $ $ $ $ $ $ $ $ $ $ $ $ $ $ $ $ 4 6 4 6 6 6 6 6 6 6 6 6 6 6 6 6 6 6 6 6 6 6 6 6 6 6 4 6 3 $ $ $ $ $ $ $ $ $ $ $ $ $ $ $ $ $ $ $ $ $ $ $ $ $ $ $ $ $ $ 4 6 4 6 6 6 6 6 6 6 6 6 6 6 6 6 6 6 4 6 6 6 4 6 6 6 4 6 3 $ $ $ $ $ $ $ $ $ $ $ $ $ $ $ $ $ $ $ $ $ $ $ $ $ $ $ $ ",
"6 6 6 6 6 6 4 6 6 6 4 6 6 4 6 6 4 6 4 $ 4 6 4 6 4 w w 4 6 w 6 4 6 6 6 6 6 6 4 6 6 6 4 6 6 4 6 4 6 ; $ $ $ $ $ $ $ $ $ $ $ $ $ $ $ $ $ $ $ ; $ $ ; ; $ $ $ $ $ $ 3 6 4 4 6 w 4 6 w 6 4 6 6 6 6 6 6 6 6 6 6 4 6 6 4 6 6 4 6 ; $ $ $ $ $ $ $ $ $ $ $ $ $ $ $ $ $ $ $ ; $ $ ; $ $ $ $ $ $ $ 4 6 4 4 w w 4 6 w 6 6 6 6 6 6 6 6 4 6 w 4 6 w 6 4 6 4 6 3 $ $ $ $ $ $ $ $ $ $ $ $ $ $ $ $ $ $ $ ; $ $ ; $ $ $ $ $ $ $ 4 6 4 4 w w 4 w w 4 6 6 6 6 6 6 6 4 w w 4 w w 4 6 6 4 6 3 $ $ $ $ $ $ $ $ $ $ $ $ $ $ $ $ $ $ $ ; $ $ ; $ $ $ $ $ ",
"6 4 6 4 4 4 6 6 6 6 6 4 6 6 4 6 4 6 4 $ 4 6 4 4 w : > 6 : > 6 6 4 6 6 6 6 4 6 6 > : 6 > : 6 4 4 6 ; $ $ $ $ $ $ $ $ $ $ $ $ $ $ $ $ $ $ $ # $ $ % $ ; $ $ $ $ $ 3 6 4 w 3 > 4 4 > 4 6 4 6 6 6 6 4 6 6 q q 6 q q 6 4 6 4 6 ; $ $ $ $ $ $ $ $ $ $ $ $ $ $ $ $ $ $ $ $ $ $ $ $ ; $ $ $ $ $ 4 6 4 w > > 6 > > w 6 4 6 6 6 6 4 w 3 3 6 3 * 6 6 4 4 6 3 $ $ $ $ $ $ $ $ $ $ $ $ $ $ $ $ $ $ $ # $ $ # $ ; $ $ $ $ $ 4 6 4 w > > 6 > > w 4 4 6 6 6 6 4 w 3 3 6 3 3 w 4 4 4 6 3 $ $ $ $ $ $ $ $ $ $ $ $ $ $ $ $ $ $ $ # $ $ # $ $ $ $ $ ",
"6 6 4 6 w w 3 4 4 4 3 6 4 4 6 4 4 6 4 $ 4 6 4 w > <.SXSXSX4.> 6 6 6 6 6 4 6 4 4 m @X@XOXx : 6 4 6 ; $ $ $ $ 4 s o.,.y $ $ $ $ $ $ $ $ $ $ y Q Q Q e % ; $ $ $ $ 3 6 w : { SXSXSXAX4 4 6 4 6 6 6 6 6 q B E W E J q 6 4 4 6 ; $ $ $ $ 3 s o.,.a $ $ $ $ $ $ $ $ $ $ p 8.8.8.4 $ ; $ $ $ $ 4 6 w > <.SXSXSX4.> 6 6 6 6 6 4 w 3 6.fXsXfX5.3 6 6 4 6 3 $ $ $ $ ; a o.,.s 3 $ $ $ $ $ $ $ $ ; @.t.t.e.4 $ ; $ $ $ $ 4 6 6 > 4.SXSXSX4.> w 4 6 6 6 4 w 3 *.nXnXnX*.3 6 6 4 6 3 $ $ $ $ 3 a o.,.a ; $ $ $ $ $ $ $ $ 3 ,.F.F.>.3 $ $ $ $ ",
"6 6 3 +._.).a a i a i P.K.4 6 6 4 6 4 $ 4 6 w > 4.SX<.t } SXAX> w 6 6 6 6 6 : OXOX8 8 n ,Xx : 6 6 ; $ ; $ 4 ,.5 $ $ y X.$ $ $ $ $ $ ; % s Q 3 $ 7 Q y % ; $ $ $ 3 w : } SX4.t } SXSX4 6 6 6 6 6 6 q B W @ d @ W B q 6 4 6 ; $ ; $ 4 ,.5 $ $ y X.$ $ $ $ $ $ $ $ 8.F ; $ p 8.4 $ $ $ $ $ 4 w > 4.SX<.t <.SXAX> w 6 6 4 w 3 5.sX' , ' sXn.3 w 4 6 3 $ $ $ ; ,.y $ $ e ,.3 $ $ $ $ $ $ ; t.X.$ $ i r.4 $ $ $ $ $ 4 w > oXSX<.t <.SXoX> w 4 6 4 w 3 2.MX$.t O.mXkX3 w 4 6 3 $ ; $ 3 ,.e $ $ y ,.; $ $ $ $ $ $ 3 F.s * * s F.3 $ $ $ ",
"6 6 4 i P.)._.`.).vX_._.].a 3 6 4 6 4 $ 4 6 4 w SXy O X O . SX<.: 6 6 6 6 > n @X& # # & z @X: 6 6 ; $ ; $ X.5 O . O   s r $ $ $ $ $ $ 5 Q       O $ Q 3 $ $ $ $ 3 w > SX4.O # O O SX4.> w 6 6 6 q 9 W $ & # & d W 6 4 4 6 ; $ ; $ X.5 O . O   s r $ $ $ $ ; $ p F O     O 6 8.$ ; $ $ $ 4 4 e SXt O X O $ SX,.: 6 6 6 4 w sX, o $ o X sX' 3 6 6 3 $ ; $ a y O     O e s $ $ $ $ ; # X.@.O     O i e.$ ; $ $ $ 4 4 { SX= O X O 4 SX{ 4 6 6 6 4 r MXq o X o $ MX] 3 6 6 3 $ ; $ a e O . O O y a $ $ $ $ ; # ,.s O     O s >.# ; $ ",
"6 6 4 r K.o.I.7.+.P.I./.o.L.w 4 6 6 4 $ 4 w > <.SX  $ # vXvX<.4.> w 6 6 6 > OXb # $ 3 X   @Xy : 6 ; $ $ 3 ,.. . o I.].* 5 $ $ $ $ ; # s s   . # . O c y % ; $ $ 3 4 y SX$ $ # ..e <.SX> w 6 6 6 q B B & $ $ $   B B q 6 6 ; $ $ 3 ,.. . o e.].3 5 $ $ $ $ ; $ 8.4   . #     8.3 $ $ $ $ 4 > 4.SX  $ $ vX X<.4.> w 6 6 3 5.aXo $ $ : O j.j.* w 6 3 $ $ $ o.$ . o ..xXw 5 ; $ $ $ $ $ t.:   . # o . t.: $ $ $ $ 4 > 4.AXO $ $ vX X4.<.> 6 6 w 3 *.kXo $ $ $ O kX[.d w 6 3 $ $ $ ,.$ . o @.xX4 5 $ $ $ $ $ $ F.*   . # O $ F.$ $ $ ",
"6 4 6 4 4 3 $ 4 4 6 6 4 4 i w 4 6 6 4 $ 4 w > <.SX  $ $ @.: } 4.> 6 6 6 6 > OXb # o e.PXw @Xx : 6 ; $ $ 3 X.. .   t 4 $ 5 $ $ $ $ ; # s 0     4 xXt v y # ; $ $ 3 4 y SX$ $   _.vX<.SX> w 6 6 6 q B B & X r PXO.B B q 6 6 ; $ $ 3 o.. .   t 4 $ 5 $ $ $ $ ; $ 8.4   O @.].$ 8.4 $ $ $ $ 4 > 4.SXO $ $ @.> <.<.> 6 6 6 3 5.aXo $ $ PXY.j.n.* w 6 3 $ $ $ o.$     4 t . 5 $ $ $ $ $ $ t.:   O +.].$ t.: $ $ $ $ 4 > 4.AXO $ $ +.> <.<.> 6 6 w 3 *.kXo $ 4 PX7.kXkXd w 6 3 $ $ $ ,.$     q q X 5 $ $ $ $ $ $ F.*   O e.`.* F.$ $ $ ",
"6 6 4 6 4 ..I.w 4 4 4 4 4 4 4 6 4 6 4 $ 4 6 4 e SXy   $     4.} 4 6 6 6 6 > n @X# $ $ t.x +X6 4 6 ; $ ; $ ,.5   . o O 3 4 $ $ $ $ $ $ 5 Q .     r e v 3 $ $ $ $ 3 w > SX4.O $     4.<.: 6 6 6 6 q 9 W $ $ X @.s B 9 4 4 6 ; $ ; $ X.5   .   O 3 4 $ $ $ $ ; $ p F   . . { e F $ $ $ $ $ 4 4 r SXt . $   . 4.y 4 6 6 6 4 w sX1 X . i o.b.6.3 6 6 3 $ ; $ a y   .   O * 5 $ $ $ $ ; # @.@.O . # { r @.$ $ $ $ $ 4 4 { SX- . $   $ 4.r 4 6 6 6 4 r MXq X # ..@.nXO.3 6 6 3 $ ; $ s e   .   O * 5 $ $ $ $ ; # >.v O . $ { y ,.# ; $ ",
"6 6 6 6 4 i `.P.L.).P._.7.3 6 4 4 6 4 $ 4 6 w > 4.SX$ $ # 4.4.: 6 6 6 6 6 6 : @Xm # $ X M 8 4 6 6 ; $ ; $ 4 ,.$   . * 5 $ $ $ $ $ $ ; # c c   .   7 7 $ $ $ $ $ 3 w : ,.SXy X # } 4.4 4 6 6 6 6 6 q B B % $ . @ @ q 6 4 6 ; $ ; $ 4 ,.$   . * 5 $ $ $ $ $ $ $ $ 8.p   .   9 : $ $ $ $ $ 4 w > oXSX$ $ $ 4.4.: 6 6 6 4 w 3 5.sX$ $ o ' 5.5 6 4 6 3 $ $ $ ; ,.5   . $ 5 ; $ $ $ $ $ $ ; r.e   . . u ; $ $ $ $ $ 4 w > oXSXX $ $ 4.<.: 6 4 6 4 w 3 [.nX$ $ o -.-.3 w 4 6 3 $ ; $ 3 ,.3   . $ 5 $ $ $ $ $ $ $ 3 F.5     X y $ $ $ $ ",
"6 6 4 6 ; P././._.P.).vX7.3 6 4 4 6 4 $ 4 6 4 6 : } e 4 4 y 4 4 6 6 6 6 4 6 4 5 x 4 4 5 8 4 6 4 6 ; $ $ $ $ 4 3 $ $ 3 $ $ $ $ $ $ $ $ $ $ 5 $ $ ; 3 $ $ $ $ $ $ 3 6 6 : } r 4 4 y w 4 6 4 6 6 6 6 4 4 9 4 4 6 9 4 6 4 4 6 ; $ $ $ $ 4 3 $ $ 3 $ $ $ $ $ $ $ $ $ ; 4 $ $ : : $ $ $ $ $ $ 4 6 6 3 } w 4 4 y 4 4 6 6 6 6 4 6 5 | w 4 6 u 4 6 6 4 6 3 $ $ $ $ 3 4 $ $ ; ; $ $ $ $ $ $ $ $ : 4 $ $ 3 : $ $ $ $ $ $ 4 6 4 4 } w 4 6 y 4 6 4 6 6 6 4 6 3 O.w 4 6 [ 4 6 4 4 6 3 $ $ $ $ 3 3 $ $ 3 ; $ $ $ $ $ $ $ $ 4 4 $ $ 3 3 $ $ $ $ ",
"6 6 6 6 4 a ..a i e e i w 4 6 6 4 6 4 $ 4 6 4 4 w 3 4 6 6 4 6 6 4 6 6 6 6 4 6 4 : 6 6 6 4 6 4 4 6 ; $ $ $ $ $ $ $ $ $ $ $ $ $ $ $ $ $ $ $ $ $ $ $ $ $ $ $ $ $ $ 3 6 4 w 4 4 w 6 4 4 6 4 4 6 6 6 4 6 6 q 6 6 6 q 6 4 6 4 6 ; $ $ $ $ $ $ $ $ $ $ $ $ $ $ $ $ $ $ $ $ ; $ $ $ ; $ $ $ $ $ 4 6 4 w 3 4 6 6 4 6 6 4 6 6 6 6 4 6 4 6 6 6 4 6 6 4 4 6 3 $ $ $ $ $ $ $ $ $ $ $ $ $ $ $ $ $ $ $ $ ; $ $ $ $ $ $ $ $ $ 4 6 4 6 3 4 6 6 4 6 6 4 6 6 6 4 6 6 3 6 6 6 4 6 6 4 4 6 3 $ $ $ $ $ $ $ $ $ $ $ $ $ $ $ $ $ $ $ $ $ $ $ $ $ $ $ $ ",
"6 6 4 6 4 6 w w 4 4 3 e e w 4 6 4 6 4 $ 4 6 4 6 4 4 6 4 4 4 4 4 6 4 6 6 6 6 4 6 4 4 4 4 4 4 6 4 6 ; $ $ $ $ $ $ $ $ $ $ $ $ $ $ $ $ $ $ $ $ $ $ $ $ $ $ $ $ $ $ 3 6 4 6 4 4 4 6 4 4 4 4 6 6 6 6 6 4 6 4 4 4 4 4 4 6 4 4 6 ; $ $ $ $ $ $ $ $ $ $ $ $ $ $ $ $ $ $ ; $ $ $ $ $ $ $ $ $ $ $ 4 6 6 4 4 4 4 4 4 4 4 6 4 6 6 6 4 6 6 4 6 4 4 4 6 6 4 6 3 $ $ $ $ $ $ $ $ $ $ $ $ $ $ $ $ $ $ ; $ $ $ $ $ $ $ $ $ $ $ 4 6 6 4 4 4 4 4 4 4 4 6 4 6 6 6 4 6 6 4 6 4 4 4 6 4 4 6 3 $ $ $ $ $ $ $ $ $ $ $ $ $ $ $ $ $ $ ; $ $ $ $ $ $ $ $ $ ",
"6 6 3 +.K.)._._.e 4 L._._.).X.3 6 6 4 $ 4 6 6 4 i a 6 e w a r i 4 6 6 6 4 6 6 4 i w e i i e 4 6 6 ; $ $ $ $ e ; 4 $ w 4 w $ $ $ $ $ $ $ $ 4 4 : w 4 4 $ $ $ $ $ 3 6 4 4 r e a 4 r e a 4 4 6 6 6 6 6 4 e e w a r r 4 6 4 6 ; $ $ $ $ e ; 4 $ q 4 w $ $ $ $ $ $ $ $ 4 4 ; w 4 4 $ $ $ $ $ 4 6 4 i i 6 e w a r r 4 6 6 6 4 6 4 4 a 4 a e a 4 6 4 6 3 $ $ $ ; e $ 4 $ w 4 w $ $ $ $ $ $ $ $ 4 3 3 q 4 4 $ $ $ $ $ 4 6 4 a i w e e i i e 4 6 6 6 4 6 4 6 i 4 a e a 4 6 4 6 3 $ ; $ ; e $ 4 $ w 4 w $ $ $ $ $ $ $ $ 4 3 3 4 4 4 $ $ $ ",
"6 6 3 L._.`.]. Xe .._._. X`.K.3 6 6 4 $ 4 6 6 6 i /.P.I.X._._.P.6 4 6 6 6 6 4 i  Xr I._._.K.3 6 6 ; $ $ ; $ ....e.4 +.K.e.e $ ; $ $ $ $ : I.e r K.K.@.$ $ $ $ $ 3 6 6 6 /.P.`.; P.P.).X.3 6 6 6 6 6 w ]...+._._.P.4 6 4 6 ; $ $ ; $ ..X.e.4 +.K.e.e $ ; $ $ $ $ ; I.e r K.K.@.$ $ $ $ $ 4 6 6 a /./.K.o._._.L.4 6 6 6 6 6 3 K.`.e )._.`...3 6 6 3 $ $ ; $ X...e.4 +.K.e.w $ $ $ $ $ $ 3 I.w i K.K.X.$ $ $ $ $ 4 6 6 ..P./.7.+._._.I.4 6 6 6 6 6 3 L./.e )._.).a 4 6 6 3 $ $ ; ; @...e.4 e.K.e.q $ $ $ $ $ $ 4 L.4 ..K.K...$ ; $ ",
"6 6 3 7.P.I.K.P.K.w L.K.L.P.7.3 6 6 4 $ 4 6 4 X.7./.XX_.K.`.].P.w 4 6 6 6 4 r L. XL.I.]._.I.4 6 6 ; $ $ 4 r @.e./...@.L.+.r $ ; $ $ $ : ..I.+...e.I.@.; $ $ $ $ 3 4 i ..K.X.).o.o././.+.3 6 6 6 4 w K.]./.K._.].P.w 4 4 6 ; $ $ 4 r @.+./...@.L.e.r $ ; $ $ $ : ..I.+...e.I.@.; $ $ $ $ 4 6 X.7./.XX`.K._.].P.6 4 6 6 6 4 ..)._.K.P. X).o.3 6 6 3 $ $ q r @.e./...@.L.+.r $ ; $ $ $ 3 ..I.@...K.I.@.$ $ $ $ $ 4 6 o.7./.XX).K._.].L.4 6 6 6 6 4 X.`._.K.P. X).X.3 6 6 3 $ $ w r @.e.^.a +.L.+.e $ $ $ $ $ 4 ..I.@...I.K.X.$ $ $ ",
"6 6 4 w 6 3 3 4 e 4 3 3 3 w w 4 6 6 4 $ 4 6 6 3 +.K.r +.X.+.o.o.4 6 6 6 4 6 4 4 7.X.o.o.7.a 4 6 6 ; $ ; $ 3 @.q e e i e a : $ $ $ $ $ $ $ r r e i r e $ $ $ $ $ 3 6 4 4 i ..7.a i i K.w 4 6 6 4 6 6 4 o.+.X.+.o.o.4 6 4 6 ; $ ; $ : @.w e e i e a : $ $ $ $ $ $ $ r r e i r r $ $ $ $ $ 4 w 3 7.K.r +.X.+.+.X.4 6 6 6 4 6 4 r K...7.X.K.w 4 4 6 3 $ ; $ 4 @.4 e e i e a ; $ $ $ $ $ $ $ r r e i r e $ $ $ $ $ 4 6 3 K.7.r +.X.+.+...4 6 6 6 4 6 3 i 7.a 7.X.K.6 4 4 6 3 $ ; $ 4 @.4 r e i e a $ $ $ $ $ $ $ $ i r r r i w $ $ $ ",
"6 4 6 4 4 6 6 6 4 6 6 6 6 4 4 6 4 6 4 $ 4 6 4 6 3 3 4 3 3 3 3 3 6 4 4 4 4 4 6 4 3 3 3 3 3 4 6 4 6 ; $ $ $ $ # $ $ $ $ $ # $ $ $ $ $ $ $ $ $ $ $ $ $ $ $ $ $ $ $ 3 6 4 6 4 4 3 4 4 4 3 4 4 4 4 4 4 4 6 3 3 3 3 3 3 6 4 4 6 ; $ $ $ $ # $ $ $ $ $ # $ $ $ $ $ $ $ $ $ $ $ $ $ $ $ $ $ $ $ 4 6 6 3 3 4 3 3 3 3 3 6 4 4 4 4 4 6 4 3 4 3 3 3 4 4 4 6 3 $ $ $ $ # $ $ $ $ $ # $ $ $ $ $ $ $ $ $ $ $ $ $ $ $ $ $ $ $ 4 6 6 3 3 4 3 3 3 3 4 6 4 4 4 4 4 6 4 3 4 3 3 3 4 4 4 6 3 $ $ $ $ # $ $ $ $ $ $ $ $ $ $ $ $ $ $ $ $ $ $ $ $ $ $ $ ",
"6 6 4 6 6 4 6 6 6 4 6 6 4 6 6 4 4 6 4 $ 4 w 6 6 w w 6 w w w w w 6 6 6 6 6 6 6 6 w w w w w w 6 6 w ; $ ; $ ; ; ; ; ; ; ; ; ; $ $ $ $ $ $ $ ; ; ; ; ; ; $ $ $ ; $ 3 w 6 6 w w w w w w w 6 6 6 6 6 6 6 6 w w w w w w 6 6 6 w ; $ ; $ ; ; ; ; ; ; ; ; ; $ $ $ $ $ $ $ ; ; ; ; ; ; $ $ $ ; $ 4 w 6 w w 6 w w w w w 6 6 6 6 6 6 6 w w w w w w 6 6 6 w 3 $ ; $ ; ; ; ; ; ; ; ; $ $ $ $ $ $ $ $ ; ; ; ; ; ; $ $ $ $ $ 4 w 6 w w w w w w w w 6 6 6 6 6 6 6 w w w w w w 6 6 6 w 3 $ ; $ ; ; ; ; ; ; ; ; $ $ $ $ $ $ $ $ ; ; ; ; ; ; $ $ $ ",
"6 6 6 6 6 6 6 6 6 6 6 6 6 6 6 6 4 6 4 $ $ ; ; ; ; ; ; ; ; ; ; ; ; ; ; ; ; ; ; ; ; ; ; ; ; ; ; $ ; $ $ $ $ $ $ $ $ $ $ $ $ $ $ $ $ $ $ $ $ $ $ $ $ $ $ $ $ $ $ $ $ ; $ ; ; ; ; ; ; ; ; ; ; ; ; ; ; ; ; ; ; ; ; ; ; ; ; $ ; $ $ $ $ $ $ $ $ $ $ $ $ $ $ $ $ $ $ $ $ $ $ $ $ $ $ $ $ $ $ $ $ ; ; ; ; ; ; ; ; ; ; ; ; ; ; ; ; ; ; ; ; ; ; ; ; ; $ ; $ $ $ $ $ $ $ $ $ $ $ $ $ $ $ $ $ $ $ $ $ $ $ $ $ $ $ $ $ $ $ $ ; ; ; ; ; ; ; ; ; ; ; ; ; ; ; ; ; ; ; ; ; ; ; ; ; $ ; $ $ $ $ $ $ $ $ $ $ $ $ $ $ $ $ $ $ $ $ $ $ $ $ $ $ $ $ $ ",
"6 6 6 6 6 6 6 6 6 6 6 6 6 6 6 6 4 6 4 $ $ 3 ; ; ; ; ; ; ; ; ; ; ; ; ; ; ; ; ; ; ; ; ; ; ; ; ; ; ; 3 3 3 3 3 3 3 3 3 3 3 3 3 3 3 3 3 3 3 3 3 3 3 3 3 3 3 3 3 3 3 3 ; ; ; ; ; ; ; ; ; ; ; ; ; ; ; ; ; ; ; ; ; ; ; ; ; ; ; ; 3 3 3 3 3 3 3 3 3 3 3 3 3 3 3 3 3 3 3 3 3 3 3 3 3 3 3 3 3 3 3 ; ; ; ; ; ; ; ; ; ; ; ; ; ; ; ; ; ; ; ; ; ; ; ; ; ; ; ; 3 3 3 3 3 3 3 3 3 3 3 3 3 3 3 3 3 3 3 3 3 3 3 3 3 3 3 3 3 3 3 ; ; ; ; ; ; ; ; ; ; ; ; ; ; ; ; ; ; ; ; ; ; ; ; ; ; ; ; 3 3 3 3 3 3 3 3 3 3 3 3 3 3 3 3 3 3 3 3 3 3 3 3 3 3 3 3 3 ",
"6 6 6 6 6 6 6 6 6 6 6 6 6 6 6 6 4 6 4 $ 4 w 6 6 6 6 6 6 6 6 6 6 6 6 6 6 6 6 6 6 6 6 6 6 6 6 6 6 6 6 6 6 6 6 6 6 6 6 6 6 6 6 6 6 6 6 6 6 6 6 6 6 6 6 6 6 6 6 6 6 6 6 6 6 6 6 6 6 6 6 6 6 6 6 6 6 6 6 6 6 6 6 6 6 6 6 6 6 6 6 6 6 6 6 6 6 6 6 6 6 6 6 6 6 6 6 6 6 6 6 6 6 6 6 6 6 6 6 6 6 6 6 6 6 6 6 6 6 6 6 6 6 6 6 6 6 6 6 6 6 6 6 6 6 6 6 6 6 6 6 6 6 6 6 6 6 6 6 6 6 6 6 6 6 6 6 6 6 6 6 6 6 6 6 6 6 6 6 6 6 6 6 6 6 6 6 6 6 6 6 6 6 6 6 6 6 6 6 6 6 6 6 6 6 6 6 6 6 6 6 6 6 6 6 6 6 6 6 6 6 6 6 6 6 6 6 6 6 6 6 6 6 6 6 6 6 ",
"6 6 6 6 6 6 6 6 6 6 6 6 6 6 6 6 4 6 4 $ 4 6 4 4 4 4 4 4 4 4 4 4 4 4 4 4 4 4 4 4 4 4 4 4 4 4 4 4 4 4 4 4 4 4 4 4 4 4 4 4 4 4 4 4 4 4 4 4 4 4 4 4 4 4 4 4 4 4 4 4 4 4 4 4 4 4 4 4 4 4 4 4 4 4 4 4 4 4 4 4 4 4 4 4 4 4 4 4 4 4 4 4 4 4 4 4 4 4 4 4 4 4 4 4 4 4 4 4 4 4 4 4 4 4 4 4 4 4 4 4 4 4 4 4 4 4 4 4 4 4 4 4 4 4 4 4 4 4 4 4 4 4 4 4 4 4 4 4 4 4 4 4 4 4 4 4 4 4 4 4 4 4 4 4 4 4 4 4 4 4 4 4 4 4 4 4 4 4 4 4 4 4 4 4 4 4 4 4 4 4 4 4 4 4 4 4 4 4 4 4 4 4 4 4 4 4 4 4 4 4 4 4 4 4 4 4 4 4 4 4 4 4 4 4 4 4 4 4 4 4 4 4 4 4 4 4 ",
"6 6 6 6 6 6 6 6 6 6 6 6 6 6 6 6 4 6 4 $ 4 6 4 6 6 6 6 6 6 6 6 6 6 6 6 6 6 6 6 6 6 6 6 6 6 6 6 6 6 6 6 6 6 6 6 6 6 6 6 6 6 6 6 6 6 6 6 6 6 6 6 6 6 6 6 6 6 6 6 6 6 6 6 6 6 6 6 6 6 6 6 6 6 6 6 6 6 6 6 6 6 6 6 6 6 6 6 6 6 6 6 6 6 6 6 6 6 6 6 6 6 6 6 6 6 6 6 6 6 6 6 6 6 6 6 6 6 6 6 6 6 6 6 6 6 6 6 6 6 6 6 6 6 6 6 6 6 6 6 6 6 6 6 6 6 6 6 6 6 6 6 6 6 6 6 6 6 6 6 6 6 6 6 6 6 6 6 6 6 6 6 6 6 6 6 6 6 6 6 6 6 6 6 6 6 6 6 6 6 6 6 6 6 6 6 6 6 6 6 6 6 6 6 6 6 6 6 6 6 6 6 6 6 6 6 6 6 6 6 6 6 6 6 6 6 6 6 6 6 6 6 6 6 6 6 6 ",
"6 6 6 6 6 6 6 6 6 6 6 6 6 6 6 6 4 6 4 $ 4 6 4 6 6 6 6 6 6 6 6 6 6 6 6 6 6 6 6 6 6 6 6 6 6 6 6 6 6 6 6 6 6 6 6 6 6 6 6 6 6 6 6 6 6 6 6 6 6 6 6 6 6 6 6 6 6 6 6 6 6 6 6 6 6 6 6 6 6 6 6 6 6 6 6 6 6 6 6 6 6 6 6 6 6 6 6 6 6 6 6 6 6 6 6 6 6 6 6 6 6 6 6 6 6 6 6 6 6 6 6 6 6 6 6 6 6 6 6 6 6 6 6 6 6 6 6 6 6 6 6 6 6 6 6 6 6 6 6 6 6 6 6 6 6 6 6 6 6 6 6 6 6 6 6 6 6 6 6 6 6 6 6 6 6 6 6 6 6 6 6 6 6 6 6 6 6 6 6 6 6 6 6 6 6 6 6 6 6 6 6 6 6 6 6 6 6 6 6 6 6 6 6 6 6 6 6 6 6 6 6 6 6 6 6 6 6 6 6 6 6 6 6 6 6 6 6 6 6 6 6 6 6 6 6 6 ",
"6 6 6 6 6 6 6 6 6 6 6 6 6 6 6 6 4 6 4 $ 4 6 4 6 6 6 6 6 6 6 6 6 6 6 6 6 6 6 6 6 6 6 6 6 6 6 6 6 6 6 6 6 6 6 6 6 6 6 6 6 6 6 6 6 6 6 6 6 6 6 6 6 6 6 6 6 6 6 6 6 6 6 6 6 6 6 6 6 6 6 6 6 6 6 6 6 6 6 6 6 6 6 6 6 6 6 6 6 6 6 6 6 6 6 6 6 6 6 6 6 6 6 6 6 6 6 6 6 6 6 6 6 6 6 6 6 6 6 6 6 6 6 6 6 6 6 6 6 6 6 6 6 6 6 6 6 6 6 6 6 6 6 6 6 6 6 6 6 6 6 6 6 6 6 6 6 6 6 6 6 6 6 6 6 6 6 6 6 6 6 6 6 6 6 6 6 6 6 6 6 6 6 6 6 6 6 6 6 6 6 6 6 6 6 6 6 6 6 6 6 6 6 6 6 6 6 6 6 6 6 6 6 6 6 6 6 6 6 6 6 6 6 6 6 6 6 6 6 6 6 6 6 6 6 6 6 ",
"6 6 6 6 6 6 6 6 6 6 6 6 6 6 6 6 4 6 4 $ 4 6 4 6 6 6 6 6 6 6 6 6 6 6 6 6 6 6 6 6 6 6 6 6 6 6 6 6 6 6 6 6 6 6 6 6 6 6 6 6 6 6 6 6 6 6 6 6 6 6 6 6 6 6 6 6 6 6 6 6 6 6 6 6 6 6 6 6 6 6 6 6 6 6 6 6 6 6 6 6 6 6 6 6 6 6 6 6 6 6 6 6 6 6 6 6 6 6 6 6 6 6 6 6 6 6 6 6 6 6 6 6 6 6 6 6 6 6 6 6 6 6 6 6 6 6 6 6 6 6 6 6 6 6 6 6 6 6 6 6 6 6 6 6 6 6 6 6 6 6 6 6 6 6 6 6 6 6 6 6 6 6 6 6 6 6 6 6 6 6 6 6 6 6 6 6 6 6 6 6 6 6 6 6 6 6 6 6 6 6 6 6 6 6 6 6 6 6 6 6 6 6 6 6 6 6 6 6 6 6 6 6 6 6 6 6 6 6 6 6 6 6 6 6 6 6 6 6 6 6 6 6 6 6 6 6 ",
"6 6 6 6 6 6 6 6 6 6 6 6 6 6 6 6 4 6 4 $ 4 6 4 6 6 6 6 6 6 6 6 6 6 6 6 6 6 6 6 6 6 6 6 6 6 6 6 6 6 6 6 6 6 6 6 6 6 6 6 6 6 6 6 6 6 6 6 6 6 6 6 6 6 6 6 6 6 6 6 6 6 6 6 6 6 6 6 6 6 6 6 6 6 6 6 6 6 6 6 6 6 6 6 6 6 6 6 6 6 6 6 6 6 6 6 6 6 6 6 6 6 6 6 6 6 6 6 6 6 6 6 6 6 6 6 6 6 6 6 6 6 6 6 6 6 6 6 6 6 6 6 6 6 6 6 6 6 6 6 6 6 6 6 6 6 6 6 6 6 6 6 6 6 6 6 6 6 6 6 6 6 6 6 6 6 6 6 6 6 6 6 6 6 6 6 6 6 6 6 6 6 6 6 6 6 6 6 6 6 6 6 6 6 6 6 6 6 6 6 6 6 6 6 6 6 6 6 6 6 6 6 6 6 6 6 6 6 6 6 6 6 6 6 6 6 6 6 6 6 6 6 6 6 6 6 6 ",
"6 6 6 6 6 6 6 6 6 6 6 6 6 6 6 6 4 6 4 $ 4 6 4 6 6 6 6 6 6 6 6 6 6 6 6 6 6 6 6 6 6 6 6 6 6 6 6 6 6 6 6 6 6 6 6 6 6 6 6 6 6 6 6 6 6 6 6 6 6 6 6 6 6 6 6 6 6 6 6 6 6 6 6 6 6 6 6 6 6 6 6 6 6 6 6 6 6 6 6 6 6 6 6 6 6 6 6 6 6 6 6 6 6 6 6 6 6 6 6 6 6 6 6 6 6 6 6 6 6 6 6 6 6 6 6 6 6 6 6 6 6 6 6 6 6 6 6 6 6 6 6 6 6 6 6 6 6 6 6 6 6 6 6 6 6 6 6 6 6 6 6 6 6 6 6 6 6 6 6 6 6 6 6 6 6 6 6 6 6 6 6 6 6 6 6 6 6 6 6 6 6 6 6 6 6 6 6 6 6 6 6 6 6 6 6 6 6 6 6 6 6 6 6 6 6 6 6 6 6 6 6 6 6 6 6 6 6 6 6 6 6 6 6 6 6 6 6 6 6 6 6 6 6 6 6 6 ",
"6 6 6 6 6 6 6 6 6 6 6 6 6 6 6 6 4 6 4 $ 4 6 4 6 6 6 6 6 6 6 6 6 6 6 6 6 6 6 6 6 6 6 6 6 6 6 6 6 6 6 6 6 6 6 6 6 6 6 6 6 6 6 6 6 6 6 6 6 6 6 6 6 6 6 6 6 6 6 6 6 6 6 6 6 6 6 6 6 6 6 6 6 6 6 6 6 6 6 6 6 6 6 6 6 6 6 6 6 6 6 6 6 6 6 6 6 6 6 6 6 6 6 6 6 6 6 6 6 6 6 6 6 6 6 6 6 6 6 6 6 6 6 6 6 6 6 6 6 6 6 6 6 6 6 6 6 6 6 6 6 6 6 6 6 6 6 6 6 6 6 6 6 6 6 6 6 6 6 6 6 6 6 6 6 6 6 6 6 6 6 6 6 6 6 6 6 6 6 6 6 6 6 6 6 6 6 6 6 6 6 6 6 6 6 6 6 6 6 6 6 6 6 6 6 6 6 6 6 6 6 6 6 6 6 6 6 6 6 6 6 6 6 6 6 6 6 6 6 6 6 6 6 6 6 6 6 ",
"6 6 6 6 6 6 6 6 6 6 6 6 6 6 6 6 4 6 4 $ 4 6 4 6 6 6 6 6 6 6 6 6 6 6 6 6 6 6 6 6 6 6 6 6 6 6 6 6 6 6 6 6 6 6 6 6 6 6 6 6 6 6 6 6 6 6 6 6 6 6 6 6 6 6 6 6 6 6 6 6 6 6 6 6 6 6 6 6 6 6 6 6 6 6 6 6 6 6 6 6 6 6 6 6 6 6 6 6 6 6 6 6 6 6 6 6 6 6 6 6 6 6 6 6 6 6 6 6 6 6 6 6 6 6 6 6 6 6 6 6 6 6 6 6 6 6 6 6 6 6 6 6 6 6 6 6 6 6 6 6 6 6 6 6 6 6 6 6 6 6 6 6 6 6 6 6 6 6 6 6 6 6 6 6 6 6 6 6 6 6 6 6 6 6 6 6 6 6 6 6 6 6 6 6 6 6 6 6 6 6 6 6 6 6 6 6 6 6 6 6 6 6 6 6 6 6 6 6 6 6 6 6 6 6 6 6 6 6 6 6 6 6 6 6 6 6 6 6 6 6 6 6 6 6 6 6 ",
"6 6 6 6 6 6 6 6 6 6 6 6 6 6 6 6 4 6 4 $ 4 6 4 6 6 6 6 6 6 6 6 6 6 6 6 6 6 6 6 6 6 6 6 6 6 6 6 6 6 6 6 6 6 6 6 6 6 6 6 6 6 6 6 6 6 6 6 6 6 6 6 6 6 6 6 6 6 6 6 6 6 6 6 6 6 6 6 6 6 6 6 6 6 6 6 6 6 6 6 6 6 6 6 6 6 6 6 6 6 6 6 6 6 6 6 6 6 6 6 6 6 6 6 6 6 6 6 6 6 6 6 6 6 6 6 6 6 6 6 6 6 6 6 6 6 6 6 6 6 6 6 6 6 6 6 6 6 6 6 6 6 6 6 6 6 6 6 6 6 6 6 6 6 6 6 6 6 6 6 6 6 6 6 6 6 6 6 6 6 6 6 6 6 6 6 6 6 6 6 6 6 6 6 6 6 6 6 6 6 6 6 6 6 6 6 6 6 6 6 6 6 6 6 6 6 6 6 6 6 6 6 6 6 6 6 6 6 6 6 6 6 6 6 6 6 6 6 6 6 6 6 6 6 6 6 6 ",
"6 6 6 6 6 6 6 6 6 6 6 6 6 6 6 6 4 6 4 $ 4 6 4 6 6 6 6 6 6 6 6 6 6 6 6 6 6 6 6 6 6 6 6 6 6 6 6 6 6 6 6 6 6 6 6 6 6 6 6 6 6 6 6 6 6 6 6 6 6 6 6 6 6 6 6 6 6 6 6 6 6 6 6 6 6 6 6 6 6 6 6 6 6 6 6 6 6 6 6 6 6 6 6 6 6 6 6 6 6 6 6 6 6 6 6 6 6 6 6 6 6 6 6 6 6 6 6 6 6 6 6 6 6 6 6 6 6 6 6 6 6 6 6 6 6 6 6 6 6 6 6 6 6 6 6 6 6 6 6 6 6 6 6 6 6 6 6 6 6 6 6 6 6 6 6 6 6 6 6 6 6 6 6 6 6 6 6 6 6 6 6 6 6 6 6 6 6 6 6 6 6 6 6 6 6 6 6 6 6 6 6 6 6 6 6 6 6 6 6 6 6 6 6 6 6 6 6 6 6 6 6 6 6 6 6 6 6 6 6 6 6 6 6 6 6 6 6 6 6 6 6 6 6 6 6 6 ",
"6 6 6 6 6 6 6 6 6 6 6 6 6 6 6 6 4 6 4 $ 4 6 4 6 6 6 6 6 6 6 6 6 6 6 6 6 6 6 6 6 6 6 6 6 6 6 6 6 6 6 6 6 6 6 6 6 6 6 6 6 6 6 6 6 6 6 6 6 6 6 6 6 6 6 6 6 6 6 6 6 6 6 6 6 6 6 6 6 6 6 6 6 6 6 6 6 6 6 6 6 6 6 6 6 6 6 6 6 6 6 6 6 6 6 6 6 6 6 6 6 6 6 6 6 6 6 6 6 6 6 6 6 6 6 6 6 6 6 6 6 6 6 6 6 6 6 6 6 6 6 6 6 6 6 6 6 6 6 6 6 6 6 6 6 6 6 6 6 6 6 6 6 6 6 6 6 6 6 6 6 6 6 6 6 6 6 6 6 6 6 6 6 6 6 6 6 6 6 6 6 6 6 6 6 6 6 6 6 6 6 6 6 6 6 6 6 6 6 6 6 6 6 6 6 6 6 6 6 6 6 6 6 6 6 6 6 6 6 6 6 6 6 6 6 6 6 6 6 6 6 6 6 6 6 6 6 ",
"6 6 6 6 6 6 6 6 6 6 6 6 6 6 6 6 4 6 4 $ 4 6 4 6 6 6 6 6 6 6 6 6 6 6 6 6 6 6 6 6 6 6 6 6 6 6 6 6 6 6 6 6 6 6 6 6 6 6 6 6 6 6 6 6 6 6 6 6 6 6 6 6 6 6 6 6 6 6 6 6 6 6 6 6 6 6 6 6 6 6 6 6 6 6 6 6 6 6 6 6 6 6 6 6 6 6 6 6 6 6 6 6 6 6 6 6 6 6 6 6 6 6 6 6 6 6 6 6 6 6 6 6 6 6 6 6 6 6 6 6 6 6 6 6 6 6 6 6 6 6 6 6 6 6 6 6 6 6 6 6 6 6 6 6 6 6 6 6 6 6 6 6 6 6 6 6 6 6 6 6 6 6 6 6 6 6 6 6 6 6 6 6 6 6 6 6 6 6 6 6 6 6 6 6 6 6 6 6 6 6 6 6 6 6 6 6 6 6 6 6 6 6 6 6 6 6 6 6 6 6 6 6 6 6 6 6 6 6 6 6 6 6 6 6 6 6 6 6 6 6 6 6 6 6 6 6 ",
"6 6 6 6 6 6 6 6 6 6 6 6 6 6 6 6 4 6 4 $ 4 6 4 6 6 6 6 6 6 6 6 6 6 6 6 6 6 6 6 6 6 6 6 6 6 6 6 6 6 6 6 6 6 6 6 6 6 6 6 6 6 6 6 6 6 6 6 6 6 6 6 6 6 6 6 6 6 6 6 6 6 6 6 6 6 6 6 6 6 6 6 6 6 6 6 6 6 6 6 6 6 6 6 6 6 6 6 6 6 6 6 6 6 6 6 6 6 6 6 6 6 6 6 6 6 6 6 6 6 6 6 6 6 6 6 6 6 6 6 6 6 6 6 6 6 6 6 6 6 6 6 6 6 6 6 6 6 6 6 6 6 6 6 6 6 6 6 6 6 6 6 6 6 6 6 6 6 6 6 6 6 6 6 6 6 6 6 6 6 6 6 6 6 6 6 6 6 6 6 6 6 6 6 6 6 6 6 6 6 6 6 6 6 6 6 6 6 6 6 6 6 6 6 6 6 6 6 6 6 6 6 6 6 6 6 6 6 6 6 6 6 6 6 6 6 6 6 6 6 6 6 6 6 6 6 6 ",
"4 4 4 4 4 4 4 4 4 4 4 4 4 4 4 4 4 4 4 $ 4 6 4 4 4 4 4 4 4 4 4 4 4 4 4 4 4 4 4 4 4 4 4 4 4 4 4 4 4 4 4 4 4 4 4 4 4 4 4 4 4 4 4 4 4 4 4 4 4 4 4 4 4 4 4 4 4 4 4 4 4 4 4 4 4 4 4 4 4 4 4 4 4 4 4 4 4 4 4 4 4 4 4 4 4 4 4 4 4 4 4 4 4 4 4 4 4 4 4 4 4 4 4 4 4 4 4 4 4 4 4 4 4 4 4 4 4 4 4 4 4 4 4 4 4 4 4 4 4 4 4 4 4 4 4 4 4 4 4 4 4 4 4 4 4 4 4 4 4 4 4 4 4 4 4 4 4 4 4 4 4 4 4 4 4 4 4 4 4 4 4 4 4 4 4 4 4 4 4 4 4 4 4 4 4 4 4 4 4 4 4 4 4 4 4 4 4 4 4 4 4 4 4 4 4 4 4 4 4 4 4 4 4 4 4 4 4 4 4 4 4 4 4 4 4 4 4 4 4 4 4 4 4 4 4 4 ",
"6 6 6 6 6 6 6 6 6 6 6 6 6 6 6 6 6 6 6 $ 4 w 6 6 6 6 6 6 6 6 6 6 6 6 6 6 6 6 6 6 6 6 6 6 6 6 6 6 6 6 6 6 6 6 6 6 6 6 6 6 6 6 6 6 6 6 6 6 6 6 6 6 6 6 6 6 6 6 6 6 6 6 6 6 6 6 6 6 6 6 6 6 6 6 6 6 6 6 6 6 6 6 6 6 6 6 6 6 6 6 6 6 6 6 6 6 6 6 6 6 6 6 6 6 6 6 6 6 6 6 6 6 6 6 6 6 6 6 6 6 6 6 6 6 6 6 6 6 6 6 6 6 6 6 6 6 6 6 6 6 6 6 6 6 6 6 6 6 6 6 6 6 6 6 6 6 6 6 6 6 6 6 6 6 6 6 6 6 6 6 6 6 6 6 6 6 6 6 6 6 6 6 6 6 6 6 6 6 6 6 6 6 6 6 6 6 6 6 6 6 6 6 6 6 6 6 6 6 6 6 6 6 6 6 6 6 6 6 6 6 6 6 6 6 6 6 6 6 6 6 6 6 6 6 6 6 ",
"; ; ; ; ; $ $ ; $ $ $ $ $ $ $ $ $ ; ; $ $ ; $ $ ; $ $ $ $ $ $ $ $ ; ; ; ; ; $ $ $ ; $ $ $ $ $ $ $ $ $ $ $ $ $ $ $ $ $ $ $ $ $ $ $ $ $ $ $ $ $ $ $ $ $ $ $ $ $ $ $ $ $ $ $ $ $ $ $ $ $ $ $ $ $ $ $ $ $ $ $ $ $ $ $ $ $ $ $ $ $ $ $ $ $ $ $ $ $ $ $ $ $ $ $ $ $ $ $ $ $ $ $ $ $ $ $ $ $ $ $ $ $ $ $ $ $ $ $ $ $ $ $ $ $ $ $ $ $ $ $ $ $ $ $ $ $ $ $ $ $ $ $ $ $ $ $ $ $ $ $ $ $ $ $ $ $ $ $ $ $ $ $ $ $ $ $ $ $ $ $ $ $ $ $ $ $ $ $ $ $ $ $ $ $ $ $ $ $ $ $ $ $ $ $ $ $ $ $ ; ; ; ; ; ; ; ; $ $ ; ; ; ; ; $ $ ; ; ; ; ; $ ; ; ; ; ",
"; ; ; ; ; ; ; ; ; ; ; ; ; ; ; ; 3 ; $ ; ; ; ; ; ; ; ; ; ; ; ; ; ; ; ; ; ; ; ; ; ; ; ; ; ; ; ; ; ; ; ; ; ; ; ; ; ; ; ; ; ; ; ; ; ; ; ; ; ; ; ; ; ; ; ; ; ; ; ; ; ; ; ; ; ; ; ; ; ; ; ; ; ; ; ; ; ; ; ; ; ; ; ; ; ; ; ; ; ; ; ; ; ; ; ; ; ; ; ; ; ; ; ; ; ; ; ; ; ; ; ; ; ; ; ; ; ; ; ; ; ; ; ; ; ; ; ; ; ; ; ; ; ; ; ; ; ; ; ; ; ; ; ; ; ; ; ; ; ; ; ; ; ; ; ; ; ; ; ; ; ; ; ; ; ; ; ; ; ; ; ; ; ; ; ; ; ; ; ; ; ; ; ; ; ; ; ; ; ; ; ; ; ; ; ; ; ; ; ; ; ; ; ; ; ; ; ; ; ; ; ; ; ; ; ; ; ; ; ; = = 3 3 3 ; ; ; ; ; ; ; ; $ ; ; ; ",
"e a ....w 6 6 6 6 6 6 6 6 6 6 6 4 r +.X.X.w 6 6 6 6 6 6 6 6 6 6 6 w a a ..e 4 6 6 6 6 6 6 6 6 6 6 6 6 6 6 6 6 6 6 6 6 6 6 6 6 6 6 6 6 6 6 6 6 6 6 6 6 6 6 6 6 6 6 6 6 6 6 6 6 6 6 6 6 6 6 6 6 6 6 6 6 6 6 6 6 6 6 6 6 6 6 6 6 6 6 6 6 6 6 6 6 6 6 6 6 6 6 6 6 6 6 6 6 6 6 6 6 6 6 6 6 6 6 6 6 6 6 6 6 6 6 6 6 6 6 6 6 6 6 6 6 6 6 6 6 6 6 6 6 6 6 6 6 6 6 6 6 6 6 6 6 6 6 6 6 6 6 6 6 6 6 6 6 6 6 6 6 6 6 6 6 6 6 6 6 6 6 6 6 6 6 6 6 6 6 6 6 6 6 6 6 6 6 6 6 6 6 6 6 6 6 w w w 6 e e w w 6 q 9 9 6 6 6 6 6 w u u u w 6 u e u e ",
"e 7.X.o.w 4 4 u e 4 w w w 4 4 6 4 a +.+.7.w 4 4 u e 4 6 w w 4 4 4 w X.e.K.r 4 4 e u 4 6 w w 6 4 4 4 4 4 4 4 4 4 4 4 4 4 4 4 4 4 4 4 4 4 4 4 4 4 4 4 4 4 4 4 4 4 4 4 4 4 4 4 4 4 4 4 4 4 4 4 4 4 4 4 4 4 4 4 4 4 4 4 4 4 4 4 4 4 4 4 4 4 4 4 4 4 4 4 4 4 4 4 4 4 4 4 4 4 4 4 4 4 4 4 4 4 4 4 4 4 4 4 4 4 4 4 4 4 4 4 4 4 4 4 4 4 4 4 4 4 4 4 4 4 4 4 4 4 4 4 4 4 4 4 4 4 4 4 4 4 4 4 4 4 4 4 4 4 4 4 4 4 4 4 4 4 4 4 4 4 4 4 4 4 4 4 4 4 4 4 4 4 4 4 4 4 4 4 4 4 4 4 4 4 4 e i ..i r i ..e w 7 D D N N 2 4 4 w e u | w 6 u u u e ",
"r +.+.L.w 4 w | u 4 w u u 4 6 6 4 a 7.X.i e 4 6 | | 4 w u u 4 6 4 e w ..+.w 4 4 | | 6 6 u u 6 4 6 6 6 6 6 6 6 6 6 6 6 6 6 6 6 6 6 6 6 6 6 6 6 6 6 6 6 6 6 6 6 6 6 6 6 6 6 6 6 6 6 6 6 6 6 6 6 6 6 6 6 6 6 6 6 6 6 6 6 6 6 6 6 6 6 6 6 6 6 6 6 6 6 6 6 6 6 6 6 6 6 6 6 6 6 6 6 6 6 6 6 6 6 6 6 6 6 6 6 6 6 6 6 6 6 6 6 6 6 6 6 6 6 6 6 6 6 6 6 6 6 6 6 6 6 6 6 6 6 6 6 6 6 6 6 6 6 6 6 6 6 6 6 6 6 6 6 6 6 6 6 6 6 6 6 6 6 6 6 6 6 6 6 6 6 6 6 6 6 6 6 6 6 6 6 6 6 6 6 6 4 w X.X.o.e i o.e q 9 D D N N N q 4 w w u u w 6 u u u e ",
"e X.+.K.6 4 4 w 6 4 4 4 4 6 4 6 4 r o.a r w 4 4 w 6 4 4 4 4 6 6 4 w r ..o.w 4 4 6 w 4 6 4 4 4 6 4 6 6 6 6 6 6 6 6 6 6 6 6 6 6 6 6 6 6 6 6 6 6 6 6 6 6 6 6 6 6 6 6 6 6 6 6 6 6 6 6 6 6 6 6 6 6 6 6 6 6 6 6 6 6 6 6 6 6 6 6 6 6 6 6 6 6 6 6 6 6 6 6 6 6 6 6 6 6 6 6 6 6 6 6 6 6 6 6 6 6 6 6 6 6 6 6 6 6 6 6 6 6 6 6 6 6 6 6 6 6 6 6 6 6 6 6 6 6 6 6 6 6 6 6 6 6 6 6 6 6 6 6 6 6 6 6 6 6 6 6 6 6 6 6 6 6 6 6 6 6 6 6 6 6 6 6 6 6 6 6 6 6 6 6 6 6 6 6 6 6 6 6 6 6 6 6 6 6 6 4 e a 4 e r e w r 6 4 2 2 6 9 9 4 4 6 e u e w 4 | e | e ",
"4 4 4 4 4 4 6 4 4 6 6 6 6 4 6 4 6 4 4 6 w 4 6 6 4 4 6 6 6 6 4 6 6 4 6 6 4 6 4 6 4 4 6 6 6 6 6 4 6 6 6 6 6 6 6 6 6 6 6 6 6 6 6 6 6 6 6 6 6 6 6 6 6 6 6 6 6 6 6 6 6 6 6 6 6 6 6 6 6 6 6 6 6 6 6 6 6 6 6 6 6 6 6 6 6 6 6 6 6 6 6 6 6 6 6 6 6 6 6 6 6 6 6 6 6 6 6 6 6 6 6 6 6 6 6 6 6 6 6 6 6 6 6 6 6 6 6 6 6 6 6 6 6 6 6 6 6 6 6 6 6 6 6 6 6 6 6 6 6 6 6 6 6 6 6 6 6 6 6 6 6 6 6 6 6 6 6 6 6 6 6 6 6 6 6 6 6 6 6 6 6 6 6 6 6 6 6 6 6 6 6 6 6 6 6 6 6 6 6 6 6 6 6 6 6 6 6 6 4 e 6 4 4 4 4 4 4 4 6 q q 4 4 4 6 6 4 6 6 6 6 6 4 6 4 4 "
};
