/* XPM */
static char *sc_mb_gate_lr[] = {
/* columns rows colors chars-per-pixel */
"256 256 256 2 ",
"   c #15161B",
".  c #15191E",
"X  c #1B1A1D",
"o  c #191519",
"O  c #0D1115",
"+  c #271B1B",
"@  c #311E1D",
"#  c #331A18",
"$  c #29140C",
"%  c #30291C",
"&  c #0C1C22",
"*  c #151D22",
"=  c #1C1E24",
"-  c #191826",
";  c #1B1A2D",
":  c #221E23",
">  c #261D27",
",  c #351C22",
"<  c #201F30",
"1  c #1F2025",
"2  c #1D242A",
"3  c #1E282F",
"4  c #16232A",
"5  c #1C2934",
"6  c #193333",
"7  c #212126",
"8  c #24262D",
"9  c #2A262C",
"0  c #26282F",
"q  c #2B292E",
"w  c #2B2325",
"e  c #322226",
"r  c #34242A",
"t  c #3A232A",
"y  c #35292E",
"u  c #3A272B",
"i  c #38392A",
"p  c #242634",
"a  c #262A31",
"s  c #2A2C34",
"d  c #272738",
"f  c #272B39",
"g  c #2C2D3A",
"h  c #292736",
"j  c #3A2C32",
"k  c #352A3B",
"l  c #392B3C",
"z  c #342A33",
"x  c #2E303A",
"c  c #25343C",
"v  c #31333D",
"b  c #3C3238",
"n  c #26322B",
"m  c #10231E",
"M  c #50181D",
"N  c #78181D",
"B  c #69171C",
"V  c #6F261A",
"C  c #722619",
"Z  c #551E27",
"A  c #6D1D22",
"S  c #492728",
"D  c #572628",
"F  c #5B332E",
"G  c #4B2B39",
"H  c #532B3D",
"J  c #46363A",
"K  c #56383A",
"L  c #47322A",
"P  c #643638",
"I  c #763D39",
"U  c #6F2E2D",
"Y  c #4C2D14",
"T  c #144A33",
"R  c #1F511E",
"E  c #4D4C09",
"W  c #5B5F22",
"Q  c #1D2F4C",
"!  c #2C2E41",
"~  c #392E42",
"^  c #2A3143",
"/  c #283D47",
"(  c #263946",
")  c #343642",
"_  c #373944",
"`  c #383B46",
"'  c #3A334B",
"]  c #3B3D4B",
"[  c #383547",
"{  c #2B3658",
"}  c #383A55",
"|  c #222C5C",
" . c #2E336B",
".. c #432E42",
"X. c #542D41",
"o. c #4C3A43",
"O. c #4C3D4B",
"+. c #463649",
"@. c #543D44",
"#. c #553F49",
"$. c #5C3F49",
"%. c #583948",
"&. c #473D53",
"*. c #553C53",
"=. c #603F4A",
"-. c #653E45",
";. c #7D3757",
":. c #703647",
">. c #443D64",
",. c #3E414E",
"<. c #254955",
"1. c #3E4252",
"2. c #38415C",
"3. c #264953",
"4. c #364467",
"5. c #2F5070",
"6. c #266777",
"7. c #135F54",
"8. c #47424E",
"9. c #56414C",
"0. c #59424D",
"q. c #574244",
"w. c #424553",
"e. c #4D4255",
"r. c #454857",
"t. c #46495A",
"y. c #4A4D5C",
"u. c #48455A",
"i. c #544255",
"p. c #594355",
"a. c #5C4659",
"s. c #58475B",
"d. c #4C505F",
"f. c #62414C",
"g. c #6B434C",
"h. c #774247",
"j. c #634455",
"k. c #694956",
"l. c #654659",
"z. c #65495C",
"x. c #6B4B5C",
"c. c #694656",
"v. c #744856",
"b. c #6E505F",
"n. c #494B65",
"m. c #584967",
"M. c #4E5162",
"N. c #4C536B",
"B. c #515466",
"V. c #535769",
"C. c #56596C",
"Z. c #595B6E",
"A. c #584D76",
"S. c #485379",
"D. c #5A5E72",
"F. c #585A78",
"G. c #444979",
"H. c #634D63",
"J. c #6C4C63",
"K. c #664B6B",
"L. c #744D62",
"P. c #675168",
"I. c #72526A",
"U. c #725162",
"Y. c #74557D",
"T. c #675178",
"R. c #5D6176",
"E. c #5E627A",
"W. c #4B627B",
"Q. c #62667B",
"!. c #776160",
"~. c #437A5A",
"^. c #893A3A",
"/. c #97363A",
"(. c #8E2F2F",
"). c #A6383A",
"_. c #B23730",
"`. c #87231C",
"'. c #C83C29",
"]. c #DC3D1B",
"[. c #88423B",
"{. c #93403D",
"}. c #9B413B",
"|. c #A2413A",
" X c #A94138",
".X c #B64237",
"XX c #BA402F",
"oX c #C54233",
"OX c #D0412D",
"+X c #E44228",
"@X c #883850",
"#X c #B93E42",
"$X c #AB3B41",
"%X c #953D64",
"&X c #874545",
"*X c #974444",
"=X c #8A495B",
"-X c #944754",
";X c #95544B",
":X c #BB4345",
">X c #A9494D",
",X c #81597C",
"<X c #995276",
"1X c #8E4C68",
"2X c #A64F6F",
"3X c #C94547",
"4X c #E1495A",
"5X c #C43F44",
"6X c #678B18",
"7X c #469F50",
"8X c #102D99",
"9X c #1332A9",
"0X c #395080",
"qX c #3D4D8E",
"wX c #29778C",
"eX c #1559A8",
"rX c #145AAC",
"tX c #3169B8",
"yX c #2353A2",
"uX c #48478C",
"iX c #585288",
"pX c #475399",
"aX c #565798",
"sX c #4D4C90",
"dX c #6B5687",
"fX c #71598F",
"gX c #5D678B",
"hX c #666B83",
"jX c #6E7291",
"kX c #565CA7",
"lX c #455BB6",
"zX c #4D5AAB",
"xX c #6D5EA9",
"cX c #5561BA",
"vX c #4A64B3",
"bX c #6E62B3",
"nX c #173BC6",
"mX c #2E6DC9",
"MX c #3F6CD5",
"NX c #4A63C7",
"BX c #5465C6",
"VX c #4B78CD",
"CX c #536AD7",
"ZX c #4B6CD5",
"AX c #5071ED",
"SX c #6167CA",
"DX c #8A5A89",
"FX c #885FA5",
"GX c #2B869A",
"HX c #338FA3",
"JX c #359BB0",
"KX c #2A94AA",
"LX c #23A3BC",
"PX c #7B82A3",
"IX c #29A0C6",
"UX c #859D8A",
/* pixels */
"0 0 0 0 0 0 a 0 0 0 0 0 0 0 0 0 0 0 a 0 0 0 8 8 7 7 8 8 0 0 0 0 0 0 0 0 0 0 0 0 0 0 0 0 0 0 0 0 0 0 0 0 0 0 0 0 0 0 0 0 0 0 0 0 0 0 0 0 0 0 0 0 0 0 0 0 0 0 0 0 0 0 0 0 0 0 0 0 0 0 0 0 0 0 0 0 0 0 0 0 0 0 0 0 0 0 0 0 0 0 0 0 0 0 0 0 0 0 0 0 0 0 0 0 0 0 0 0 0 0 0 0 0 0 0 8 0 8 7 8 7 8 1 8 8 7 8 7 7 8 0 8 8 7 8 7 8 8 8 0 8 8 8 7 8 8 8 8 0 7 7 7 8 8 7 8 8 8 8 8 8 8 7 8 0 8 7 8 0 7 8 7 7 7 7 0 8 8 8 7 8 7 8 7 7 8 7 8 7 8 7 8 8 8 8 8 7 8 8 8 8 8 7 8 0 0 0 0 8 8 8 7 8 8 8 8 8 8 8 8 7 8 8 7 8 8 0 8 8 8 0 0 0 0 0 8 ",
"8 8 0 8 0 8 7 8 7 7 7 8 8 8 8 7 7 7 7 0 0 8 p Q 3.3.Q p 8 0 0 0 0 0 0 0 0 0 0 0 0 0 0 0 0 0 0 0 0 0 0 0 0 0 0 0 0 0 0 0 0 0 0 0 0 0 0 0 0 0 0 0 0 0 0 0 0 0 0 0 0 0 0 0 0 0 0 0 0 0 0 0 0 0 0 0 0 0 0 0 0 0 0 0 0 0 0 0 0 0 0 0 0 0 0 0 0 0 0 0 0 0 0 0 0 0 0 0 0 0 0 0 0 0 0 0 8 g w.` 1.) M.v x y.g ,.w._ a ) s ] x 1.` v ) 8 ) ) g ] ) x ) _ 0 1.y.w.` ] r.a v v ) ) v ` M.) 8 0 w.] 8 ] g t.t.] r.a x v a t._ 1.,.w.y.] r.) w.a w.` v g x ] M.` s _ ) _ w.s 8 a 0 8 ( 3.a 3.( 3.0 / ( <.c a <.c c 3.c ( 8 3.3.0 8 0 8 n R R ",
"KX3.7 a 8 a 6.GXGXGXGXc c GXGXGXGXGX<.8 8 Q ~.7X7X7X7X~.f 8 0 0 0 0 0 0 0 0 0 0 0 0 0 0 0 0 0 0 0 0 0 0 0 0 0 0 0 0 0 0 0 0 0 0 0 0 0 0 0 0 0 0 0 0 0 0 0 0 0 0 0 0 0 0 0 0 0 0 0 0 0 0 0 0 0 0 0 0 0 0 0 0 0 0 0 0 0 0 0 0 0 0 0 0 0 0 0 0 0 0 0 0 0 0 0 0 0 0 0 0 0 0 0 0 0 0 7 ] C.) y.w.w.y.y.V.1.M.0 V.B.M.` hX_ t.y.D.M.8 t.C.y.D.t.) M.y.8 ` M.,.w.M.hX) V.V.r.D.r.M.] M.8 ,.n.w.s hX] w.r.M.B.7 1.] a E._ R.1.,.y.w.R.y.t.w.M.1.w.V.C.) C.x 7 D.y.1.hX) 7 s a 7 <.3.3.3.a 6./ 6.<.6.<.<.<./ 3.6./ <.7 5.5.c 8 0 p n R R ",
"IX<.> a > 5.LXKXKXKXKXc c LXKXKXKXLXLXc p ~.7XW 8 8 W 7X6.a 8 0 0 0 0 0 0 0 0 0 0 0 0 0 0 0 0 0 0 0 0 0 0 0 0 0 0 0 0 0 0 0 0 0 0 0 0 0 0 0 0 0 0 0 0 0 0 0 0 0 0 0 0 0 0 0 0 0 0 0 0 0 0 0 0 0 0 0 0 0 0 0 0 0 0 0 0 0 0 0 0 0 0 0 0 0 0 0 0 0 0 8 8 8 8 8 8 8 8 8 8 8 8 8 8 0 8 a M.M.t.r.t.y.y.M.] M.a N.w.M.M.R.B.t.w.n.hX7 ,.D.D.t.y.t.r.M.) v t.] r.M.C.y.Z.D.M.t.E.y.w.N.8 1.y.N.M.E.M.,.] y.y.7 ,.n.) D.) V.s _ w.,.Q.w.y.w.t.N.y.t.M.x M.a 0 C.n.r.E.` 7 s 0 8 c 5.<.3.f <.5.<.<.5.<.<.3.<.<.6.3.<.f 5.5.a 8 0 8 n R R ",
"LX<.7 a : 6.LX( + 7 > 7 c LX6.: : 6.LX/ <.7Xi - 8 c Q ( wX( 8 0 0 0 0 0 0 0 0 0 0 0 0 0 0 0 0 0 0 0 0 0 0 0 0 0 0 0 0 0 0 0 0 0 0 0 0 0 0 0 0 0 0 0 0 0 0 0 0 0 0 0 0 0 0 0 0 0 0 0 0 0 0 0 0 0 0 0 0 0 0 0 0 0 0 0 0 0 0 0 0 0 0 0 0 0 0 0 0 0 0 0 0 0 0 0 0 0 0 0 0 0 0 0 0 0 8 v w.) ,.v y.v x t.g ,.1.) a ` ) 0 w.] ) s ] 0 x _ _ v v t.a ,.w.g v _ ` ` w.) x g ,.s ` ) y.v 8 0 w.,.` a ) ) x _ r.a g y._ w.` ) 7 x v x x ] w.a w.,.v s v s _ 0 x v ) ` 1.s 8 s a 8 ( 3.a 3.( c ( c c 3.c a 3.( c 3.f 3./ c c c 8 0 a n R R ",
"IX<.7 a 7 <.LXKXGXGX6.7 c LX6.7 8 6.LX/ c wXwXc 8 c c 8 wX<.8 0 0 0 0 0 0 0 0 0 0 0 0 0 0 0 0 0 0 0 0 0 0 0 0 0 0 0 0 0 0 0 0 0 0 0 0 0 0 0 0 0 0 0 0 0 0 0 0 0 0 0 0 0 0 0 0 0 0 0 0 0 0 0 0 0 0 0 0 0 0 0 0 0 0 0 0 0 0 0 0 0 0 0 0 0 0 0 0 0 0 7 7 7 7 7 7 7 7 7 7 7 7 7 7 7 7 1 = = = = = = 1 = 7 = = = 7 = = 7 = = = 1 = 7 1 = = 1 = = 7 = = 1 = = = = = = 1 1 = 1 = = = = 7 7 = = = 7 = = 1 = = 7 1 = 1 = 1 7 8 7 7 7 7 1 = 7 = 1 7 7 7 7 1 8 7 7 7 1 = 1 7 7 7 7 : : 7 : : 7 : 7 : : : 7 : : 7 : 7 : : 7 7 7 7 7 7 7 7 < ",
"IX<.7 a 0 8 6.KXKXKXLX<.c LXLXKXKXLXLXc ( GXLX( : 8 8 8 wX<.8 0 0 0 0 0 0 0 0 0 0 0 0 0 0 0 0 0 0 0 0 0 0 0 0 0 0 0 0 0 0 0 0 0 0 0 0 0 0 0 0 0 0 0 0 0 0 0 0 0 0 0 0 0 0 0 0 0 0 0 0 0 0 0 0 0 0 0 0 0 0 0 0 0 0 0 0 0 0 0 0 0 0 0 0 0 0 0 8 0 7 = = = X = = = = = = = = = = = = = = = = = = = = =   . = = . = = = X = = = = = = = = = = = . = = = = = = = = = = = = = = = = = = = = = = = = = = = = = = 1 1 1 : = 1 1 1 1 1 2 1 1 1 : = : 1 1 1 = 1 1 1 1 = = o o X X . =   . . . = . * * * = = X X X = = . *   X .   X X X   ",
"LX3.+ 7 8 8 : 7 : f LX6.f LXKXwXwXwX3.: 5.wXKXGXc f : 3.wX/ 8 0 0 0 0 0 0 0 0 0 0 0 0 0 0 0 0 0 0 0 0 0 0 0 0 0 0 0 0 0 0 0 0 0 0 0 0 0 0 0 0 0 0 0 0 0 0 0 0 0 0 0 0 0 0 0 0 0 0 0 0 0 0 0 0 0 0 0 0 0 0 0 0 0 0 0 0 0 0 0 0 0 0 0 0 0 0 8 0 7 = = = X 2 = = = = = = = = = = = = = = = = = = = = * x v   = )     = a 7 X = . * *   . =   = 0 = = = = = = = = = = = = = = = = = = = = 2 = = = = = = = = 1 1 1 : R 2 : 1 1 : : + : 1 : 5 7.<.1 1 1 1 1 1 1 = = 2 c c 3 8 g 1 x ) v g 1 g 8 a 1 = = 5 6 5 = = g 8 ] 8 a ] 8 8 8 v ",
"LXGXwXGX<.0 wXGXwXGXLX<.f LX6.+ 7 > 7 a : 3.LXKXLX6.c wX6.f 8 0 0 0 0 0 0 0 0 0 0 0 0 0 0 0 0 0 0 0 0 0 0 0 0 0 0 0 0 0 0 0 0 0 0 0 0 0 0 0 0 0 0 0 0 0 0 0 0 0 0 0 0 0 0 0 0 0 0 0 0 0 0 0 0 0 0 0 0 0 0 0 0 0 0 0 0 0 0 0 0 0 0 0 0 0 8 0 7 = = = X c ( X = = = = = = = = = = = = = = = = = = = = Z.) r.V.M.M.y.,.R._ s B.1.t.t.B.M._ M.D.M.  = = = = = = = = = = = = = = = = = = X 5 3.= = = = = = = 1 1 = 1 R R > 1 1 ( ( 7.6 : : 6 6.7.2 = 1 1 1 1 = = X 6 6.wX( k Q.] Q.C.] Q.w.V.v w.s   2 ( <.c * g Q.] Q.t.t.) D._ ] ] ",
"KXKXKXLX6.0 KXKXKXKXwX8 c KX6.7 a a 0 0 7 <.<.6.KX6.wX6.c 8 0 0 0 0 0 0 0 0 0 0 0 0 0 0 0 0 0 0 0 0 0 0 0 0 0 0 0 0 0 0 0 0 0 0 0 0 0 0 0 0 0 0 0 0 0 0 0 0 0 0 0 0 0 0 0 0 0 0 0 0 0 0 0 0 0 0 0 0 0 0 0 0 0 0 0 0 0 0 0 0 0 0 0 0 0 8 0 7 = = = = X ( ( X = = = = = = = = = = = = = = = = = = = * x D.hXy.Q.R.D.] r.a ` y.R.w.D.B.t.R.R.B.,.  = = = = = = = = = = = = = = = = = = X 3 <.= = = = = = 1 1 1 > R R R 1 = 1 ( ( 7.6 : : 6 7.7.3 = 1 1 1 = = = X 6 6.wX( a R.R.y.V._ r.R.C.] y.a . 2 c <.c * M.Q.D.B.B.y.s R.,.r.g ",
"a 0 0 0 0 0 0 0 0 0 7 8 0 a 0 0 0 0 0 0 0 8 + 5.3.3.<.f 8 0 0 0 0 0 0 0 0 0 0 0 0 0 0 0 0 0 0 0 0 0 0 0 0 0 0 0 0 0 0 0 0 0 0 0 0 0 0 0 0 0 0 0 0 0 0 0 0 0 0 0 0 0 0 0 0 0 0 0 0 0 0 0 0 0 0 0 0 0 0 0 0 0 0 0 0 0 0 0 0 0 0 0 0 0 0 0 7 = = = = = = X 3 = = = = = = = = = = = = = = = = = = = = = ` ) ) ) x ] g ] ` s ` Z.g a x _ _ _ ` x ` = = = = = = = = = = = = = = = = = = = = 3 = = = = = = 1 1 1 1 = 2 : 2 1 = 1 : : + : 1 = 2 ( 5 : 1 1 1 = = = = X 3 ( / 5 7 ) _ s ,.` a v v ] ` X = = c ( 6 = v = ,.r.s x t.7 ] ] = ",
"8 8 8 8 0 0 8 8 8 8 0 0 0 8 8 0 0 0 0 0 0 0 a 7 8 8 8 8 0 0 0 0 0 0 0 0 0 0 0 0 0 0 0 0 0 0 0 0 0 0 0 0 0 0 0 0 0 0 0 0 0 0 0 0 0 0 0 0 0 0 0 0 0 0 0 0 0 0 0 0 0 0 0 0 0 0 0 0 0 0 0 0 0 0 0 0 0 0 0 0 0 0 0 0 0 0 0 0 0 0 0 0 0 0 0 7 = = = = = = = = X = = = = = = = = = = = = = = = = = = = = = . . . . . . X   .   g 0   = . . .   . X . = = = = = = = = = = = = = = = = = = = = = = = = = = 1 1 1 1 1 1 : 1 = = 1 1 1 1 1 1 1 1 1 : : 1 1 1 = = = = = = = o o X = .   X   . * . .     = = = X X X = . =     X .   *     = ",
"= = = = = = = = = = = = = = = = = = = = = = = = = = = = = = = = = = = = = = = = = = = = = = = = = = = = = = = = = = = = = = = = = = = = = = = = = = = = = = = = = = = = = = = = = = = = = = = = = = = = = = = = = = = = = = = = = = = = = = = = = = = = = = = = = = = = = = = = = = = = = = = = = = = = = = = = = = = = . * = = = = = = = = = = = = = = = = = = = = = = = = = = = = = = = = = = = = = = = = = = = = = = = = = = = = = = = = = = = = = = = = = = = = = = = = = = = = = = = = = = = = = = = = = = = = = = = = = = ",
"x x x x x x g g g g x v x x x v v g x g v x x g v v v v v v v v v v v v v v v v v v v v v v v v v v v v v v v v v v v v v v v v v v v v v v v v v v v v v v v v v v v v v v v v v v v v v v v v v v v v v v v v v v v v v v v v v v v v v v v v v v v v v v v v v v v v v v v v v v v v v v v v v v v v v v v v v v v v v v v v v v v v v v v v v v v v v v v v v v v v v v v v v v v v v v v v v v v v v v v v 7 1 8 8 8 8 7 7 8 8 8 8 = = 8 7 7 8 8 8 7 = 8 1 7 8 8 8 8 = x v x v v v v v v v x v v v v v v v v v v v v v v v ",
"w.w.w.w.w.,.t.t.r.w.,.] w.] ] ] ` t.,.r.` ] ,.w.] ` ] ` ` ` ` ` ` ` ` ` ` ` ` ` ` ` ` ` ` ` ` ` ` ` ` ` ` ` ` ` ` ` ` ` ` ` ` ` ` ` ` ` ` ` ` ` ` ` ` ` ` ` ` ` ` ` ` ` ` ` ` ` ` ` ` ` ` ` ` ` ` ` ` ` ` ` ` ` ` ` ` ` ` ` ` ` ` ` ` ` ` ` ` ` ` ` ` ` ` ` ` ` ` ` ` ` ` ` ` ` ` ` ` ` ` ` ` ` ` ` ` ` ` ` ` ` ` ` ` ` ` ` ` ` ` ` ` ` ` ` ` ` ` ` ` ` ` ` ` ` ` ` ` ` ` ` ` ` ` ` ` ` ` ` ` ` ` ` ` ` ` ` ` ] 8 7 a 0 0 ) r.,.v 8 0 a 1 7 8 x g 1 8 a 7 = 8 _ x 7 8 a 8 = ) ` w.,._ ) ) _ _ ] w._ ` ` ` ` ` ` ` ` ` ` ` ` ` ` ",
"D.C.hXE.V.C.w.D.D.hXD.w.Q.D.R.y.M.M.C.hXM.E.C.hXD.C.y.v _ _ _ _ _ _ _ _ _ _ _ _ _ _ _ _ _ _ _ _ _ _ _ _ _ _ _ _ _ _ _ _ _ _ _ _ _ _ _ _ _ _ _ _ _ _ _ _ _ _ _ _ _ _ _ _ _ _ _ _ _ _ _ _ _ _ _ _ _ _ _ _ _ _ _ _ _ _ _ _ _ _ _ _ _ _ _ _ _ _ _ _ _ _ _ _ _ _ _ _ _ _ _ _ _ _ _ _ _ _ _ _ _ _ _ _ _ _ _ _ _ _ _ _ _ _ _ _ _ _ _ _ _ _ _ _ _ _ _ _ _ _ _ _ _ _ _ _ _ _ _ _ _ _ _ _ _ _ _ _ _ _ _ _ _ _ _ _ _ _ _ ` 8 1 0 0 8 t.] w.` 8 0 0 1 7 7 ,.y.y.x 8 8 X ` y.y.] ` D.a = v w.R.t.M.V.V.M.w.D.M.v ` _ _ _ _ _ _ _ _ _ _ _ _ _ ",
"Z.hXr.D.Z.Z.) M.B.hXZ.B.D.hXhXr.V.V.hXQ.R.Q.hXr.C.E.M.v _ _ _ _ _ _ _ _ _ _ _ _ _ _ _ _ _ _ _ _ _ _ _ _ _ _ _ _ _ _ _ _ _ _ _ _ _ _ _ _ _ _ _ _ _ _ _ _ _ _ _ _ _ _ _ _ _ _ _ _ _ _ _ _ _ _ _ _ _ _ _ _ _ _ _ _ _ _ _ _ _ _ _ _ _ _ _ _ _ _ _ _ _ _ _ _ _ _ _ _ _ _ _ _ _ _ _ _ _ _ _ _ _ _ _ _ _ _ _ _ _ _ _ _ _ _ _ _ _ _ _ _ _ _ _ _ _ _ _ _ _ _ _ _ _ _ _ _ _ _ _ _ _ _ _ _ _ _ _ _ _ _ _ _ _ _ _ _ _ _ _ ` 8 1 0 0 8 t.` B.r.7 0 0 1 7 7 ] C.B.,.7 8 . ,.r.y.C.C.C.8 = ) ` C.hXR.E.E.Z.Q.jXy.v ` _ _ _ _ _ _ _ _ _ _ _ _ _ ",
"M.r.) t.t.t.y.w.w.w.r.M.w.r.t.] ,.B.r.w.y.` y._ w.] ,._ ` ` ` ` ` ` ` ` ` ` v _ _ _ _ _ _ ` ` ` ` ` ` ` ` ` ` ` ` ` ` ` ` ` ` ` ` ` ` ` ` ` ` ` ` ` ` ` ` ` ` ` ` ` ` ` ` ` ` ` ` ` ` ` ` ` ` ` ` ` ` ` ` ` ` ` ` ` _ ` ` ` ` ` ` ` ` ` ` ` ` ` ` ` ` ` ` ` ` ` ` ` ` ` ` ` ` ` ` ` ` ` ` ` ` ` ` ` ` ` ` ` ` ` ` ` ` ` ` ` ` ` ` ` ` ` ` ` ` ` ` ` ` ` ` ` ` ` ` ` ` ` ` ` ` ` ` ` ` ` ` ` ` ` ` ` ` ` ` ` ` ` 8 1 0 8 0 _ ,.V.t.7 0 0 1 7 8 ) ] x g 8 8 = 8 w.) ) ,._ s = ) ] M.w.M.hXw.w.M.y.,._ ` ` ` ` ` ` ` ` ` ` ` ` ` ` ",
"x x v g g g g x x x g s x g g v x s g x g v g v x x x v v v v v v v v v v v } _ ) _ _ ] } x v v v v v v v v v v v v v v v v v v v v v v v v v v v v v v v v v v v v v v v v v v v v v v v v v v v v v v v v v v v v ) v v v v v v v v v v v v v v v v v v v v v v v v v v v v v v v v v v v v v v v v v v v v v v v v v v v v v v v v v v v v v v v v v v v v v v v v v v v v v v v v v v v v v v v v v v v v _ 8 1 0 8 8 0 8 7 8 0 8 0 1 1 a 8 7 8 8 0 7 = 0 7 8 8 7 8 8 = x v x x ` ] x v x x v v v v v v v v v v v v v v v v ",
"u r 7 = = = = = = = = 1 = = = 1 8 = = = = = = = = = 8 7 = = = = = 1 8 = = = pX&.+.+.o.n.qXX 1 = 8 = = 7 7 = 7 8 = 8 7 = = = = = = = = = = = = = = = = 7 7 = = = = = = = = 1 8 = = = = = = 8 1 = = = = 8 = = 7 9 y j m.h g 7 = 8 1 = 8 1 = 8 = = = = = = = = = = = = = = = = = 8 = = = = = = = = = 7 7 = = = = = 1 8 = = = = 7 7 = = = 8 1 = = 8 1 = 7 8 = 1 8 = 7 7 = = = = = = = = = = = = = = = = 7 7 9 k l T.g = a 8 0 8 = = 8 0 8 0 1 1 0 0 0 0 0 0 7 = 0 0 0 0 0 0 8 = 8 8 8 0 8 8 0 0 0 8 8 8 8 8 8 8 8 8 8 8 8 8 8 8 8 8 ",
"o.+.8 1 1 1 1 1 1 1 1 1 1 1 1 7 8 1 1 1 1 1 1 1 1 = 8 7 1 1 1 1 1 7 8 1 1 2 pXe.8.O.o.u.pXX 7 1 8 7 1 7 8 = 7 8 = 8 8 = 1 1 1 1 1 1 1 1 1 1 1 1 1 1 = 8 7 1 1 1 1 1 1 1 1 7 8 1 1 1 1 1 = 8 7 1 1 1 1 8 7 1 7 9 y J A.g g 8 7 8 7 = 8 7 1 a 1 1 1 1 1 1 1 1 1 1 1 1 1 1 1 1 7 8 1 1 1 1 1 1 1 1 = 8 7 1 1 1 1 1 7 8 1 1 1 1 7 8 = 7 = 8 7 1 1 8 7 1 7 8 = 7 8 = 8 8 = 1 1 1 1 1 1 1 1 1 1 1 1 1 1 = 8 8 q l b T.g = a 8 0 8 X = 8 0 8 0 1 1 r t r r t r 7 = 9 t r r t t 9 = 8 0 0 0 7 7 7 : 7 0 0 0 0 0 0 0 0 0 0 0 0 0 0 a 0 0 ",
"8.8.9 = 1 1 1 1 1 1 1 1 1 1 1 7 8 = 1 1 1 1 1 1 1 = 8 7 = 1 1 1 1 7 8 = = p pX8.8.O.o.e.pXX 1 1 8 1 = 7 8 = 7 8 = 8 8 = 1 1 1 1 1 1 1 1 1 1 1 1 1 1 = 8 7 = 1 1 1 1 1 1 1 7 8 = 1 1 1 1 = 8 7 1 1 1 1 8 1 1 7 9 y J A.g g 8 1 8 7 = 8 7 1 0 1 1 1 1 1 1 1 1 1 1 1 1 1 1 1 1 7 8 = 1 1 1 1 1 1 1 = 8 7 = 1 1 1 1 7 8 = 1 1 = 7 8 = 1 = 8 7 1 = 8 7 = 7 8 = 7 8 = 8 8 = 1 1 1 1 1 1 1 1 1 1 1 1 1 1 = 8 8 q l b T.g = a 8 0 8 2 2 8 0 8 0 1 1 r t t r t t 7 = r t t r t t 9 = 8 0 8 8 5.wXGXwX3.7 0 0 0 0 0 0 8 8 7 8 7 8 8 7 8 0 ",
"o.` 8 = 1 1 1 1 1 1 1 1 1 1 1 7 8 = 1 1 1 1 1 1 1 = 8 7 = 1 1 1 1 7 8 = = p pX8.8.O.O.e.zXf 7 = 8 7 1 7 8 = 7 8 = 8 8 1 1 1 1 1 1 1 1 1 1 1 1 1 1 1 = 8 7 = 1 1 1 1 1 1 1 7 8 = 1 1 1 1 = 8 7 1 1 1 1 8 1 1 7 9 y J A.g g 8 1 8 7 = 8 7 1 a 1 1 1 1 1 1 1 1 1 1 1 1 1 1 1 1 7 8 = 1 1 1 1 1 1 1 = 8 7 = 1 1 1 1 7 8 = 1 1 = 7 8 = 1 = 8 7 1 = 8 7 = 7 8 = 7 8 = 8 8 = 1 1 1 1 1 1 1 1 1 1 1 1 1 1 = 8 8 q l b T.g = a 0 7 / HXGXf 8 0 0 1 1 r t t r t t 7 = r t t r t t 9 = 8 8 a wXHX5.3.6.HX6.7 0 0 0 0 7 w.] v x ) s s w.x 8 ",
"j r 7 1 1 1 1 1 1 1 1 1 1 1 1 7 8 = 1 1 1 1 1 1 1 = 8 7 = 1 1 1 1 7 8 1 = f pXo.8.O.O.o.uXpXqXX 0 X X 7 8 = 7 8 = 8 : X 1 1 1 1 1 1 1 1 1 1 1 1 1 1 = 8 7 = 1 1 1 1 1 1 1 7 8 = 1 1 1 1 = 8 7 1 1 1 1 8 1 1 7 9 y J A.g g 8 1 8 7 = 8 7 1 a 1 1 1 1 1 1 1 1 1 1 1 1 1 1 1 1 7 8 = 1 1 1 1 1 1 1 = 8 7 = 1 1 1 1 7 8 = 1 1 = 7 8 = 1 = 8 7 1 = 8 7 = 7 8 = 7 8 = 8 8 = 1 1 1 1 1 1 1 1 1 1 1 1 1 1 = 8 8 q l b T.g = a 0 7 / JXHXf 8 0 0 1 1 r t t r t t 7 = r t t r t t 9 = 8 7 wXGX= o o o 3 HX5.: a 0 0 7 ,.C.C.C.V.C.r.Q.g 8 ",
"j y 7 1 1 1 1 1 1 1 1 1 1 1 1 7 8 = 1 1 1 1 1 1 1 = 8 7 = 1 1 1 1 7 8 X o p pXo.8.O.O.O.o.O.pX= 8 { { 7 8 = 7 8 o f qX{ X 1 1 1 1 1 1 1 1 1 1 1 1 1 = 8 7 = 1 1 1 1 1 1 1 7 8 = 1 1 1 1 = 8 7 1 1 1 1 8 1 1 7 9 y J A.g g 8 1 8 7 = 8 7 1 a 1 1 1 1 1 1 1 1 1 1 1 1 1 1 1 1 7 8 = 1 1 1 1 1 1 1 = 8 7 = 1 1 1 1 7 8 = 1 1 = 7 8 = 1 = 8 7 1 = 8 7 = 7 8 = 7 8 = 8 8 = 1 1 1 1 1 1 1 1 1 1 1 1 1 1 = 8 8 q l b T.g = a 0 7 / JXHXf 8 0 0 1 1 r t t r t t 7 = r t t r t t 9 = 7 c HX5 o = =   O 3.HX8 8 0 0 7 w.y._ D.B.t.V.y.v 8 ",
"J r 7 1 1 1 1 1 1 1 1 1 1 1 1 7 8 = 1 1 1 1 1 1 1 = 8 7 1 1 1 1 1 7 a { {  .pXo.8.O.O.O.8.8.pXX ^ zXzX .7 = 7 8 ^ qXpXqXX 7 1 1 1 1 1 1 1 1 1 1 1 1 = 8 7 = 1 1 1 1 1 1 1 7 8 = 1 1 1 1 = 8 7 1 1 1 1 8 1 1 7 9 y J A.g g 8 1 8 7 = 8 7 1 a 1 1 1 1 1 1 1 1 1 1 1 1 1 1 1 1 7 8 = 1 1 1 1 1 1 1 = 8 7 = 1 1 1 1 7 8 = 1 1 = 7 8 = 1 = 8 7 1 = 8 7 = 7 8 = 7 8 = 8 8 = 1 1 1 1 1 1 1 1 1 1 1 1 1 1 = 8 8 q l b T.g = a 0 7 / JXHXf 8 0 0 1 1 r t t r t t 7 = r t t r t t 9 = : 3.GX= = = = E.hX^ GXc 8 0 0 8 7 0 = _ a 7 0 7 8 8 ",
"J r 8 1 1 1 1 1 1 1 1 1 1 1 1 7 8 1 1 1 1 1 1 1 1 = 8 7 1 1 1 1 1 X  .lX5.qXu.8.8.O.O.O.8.O.zXd 5.G.+.zXzXp 7 a lXG.e.qX= 7 1 1 1 1 1 1 = 1 1 1 1 1 = 8 7 1 1 1 1 1 1 7 1 7 0 1 7 7 7 7 : 8 7 7 7 7 7 8 7 1 7 9 y J A.g g 8 7 8 7 = 8 7 1 a 1 1 1 1 1 1 1 1 1 1 1 1 1 1 1 1 7 8 1 1 1 1 1 1 1 1 = 8 7 1 1 1 1 1 7 8 = 1 1 1 7 8 = 7 = 8 7 1 1 8 7 1 7 8 = 7 8 = 8 8 = 1 1 1 1 1 1 1 1 1 1 1 1 1 1 = 8 8 q l b T.g = a 0 7 / JXHXf 8 0 0 1 1 r t t r t t 7 = r t t r t t 9 = : 3.GX= = = = t.M.f <.a 8 0 8 v ` 8 ,.v ] 8 a ] ] v ",
"j e 7 = = = = = = = = = = = = = 7 X = = = = = = = X 7 7 X = = = = o  .G.L J J O.O.o.o.o.8.J G.qXpXu.o.J pX! X p pXJ e.pX= = = = = = = = 7 = = = = = X 7 7 X = X X X X X o X : o o o . * * 3 4 * * * * 8 : : 7 9 y J A.g g 8 = 8 1 = 8 1 = 0 = = = = = = = = = = = = = = = = 1 8 = = = = = = = = = 8 7 = = = = = 1 8 = = = = 7 7 = = = 8 7 = = 8 1 = 7 8 = 7 8 = 8 8 = = = = = = = = = = = = = = = = 7 8 9 l b T.g = a 0 7 / JXHXf 8 0 0 1 1 r t t r t t 7 = r t t r t t 9 = 8 s HX( o = =   O ( <.8 0 0 8 y.y.` B.R.M.) M.D.R.M.",
"lXlXlXlXlXlXlXlXlXlXlXlXlXlXlXlXlXlXlXlXlXlXlXlXlXlXlXlXlXlXlXlXlXlXNXCXBXBXBXBXBXNXBXNXBXBXvXlXvXcXNXBXCXNXlXlXZXBXBXZXlXlXlXlXlXlXlXlXZXlXlXlXlXlXlXlXlXlXlXlXlXlXlXlXlXlXzXpXiXT.;.I C C U U F F G z 3 2 q z b O.A.) ) s 0 s a 8 s a 0 s 0 0 0 0 0 0 0 0 0 0 0 0 0 0 0 0 0 s 0 0 0 0 0 0 0 0 8 s a 0 0 0 0 0 0 s 0 0 0 0 a s 8 0 8 s a 0 0 s 0 0 a s 8 a s 8 s s 8 0 0 0 0 0 0 0 0 0 0 0 0 0 0 8 s s k [ +.T.g = a 0 7 / JXHXf 8 0 0 1 1 r t t r t t 7 = r t t r t t 9 = 0 7 5.HXc X = = c 6.c 8 0 0 8 t.B.r.B.D.M.` V.V.R.M.",
"*.&.' ' ' ' ' ' ' ' ' ' ' ' ' ' ' ' ' ' ' ' ' ' ' ' ' ' ' ' ' ' ' ~ uXaXs.m.m.m.m.m.m.m.m.m.m.m.m.m.m.s.kX .l } zXm.m.lXuX~ ' ' ' ' ~ 4.CX .~ ' ' ' ' ' ' ' ' ' ' ' ' } } } G.4.uXpXcXSXbXA.F D U U (./.(.D 8 8 j o.A.g k 0 7 0 8 7 0 8 7 a 7 7 7 7 7 7 7 7 7 7 7 7 7 7 7 7 7 0 7 7 7 7 7 7 7 7 7 0 8 7 7 7 7 7 8 0 7 7 7 7 8 8 7 7 7 0 8 7 7 0 7 7 8 0 7 8 0 7 0 0 7 7 7 7 7 7 7 7 7 7 7 7 7 7 7 7 8 0 s b J T.g = a 0 7 / JXHXf 8 0 0 1 1 r t t r t t 7 = r t t r t t 9 = 8 0 7 6.<.: 8 7 3.( 8 0 0 0 8 x ) g ) x ) 8 _ v _ x ",
"S S e @ @ @ @ @ @ @ @ @ @ @ @ e e @ @ @ @ @ @ @ @ @ e e @ @ @ @ , # G.A.K @.@.@.q.@.@.@.q.@.@.@.q.@.@.K iX .# ~ sXK q.e.zXe @ @ @ @ @ uXkX0X# , @ @ @ e @ # , @ @ @ @ @ @ @ e # # # @ q { zXNX4.+ 7 w y S U (.F q o.A.g g 8 1 8 7 = 8 7 = 0 = = = = = = = = = = = = = = = = 1 8 = 1 = = = = = 1 = 8 7 = = = = = 7 8 = 1 1 = 7 8 = 1 = 8 7 = = 8 1 = 7 8 = 7 8 = 8 8 = 1 = = = = = = = = = = = = 1 = 8 8 q l b T.g = a 0 7 / JXHXf 8 0 0 1 1 r t t r t t 7 = r t t r t t 9 = 8 0 0 7 8 a a a 8 8 0 0 0 8 0 8 7 8 7 8 7 0 7 8 7 8 ",
"G S t e e e e e e e e e e e e r y e r e e e e e r e y r e e e e r @ uXA.@.9.#.9.0.#.9.#.0.9.#.#.0.9.#.#.m.zXpX} sXq.p.K pXk e r y r  .zX@.zX~ e r r e y l ~ e r e e r r e r j r r r r e @ @ +.cXlXe e j w 7 t (.(.O.A.g g 8 7 8 8 1 8 7 1 a 1 1 1 1 1 1 1 1 1 1 1 1 1 1 1 1 7 8 1 1 1 1 1 1 1 1 = 8 7 = 1 1 1 1 7 8 = 1 1 = 7 8 = 1 = 8 7 1 1 8 7 = 7 8 = 7 8 = 8 8 = 1 1 1 1 1 1 1 1 1 1 1 1 1 1 = 8 8 q l b T.g = a 0 7 / JXHXf 8 0 0 1 1 r t t r t t 7 = r t t r t t 9 = 8 0 0 a 8 : : : 8 a 0 0 0 0 8 0 a 0 0 0 0 0 0 0 a 0 ",
"G S t e e e e e e e e e e e e r y e e e e e e e e e y r e e e e r @ uXA.@.9.#.9.9.#.$.#.9.9.#.#.0.#.#.9.9.K iXlXiXq.p.@.aX~ e @ pXpXzXu.K sX' @ e e e # G.NXk e e e e e e r y e e e e e r e n.>.qXNXr r r e r r U >XA.f g 8 7 8 8 7 8 7 1 a 1 1 1 1 1 1 1 1 1 1 1 1 1 1 1 1 7 8 = 1 1 1 1 1 1 1 = 8 7 = 1 1 1 1 7 8 = 1 1 = 7 8 = 1 = 8 7 1 = 8 7 = 7 8 = 7 8 = 8 8 = 1 1 1 1 1 1 1 1 1 1 1 1 1 1 = 8 8 q l b T.g = a 0 7 / JXHXf 8 0 0 1 1 r t t r t t 7 = r t t r t t 9 = 8 0 0 : c 5.6.5.a 7 0 8 0 8 0 8 1 8 0 8 8 8 0 0 8 8 ",
"G S r e e e e e e e e e e e e r y e e e e e e e e e y r e e e r r @ uXm.@.#.#.9.9.^.}.|.&X8.#.#.0.#.#.9.0.#.9.u.#.0.0.K aX~ #  .zXb +.#.@.aX' @ r e e  .zXsX .@ r e e e e r y e e e e e e e NXpX$ uXNXu e e r S j :.$Xg g 8 7 8 0 7 8 7 1 0 1 1 1 1 1 1 1 1 1 1 1 1 1 1 1 1 7 8 = 1 1 1 1 1 1 1 = 8 7 = 1 1 1 1 7 8 = 1 1 = 7 8 = 1 = 8 7 1 = 8 7 = 7 8 = 7 8 = 8 8 = 1 1 1 1 1 1 1 1 1 1 1 1 1 1 = 8 8 q l b T.g = a 0 7 / JXHXf 8 0 0 1 1 i i i i i i 8 = y i i i i i q = 8 0 7 5.HXwX6.wXHX3.7 a 0 0 8 x y.s 8 s x a 8 8 s x ",
"K J u e e e e e e e e e e e e r y e e e e e e e e e y r e e e @ @ $ uXm.@.#.^.}.}.}.#.$. X[.-.#.0.#.#.9.0.#.9.q.@.0.0.K aX} # zX&.J ..#.K iX} @ r e k lXO.A.4.# r e e e e r y e e e e e e r zXsXe # pXzX# r r u G 0.1X^.f 8 7 8 s 8 8 7 1 0 7 1 1 1 1 1 1 1 1 1 1 1 1 1 1 1 7 8 = 1 1 1 1 1 1 1 = 8 7 = 1 1 1 1 7 8 = 1 1 = 7 8 = 1 = 8 7 1 = 8 7 = 7 8 = 7 8 = 8 8 = 1 1 1 1 1 1 1 1 1 1 1 1 1 1 = 8 8 q l b T.g = a 0 7 / JXHXf 8 0 0 1 1 i i i i i i 8 = i i i i i i q = 0 7 5.HX( o o o <.JX3.7 0 0 8 M.` D.` C.C.M.B.` Z.t.",
"@.J b e e e e e e e e e e e e r y e e e e e e e e e y r e e r 4.uX0XlXs.@.$.|.f.f.#.#.#.g.[.|.O.e.O.#.9.0.#.9.0.#.0.0.@.A.zXpXpX@.#.o.9.K iX .# r @ ' aXK s.zXe e e e e e r y e e e e e r } kXpXe r # lX5.# r u G g.A.^.P 4 7 8 s 8 8 7 1 a 8 1 1 1 1 1 1 1 1 1 1 1 1 1 1 1 7 8 = 1 1 1 1 1 1 1 = 8 7 = 1 1 1 1 7 8 = 1 1 = 7 8 = 1 = 8 7 1 = 8 7 = 7 8 = 7 8 = 8 8 = 1 1 1 1 1 1 1 1 1 1 1 1 1 1 = 8 8 q l b T.g = a 0 7 / JXHXf 8 0 0 1 1 i i i i i i 8 = n i i i i i q = 8 a HX3.o = =   O 5.GX7 0 0 7 r.y.M.C.V.B.Z.B.C.Z.,.",
"K O.j e e e e e e e e e e e e e y e e e e e e e e e y r e , ~ zX&.n.u.#.#.=./.9.9.#.#.#.9.8.}.{.[.h.=.9.0.#.9.0.#.0.9.#.@.@.i.#.#.#.9.#.@.m.zXr e @ ' aX@.K pX .@ r e e e e y e e e r @  .AXaXpXr e e l ZX~ e u G j.Y.l /.u 1 8 x 8 8 7 1 0 0 1 1 1 1 1 1 1 1 1 1 1 7 1 1 1 1 8 = 1 1 1 1 1 1 1 = 8 7 = 1 1 1 1 7 8 = 1 1 = 7 8 = 1 = 8 7 = = 8 7 = 7 8 = 7 8 = 8 8 = 1 1 1 1 1 1 1 1 1 1 1 1 1 1 = 8 8 q l b T.g = a 0 7 / JXHXf 8 0 0 1 1 i i i i i i 8 = i i i i i i q = 7 3.GX= = = = w.t.( HXc 8 0 8 0 ) 8 x a ` y.8 x a g ",
"G G u e e e e e e e e e e e e r y e e e e e e e e e y r e e ' sXK @.9.O.O.=.{.9.0.#.9.#.0.9.=.h.h.{. Xg.e.#.9.0.#.0.0.#.9.9.@.#.#.#.#.#.9.K pX .@ @ pXiX@.@.n.qX@ r e e e r y e r e e e pXNXiXsX~ e r @  .NX@ u G c.Y.b H (.4 8 v q 8 7 1 a s 7 1 7 7 7 7 7 7 7 7 1 8 7 1 1 7 8 1 7 7 7 7 7 7 7 1 8 7 1 7 7 7 1 7 8 1 7 7 1 8 8 1 7 1 8 7 1 1 8 7 1 7 8 = 7 8 = 8 8 = 7 7 7 7 7 7 7 7 7 7 7 7 7 7 1 8 8 s l b T.g = a 0 7 / JXHXf 8 0 0 1 1 i i i i i i 8 = i i i i i i q = : <.GX= = = = E.jXc 6.f 8 0 8 s a 8 s 0 s 7 8 g g a ",
"K G j y y y y y y y y y y y y y j y y y y y y y y y j j y e } aXq.i.g.}.{.|.{.i.0.0.0.0.p.0.9.9.i.e.h. X&X0.0.p.0.p.p.0.0.0.0.0.0.0.0.0.0.0.m.zXpXzXpXq.p.q.m.uX@ } lX~ u u j y y G.u ' pX9.0.kX&.r y j @ lXuXS J k.Y.o.v ^.F 3 b s a 0 8 s v 0 8 8 8 8 8 8 8 0 8 8 s 0 8 8 8 s 8 8 8 8 8 8 8 8 8 a 0 8 8 8 8 8 0 s 8 8 8 8 a s 8 8 8 a 0 8 8 s 0 8 0 a 8 0 s 8 s s 8 8 8 8 8 8 8 8 8 8 8 8 8 8 8 8 a s z ~ ..T.g = a 0 7 / JXHXf 8 0 0 1 1 i i i i i i 8 = i i i i i i q = 7 c HX5 o = =   O 6 <.8 0 0 8 y.M.v V.C.B.s r.Z.D.t.",
"G S t e e e e e e e e e e e e e y e e e e e e e e e y r e @ } iXK 8.&X^.-.-.#.9.9.#.#.#.0.9.#.#.0.#.#.g.|.-.9.0.#.0.9.#.#.#.#.#.#.#.#.#.#.#.@.b +.n.#.0.9.@.s.pX$ 4.zX .# k ~ e } ZX@  .uX@.K aXzX@ e y e k ZXl L k.Y...l y /.9 v q 7 7 = 0 x 7 = = 1 7 = 1 1 7 1 = q 7 = = 1 8 = 1 1 1 1 1 1 1 = 8 7 = 1 1 1 = 7 8 = 1 1 = 8 8 = 1 = 8 7 = = 8 1 = 7 8 = 7 8 = 8 8 = 1 1 1 1 1 1 1 1 1 1 1 1 1 1 = 8 8 q l b T.g = a 0 7 / JXHXf 8 0 0 1 1 i i i i i i 8 = i i i i i i q = 8 7 wXwX= = = = 2 <./ 8 0 0 8 y.M.r.M.Q.y.,.V.C.R.M.",
"G S t e e e e e e e e e e e e r y e e e e e e e e e y r r @ } iXK e.&X:.O.#.#.9.9.#.#.#.0.9.#.#.0.#.#.8.&X:.9.0.#.0.0.#.#.#.#.#.#.#.#.#.#.#.#.O.o.@.#.0.9.@.s.uXe zXe.zX@ 4.uXuXZXlXz pXm.q.9.#.zXz e y r # uXzXS c.Y...J s P U x s 8 7 1 a v 7 1 1 7 a = 1 7 7 1 = s 7 = 1 7 8 1 1 1 1 1 1 1 1 = 8 7 1 7 1 1 1 7 8 = 7 1 = 8 0 = 7 = 8 7 1 1 8 7 = 7 8 = 7 8 = 8 8 = 1 1 1 1 1 1 1 1 1 1 1 1 1 1 = 8 8 q l b T.g = a 0 7 / JXHXf 8 0 0 1 1 i i i i i i 8 = n i i i i i q = 8 8 0 GX5.X 1 : 3.<.8 0 0 0 8 ` r.) w.] w.8 w.,.r.` ",
"G S t e e e e e e e e e e e e r y e e e e e e e e e r e , # } iXK e.&X:.O.#.#.9.9.#.#.#.0.9.#.#.0.#.#.8.&XI 8.0.#.0.0.#.#.#.#.#.#.#.#.#.O.#.#.9.9.#.#.0.9.#.9.zXpXaXK A.pXpXNXzXsXsX .pX@.0.9.@.aX~ e y e e e NXn.T.Y.+.J +.) (.@.a 8 7 1 a b 7 1 = 7 s = 1 7 8 1 = z 8 = 1 7 8 1 1 7 7 1 1 1 1 = 8 7 1 7 1 1 1 7 8 = 8 7 = 8 a = 7 = 8 7 1 1 8 7 = 7 8 = 7 8 = 8 8 = 1 1 1 1 1 1 1 1 1 1 1 1 1 1 = 8 8 q l b T.g = a 0 7 / JXHXf 8 0 0 1 1 z z y F.gXgXa = q y y s ^ ^ a = 8 0 8 0 a 0 0 0 a 8 8 0 0 8 0 8 7 8 7 7 7 8 7 7 7 8 ",
"G S t e e e e e e e e e e e e r y e e e e e e e e e l } ' ~ qXiXK w.&X:.O.#.#.9.9.#.#.#.0.9.#.#.0.#.#.9.h.).}.0.O.9.9.#.#.#.#.#.#.#.#.$.:.#.#.#.#.#.#.0.9.#.@.i.aXs.#.K kXkXiXkXL iX0XuX@.0.9.K aX' @ j e r @ >.CXcXY.+...+.) F @Xa 8 7 1 a b 8 7 X 7 z X = 1 9 X X z 7 X = = 7 = = 1 = = = = = X 7 1 X 7 = = X 7 8 X 7 = X 8 9 X = X 7 1 = X 7 = X 1 7 X 1 7 X 7 7 X = = = = = = = = = = = = = = X 7 7 9 j b T.g = a 0 7 / JXHXf 8 0 0 1 1 z j z F.gXgXs = q y y g ^ ^ a = 8 0 0 8 8 p p p 8 0 0 0 0 0 8 0 0 0 a 0 0 0 0 0 0 0 ",
"G S t e e e e e e e e e e e e r y e e e e e e e e e pXuXuXuXuX&X^.[. X-.#.#.#.9.9.#.#.#.0.9.#.#.0.#.#.9.9.O.}.f.-.h.h.$.#.#.#.#.#.#.O.:.oX-.O.#.#.#.#.0.9.#.#.@.K @.#.#.#.#.q.@.@.A.lXA.K 0.9.K iX} @ j e e r , NXCXI.+...+.+.v @XS X X = a [ g h p g [ d d f ) d d ' g d d d ! d d f d d d d d d g f d k d d d k ) d ! d d ! ) d d d g f d d ! d d f g d f g d g g d d d d d d d d d d d d d d d d g g ~ ' +.dXg = a 0 7 / JXHXf 8 0 0 1 1 s s q F.gXgXa = q y y g ^ ^ a = 8 0 0 p q i E i 0 p 0 0 0 0 0 0 0 8 7 8 a 0 0 0 0 0 ",
"@.J j e e e e e e e e e e e e r y e e e e e e e e r pXJ J J F ).h.h.g.#.#.#.#.9.9.#.#.#.0.9.#.#.0.#.#.9.0.O.[. X).&X}.}.O.#.#.#.#.#.#.}.[.|.$.#.#.#.#.0.9.#.#.#.9.#.#.#.#.9.0.#.@.i.NXm.@.0.9.K iXG.@ y e e r t >.AXY.O.+.+.o._ l.I.4.uXuXsXiXsXsXuXsXiXuXuXuXiXuXuXiXsXuXuXuXsXuXuXuXuXuXuXuXuXuXsXuXuXsXuXuXuXsXsXuXsXuXuXsXsXuXuXuXsXuXuXuXsXuXuXuXsXuXuXsXuXsXsXuXuXuXuXuXuXuXuXuXuXuXuXuXuXuXuXsXsXsXaXaXbXh 1 a 0 7 / JXHXf 8 0 0 1 1 g.h.h.F.gXgXa = q y y g ^ ^ a = 8 0 p i E E E E E i p 0 0 0 0 0 8 0 ` s 1 8 8 8 0 0 ",
"@.i.J , e e e e e e e e e e e r y e e e e e e e e y kX0.9.9.h.[.O.9.9.#.#.#.#.9.9.#.#.#.0.9.#.#.0.#.#.9.0.#.0.h.#.e.e. Xh.#.#.#.#.O.h.}.&.{.:.O.#.#.#.0.9.#.#.#.#.#.#.#.#.9.0.#.#.@.#.#.#.0.9.@.A.aXL j t e r t &.AXxX9.O.+.T.aXiX,Xm.{ ! [ &.[ k p g [ p p p v 8 8 [ g p p p f p 8 h h p p p p 8 h p 8 k p h p k ) h g h 8 g v 8 h p h p p 8 h p 8 p h 8 p h 8 h h 8 p p p p p p p p p p p p p p 8 h h k [ +.dXg = a 0 7 / JXHXf 8 0 0 1 1 &X>X;XF.gXgXa = q y y g ^ ^ a = 8 p i E % - - - % E n p 0 0 0 0 7 ) B.y.y.w.] s 8 0 ",
"@.G j e e e e e e e e e e e e e y e e e e e e e @ z aX@.#.O.:.^.O.9.0.#.#.#.#.9.9.#.#.#.0.#.#.#.0.#.#.9.9.#.9.9.@.0.9.-. X#.#.#.#.O.I I &.^.:.O.#.#.#.9.9.#.#.#.#.#.#.#.#.#.0.#.#.#.#.#.#.9.0.$.i.kXo.b S e r t n.AXCXi.A.fXT.s.O.-.:.3 p ) &.[ ) p ! +.! g d ' d d +.! g d d ! f d g g d g h g d ! g d [ g g f ) ' ! ) ) d ! [ h g g g d d d ! d d d g d d g p g g d d d d d d d d d d d d d d d d g g ~ ' +.dXg = a 0 7 / JXHXf 8 0 0 1 1 &X;X;XF.gXgXa = q y y g ^ ^ a = 8 0 E % - = = = - % E p 0 0 0 0 7 _ y.C.M.w.D.7 0 0 ",
"D S t y y y y y y y y y y y y y j r y r y l l l k } zX9.9.w.h.&Xe.0.p.9.0.0.9.0.0.9.0.9.p.0.0.0.p.0.9.0.p.9.0.p.9.p.0.8.{.^.9.0.9.g..Xg.e.[.[.e.0.0.9.p.0.9.0.0.0.0.0.0.0.0.p.9.0.0.0.0.0.i. X}.9.kXm.o.K y j S A.CXSXcXfXH.p.a.a.e.=XG f [ e.&.' d [ &.[ [ k &.g g &.[ ) ! ! ) ! g ) ! g ) g ) g [ ! g +.) [ ! [ ] [ [ [ ! [ ] ) ) ) ! ! g g ) g g g ^ g g ^ f ! ! g g g g g g g g g g g g g g g g ! ! [ &.&.dXg = a 0 7 / JXHXf 8 0 0 1 1 &X;X;XF.gXgXa = q y y g ^ ^ a = 8 i E = = . . = - : E q 8 0 0 0 8 a t._ a w.w.1 a 0 ",
"*.&.' r r r r r r r r r r y y j j y j r pXzXpXpXpXpXT.[.&Xh.|.&X9.0.p.0.0.0.0.0.p.0.0.0.p.0.0.0.p.0.0.0.p.9.0.p.9.p.p.9.f.|.{.e.e.}.h.9.9.f. Xf.9.0.0.p.0.0.0.0.0.0.0.0.0.0.p.0.0.0.0.0.9.f.|.}.@.iXiX@.0.#.J J iXBXbXAXm.a.a.a.a.s.x.@Xf [ e.e.+.d ' &.' O.~ &.g g &.] [ ^ ! ) ) g [ ) ! ) k [ ! ' ^ ! &.[ [ ^ ] &.' [ +.) ' &.' [ [ ! ! g g ) g g ! ) g ! ) g ) ) g g g g g g g g g g g g g g g g ! ) [ &.&.dXg = a 0 7 / JXHXf 8 0 0 1 1 &X;X;XF.gXgXa = q y y s f f a = p i E =   v g . = : E q 8 0 0 0 a 8 = 7 a x 8 0 8 8 ",
"sXsXlX' r z z z z z z z z @ # @ e @ # e pXo.J o.o.J ).[.^.^.^.$.#.#.0.#.#.#.#.9.9.#.#.#.0.#.#.#.0.#.#.9.9.#.9.0.@.0.9.#.#.#.|.^./.|.#.#.#.O.{.-.O.#.#.9.9.O.#.#.#.#.#.#.#.#.0.#.#.#.#.#.O.h.[.}.).i.zXi.#.9.J J iXFXfXaXcX0.p.a.p.p.e.@XG ^ e.e.' p ' &.[ O.~ +.d p &.[ ) ! g g g p ! g d k h ~ g [ g d +.[ ) ) &.] [ [ [ g ' &.[ [ ) f d d p g d p d g p d g p g g p d d d d d d d d d d d d d d p g g ! ' +.dXg = a 0 7 / JXHXf 8 0 0 1 1 &X;X;XF.gXgXa = q y y ^ { { f = 8 q E + 2 PX`   - % E 8 0 0 0 7 s _ v y.r.7 M.M.B.s ",
"f.K m.zXpXpXpXpXpXpXpXpXpXpX0XuXuX0X0XqXaX@.9.9.9.0.}.8.O.O.O.#.#.9.0.#.#.#.#.9.9.#.#.#.0.9.#.#.0.#.#.9.0.#.9.0.#.0.0.#.#.#.#.h.h.#.#.#.#.O.{.-.#.#.#.9.0.^.-.O.#.#.#.#.#.9.0.#.#.#.#.#.O.{.h.h..XI iXaXK #.9.@.iXDXSXK.CXA.0.a.p.p.i.*.;.} e.i.+.! } &.+.e.O.&.d d &.+.[ ! g g ) p ) g g ) g ~ g ' ! g &.+.[ ' e.w.' [ +.) &.e.+.&.[ f f d d g d d f g d d g p g g d d d d d d d d d d d d d d d d g g ~ ' +.dXg = a 0 7 / JXHXf 8 0 0 1 1 &X;X;XF.gXgXa = q j e 5.ZXNX{ X 0 p E E ) C.  = : E i p 0 0 8 x r.D.B.R.v r.D.D.R.v ",
"c.j.$.K o.o.o.o.o.o.o.o.o.n.n.n.n.n.n.n.i.#.#.#.#.$.}.9.#.#.#.#.#.9.0.#.#.#.#.9.9.#.#.#.0.9.#.#.0.#.#.9.0.#.9.0.#.0.0.#.#.#.#.O.O.#.#.#.#.O.[.I O.#.#.e.[.}.|.-.#.#.#.#.#.9.0.#.#.#.#.#.#.}.$.&.h.[.O.kXi.#.9.p.bX<XAXT.aXBX0.a.p.p.a.e.=Xz.e.i.&.} } e.e.e.e.e.! g &.&.[ ) g g [ p ) k g ) g [ k ] ) ! &.e.' ] e.u.] ] &.+.e.s.&.e.[ f f d d g g d d g d d g p g g d d d d d d d d d d d d d d d d g g ~ ' +.dXg = a 0 7 / JXHXf 8 0 0 1 1 &X;X;XF.gXgXa = q j e 5.NXNX{ X 8 0 8 E E - 7 ; E E p 0 0 0 8 a ` t.` y.s ,.B.y.V.g ",
"c.f.0.9.9.9.9.9.9.9.9.9.9.@.@.@.q.@.@.@.#.$.$.$.$.-.}.9.#.#.#.#.#.9.0.#.#.#.#.9.9.#.#.#.0.9.#.#.0.#.#.9.0.#.9.0.#.0.0.#.#.#.#.#.#.#.#.#.#.#.-. X#.#.#.0. X#.h.{.O.#.#.#.#.9.9.#.#.#.#.#.=.}.9.#.-.{.o.aXcX@.#.dXbX>XFXdXj.BXiX0.a.p.a.i.v.=Xe.i.e.} &.e.e.e.e.e.} &.e.e.[ [ ! ! [ p ) ! g [ k [ k ] [ +.&.e.&.&.i.u.] &.e.e.e.i.&.e.[ f d d d g g d d g d d g p g g d d d d d d d d d d d d d d d d g g ~ ' +.dXg = a 0 7 / JXHXf 8 0 0 1 1 &X;X;XF.gXgXa = q j e 5.NXNX{ X 8 0 8 q q a a a q 8 8 0 0 0 0 8 8 8 8 8 8 8 8 8 0 8 ",
"c.f.0.#.#.#.#.#.#.#.#.#.#.#.#.9.9.#.#.O.{.|.}.}.}.|.&X9.#.#.#.#.#.9.0.#.#.#.#.9.9.#.#.#.0.9.#.#.0.#.#.9.0.#.9.0.#.0.0.#.#.#.#.#.#.#.#.#.#.#.O.{.-.#.#.|.h.O.-.{.O.#.#.#.#.g.h.O.O.#.#.#.-.{.9.#.#.}.#.q.kX#.T.dXaX>X>XfXj.A.ZXa.i.i.a.p.i.=Xa.e.e.e.e.e.e.e.e.e.e.e.e.i.] ] ) ! +.d ' ) [ [ k &.) e.+.e.e.e.e.e.i.e.&.&.e.e.i.i.e.e.+.! d ) ! g g d d ! d d g p g g d d d d d d d d d d d d d d d d g g ~ ' +.dXg = a 0 7 / JXHXf 8 0 0 1 1 &X;X;XF.gXgXa = q j e 5.NXNX{ X 8 0 0 a 8 : : 7 8 a 0 0 0 0 0 0 0 0 0 0 0 0 0 0 8 0 ",
"H.H.i.O.O.O.O.O.O.O.O.O.O.#.$.0.f.$.$.-.|.#.#.#.#.#.9.9.#.#.#.#.#.9.0.#.#.#.#.9.9.#.#.#.0.9.#.#.0.#.#.9.0.#.9.0.#.0.0.#.#.#.#.#.#.#.#.#.#.#.O.{.[.&.:.}.8.#.$.|.$.#.#.#.O.{.oX-.h.|.#.O.^.&X8.#.O.[.h.q.aXA.fXa.xX>X2XfXs.g.FXvXI j.s.p.i.x.>Xe.e.e.e.e.e.e.e.e.i.u.&Xf.&.&.' ' &.g &.[ &.[ k e.+.i.O.e.e.e.e.e.e.i.e.e.e.e.i.i.e.e.e.[ ! &.[ g ) g d ) g d g p g g d d d d d d d d d d d d d d d d g g ~ ' +.dXg = a 0 7 / JXHXf 8 0 0 1 1 &X;X;XF.gXgXa = q j e 5.NXNX{ X 8 0 0 7 ^ 5.0X5.a 7 a 8 0 0 0 0 0 8 8 8 8 a 0 0 0 0 ",
"-X=X*XI h.h.h.h.h.h.h.:.[.|.}.}.}.}.}.}.[.#.#.#.#.#.0.9.#.#.#.#.#.9.0.#.#.#.#.9.0.#.#.#.0.9.#.#.0.#.#.9.0.#.9.0.#.0.0.#.#.#.#.#.#.#.#.#.#.#.#.-. X-. Xh.9.#.O.{.h.O.#.O.$.}.&XXX}. X-.#.|.g.9.#.#.g.}.9.m.BXK.p.xX-XfXDXc.&XoXZX<Xh.s.p.p.a.oXg.i.e.e.e.e.e.e.e.i.u.|.g.u.e.&.w.e.! &.[ &.' [ i.O.i.e.e.e.e.e.e.e.i.e.e.e.e.e.u.e.e.e.e.&.e.' ! [ g d [ ) d g d g g d d d d d d d d d d d d d d d d g g ~ ' +.dXg = a 0 7 / JXHXf 8 0 0 1 1 &X;X;XF.gXgXa = q j e 5.NXNX{ X 0 0 7 5.IXtXwXtXIX<.7 a 8 0 0 0 8 s s s a 1 8 0 0 0 ",
"k.f.g.^.^.^.^.^.^.^.^.^.^.-.O.#.9.#.#.O.O.#.#.#.#.#.9.9.#.#.#.#.#.#.9.#.#.#.#.9.9.#.#.#.9.#.#.#.9.#.#.9.9.#.9.9.@.9.9.#.#.#.#.#.#.#.#.#.#.#.#.O.I  XI 8.9.#.O.^.[.O.I :./.[.e.$.&.^.-.-.^.8.9.#.#.#.}.0.p.SXA.p.xX=XxXDXoX*X/.1XAXL.p.p.i.a.oX:X&Xw.e.e.e.e.e.e.e.w. Xg.w.e.e.u.e.[ e.] e.+.] e.e.e.e.e.e.e.e.e.e.e.e.e.e.u.f.g.u.e.e.e.e.e.] [ ] [ d [ [ f f d f f p p p p p p p p p p p p p p p p f f ! ' +.dXg = a 0 7 / JXHXf 8 0 0 1 1 &X;X;XF.gXgXa = q j e 5.NXNX{ X a 7 5.IX( o o o 5.IX{ 7 a 0 0 0 8 w.D.V.r.t.D.g 8 0 ",
"v.c.j.p.p.p.p.p.p.p.p.p.p.0.f.f.j.f.f.f.f.f.f.f.f.f.j.j.f.f.f.f.f.f.j.f.f.f.f.j.j.f.f.f.j.f.f.f.j.f.f.j.j.f.j.j.f.j.j.f.f.f.f.f.f.f.f.f.f.f.f.f.f.g.0.j.j.f.0.g. X0. X X}.p.j.f.p.&Xh.&X&Xp.f.f.f.p.*Xh.dXdXaXz.xX=XfXfXFX<X&X}.BXBXj.z.z.x.oXOX Xs.a.s.a.a.a.a.a.s..Xh.s.a.a.a.a.i.a.i.s.s.s.a.a.a.a.a.a.a.a.a.a.a.a.s.a.s.&X*Xs.a.a.a.s.a.i.i.i.i.' *.e.&.' ~ ' ~ ~ ~ ~ ~ ~ ~ ~ ~ ~ ~ ~ ~ ~ ~ ~ ~ ~ ~ +.*.*.dXg = a 0 7 / JXHXf 8 0 0 1 1 &X;X;XF.gXgXa = q j e 5.NXNX{ X 8 a JX{ o = =   O 5.tX7 0 0 0 0 7 ,.Q.D.V.Q.Z.s 8 0 ",
"-X-X-X-X-X-X-X-X-X-X-X-X-X-X-X-X-X-X-X-X-X-X-X-X-X-X-X-X-X-X-X-X-X-X-X-X-X-X-X-X-X-X-X-X-X-X-X-X-X-X-X-X-X-X-X-X-X-X-X-X-X-X-X-X-X-X-X-X-X-X-X-X-X-X-X-X-X-X-X-X>XOX>X=X-X-X-X-X-X*XoX.X-X-X-X-X-X-X>X2XDX1XxX1XDX>X<XxXSXFX-X.XbXAXxX-X=X-XoXoXoX=X-X>X=X=X=X=X=X=XoX>X=X=X=X=X=X=X=X=X=X=X=X=X=X=X=X=X=X=X=X=X=X=X=X>X-X=X>X>X=X=X=X=X=X=X=X=X=X=X@X=X=X=X@X@X@X@X@X@X@X@X@X@X@X@X@X@X@X@X@X@X@X@X@X@X@X@X@X2Xq 1 a 0 7 / JXHXf 8 0 0 1 1 &X;X;XF.gXgXa = q j e 5.NXNX{ X 7 <.tX= = = = 1.r.( JXc 8 0 0 0 8 s ) ) x ` ` g 8 0 ",
"c.g.f.$.$.$.$.$.$.$.$.$.$.$.$.0.f.$.0.$.$.$.$.$.0.$.f.0.$.$.$.$.$.0.f.$.0.0.$.0.0.$.0.$.f.0.$.$.f.0.$.0.f.$.0.f.$.f.f.$.0.$.$.$.$.$.$.$.$.$.$.$.$.0.$.f.0.$.$.$.f.[.f.0.$.0.f.$.0.9..X&X#.f.0.$.$.0.I 2Xm.l.BXZXDXv.Y.aXSXfXm.fXSXfXcXkX$.v..XoX.Xe.g..Xi.i.p.h.i.i.oX&Xe.i.i.s.i.i.i.i.i.i.i.i.i.a.i.p.&Xi.i.i.p.j.i.|.j.u.&X}.u.j.g.s.i.i.i.s.i.i.O.i.i.i.O.O.~ ' z ~ k k k k k k k k k k k k k k k l ~ +.O.dXg = a 0 7 / JXHXf 8 0 0 1 1 &X;X;XF.gXgXs = q j e 5.NXNX{ X 7 4.tX= = = = hXjXc 6.f 8 0 0 8 8 8 7 1 7 7 1 8 8 8 ",
"v.g.f.f.f.f.f.f.f.f.f.f.f.f.f.f.f.f.f.f.f.f.f.f.f.f.f.f.f.f.f.f.f.f.f.f.f.f.f.f.f.f.f.f.f.f.f.f.f.f.f.f.f.=.f.f.=.f.f.f.f.f.f.f.f.f.f.f.f.f.f.f.f.f.f.f.f.f.f.f.f.0.f.f.f.f.f.f.f.f.g.f.f.f.f.f.f.$.J.>Xj.j.cXAXDXv.,XaXBXfXaXCXAXfX XBXBXv.>XoX3Xv.h.oXi.i.g.oXp.p.oX&Xi.p.p.a.p.p.i.p.p.p.p.p.p.a.p.j.XXj.p.i.|.*Xe. Xg.i.*X Xh.*X Xs.p.p.p.a.p.p.i.a.p.p.p.i.+.*.l +.l l l l l l l l l l l l l l l ~ ..O.*.Y.g = a 0 7 / JXHXf 8 0 0 1 1 &X;X&XF.gXgXa = q y e 5.NXNX{ X 8 ^ IX5 o = =   O 5 5.8 0 0 7 w.t.s B.t.M.8 ` B.B.w.",
"v.g.f.f.f.f.f.f.f.f.f.f.f.f.f.f.f.f.f.f.f.f.f.f.f.=.f.f.f.f.f.f.f.f.f.f.f.f.f.f.f.=.f.f.f.f.f.f.f.f.f.f.f.=.f.f.=.f.f.=.f.f.f.f.f.f.f.f.f.f.f.f.f.f.=.f.f.f.f.f.f.f.f.f.f.f.f.f.f.f.0.f.f.f.f.f.f.=.fX>Xg.j.l.=X-XJ.,XaXCXA.BXBXZXDX'.g.kXCXSX.X_.-X&XoXh.j.j.oXj.p..X&Xu.p.p.a.p.i.g.j.i.p.p.p.p.a.s.j.XXh.&Xu. X*Xu..Xp.g.oX.X*X*X Xs.a.p.p.a.a.p.i.s.i.a.a.p.s.i.~ +.~ l l l l l l l l l l l l l ~ ~ ..O.*.dXg = a 0 7 / JXHXf 8 0 0 1 1 I [.I n.S.S.a = q y e  .nXnX| X p 7 wXtX= = = = 2 5.{ 8 0 0 0 y.y.w.y.Q.t.,.V.Z.E.M.",
"v.g.f.f.f.f.f.f.f.f.f.f.f.f.f.f.f.f.f.f.f.f.f.f.f.f.f.f.f.f.f.f.f.f.f.f.f.f.f.f.f.f.f.f.f.f.f.f.f.f.f.f.f.=.f.f.=.f.f.=.f.f.f.f.f.f.f.f.f.f.f.f.f.f.=.f.f.f.f.f.f.f.f.f.f.f.f.f.f.f.f.f.f.f.f.f.-.K.dX&X*Xs.c..X&XL.,XdXkXg.BXcXcXDXoXc.f.I.CXSXxXfX1X>X.X&Xg.'.g.f._./.^.9.0.0.$.9./.^.9.$.$.9.I }.9.-.'.^.).I ]./.9.'.I ^.].'.).)._.i.0.-.-.0.0.$.9.&X-.0.0.$.0.0.J o.G t t t t t t t t t t t t t j j G X.X.Y.g = a 0 7 / JXHXf 8 0 0 1 1 I [.I n.S.S.a = q y e  .nXnX| X 0 8 a tX5.X 1 : <.<.8 0 0 0 7 w.M.,.M.y.y.g M.y.V.r.",
"k.z.p.#.9.9.9.9.9.9.9.9.9.9.9.0.p.9.9.9.9.9.9.9.9.#.p.0.9.9.9.9.9.0.p.#.9.9.#.p.p.#.0.#.p.0.9.9.p.0.#.0.p.#.0.p.#.p.p.#.9.9.9.9.9.9.9.9.9.9.9.9.9.9.#.p.p.9.9.9.9.9.9.9.9.0.p.9.9.9.9.9.#.p.0.9.0.fXm.s.*X*X*X&Xm.J.fXH.H.a.ZXkXA.xXXXc.s.=XSXdXdXcXSXSXbXSXBXbXcXcXbXbXxXlXlXvXlXlXxXkXlXlXlXlXkXxXlXcXxXkXxXxXFXxXlXxXxXxXbXbXxXxXxXvXlXxXkXlXlXlXlXxXcXlXcXlXvXvXlXlXlXlXlXlXlXlXlXlXlXlXlXlXlXlXlXlXlXlXlXbXs 1 a 0 7 / JXHXf 8 0 0 1 1 I [.I n.S.S.a = q y e  .nXnX| X 8 0 8 a f 0 0 0 a 8 8 0 0 0 8 8 8 8 8 8 8 8 0 8 0 8 ",
"=X=X*X).|.|.|.|.|.|.|.|.|.|.|.|.|.|.|.|.|.|.|.|.|.|.|.|.|.|.|.|.|.|.|.|.|.|.|.|.|.|.|.|.|.|.|.|.|.|.|.|.|.|.|.|.|.|.|.|.|.|.|.|.|.|.|.|.|.|.|.|.|.|.|.|.|.|.|.|.|.|.|.|.|.|.|.|.|.|.|.|.|.|.|.|.*X2X|.*X.X+XoX.X>X>X>X>X>X|.<X-X|.2XoX X*X.X<X-X'.).XXoX3X:X:X>X>X>X2X2X2X<X<X<X<X<X2X<X<X<X2X2X<X2X<X<X2X<X2X<X<X2X2X2X2X2X<X<X2X<X2X<X<X2X<X<X<X<X<X2X2X<X2X<X<X<X<X<X<X<X<X<X<X<X<X<X<X<X<X<X<X<X<X<X<X<X<XDXh 1 a 0 7 / JXHXf 8 0 0 1 1 I [.I n.S.S.a = q y e  .nXnX| X 8 0 0 0 8 < < < 8 0 0 0 0 0 0 0 0 0 0 0 0 0 0 0 8 0 ",
"v.=X&X/.{.{.{.{.{.{.{.{.{.{.{.{.{.{.{.{.{.{.{.{.{.{.{.{.{.{.{.{.{.{.{.{.{.{.{.{.{.{.{.{.{.{.{.{.*X{.{.{.{.{.{.{.^.{.{.{.{.{.{.{.{.{.{.{.{.{.{.{.{.{.{.{.{.{.{.{.{.{.{.{.{.{.{.{.{.{.{.{.{.{.{.{.2X*X*X*X&X*XOX*X*X*X>X*X*X*X*X*X*X<X XoX.X>XDX=X X*X.XoX.X'.{.^.[./.<XOX'.^.^.{.'.^._._./._._.'._.OX[./.'._.]._./.'.].].].].:X:X].].]. X'.]._.|.'.^.^.'._.).].'.{.[.^.^.^.^.U U U U U U U U U U U U U U U ^.(.1Xf = a 0 7 / JXHXf 8 0 0 1 1 I [.I n.S.S.a = q y e  .nXnX| X 8 0 0 p n W W i 0 p 0 0 0 0 8 7 a 0 0 0 8 8 8 8 a 0 ",
"v.j.0.0.0.0.0.0.0.0.0.0.0.0.0.0.p.0.0.0.0.0.0.0.0.0.p.p.0.0.0.0.0.p.p.0.0.0.0.p.p.0.0.0.p.p.0.0.p.0.0.p.p.0.p.p.9.p.p.0.0.0.0.0.0.0.0.0.0.0.0.0.0.0.0.p.p.0.0.0.0.0.0.0.0.0.p.0.0.0.0.0.0.p.9.m.fXp.a.a.s.l.oXv.H.J.fXH.H.a.s.m.a.lX=XOX}.-XCXpX=XoX|.=Xv. Xs.u.s.i.NX2X.Xs.u.s.oXa.*X&Xc.*Xh..X&X Xa.h. X}.oX&Xi..X.XoXoX'.fXFX[.*X X&XoXOX&Xh. X&Xa.*X*X&XOX.Xl.v.p.u.s.e.[ ! g ~ g g g g g g ! g ! ~ ' &.&.dXg = a 0 7 / JXHXf 8 0 0 1 1 I [.I n.S.S.a = q y e  .nXnX| X 8 0 8 W 6XW W W 6Xi 8 0 0 8 v ) 7 7 8 8 x s s a 1 8 ",
"v.k.c.j.j.j.j.j.j.j.j.j.j.j.j.j.c.g.j.j.j.j.j.j.j.g.c.c.g.j.j.j.g.j.c.g.j.j.g.c.c.g.j.g.c.j.j.j.c.j.g.c.c.f.c.c.f.c.c.g.j.j.j.j.j.j.j.j.j.j.j.j.j.j.g.c.c.g.j.j.j.j.j.j.j.j.c.g.j.j.j.j.g.c.g.fXJ.c.z.x.z.k.*Xx.b.L.,XJ.J.x.z.J.c.aXY.}..X-XcXCXfX&Xx.I.=Xg.l.a.a.j.BX2X.Xc.a.z.OXc. X*Xh. X&X.X*X X XXXDX-XOX|.S.2X{.|.OX_.dXkX0.m.v..XOXOX*X*XoXOX&X*X.XoXoX|.v.>Xv.s.l.a.i.....O...................+.+.*.*.dXg = a 0 7 / JXHXf 8 0 0 1 1 I [.I n.S.S.a = q y e  .nXnX| X 0 p W 6Xi - - - i 6Xi 8 0 8 M.y.y.r.` ,.D.C.V.w.t.D.",
"v.g.f.f.=.=.=.=.=.=.=.=.=.=.=.f.f.=.f.=.=.=.=.=.f.=.f.f.=.f.=.f.=.f.f.=.f.f.=.f.f.=.f.=.f.f.=.=.f.f.=.f.f.=.f.f.$.f.f.=.f.=.=.=.=.=.=.=.=.=.=.=.=.f.=.f.f.=.f.=.=.=.=.=.=.f.f.=.f.=.=.f.=.f.H.dXf.l.j.l.j.j.l.l.x.L.Y.J.J.l.j.z.f.iXaXp.oX1XzXAXkX$.A.cX-Xj.s.A.p.0.CX2X_.j.i.j.oXg.|.|..X.X&X.X}. X*X_.xX>X&Xg.sXDX-.L.oX_.aXzXK A.fX X*XoX X X|.OX&X*X.X*X X*X.XOXg.i.p.p.i.l ~ +.k k k k k k k k l l ..+.O.Y.g = a 0 7 / JXHXf 8 0 0 1 1 I [.I n.S.S.a = q y e  .nXnX| X 8 0 6Xi - = = =   W W 8 0 8 y.r.Q._ R.y.r.Q.D.V.Q.D.",
"v.g.f.f.f.f.f.f.f.f.f.f.f.f.f.f.f.f.f.f.f.f.f.f.f.f.f.f.f.f.f.f.f.f.f.f.f.f.f.f.f.f.f.f.f.f.f.f.f.f.f.f.f.=.f.f.=.f.f.f.f.f.f.f.f.f.f.f.f.f.f.f.f.f.f.f.f.f.f.f.f.f.f.f.f.f.f.f.f.f.f.f.f.f.fXK.j.l.j.z.j.j.l.c.x.L.,XJ.J.l.l.z.j.H.kXa.}.Y.aXCXkX-.T.BXv.=Xm.cX0.p.ZX<X/.*Xg.c.XXh.*X XOX.X&X X|. X*X0.cX>Xf.9.iXaX@.xX>X_.aXcXK A.xX}.a.h.oX X&XoX*X&X.X*Xj.h.OX+X&Xi.p.p.p.~ +.O.k l l l l l l k l ~ ..+.*.Y.g = a 0 7 / JXHXf 8 0 0 1 1 I [.I n.S.S.a = q y e  .nXnX| X p i 6X= = =   X - % 6Xn 8 8 ,.w.x x B.x g ) ) x ` ` ",
"v.g.f.f.f.f.f.f.f.f.f.f.f.f.f.f.f.f.f.f.f.f.f.f.f.=.f.f.f.f.f.f.f.f.f.f.f.f.f.f.f.=.f.f.f.f.f.f.f.f.f.f.f.=.f.f.=.f.f.=.f.f.f.f.f.f.f.f.f.f.f.f.f.f.=.f.f.f.f.f.f.f.f.f.f.f.f.f.f.f.f.f.=.J.fXj.l.j.j.l.j.j.l.c.x.L.,XJ.J.l.j.l.l.j.kXH.f.dXiXK.kXf.iXCXj.-XK.BX0.p.BXaX^.OXh.l..X^.<X2X]. X*X<X X X|.e.BX:Xg.9.aXkX#.bX>X^.aXcX@.iXcXf.s.e.|.c.&XXX|.&X.X&Xu.g.OXOX.X|.&Xe.p.+.O.#.k l l l l l l k l ~ ..+.*.Y.g = a 0 7 / JXHXf 8 0 0 1 1 I [.I n.S.S.a = q y e  .nXnX| X < i W = = . ) a   7 6Xn 8 0 7 7 1 s s 1 8 7 7 7 7 8 ",
"v.g.f.f.f.f.f.f.f.f.f.f.f.f.f.f.f.f.f.f.f.f.f.f.f.=.f.f.f.f.f.f.f.f.f.f.f.f.f.f.f.=.f.f.f.f.f.f.f.f.f.f.f.=.f.f.=.f.f.=.f.f.f.f.f.f.f.f.f.f.f.f.f.f.=.f.f.f.f.f.f.f.f.f.f.f.f.f.f.f.f.f.$.dXK.j.l.j.j.l.j.j.l.c.x.L.,XJ.J.l.j.l.l.f.kXK.-.aXiXj.kXf.iXCXiXv.,XZXp.s.BXpX[.OX*X*X*X'.fX2X'.|.>XFX X-X Xe.BX>Xf.9.aXkX9.bXDXn.aXBXK iXBXp.a.p.p.s.&X X.X&X|.&Xs.j.oX X}..X}.g.j.*.*.O.k l l l l l l k l ~ ..+.*.Y.g = a 0 7 / JXHXf 8 0 0 1 1 I [.I n.S.S.a = q y e  .nXnX| X 8 n 6Xw - O V.PXO i 6X8 8 0 a 8 ` w.w.y.M.x r.r.g 8 ",
"v.g.f.f.f.f.f.f.f.f.f.f.f.f.f.f.f.f.f.f.f.f.f.f.f.=.f.f.f.f.f.f.f.f.f.f.f.f.f.f.f.=.f.f.f.f.f.f.f.f.f.f.f.=.f.f.=.f.f.=.f.f.f.f.f.f.f.f.f.f.f.f.f.f.=.f.f.f.f.f.f.f.f.f.f.f.f.f.f.f.f.=.l.fXj.l.j.j.j.l.j.j.l.c.x.L.,XJ.J.l.j.l.l.f.aXiX-.aXiXj.kXj.iXBXBXA.<XCXp.m.cXzXfX X.XOX*X_.aX2X^.[.>XxX-XFX/.u.CX>X0.#.aXcX@.cXbXA.aXBXA.iXBXp.a.p.p.s.&X|..Xh.h.h.s.j..X&X}. X&X|.g.i.j.-.l k l l l l l k l ~ ..+.*.Y.g = a 0 7 / JXHXf 8 0 0 1 1 I [.I n.S.S.a = q y e  .nXnX| X 0 p W W = = = F.n 6XW < 0 0 0 8 x C.r.Q.B.] M.jXr.7 ",
"x.x.j.=.f.f.f.f.f.f.f.f.f.f.f.f.f.f.f.f.f.f.f.f.f.=.f.f.f.f.f.f.f.f.f.f.f.f.f.f.f.=.f.f.f.f.f.f.f.f.f.f.f.=.f.f.=.f.f.=.f.f.f.f.f.f.f.f.f.f.f.f.f.f.=.f.f.f.f.f.f.f.f.f.f.f.f.f.f.f.f.$.dXT.j.j.j.j.j.l.j.j.l.c.x.L.,XJ.J.l.j.l.l.f.dXaX-.aXA.f.kXj.iXcXCXiXK.AXm.m.kXBXBXf..XoX&X$.zXDXf.&X>XNXA.FX^.u.CXI.p.0.aXBXA.BXBXA.aXBXCXCXBXp.a.p.p.s.&X*X Xh.e.p.a.p.j.s. X|.*XOXj.u.h. X] l l l l l l k l ~ ..+.*.Y.g = a 0 7 / JXHXf 8 0 0 1 1 I [.I n.S.S.a = q y e  .nXnX| X 8 8 0 6XE - 1   W W 8 0 0 0 0 8 s ,.t.y.B.x v y.r.7 ",
"P.b.j.=.f.f.f.f.f.f.f.f.f.f.f.f.f.f.f.f.f.f.f.f.f.f.f.f.f.f.f.f.f.f.f.f.f.f.f.f.f.f.f.f.f.f.f.f.f.f.f.f.f.=.f.f.=.f.f.f.f.f.f.f.f.f.f.f.f.f.f.f.f.f.f.f.f.f.f.f.f.f.f.f.f.f.f.f.f.f.=.j.fXl.l.j.j.j.j.z.j.j.l.c.x.L.,XJ.J.l.l.l.l.j.T.kX-.kXA.f.kXaXaXcXAXiXm.SXm.m.kXCXCX0.|.>XY.#.kXaXA.dX1XZXA.cX-.s.CXA.$.kXkXCXBXBXCXiXaXCXCXAXBXp.p.p.p.s.h.*Xg.K.kX0.a.p.a.s.}.*X&X+X Xj.g.oXi.~ k l l l l k l ~ ..+.*.Y.g = a 0 7 / JXHXf 8 0 0 1 1 I [.I n.S.S.a = q y e  .nXnX| X 8 0 8 0 q 0 0 a q 8 8 0 0 0 0 0 0 8 8 8 8 8 8 8 8 8 ",
"x.k.f.=.f.=.=.=.=.=.=.=.=.=.=.f.f.=.f.=.=.=.=.=.f.=.f.f.=.f.=.f.=.f.f.=.f.f.=.f.f.=.f.=.f.f.=.=.f.f.=.f.f.=.f.f.$.f.f.=.f.=.=.=.=.=.=.=.=.=.=.=.=.f.=.f.f.=.f.=.=.=.=.=.=.f.f.=.f.f.$.dXT.j.l.j.j.j.j.l.j.j.l.c.x.L.Y.J.J.l.j.l.l.j.K.kXf.kXK.-.kXAXaXkXCXaXA.SXA.m.aXCXCXp.f.x.cX#.cXaXA.aXiXCXiXBXm.m.CXaXA.BXcXCXCXAXBXzXCXCXCXAXBXm.s.p.aXiXY./.e.iXcX0.a.s.a.s.}.&Xp.OX+Xh.}.oXp.+.k k k k k k l l ..+.O.Y.g = a 0 7 / JXHXf 8 0 0 1 1 I [.I n.S.S.a = q y e  .nXnX| X 8 0 0 8 8 8 8 8 8 8 0 8 8 8 8 8 8 0 8 0 8 0 0 0 0 8 ",
"v.g.f.f.f.f.f.f.f.f.f.f.f.f.f.f.j.f.f.f.f.f.f.f.f.f.j.f.f.f.f.f.f.f.j.f.f.f.f.j.j.f.f.f.j.f.f.f.j.f.f.f.j.f.f.j.f.j.j.f.f.f.f.f.f.f.f.f.f.f.f.f.f.f.f.j.f.f.f.f.f.f.f.f.f.f.j.f.f.f.j.fXl.z.l.l.l.l.l.z.l.l.l.x.x.L.,XJ.J.z.l.z.l.l.H.kXf.kXK.g.aXAXcXaXcXaXiXcXBXiXaXBXBXa.p.m.BX0.cXaXA.kXiXBXaXBXkXaXcXBXcXBXCXCXkXkXCXBXcXBXBXCXaXaXBXm.BXcXxXxXm.aXBXp.aXkXj.m.*X&Xa.OX X|.oXoXs.O.l l l l l l ~ ..+.*.*.dXg = a 0 7 / JXHXf 8 0 0 1 1 I [.I n.S.S.a = q y e  .nXnX| X a a 0 0 0 0 0 0 0 0 0 0 0 0 0 0 0 0 0 0 0 0 0 0 0 0 ",
"v.c.f.f.f.f.f.f.f.f.f.f.f.f.f.f.j.f.f.f.f.f.f.f.f.f.j.f.f.f.f.f.f.f.j.f.f.f.f.f.f.f.f.f.j.f.f.f.j.f.f.f.j.f.f.j.f.j.j.f.f.f.f.f.f.f.f.f.f.f.f.f.f.f.f.j.f.f.f.f.f.f.f.f.f.f.j.f.f.-.T.T.j.z.l.l.l.l.l.z.l.l.l.x.x.L.,XJ.J.z.l.z.l.l.c.CXiXkXH.l.l.kXBXK.A.aXcXiXxXCXiXcXcXaXA.m.CXp.BXaXaXcXiXBXaXBXkXcXkXCXBXcXCXAXA.A.AXCXA.BXiXiXA.BXBXkXCXAXkXCXiXkXcXm.CXcXp.s.j.p.j. Xj.+XOX.X&XO.l l l l l l ~ ~ ..O.*.dXg = a 0 7 / JXHXf 8 0 0 1 1 I [.I n.S.S.a = q y e  .nXnX| X 1 7 7 7 7 7 7 7 7 7 7 7 7 7 7 7 7 7 7 7 7 7 7 7 7 7 ",
"v.g.f.f.f.f.f.f.f.f.f.f.f.f.=.f.f.=.f.f.f.f.f.f.f.=.f.f.=.f.f.f.=.f.f.=.f.f.=.f.f.=.f.=.f.f.=.=.f.f.=.f.f.=.f.f.=.f.f.=.f.f.f.f.f.f.f.f.f.f.f.f.f.f.=.f.f.=.f.f.f.f.f.f.=.f.f.=.=.f.fXl.j.l.l.j.j.j.j.l.j.j.l.c.x.L.,XJ.J.l.j.l.j.j.j.BXCXkXj.l.j.H.H.j.f.K.AXA.g.CXA.kXkXBXiXm.CXm.AXaXCXcXiXcXkXBXcXCXkXCXCXcXcXkXm.A.AXCXA.cXA.$.m.CXkXAXaXBXkXBXaXkXkXA.AXBXp.a.i.i.j.}.p.&Xh.|.OXO.k l k k k k l l ..+.O.Y.g = a 0 7 / JXHXf 8 0 0 1 1 I [.I n.S.S.a = q y e  .nXnX| X 8 8 8 8 8 8 8 8 8 8 8 7 8 8 8 8 8 8 8 8 8 8 8 8 8 8 ",
"v.g.f.f.f.f.f.f.f.f.f.f.f.f.f.f.f.f.f.f.f.f.f.f.f.f.f.f.f.f.f.f.f.f.f.f.f.f.f.f.f.f.f.f.f.f.f.f.f.f.f.f.f.=.f.f.=.f.f.f.f.f.f.f.f.f.f.f.f.f.f.f.f.f.f.f.f.f.f.f.f.f.f.f.f.f.f.f.$.T.dXf.l.l.l.j.j.j.j.z.j.j.l.c.x.L.,XJ.J.l.l.l.l.j.z.l.BXkXf.l.l.j.j.l.l.j.iXz.f.cXA.A.aXCXiXm.CXaXAXkXCXBXaXcXcXkXkXBXiXCXCXcXiXa.0.m.CXAXA.cXA.0.s.CXaXBX0.A.cXcXBXBXaXA.AXBXs.m.p.p.p.j.p.i.u.}.OX%.k l l l l k l ~ ..+.*.Y.g = a 0 7 / JXHXf 8 0 0 1 1 I [.I n.S.S.a = q y e  .nXnX| X _ ` _ _ _ ` _ ` ` _ _ ` _ ` ` ` ` ` ` ` ` ` ` ` ` ` ",
"v.g.f.f.f.f.f.f.f.f.f.f.f.f.f.f.f.f.f.f.f.f.f.f.f.=.f.f.f.f.f.f.f.f.f.f.f.f.f.f.f.=.f.f.f.f.f.f.f.f.f.f.f.=.f.f.=.f.f.=.f.f.f.f.f.f.f.f.f.f.f.f.f.f.=.f.f.f.f.f.f.f.f.f.f.f.f.f.f.fXz.j.j.l.l.j.j.j.j.l.j.j.l.c.x.L.,XJ.J.l.j.l.l.j.z.f.kXaXf.l.j.l.j.j.j.j.f.j.j.T.1X@.iXAXaXm.CXBXiXcXAXBXaXkXBXkXcXp.m.BXiXkX$.a.p.p.m.iXm.A.s.p.p.kXA.BXp.a.AXcXCXcXaXiXAXcXaXaX0.p.p.i.p.p.i.&X.X=.k l l l l k l ~ ..+.*.Y.g = a 0 7 / JXHXf 8 0 0 1 1 I [.I n.S.S.a = q y e  .nXnX| X ) ) M.,.w.` ] B.] ] w.w.,.` _ _ _ _ _ _ _ _ _ _ _ _ ",
"v.g.f.f.f.f.f.f.f.f.f.f.f.f.f.f.f.f.f.f.f.f.f.f.f.=.f.f.f.f.f.f.f.f.f.f.f.f.f.f.f.=.f.f.f.f.f.f.f.f.f.f.f.=.f.f.=.f.f.=.f.f.f.f.f.f.f.f.f.f.f.f.f.f.=.f.f.f.f.f.f.f.f.f.f.f.j.$.K.dXf.l.j.l.l.j.j.j.j.l.j.j.l.c.x.L.,XJ.J.l.j.l.l.j.l.j.z.H.j.j.j.j.j.j.j.j.l.j.l.j.-Xj.A.CXiXA.aXm.0.BXAXBXaXkXBXaXcXp.m.BXs.m.p.a.p.p.p.0.p.p.p.p.p.p.m.kXp.a.CXcXCXA.aXkXcXkXBXaX$.p.p.p.p.p.p.p.*X-.k l l l l k l ~ ..+.*.Y.g = a 0 7 / JXHXf 8 0 0 1 1 I [.I n.S.S.a = q q e  .nXnX| X ) ] jXR.E.B.E.hXD.D.R.D.E.w.) _ _ _ _ _ _ _ _ _ _ _ ",
"k.k.f.f.f.f.f.f.f.f.f.f.f.f.f.f.f.f.f.f.f.f.f.f.f.=.f.f.f.f.f.f.f.f.f.f.f.f.f.f.f.=.f.f.f.f.f.f.f.f.f.f.f.=.f.f.=.f.f.=.f.f.f.f.f.f.f.f.f.f.f.f.f.f.=.f.f.f.f.f.f.f.f.f.f.f.j.=.fXH.j.j.j.l.l.j.j.j.j.l.j.j.l.c.x.L.,XJ.J.l.j.l.l.j.l.l.j.z.j.j.j.j.j.j.j.j.j.j.j.a.v.=Xi.A.aXiXiX$.p.cXaXcXkXiXkXaXBX0.m.aX0.p.p.a.p.p.p.p.a.a.p.p.p.a.p.p.p.p.CXkXBXA.m.AXA.kXAXaX@.A.aX$.p.p.p.e.&X).k l l l l k l ~ ..+.*.Y.g = a 0 7 / JXHXf 8 0 0 1 1 I [.I n.S.S.a = y S S  .nXnX| X v r.M.D.y.D.hXC.D.M.Z.Z.C.t.v _ _ _ _ _ _ _ _ _ _ _ ",
"b.x.j.=.f.f.f.f.f.f.f.f.f.f.f.f.f.f.f.f.f.f.f.f.f.=.f.f.f.f.f.f.f.f.f.f.f.f.f.f.f.=.f.f.f.f.f.f.f.f.f.f.f.=.f.f.=.f.f.=.f.f.f.f.f.f.f.f.f.f.f.f.f.f.=.f.f.f.f.f.f.f.f.f.f.f.f.K.fXf.l.j.j.l.l.j.j.j.j.l.j.j.l.c.x.L.,XJ.J.l.j.l.l.j.l.l.j.z.j.j.j.j.j.j.j.j.j.j.j.j.j.-Xj.s.kXcXiX0.p.m.$.kXBXp.p.kXBX$.p.p.p.p.p.a.p.p.p.p.a.a.p.p.p.a.p.p.p.p.BXkXcXiXK cXA.aXcXiX0.CXCXm.p.p.p.e.&X_.k l l l l k l ~ ..+.*.Y.g = a 0 7 / JXHXf 8 0 0 1 1 I [.I n.S.S.a * F (.`. .nXnX| X ) ` ) _ ` _ ` ` B.] ` _ ] _ ` ` ` ` ` ` ` ` ` ` ` ` ",
"x.x.j.=.f.f.f.f.f.f.f.f.f.f.f.f.f.f.f.f.f.f.f.f.f.f.f.f.f.f.f.f.f.f.f.f.f.f.f.f.f.f.f.f.f.f.f.f.f.f.f.f.f.=.f.f.=.f.f.f.f.f.f.f.f.f.f.f.f.f.f.f.f.f.f.f.f.f.f.f.f.f.f.f.f.f.f.fXK.j.j.j.j.l.l.j.j.j.j.z.j.j.l.c.x.L.,XJ.J.l.j.l.l.j.l.l.j.z.j.j.j.j.j.j.j.j.j.j.j.j.p.v.=Xi.BXAXA.0.p.p.$.aXCX0.0.iXiX0.p.p.p.p.p.a.p.p.p.p.a.a.p.p.p.a.p.p.p.p.A.aXcXA.@.cXiX$.m.cXBXAXAXkXA.iX$.e.&X_.~ l l l l k l ~ ..+.*.Y.g = a 0 7 / JXHXf 8 0 0 1 1 I [.I n.S.S.a = q y e  .nXnX| X a s s s s s s s a a s s a s s a 3 p 3 3 p a w 9 9 9 ",
"v.c.f.f.f.f.f.f.f.f.f.f.f.f.f.f.f.=.f.f.f.f.f.f.f.=.f.f.=.f.f.f.f.f.f.=.f.f.=.f.f.=.f.=.f.f.f.f.f.f.=.f.f.=.f.f.=.f.f.=.f.f.f.f.f.f.f.f.f.f.f.f.f.f.=.f.f.=.f.f.f.f.f.f.f.=.J.dXj.l.j.j.j.l.l.j.j.j.j.l.j.j.l.c.x.L.,XJ.J.l.j.l.l.j.l.l.j.z.j.j.j.j.j.j.j.j.j.j.j.j.j.j.-X0.BXBXs.p.p.p.0.A.aX0.p.p.p.p.p.p.p.p.p.a.p.p.p.p.p.a.p.p.p.a.p.p.p.a.m.s.cXA.@.iXA.$.s.CXAXCXaXcXBXBXs.i.g._.+.l k l l k l l ..+.%.Y.g = a 0 7 / JXHXf 8 0 0 1 1 I [.I n.S.S.a = q y e  .nXnX| X 8 8 7 8 7 7 8 8 8 0 8 8 8 0 4 P >X$X*X>X^.^ vXtXtXtX",
"v.v.c.j.j.j.j.j.j.j.j.j.j.j.j.j.c.j.j.j.j.j.j.j.j.j.c.j.j.j.j.j.j.j.c.j.j.j.j.j.c.j.j.j.c.j.j.j.c.j.j.j.c.j.j.c.f.c.c.j.j.j.j.j.j.j.j.j.j.j.j.j.j.j.j.c.j.j.j.j.j.j.j.j.j.f.fXK.l.z.z.z.z.x.z.z.z.z.z.x.z.z.x.x.b.L.,XJ.J.x.z.x.z.z.x.z.z.J.z.z.z.z.z.z.z.z.z.z.z.z.z.z.=X=XkXA.p.a.a.a.a.a.a.a.a.a.a.a.a.a.a.a.a.z.a.a.a.a.a.a.a.a.a.a.a.a.a.z.a.p.aXA.a.a.z.a.a.CXCXiXq.BXCXcXBXm.s.*X*...~ ~ ~ ~ ..+.+.*.*.dXg = a 0 7 / JXHXf 8 0 0 1 1 I [.I n.S.S.a = q y e  .nXnX| X 8 s v g v ) s g 0 1 8 0 0 q 4 @X#X).).$X_.{ MXrXmXrX",
"v.g.f.f.f.f.f.f.f.f.f.f.f.f.f.f.f.f.f.f.f.f.f.f.f.f.f.f.f.f.f.f.f.f.f.f.f.f.f.f.f.f.f.f.f.f.f.f.f.f.f.f.f.=.f.f.=.f.f.f.f.f.f.f.f.f.f.f.f.f.f.f.f.f.f.f.f.f.f.f.f.f.f.f.=.z.fXj.l.j.j.j.j.l.l.j.j.j.j.z.j.j.l.x.x.L.,XJ.J.l.l.l.l.j.l.l.j.z.j.j.j.j.j.j.j.j.j.j.j.j.j.j.c.-Xp.a.p.p.p.p.p.p.p.p.p.a.a.p.p.p.p.p.p.a.p.p.p.p.a.a.p.p.p.a.p.p.p.a.p.p.p.a.p.a.a.p.a.BXA.0.p.iXCXcXCXm.i.*X0.l l l l l l ~ ..O.*.Y.g = a 0 7 / JXHXf 8 0 0 1 1 I [.I n.S.S.a = q s w  .nXnX| X 1 w.M.V.w.D.v r.r.r.a 8 0 0 4 ^.).)././.).{ mXeXmXeX",
"v.g.f.f.f.f.f.f.f.f.f.f.f.f.f.f.f.f.f.f.f.f.f.f.f.=.f.f.f.f.f.f.f.f.f.=.f.f.=.f.f.=.f.=.f.f.f.f.f.f.f.f.f.=.f.f.=.f.f.=.f.f.f.f.f.f.f.f.f.f.f.f.f.f.=.f.f.f.f.f.f.f.f.f.$.dXT.j.l.j.j.j.j.l.l.j.j.j.j.l.j.j.l.c.x.L.,XJ.J.l.j.l.l.j.l.l.j.z.j.j.j.j.j.j.j.j.j.j.j.j.j.j.p.=Xv.s.p.p.p.p.p.p.p.p.p.a.p.p.p.p.p.p.p.a.p.p.p.p.a.a.p.p.p.a.p.p.p.a.p.p.p.a.p.p.a.p.p.BXm.p.p.m.CXkXAXcXi.*Xg.l k l l k l ~ ..+.*.Y.g = a 0 7 / JXHXf 8 0 0 1 1 P I P 2.4.4.a * S D D  .9X9XQ X = t.t.C.v t.0 w.C.V.) 7 0 0 4 ^.)./././.).{ mXeXtXeX",
"v.g.f.f.f.f.f.f.f.f.f.f.f.f.f.f.f.f.f.f.f.f.f.f.f.=.f.f.f.f.f.f.f.f.f.f.f.f.f.f.f.f.f.f.f.f.f.f.f.f.f.f.f.=.f.f.=.f.f.=.f.f.f.f.f.f.f.f.f.f.f.f.f.f.=.f.f.f.f.f.f.f.f.=.j.fXl.j.j.j.j.j.j.l.l.j.j.j.j.l.j.j.l.c.x.L.,XJ.J.l.j.l.l.j.l.l.j.z.j.j.j.j.j.j.j.j.j.j.j.j.j.j.j.c.-Xa.p.p.p.p.p.p.p.p.p.a.p.p.p.p.p.p.p.a.p.p.p.p.a.a.p.p.p.a.p.p.p.a.p.p.p.a.p.p.a.p.p.iXs.p.p.s.cXiXAXAXi.*Xg.~ k l l k l ~ ..+.*.Y.g = a 0 7 / JXHXf 8 0 0 1 1 F F F } 2.} 8 * S C C { 8X8XQ X 8 v s ) 8 ` 0 ,.] v g 8 0 q 4 $X5X).).#X.X{ MXrXrXrX",
"v.g.f.f.f.f.f.f.f.f.f.f.f.f.f.f.f.f.f.f.f.f.f.f.f.=.f.f.f.f.f.f.f.f.f.f.f.f.f.f.f.=.f.f.f.f.f.f.f.f.f.f.f.=.f.f.=.f.f.=.f.f.f.f.f.f.f.f.f.f.f.f.f.f.=.f.f.f.f.f.f.f.f.$.Y.T.j.l.j.j.j.j.j.l.l.j.j.j.j.l.j.j.l.c.x.L.,XJ.J.l.j.l.l.j.l.l.j.z.j.j.j.j.j.j.j.j.j.j.j.j.j.j.j.p.=Xv.i.p.p.p.p.p.p.p.p.a.p.p.p.p.p.p.p.a.p.p.p.p.a.a.p.p.p.a.p.p.p.a.p.p.p.a.p.p.a.p.a.p.p.p.p.p.p.m.iXBXm.{.g.~ k l l k l ~ ..+.*.Y.g = a 0 7 / JXHXf 8 0 0 1 1 F U F } 4.2.8 * S V V  .8X8XQ X 0 8 0 8 a 8 0 8 8 8 8 0 0 0 3 P *X@X*X*XI ^ zXqXqXqX",
"v.g.f.f.f.f.f.f.f.f.f.f.f.f.f.f.f.f.f.f.f.f.f.f.f.=.f.f.f.f.f.f.f.f.f.f.f.f.f.f.f.=.f.f.f.f.f.f.f.f.f.f.f.=.f.f.=.f.f.=.f.f.f.f.f.f.f.f.f.f.f.f.f.f.=.f.f.f.f.f.f.f.=.j.fXl.l.j.j.j.j.j.j.l.l.j.j.j.j.l.j.j.l.c.x.L.,XJ.J.l.j.l.l.j.l.l.j.z.j.j.j.j.j.j.j.j.j.j.j.j.j.j.j.j.v.=Xi.p.p.p.p.p.p.p.p.a.p.p.p.p.p.p.p.a.p.p.p.p.a.a.p.p.p.a.p.p.p.a.p.p.p.a.p.p.a.p.a.a.p.p.p.p.p.p.@.aXm.&Xg.~ k l l k l ~ ..+.*.Y.g = a 0 7 / JXHXf 8 0 0 1 1 F U F } 4.2.8 * S V V  .8X8XQ X 7 8 7 7 7 8 7 8 8 7 7 7 7 7 7 2 4 4 4 4 4 7 X X X X ",
"x.k.j.=.f.f.f.f.f.f.f.f.f.f.f.f.f.f.f.f.f.f.f.f.f.=.f.f.f.f.f.f.f.f.f.f.f.f.f.f.f.=.f.f.f.f.f.f.f.f.f.f.f.=.f.f.=.f.f.=.f.f.f.f.f.f.f.f.f.f.f.f.f.f.=.f.f.f.f.f.f.f.$.T.T.j.z.j.j.j.j.j.j.l.l.j.j.j.j.l.j.j.l.c.x.L.,XJ.J.l.j.l.l.j.l.l.j.z.j.j.j.j.j.j.j.j.j.j.j.j.j.j.j.j.a.=Xc.i.p.p.p.p.p.p.p.a.p.p.p.p.p.p.p.a.p.p.p.p.a.a.p.p.p.a.p.p.p.a.p.p.p.a.p.p.a.p.a.a.p.p.p.p.p.p.0.aXZXxX&X~ k l l k l ~ ..+.*.Y.g = a 0 7 / JXHXf 8 0 0 1 1 F U F } 4.2.8 * S V V  .8X8XQ X = = = = = = = = = = = = = = = = * * * * = = X X X X ",
"P.P.l.=.f.f.f.f.f.f.f.f.f.f.f.f.f.f.f.f.f.f.f.f.f.f.f.f.f.f.f.f.f.f.f.f.f.f.f.f.f.f.f.f.f.f.f.f.f.f.f.f.f.=.f.f.=.f.f.=.f.f.f.f.f.f.f.f.f.f.f.f.f.f.f.f.f.f.f.f.f.f.f.fXl.j.l.j.j.j.j.j.j.l.l.j.j.j.j.z.j.j.l.c.x.L.,XJ.J.l.j.l.l.j.l.l.j.z.j.j.j.j.j.j.j.j.j.j.j.j.j.j.j.j.a.v.=Xi.p.p.p.p.p.p.p.a.p.p.p.p.p.p.p.a.p.p.p.p.a.a.p.p.p.a.p.p.p.a.p.p.p.a.p.p.a.p.a.a.p.p.p.p.p.p.0.iXAXbXOXK k l l k l ~ ..+.*.Y.g = a 0 7 / JXHXf 8 0 0 1 1 F U F } 4.2.8 * S V V  .8X8XQ X 8 a a a a a 0 0 a 0 0 0 0 0 8 j G G G G L a } } } } ",
"x.x.j.=.f.f.f.f.f.f.f.f.f.f.f.f.f.=.f.f.f.f.f.f.f.=.f.f.=.f.f.f.=.f.f.=.f.f.=.f.f.=.f.=.f.f.f.f.f.f.=.f.f.=.f.f.=.f.f.=.f.f.f.f.f.f.f.f.f.f.f.f.f.f.=.f.f.=.f.f.f.$.T.dXf.l.l.j.j.j.j.j.j.l.l.j.j.j.j.l.j.j.l.c.x.L.,XJ.J.l.j.l.l.j.l.l.j.z.j.j.j.j.j.j.j.j.j.j.j.j.j.j.j.j.j.l.=Xj.i.p.p.p.p.p.p.a.p.p.p.p.p.p.p.a.p.p.p.p.p.a.p.p.p.a.p.p.p.a.p.p.p.a.p.p.a.p.a.a.p.p.p.p.p.p.p.s.A.xX+XI h l l k l l ..+.%.Y.g = a 0 7 / JXHXf 8 0 0 1 1 F U F } 4.2.8 * S V V  .8X8XQ X 8 8 8 7 8 1 8 8 7 8 0 8 8 q 4 @X3X:X:X3X.X{ AXmXmXmX",
"v.g.f.f.f.f.f.f.f.f.f.f.f.f.f.f.j.f.f.f.f.f.f.f.f.f.j.f.f.f.f.f.f.f.j.f.f.f.f.f.f.f.f.f.j.f.f.f.j.f.f.f.f.f.f.j.f.j.f.f.f.f.f.f.f.f.f.f.f.f.f.f.f.f.f.f.f.f.f.f.f.f.fXH.j.l.z.l.l.l.l.l.l.z.l.l.l.l.l.z.l.l.l.x.x.L.,XJ.J.l.l.z.l.l.z.l.l.z.l.l.l.l.l.l.l.l.l.l.l.l.l.l.l.l.l.z.v.=Xi.p.p.p.p.p.p.a.a.p.p.p.p.p.a.a.p.p.p.p.a.a.p.p.p.a.a.p.p.a.p.p.a.a.p.a.a.p.a.a.p.p.p.p.p.p.p.p.i.xX+XI k l l l ~ ~ ..O.%.dXg = a 0 7 / JXHXf 8 0 0 1 1 F U F } 4.2.8 * S V V  .8X8XQ X 7 _ w.w.,.M.v x y.x 8 x v 8 4 ^.)./././.).{ mXeXtXeX",
"v.c.j.f.f.f.f.f.f.f.f.f.f.f.f.f.j.f.f.f.f.f.f.f.f.f.j.j.f.f.f.f.f.f.j.f.f.f.f.j.j.f.f.f.j.f.f.f.j.f.f.j.j.f.j.j.f.j.j.f.f.f.f.f.f.f.f.f.f.f.f.f.f.f.f.j.j.f.f.j.f.K.dXj.z.l.z.l.l.l.l.l.l.z.z.l.l.l.l.z.l.l.l.x.x.L.,XJ.J.z.l.z.z.l.z.z.l.x.l.l.l.l.l.l.l.l.l.l.l.l.l.l.l.l.l.z.l.-Xl.a.a.a.a.a.a.a.a.a.a.a.a.a.a.a.a.a.a.a.a.a.a.a.a.a.a.a.a.a.a.a.a.a.a.a.a.a.a.a.a.a.a.a.a.a.a.a.p.xXOXI ~ ..~ l ~ ..+.*.*.dXg = a 0 7 / JXHXf 8 0 0 1 1 F U F } 4.2.8 * S V V  .8X8XQ X = t.B.D.] M.s M._ D.] Z.y.7 4 ^.$X).)./.).{ mXeXmXeX",
"v.g.f.f.=.=.=.=.=.f.f.f.f.=.=.f.f.=.f.=.=.=.=.=.f.=.f.f.=.f.f.f.=.f.f.=.f.f.=.f.f.=.f.=.f.f.f.f.f.f.=.f.f.=.f.f.=.f.f.=.f.=.=.f.f.f.f.=.=.=.=.=.=.f.=.f.f.=.f.f.$.fXH.j.j.j.l.j.j.j.j.j.j.l.l.j.j.j.j.l.j.j.l.c.x.L.Y.J.J.l.j.l.j.j.l.j.j.z.j.j.j.j.j.j.j.j.j.j.j.j.j.j.j.j.j.l.p.=Xv.i.p.p.p.p.p.a.p.p.p.p.p.p.p.a.p.p.p.p.p.a.p.p.p.a.p.p.p.a.p.p.p.a.p.p.a.p.a.a.p.p.p.p.p.p.p.p.i.xXOXI k ..l k l l ..+.O.Y.g = a 0 7 / JXHXf 8 0 0 1 1 F U F } 4.2.8 * S V V  .8X8XQ X 1 w.] t.s r.0 w.y.y.C.C.w.8 4 ^.)./././.).{ mXeXeXeX",
"v.g.f.f.f.f.f.f.f.f.=.=.=.f.f.f.f.f.f.f.f.f.f.f.f.f.f.f.=.=.f.f.f.f.f.f.f.f.f.f.f.f.f.f.f.f.=.=.f.f.f.f.f.=.f.f.=.f.f.f.f.f.f.f.=.=.f.f.f.f.f.f.f.f.f.f.f.f.f.=.K.fXf.l.j.l.l.j.j.j.j.j.j.l.l.j.j.j.j.l.j.j.l.c.x.L.,XJ.J.l.l.l.l.j.l.l.j.z.j.j.j.j.j.j.j.j.j.j.j.j.j.j.j.j.l.l.j.j.-Xp.p.p.p.p.p.a.p.p.p.p.p.p.p.a.p.p.p.p.a.a.p.p.p.a.p.p.p.a.p.p.p.a.p.p.a.p.a.a.p.p.p.p.p.p.p.p.0.kX>X^.' o...k l ~ ..+.*.Y.g = a 0 7 / JXHXf 8 0 0 1 1 F U F } 4.2.8 * S V V  .8X8XQ X 8 a 8 0 8 a 8 0 v 8 x s s 0 4 ^.3X:X:X3X.X{ VXmXmXmX",
"v.g.f.f.f.f.f.f.f.f.c.j.f.=.f.f.f.f.f.f.f.f.f.f.f.f.f.f.c.j.f.f.f.f.f.f.f.f.f.f.f.=.f.f.f.f.c.j.c.f.f.f.f.=.f.f.=.f.f.=.f.f.f.f.c.j.f.f.f.f.f.f.f.f.=.f.f.f.f.-.dXK.l.l.l.j.l.j.j.j.j.j.j.l.l.j.j.j.j.x.x.z.l.c.x.L.,XJ.J.l.j.l.l.j.l.l.j.J.z.z.j.j.j.j.j.j.j.j.j.j.j.j.j.j.j.J.x.z.=Xv.i.p.p.p.p.a.p.p.p.p.p.p.p.z.a.a.p.p.a.a.p.p.p.a.p.p.p.a.p.p.p.H.a.a.a.p.a.a.p.p.p.p.p.p.p.p.0.zXJ.^.&.+...k l ~ ..+.*.Y.g = a 0 7 / JXHXf 8 0 0 1 1 F U F } 4.2.8 * S V V  .8X8XQ X 8 0 0 0 0 8 0 0 8 0 8 8 8 0 8 z G G G G j a [ } } } ",
"v.g.f.f.f.f.f.f.=.c.c.k.k.f.f.f.f.f.f.f.f.f.f.f.f.f.f.k.j.k.j.=.f.f.f.f.f.f.f.f.f.=.f.f.f.k.f.j.k.=.f.f.f.=.f.f.=.f.f.=.f.f.=.k.f.k.c.=.f.f.f.f.f.f.=.f.f.f.=.z.fXx.l.I.z.j.z.j.j.j.j.j.j.l.l.j.j.j.j.J.z.J.l.c.x.L.,XJ.J.l.j.l.l.j.l.l.l.J.z.I.l.j.j.j.j.j.j.j.j.j.j.j.j.j.l.J.l.J.c.=Xi.p.p.p.p.a.p.p.p.p.p.p.a.H.a.P.p.p.a.a.p.p.p.a.p.p.p.a.p.p.a.H.a.P.a.p.a.a.p.p.p.p.p.p.p.p.0.aXK.).}.-.o.k l ~ ..+.*.Y.g = a 0 7 / JXHXf 8 0 0 1 1 F U F } 4.2.8 * S V V { 8X8XQ X = = = = = = = = = = = = = = = = * * * * * = X X X X ",
"v.g.f.f.f.f.f.f.=.j.k.k.k.=.f.f.f.f.f.f.f.f.f.f.f.f.f.c.c.j.j.=.f.f.f.f.f.f.f.f.f.f.f.f.f.c.c.x.c.f.f.f.f.=.f.f.=.f.f.=.f.f.=.c.c.k.j.=.f.f.f.f.f.f.f.f.f.f.$.dXK.x.x.J.z.j.z.j.j.j.j.j.j.l.l.j.j.j.j.J.z.J.z.c.x.L.,XJ.J.l.l.l.l.j.l.l.j.J.x.J.l.j.j.j.j.j.j.j.j.j.j.j.j.j.l.J.z.x.p.=Xv.i.p.p.p.a.p.p.p.p.p.p.a.H.z.H.p.p.a.a.p.p.p.a.p.p.p.a.p.p.a.H.a.H.a.p.a.a.p.p.p.p.p.p.p.p.0.aXK. XOX'.-.k l ~ ..+.*.Y.g = a 0 7 / JXHXf 8 0 0 1 1 F U F } 4.2.8 * S V V { 8X8XQ X 7 7 7 8 7 : : : 8 8 7 7 7 8 8 8 8 8 8 8 8 8 8 8 8 8 ",
"b.x.f.f.f.f.f.f.f.f.f.f.f.f.=.f.f.=.=.f.f.=.f.f.=.=.f.f.f.f.f.f.=.f.f.=.f.f.=.f.f.=.f.=.f.f.f.f.j.f.=.f.f.=.f.f.=.f.f.=.=.f.f.=.f.f.f.f.f.f.f.f.=.f.=.f.f.=.l.fXj.j.l.j.j.j.l.j.j.j.j.j.j.l.l.j.j.j.j.l.l.l.l.c.x.L.,XJ.J.l.j.l.l.j.l.l.j.z.j.j.j.j.j.j.j.j.j.j.j.j.j.j.j.j.j.z.j.j.j.v.=Xi.p.p.p.a.p.p.p.p.p.p.p.a.p.p.p.p.a.a.p.p.p.a.p.p.p.a.p.p.p.a.p.p.a.p.a.a.p.p.p.p.p.p.p.p.0.aXK._.oXOXg.k l ~ ..+.*.Y.g = a 0 7 / JXHXf 8 0 0 1 1 F U F } 4.2.8 * S V V  .8X8XQ X 8 0 a 7 a 3.<.3.8 8 a 0 0 8 7 0 a 0 a 0 8 0 a 0 8 0 ",
"P.P.j.=.f.f.f.f.f.=.c.k.$.c.k.$.c.k.x.f.f.x.f.f.x.f.f.k.c.k.$.k.k.$.k.k.x.f.f.x.f.f.x.f.f.c.k.k.$.k.k.$.k.k.x.f.f.x.f.f.x.0.j.c.k.c.$.k.c.$.k.k.x.$.j.x.0.f.fXK.l.J.J.x.j.J.x.j.J.J.J.j.z.J.j.z.J.j.x.x.J.z.j.I.x.L.DXI.I.l.J.J.j.x.J.j.x.x.J.l.j.J.l.l.J.J.J.j.J.J.j.J.J.j.J.z.J.l.l.J.=Xx.m.H.H.i.H.H.i.H.H.i.H.a.H.p.a.P.p.a.H.H.H.i.H.z.i.H.z.i.H.a.H.p.a.H.p.a.H.H.a.i.H.H.p.p.0.aXA._.h.OX}.l l ~ ..+.*.Y.g = a 0 7 / JXHXf 8 0 0 1 1 F U F } 4.2.8 * S V V  .8X8XQ X 8 a 7 3.HXHXGXHXGX( 7 a 8 v ` 8 7 8 7 0 s s 7 a s 8 ",
"k.k.f.=.=.=.=.=.f.$.k.x.$.k.x.$.k.x.U.j.0.U.j.0.U.f.f.k.k.x.$.x.x.$.k.x.U.f.f.U.f.f.U.f.f.k.x.x.%.x.x.$.x.x.b.f.f.U.0.j.U.$.j.k.x.k.$.x.k.$.x.x.b.$.j.U.$.l.fXj.x.J.I.J.j.I.J.j.J.J.I.j.J.I.j.J.I.j.J.J.I.z.j.I.x.x.DXI.I.l.J.I.j.J.I.j.J.J.I.z.j.I.z.l.I.I.I.j.J.J.p.J.J.j.J.J.I.l.l.I.v.=XH.P.H.*.H.H.*.H.H.i.H.H.P.a.a.P.p.a.P.P.H.*.P.H.*.P.H.i.H.H.P.p.a.P.p.a.P.P.H.i.P.P.p.p.$.aXA.0.p.oX+XG k l ..+.O.Y.g = a 0 7 / JXHXf 8 0 0 1 1 F U F } 4.2.8 * S V V  .8X8XQ X a 7 3.JX<.= X 1 6.HXc 8 1 M.Q.y.y.w.t.t.Z.y.,.r.Z.M.",
"v.c.j.j.f.f.f.f.j.f.x.x.$.k.x.$.k.x.x.j.f.U.j.f.U.f.f.k.k.x.$.k.x.$.k.x.x.f.f.U.f.f.U.f.f.k.k.x.$.x.x.$.x.x.x.f.f.U.f.j.U.0.j.k.x.k.$.x.k.$.x.x.x.$.j.U.$.T.fXj.J.J.J.J.j.I.J.j.J.J.I.j.x.I.j.x.I.j.J.J.I.z.j.I.x.b.DXI.I.l.J.I.j.J.I.j.J.J.I.z.j.I.z.l.J.J.J.j.J.J.j.J.J.j.J.x.I.l.l.I.l.-XU.P.H.i.H.H.*.H.H.i.H.z.P.a.a.P.p.a.H.P.H.i.P.H.i.P.H.i.H.z.P.p.a.P.p.a.H.P.H.i.P.H.a.a.0.aXA.p.a.*X*XP [ ' +.*.*.dXg = a 0 7 / JXHXf 8 0 0 1 1 F U F } 4.2.8 * S V V  .8X8XQ X 8 0 HX<.o = = = o 6.wX7 7 y.Z.R.D.E.hXw.B.B.R.B.V.y.",
"v.c.f.f.f.f.f.f.f.f.k.x.%.k.x.%.k.x.x.f.$.U.f.$.U.f.f.k.k.x.%.k.x.%.k.x.b.f.f.U.f.f.U.f.f.k.x.x.%.x.x.%.x.x.x.0.f.U.$.f.U.$.j.k.x.k.%.x.k.$.x.x.x.$.j.b.0.fXI.j.z.J.J.J.p.I.x.j.J.J.I.j.z.I.j.z.I.j.J.J.I.z.j.I.x.x.DXI.I.j.J.I.p.J.I.p.J.J.I.l.j.I.l.j.J.J.J.p.J.J.p.J.J.p.J.x.I.l.j.I.a.v.1XH.H.*.H.H.*.H.H.*.H.z.P.p.a.P.p.a.P.P.H.*.P.H.*.P.H.*.H.H.P.p.a.P.p.a.H.P.H.*.P.H.a.a.0.aXaXp.a.e.h.I J I ' O.*.dXg = a 0 7 / JXHXf 8 0 0 1 1 F U F } 4.2.8 * S V V  .8X8XQ X 7 3.HX= = = . = X c HXf 8 g g ) ) ` v ` ` v v x x t.",
"v.g.f.f.f.f.f.f.f.$.k.x.f.x.x.f.x.x.x.c.j.b.c.j.b.j.c.k.k.x.f.x.x.f.x.x.x.j.j.b.j.j.b.j.c.k.k.x.f.x.x.f.x.x.x.j.c.b.j.c.b.j.k.k.x.x.f.x.k.j.x.x.x.j.k.x.T.fXU.z.J.J.J.J.l.I.J.z.J.J.I.l.J.I.l.J.I.l.J.J.I.J.z.I.L.L.DXI.I.z.J.I.l.J.I.l.J.x.I.J.z.I.x.z.J.J.I.l.J.J.l.J.J.l.J.x.I.z.z.I.z.z.1XP.H.a.P.H.a.P.H.a.H.a.P.a.z.P.a.H.H.P.H.a.P.H.a.P.H.a.H.z.P.a.H.P.a.H.H.P.H.a.P.H.p.p.0.iXAXm.p.i.p.)._.)...+.%.Y.g = a 0 7 / JXHXf 8 0 0 1 1 F U F } 4.2.8 * S V V  .8X8XQ X : <.GX= = * a 1 . 3 HXc 8 8 8 7 8 7 8 7 7 7 = 1 1 a ",
"v.g.f.f.f.f.f.f.f.=.k.b.x.U.x.x.U.x.b.x.x.U.x.x.U.x.b.k.k.b.x.U.x.x.b.x.b.x.x.U.x.x.U.x.U.k.k.x.x.U.x.x.b.x.b.x.x.b.x.b.b.x.U.k.x.x.x.U.x.x.b.x.b.x.b.x.fXI.I.J.I.J.J.I.I.I.J.I.I.J.I.J.I.I.J.I.I.J.I.x.I.J.I.I.I.I.DXI.I.I.I.I.J.I.I.J.I.z.I.J.I.I.J.I.I.J.I.J.I.I.J.I.I.J.I.z.I.J.I.I.J.P.1X1XP.H.P.P.P.P.P.P.P.a.P.H.P.P.H.P.H.P.P.P.P.P.P.P.P.P.P.a.P.H.P.P.H.P.H.P.P.P.P.P.a.p.0.iXAXm.p.p.i.P ^.^.X.+.*.Y.g = a 0 7 / JXHXf 8 0 0 1 1 F U F } 4.2.8 * S V V  .8X8XQ X 7 ( HX3 = O C.jXO ( HXa 8 a 7 M.v _ V.B.r.s ,.] v _ ",
"v.g.f.f.f.f.f.f.f.=.c.x.k.x.x.k.x.k.x.k.k.x.k.x.x.k.x.k.c.x.k.x.x.k.x.k.x.k.x.x.k.x.x.k.x.c.k.x.k.x.x.k.x.k.x.k.x.x.k.x.x.k.x.c.k.x.k.x.k.k.x.k.x.k.k.Y.fXx.J.J.J.z.J.J.J.J.J.J.J.J.J.J.J.J.J.J.J.J.J.z.J.J.J.I.U.I.DXI.I.J.J.J.J.J.J.J.J.z.J.J.J.J.J.J.J.J.J.J.J.J.J.J.J.J.J.z.J.J.J.J.J.J.J.1XH.H.P.H.H.P.H.H.H.a.P.H.H.P.H.H.H.H.H.H.P.H.H.P.H.H.H.a.P.H.H.H.H.P.H.H.H.H.P.H.a.p.0.A.AXA.0.p.p.~ f ^./.+.%.Y.g = a 0 7 / JXHXf 8 0 0 1 1 F U F } 4.2.8 * S V V  .8X8XQ X 8 7 wX6.o * 1 jX8 wX6.: a 0 1 r._ ,.C.R.w.w.R.C.M.V.",
"v.g.f.f.f.f.f.f.f.f.f.f.f.f.f.f.f.=.=.=.f.f.f.f.f.=.f.f.=.=.f.f.=.f.f.=.f.f.=.f.f.=.=.=.f.f.f.f.f.f.=.f.f.=.f.f.=.f.f.=.=.=.=.f.f.f.f.f.f.f.f.f.f.f.=.fXH.j.j.j.j.j.j.j.j.j.l.j.j.j.j.j.j.l.l.j.j.j.j.l.j.j.j.c.x.L.,XJ.J.l.j.l.l.j.l.l.j.z.j.j.j.j.j.j.j.j.j.j.j.j.j.j.j.j.j.l.j.j.j.j.j.j.p.=Xv.i.p.p.p.p.p.p.p.a.p.p.p.p.p.a.p.p.p.a.p.p.p.a.p.p.p.a.p.p.a.p.a.a.p.p.p.p.p.p.p.p.0.m.AXA.0.p.p.J k ^.+X^./.,Xf = a 0 7 / JXHXf 8 0 0 1 1 F U F } 4.2.8 * S V V  .8X8XQ X 8 8 c HX<.X = o 6.GX0 8 0 0 8 ) ` ,.y.y.,.x ] ` ] y.",
"v.g.f.f.f.f.f.f.f.f.f.f.f.f.f.f.j.j.j.f.f.f.f.f.f.f.f.f.j.j.f.f.f.f.f.f.f.f.f.f.j.f.j.f.f.f.f.f.f.f.f.f.f.=.f.f.=.f.j.f.j.j.f.f.f.f.f.f.f.f.f.f.f.=.H.fXj.z.z.z.l.j.j.j.j.l.z.z.z.z.z.j.j.l.l.j.j.j.j.z.z.l.z.x.x.L.,XJ.J.l.j.l.l.j.l.l.j.z.l.l.j.j.j.j.j.j.j.j.j.j.j.j.j.j.j.z.z.l.j.j.j.j.j.c.-Xa.a.a.p.p.p.p.p.a.p.p.p.p.p.a.a.p.p.a.p.p.p.a.p.p.p.a.p.p.a.p.a.a.p.a.p.p.p.p.p.p.p.s.CXiX0.p.p...l o. X*X_.2Xf = a 0 7 / JXHXf 8 0 0 1 1 F U F } 4.2.8 * S V V { 8X8XQ X 8 a 7 c c 8 0 8 ( f 8 0 0 0 0 8 8 8 8 7 8 8 8 8 8 8 ",
"b.x.j.=.f.f.f.f.f.f.f.f.f.f.f.f.f.z.z.j.=.f.f.f.f.f.f.f.H.z.j.=.f.f.f.f.f.f.f.f.l.z.z.j.f.f.f.f.f.f.f.f.f.=.f.f.=.f.j.z.z.H.j.=.f.f.f.f.f.f.f.f.f.=.dXK.l.H.H.P.z.j.j.j.j.l.l.H.H.P.H.l.j.l.l.j.j.j.j.z.H.H.P.P.x.L.,XJ.J.l.j.l.l.j.l.l.j.z.H.H.z.j.j.j.j.j.j.j.j.j.j.j.j.j.j.l.z.P.z.j.j.j.j.p.=Xv.s.Z.m.p.p.p.p.a.p.p.p.p.p.s.m.m.p.a.p.p.p.a.p.p.p.a.p.p.a.p.a.a.m.m.Z.a.p.p.p.p.p.0.iXiX0.p.p...l ~ c.>X;X>Xh 1 a 0 7 / JXHXf 8 0 0 1 1 F U F } 4.2.8 * S V V { 8X8XQ X 8 0 0 8 8 a a a 8 8 0 8 0 0 8 0 0 0 0 0 0 0 0 0 0 0 ",
"x.b.f.=.f.f.f.f.f.f.f.f.f.f.f.f.j.z.z.j.=.f.f.f.f.=.f.f.z.z.j.=.f.f.f.=.f.f.=.f.j.z.z.f.f.f.f.=.f.f.=.f.f.$.f.f.$.f.j.j.z.z.j.=.f.f.f.f.f.f.f.f.$.z.fXj.H.H.H.H.z.j.j.j.j.j.l.H.H.H.H.j.j.l.j.j.j.j.j.l.z.H.H.P.x.b.Y.J.J.l.j.l.j.j.l.j.j.l.z.H.z.j.j.j.j.j.j.j.j.j.j.j.j.j.j.z.H.H.z.j.j.j.j.a.c.=Xs.m.m.p.p.p.p.a.p.p.p.p.p.a.m.m.p.a.p.p.p.a.p.p.p.a.p.p.a.p.a.a.s.s.m.s.p.p.p.p.p.0.iXiX$.p.p...l +.e.*Xv.-Xz 1 a 0 7 / JXHXf 8 0 0 1 1 F U F } 4.2.8 * S V V  .8X8XQ X 8 0 8 a 8 : : : 8 a 8 0 0 0 0 0 8 0 0 0 0 0 0 0 0 0 ",
"v.k.g.f.f.f.f.f.f.f.f.f.f.f.f.f.c.f.f.f.f.f.f.f.f.f.g.j.f.f.f.f.f.f.c.f.f.f.f.g.c.f.f.f.c.f.f.f.c.f.f.g.g.f.g.c.f.c.j.f.f.f.f.f.f.f.f.f.f.f.f.f.-.fXK.c.x.l.l.l.l.l.l.l.l.l.x.l.l.l.l.l.l.x.l.l.l.l.l.x.z.l.x.x.x.L.DXJ.J.x.l.x.l.l.x.l.l.x.l.l.l.l.l.l.l.l.l.l.l.l.l.l.l.l.l.x.z.l.l.l.l.l.l.l.l.-Xv.p.a.a.a.a.a.z.a.a.a.a.a.a.a.a.a.a.a.a.a.z.a.a.a.a.p.a.z.p.a.a.p.a.a.a.a.a.a.a.a.0.iXaXp.a.a...l ..' ).:.-Xy 1 0 0 7 / JXHXf 8 0 0 1 1 F U F } 4.2.8 * S V V { 8X8XQ X 8 0 0 : c 5.6.<.a 7 0 0 0 0 0 0 0 7 7 8 0 8 7 8 0 0 ",
"@.@.o.o.o.o.o.o.o.o.o.o.o.o.o.o.o.o.o.o.o.o.o.o.o.o.o.o.o.o.o.o.o.o.o.o.o.o.o.o.o.o.o.o.o.o.o.o.o.o.o.o.o.o.o.o.o.o.o.o.o.o.o.o.o.o.o.o.o.o.o.o.O.m.O.O.O.O.O.O.O.O.O.O.O.O.O.O.O.O.O.O.O.O.O.O.O.O.O.O.O.O.O.#.#.#.p.#.#.O.O.O.O.O.O.O.O.O.O.O.O.O.O.O.O.O.O.O.O.O.O.O.O.O.O.O.O.O.O.O.O.O.O.O.O.$.=.+.O.O.O.O.O.O.O.O.O.O.O.O.+.O.O.O.O.O.O.O.O.O.O.O.O.O.O.O.O.O.O.O.O.O.O.O.O.O.O.o.n.G.n.+.O.l k k k P G K 9 1 0 0 8 ( HXGXf 8 0 0 1 1 F U F } 4.2.8 * S V C  .8X8XQ X 8 0 7 5.HXwXwXGXHX3.7 0 0 0 0 0 8 ` ,.] 8 _ y.g 8 0 ",
"* * * = = = = = = = = = = = = = * = = = = = = = = = * = = = = = = = * = = = = * * = = = * * = = * * = * * = * * = * * = = = = = = = = = = = = = * . * * * * * * * * * * * * * * * * * * * * * * * * * * * * * * * * . * * * * * . . . . * * * * * * * * * * * * * * * * * * * * * * * * * * * * * * * = * * * = * * = * * * * * * * * * * * * * * * * * * * * * * * * * * * * * * * * * X X X * * = = = = * * * = 7 0 8 8 8 8 8 8 8 8 0 1 1 F F F } 2.} 8 * S V V { 8X8XQ X a 7 5.JX( o o O <.wXc 8 0 0 0 0 8 M.y.R.t.V.Q.y.7 0 ",
"0 0 8 8 8 0 8 8 8 8 8 8 8 8 8 8 0 8 8 8 8 8 8 8 8 8 8 8 8 8 8 0 8 8 8 8 8 0 0 0 0 8 0 8 8 8 8 8 8 8 8 8 8 8 8 8 8 0 8 8 8 8 0 8 8 8 8 8 8 8 0 8 8 0 8 8 0 0 a a a a a 0 0 a a 0 a 0 8 8 0 0 0 0 8 8 8 8 8 8 8 8 q q q s z q 8 a s s s s s 0 8 8 8 8 8 8 8 8 8 8 8 8 8 8 8 8 8 8 8 8 0 a 0 0 a 0 0 a a 0 0 0 0 0 7 = 0 a s s s s s s s s s s s s s s s s s s s s s s s s s s s s s s s s s s s s s s s s s s a 0 = 7 0 0 B._ ` M.d.w.7 a 1 1 0 8 8 0 8 a 7 = 0 0 8 a p p 8 = 8 a HX3.o = . N.V.6 <.8 0 0 0 0 8 ` R.r.B.B.r.r.7 0 ",
"8 8 8 0 0 8 0 0 0 7 = = = = = = = = = = = = = = = = = = = 1 = * = = 8 0 0 8 8 8 7 8 8 a 0 0 0 0 0 8 0 8 = = = = = = = = = = * = = = = = 1 = X = = 8 0 8 x x g x g x x x x x g x x v a 0 8 7 8 8 8 0 0 0 0 0 8 q :X:X:X:X:X3XS tXMXmXmXmXVX4.7 a 0 0 0 0 0 0 0 0 0 0 0 0 0 0 0 0 8 s v x x x g x x x x x x x v x 7 = 0 x x s g g g g g g g g g g g g g g s s s s s s s s g g g g g g g g g g g g g g g g s x v 0 = 7 8 v M.r.w.Z.D.t.0 0 1 1 8 J z j j b 2 = 8 9 S S y S 9 = 7 3.GX= = . x PXx 4 5.a 8 0 0 8 8 v s a a s s g 8 8 ",
"s v a 8 7 ` 8 7 0 7 = = =   . X 8     .   . = = = = = = = = . g a X 8 0 8 x _ x ] s _ 1 8 7 8 7 8 s 0 8 = 8 = *   8 * = 8 7 a 1 = = = = = . g 7 = 8 0 8 x 8 s a a a a 0 8 a s 0 8 g s 8 s ] x ] a 8 7 8 8 0 8 s :X/././.(.3XF tXrXeXeXeXmX5.: a 0 0 0 0 0 0 0 0 0 0 0 0 0 0 0 0 8 s s 8 0 0 s 0 0 a a 8 8 0 a x 1 = 0 x 0 8 8 8 8 8 8 8 8 8 8 8 8 8 8 0 s s ) s a s g a 8 8 8 8 8 8 8 8 8 8 8 8 8 8 8 8 8 0 x 0 = 7 0 0 M.r.w.M.M.w.7 a 1 1 z K J J K P 2 = q S D S q S 8 = : <.GX= = = = *   2 <.f 8 0 8 a s 7 s 0 s 7 7 s g a ",
"B.R.M.r.r.D.M.M.x = B.` V.) g ] y.v ` ) ,.s X = = = = = = 1 . C.t.  8 a 7 r.M.M.v x R.w.y.w.y.r.y.Z.` 7 x R.,.) ` r.v 8 D.r.V.a X = = = = = F.] . 0 0 8 x a n.t.t.n.v ] w.t.w.t.s g s 1 ,.C.w.D.V.y.B.t.M.x 8 s :X/.$X/.^.3XF tXrXrXmXeXmX5.7 a 0 0 0 0 0 0 0 0 0 0 0 0 0 0 0 0 8 s a _ s ] n._ ) ) N.1.n.] 0 x 1 = 0 x a 8 0 0 0 0 0 0 0 0 0 0 0 0 8 s ] x n.N.] N.t.7 8 8 0 0 0 0 0 0 0 0 0 0 0 0 0 0 8 a x 0 = 7 0 8 8 8 7 1 7 8 8 0 1 1 a y q j y z 7 = 0 9 r 9 9 9 8 = 7 c HX5 o = = = X 6 <.8 8 0 8 t.y.v V.V.B.s w.Z.D.t.",
"Q.D.C.V.C.C.Q.B.x = M.D.R.y.V.M.Z.Q.D.] M.w.. = = = = = = = * N.t.. 8 0 8 x Z.Z.x x C.D.B.Z.B.M.Z.C.) 1 _ y.] Z.r.hXy.7 Q.r.1.= = = = = = = F.] . 0 0 0 x s r.] n.t._ 1.V.t.w.n.s g s 1 ,.r.y.C.B.E.E.] M.,.1 s :X/.#X).^.3XF tXrXtXmXeXmX5.7 a 0 0 0 0 0 0 0 0 0 0 0 0 0 0 0 0 8 s a ] 1.` N._ 1.] t.N.C.] 0 x 1 = 0 x a 8 0 0 0 0 0 0 0 0 0 0 0 0 8 s t.` t.w.N.n.t.x ) g 8 0 0 0 0 0 0 0 0 0 0 0 0 0 8 a x 0 = 7 0 0 8 0 ,.,._ 8 0 0 1 1 8 x g f g f 7 = 8 f ^ ^ a ^ 8 = 8 7 wXwX= = = = 2 <.3.8 0 0 0 y.M.r.M.Q.y.,.V.C.R.M.",
"v g v v v _ x ) g 1 g ` x ] x ] _ _ v 8 s s = = = = = = = 1   ] ) . 8 0 8 v ) x ] 8 ] g _ s _ x ) ) ) 7 a 7 8 ) s _ v 7 w.v g = = = = = 1 . w.s X 0 0 8 x 0 a 8 s x s a g s v s a s s 8 s a g x v v v a ) g 8 s :X(././.(.:XF tXeXeXeXeXmX5.7 a 0 0 0 0 0 0 0 0 0 0 0 0 0 0 0 0 8 s s s ) 0 s a x ) s s s s a x 1 = 0 x 0 8 8 8 8 8 8 8 8 8 8 8 8 8 8 8 ) ) x a x a s v x s 8 8 8 8 8 8 8 8 8 8 8 8 8 8 8 0 x 0 = 7 0 8 0 y.D.R.V.8 0 0 1 1 s ` _ ] n.] 7 = a {  . .f 4.f = 8 8 a GX5.X 1 : 3.<.8 0 0 0 8 ` r._ r.] w.0 r.,.t.] ",
"8 8 8 8 8 7 8 7 8 7 .   .   .     . . * . X = = = = = = = = =   . = 8 0 0 8 7 8 7 0 7 8 7 8 7 8 7 7 8 8 = = = . X   . =   . . = = = = = = =   . = 8 0 8 v g s g s s s s s s s s s v a 8 8 8 8 8 8 8 8 8 7 8 8 q 3X3X:X:X:X4XD tXmXmXmXmXMX5.7 a 8 8 8 8 8 8 8 8 8 8 8 8 8 8 8 0 8 s v s s s s s s s s s s s x x 1 = 8 x s s s s s s s s s s s s s s s s 0 0 a a a a a 0 a a s s s s s s s s s s s s s s s s x 8 = 7 0 8 s V.V.D.V.8 8 0 1 1 s x s _ ` ` 7 = a f ! { ^ { a = 8 0 8 a s 8 0 0 a 8 8 0 8 8 0 8 7 8 7 7 7 8 7 7 7 7 ",
"a a a a a a a a 0 0 8 0 0 0 0 0 0 0 0 8 8 8 8 8 8 8 8 8 8 8 8 0 8 8 0 0 0 a a a a 0 a a a 0 a a a a a 0 8 8 8 0 8 0 0 8 0 8 8 8 8 8 8 8 8 8 0 8 8 0 0 0 a s s s s s s s s s s s s s 0 0 0 0 a a a a a 0 a 0 0 0 G K K K K G q ^ } } } } } f 8 a 0 0 0 0 0 0 0 0 0 0 0 0 0 0 0 0 0 a s s s s s s s s s s s s s a 7 = 0 s x g x x x x x x x x x x x x x x x x x x x x x x x x x x x x x x x x x x x x x x g x s 0 = 7 a 0 8 v v ) v 8 0 a 1 7 0 8 0 8 8 8 8 = 0 8 0 8 8 8 8 = 8 0 a 0 8 0 0 0 0 0 0 0 0 0 0 a a a a a a 0 a a a a ",
"= = = = = = = = = = = = = = = = = = = = = = = = = = = = = = = = = = = = = = = = = = = = = = = = = = = = = = = = = = = = = = = = = = = = = = = = = = = = = = = = = = = = = = = = = = = = = = = = = = = = = = = = * * * * * * = X o o o o o = = = = = = = = = = = = = = = = = = = = = = = = = = = = = = = = = = = = = = = = = = = = = = = = = = = = = = = = = = = = = = = = = = = = = = = = = = = = = = = = = = = = = = = = X X X * = = = = = = = = = = = = = = = = = = = = * = = = = = = = = = = = = = = = = = = = = = = = = = = ",
"a g g s s g g g g g s g s g g g g g g g g g g g g g g g g g g g g g g g g g g g g g g g g g g g g g g g g g g g g g g g g g g g g g g g g g g g g g g g g g g g g g g g g g g g g g g g g g g g g g g g g g g g g g g g g g g g g g g g g g g g g g g g g g g g g g g g g g g g g g g g g g g g g g g g g g g g g g g g g g g g g g g g g g g g g g g g g g g g g g g g g g g g g g g g g g g g g g g g g g g g g g g g g g g g g g g g g g g g g g g g g g g g g g g g g g g g g g g g g g g g g g g g g g g g g g g g g g g g ",
"B.] ` ] w._ _ ) _ ` w.` ] ` ` ` ` ` ` ` ` ` ` ` ` ` ` ` ` ` ` ` ` ` ` ` ` ` ` ` ` ` ` ` ` ` ` ` ` ` ` ` ` ` ` ` ` ` ` ` ` ` ` ` ` ` ` ` ` ` ` ` ` ` ` ` ` ` ` ` ` ` ` ` ` ` ` ` ` ` ` ` ` ` ` ` ` ` ` ` ` ` ` ` ` ` ` ` ` ` ` ` ` ` ` ` ` ` ` ` ` ` ` ` ` ` ` ` ` ` ` ` ` ` ` ` ` ` ` ` ` ` ` ` ` ` ` ` ` ` ` ` ` ` ` ` ` ` ` ` ` ` ` ` ` ` ` ` ` ` ` ` ` ` ` ` ` ` ` ` ` ` ` ` ` ` ` ` ` ` ` ` ` ` ` ` ` ` ` ` ` ` ` ` ` ` ` ` ` ` ` ` ` ` ` ` ` ` ` ` ` ` ` ` ` ` ` ` ` ` ` ` ` ` ` ` ` ` ` ` ` ` ` ` ` ` ` ` ` ` ` ` ` ` ` ` ",
"PXt.v C.Q.r.y.B.w.V.V.] R.) _ _ _ _ _ _ _ _ _ _ _ _ _ _ _ _ _ _ _ _ _ _ _ _ _ _ _ _ _ _ _ _ _ _ _ _ _ _ _ _ _ _ _ _ _ _ _ _ _ _ _ _ _ _ _ _ _ _ _ _ _ _ _ _ _ _ _ _ _ _ _ _ _ _ _ _ _ _ _ _ _ _ _ _ _ _ _ _ _ _ _ _ _ _ _ _ _ _ _ _ _ _ _ _ _ _ _ _ _ _ _ _ _ _ _ _ _ _ _ _ _ _ _ _ _ _ _ _ _ _ _ _ _ _ _ _ _ _ _ _ _ _ _ _ _ _ _ _ _ _ _ _ _ _ _ _ _ _ _ _ _ _ _ _ _ _ _ _ _ _ _ _ _ _ _ _ _ _ _ _ _ _ _ _ _ _ _ _ _ _ _ _ _ _ _ _ _ _ _ _ _ _ _ _ _ _ _ _ _ _ _ _ _ _ _ _ _ _ _ _ _ _ _ _ _ _ _ _ _ _ _ _ _ _ _ _ _ _ _ _ _ _ ",
"jXt.v D.hXE.jXD.Q.E.V.v Z._ _ _ _ _ _ _ _ _ _ _ _ _ _ _ _ _ _ _ _ _ _ _ _ _ _ _ _ _ _ _ _ _ _ _ _ _ _ _ _ _ _ _ _ _ _ _ _ _ _ _ _ _ _ _ _ _ _ _ _ _ _ _ _ _ _ _ _ _ _ _ _ _ _ _ _ _ _ _ _ _ _ _ _ _ _ _ _ _ _ _ _ _ _ _ _ _ _ _ _ _ _ _ _ _ _ _ _ _ _ _ _ _ _ _ _ _ _ _ _ _ _ _ _ _ _ _ _ _ _ _ _ _ _ _ _ _ _ _ _ _ _ _ _ _ _ _ _ _ _ _ _ _ _ _ _ _ _ _ _ _ _ _ _ _ _ _ _ _ _ _ _ _ _ _ _ _ _ _ _ _ _ _ _ _ _ _ _ _ _ _ _ _ _ _ _ _ _ _ _ _ _ _ _ _ _ _ _ _ _ _ _ _ _ _ _ _ _ _ _ _ _ _ _ _ _ _ _ _ _ _ _ _ _ _ _ _ _ _ _ _ _ _ ",
"E.] ) y.V.B.B.w.r.V.t._ t.` ` ` ` ` ` ` ` ` ` ` ` ` ` ` ` ` ` ` ` ` ` ` ` ` ` ` ` ` ` ` ` ` ` ` ` ` ` ` ` ` ` ` ` ` ` ` ` ` ` ` ` ` ` ` ` ` ` ` ` ` ` ` ` ` ` ` ` ` ` ` ` ` ` ` ` ` ` ` ` ` ` ` ` ` ` ` ` ` ` ` ` ` ` ` ` ` ` ` ` ` ` ` ` ` ` ` ` ` ` ` ` ` ` ` ` ` ` ` ` ` ` ` ` ` ` ` ` ` ` ` ` ` ` ` ` ` ` ` ` ` ` ` ` ` ` ` ` ` ` ` ` ` ` ` ` ` ` ` ` ` ` ` ` ` ` ` ` ` ` ` ` ` ` ` ` ` ` ` ` ` ` ` ` ` ` ` ` ` ` ` ` ` ` ` ` ` ` ` ` ` ` ` ` ` ` ` ` ` ` ` ` ` ` ` ` ` ` ` ` ` ` ` ` ` ` ` ` ` ` ` ` ` ` ` ` ` ` ` ` ` ` ` ",
"s v v x x g g v x x x v x v v v v v v v v v v v v v v v v v v v v v v v v v v v v v v v v v v v v v v v v v v v v v v v v v v v v v v v v v v v v v v v v v v v v v v v v v v v v v v v v v v v v v v v v v v v v v v v v v v v v v v v v v v v v v v v v v v v v v v v v v v v v v v v v v v v v v v v v v v v v v v v v v v v v v v v v v v v v v v v v v v v v v v v v v v v v v v v v v v v v v v v v v v v v v v v v v v v v v v v v v v v v v v v v v v v v v v v v v v v v v v v v v v v v v v v v v v v v v v v v v v v ",
"1 = = 1 = = = = = = = = = = = = = = = = = = = = = = = = = = = = = = = = = = = = = = = = = = = = = = = = = = = = = = = = = = = = = = = = = = = = = = = = = = = = = = = = = = = = = = = = = = = = = = = = = = = = = = = = = = = = = = = = = = = = = = = = = = = = = = = = = = = = = = = = = = = = = = = = = = = = = = = = = = = = = = = = = = = = = = = = = = = = = = = = = = = = = = = = = = = = = = = = = = = = = = = = = = = = = = = = = = = = = = = = = = = = = = = = = = = = = = = = = = = = = = = = = = = = = = = = = = = = ",
"v _ _ ) _ _ ) v _ _ _ _ ) _ _ _ _ _ _ _ _ _ _ _ _ _ _ _ _ _ _ _ _ _ _ _ _ _ _ _ _ _ _ _ _ _ _ _ _ _ _ _ _ _ _ _ _ _ _ _ _ _ _ _ _ _ _ _ _ _ _ _ _ _ _ _ _ _ _ _ _ _ _ _ _ _ _ _ _ _ _ _ _ _ _ _ _ _ _ _ _ _ _ _ _ _ _ _ _ _ _ _ _ _ _ _ _ _ _ _ _ _ _ _ _ _ _ _ _ _ _ _ _ _ _ _ _ _ _ _ _ _ _ _ _ _ _ _ _ _ _ _ _ _ _ _ _ _ _ _ _ _ _ _ _ _ _ _ _ _ _ _ _ _ _ _ _ ) = 8 0 8 7 8 0 0 0 0 0 0 0 8 8 0 = 7 0 8 8 8 8 8 8 8 8 8 8 8 0 8 7 8 8 8 8 8 8 8 8 8 8 8 0 = 7 0 8 8 8 8 8 8 0 8 7 8 0 0 8 0 8 8 8 8 8 8 8 8 8 0 7 = 8 7 8 0 ",
"M.w._ M.` ) ` B.` ` ` ] ` _ _ _ _ _ _ _ _ _ _ _ _ _ _ _ _ _ _ _ _ _ _ _ _ _ _ _ _ _ _ _ _ _ _ _ _ _ _ _ _ _ _ _ _ _ _ _ _ _ _ _ _ _ _ _ _ _ _ _ _ _ _ _ _ _ _ _ _ _ _ _ _ _ _ _ _ _ _ _ _ _ _ _ _ _ _ _ _ _ _ _ _ _ _ _ _ _ _ _ _ _ _ _ _ _ _ _ _ _ _ _ _ _ _ _ _ _ _ _ _ _ _ _ _ _ _ _ _ _ _ _ _ _ _ _ _ _ _ _ _ _ _ _ _ _ _ _ _ _ _ _ _ _ _ _ _ _ _ _ _ _ _ _ ` ) = 8 8 v ` s 7 8 7 7 7 7 7 a v 8 = 7 0 0 0 0 0 0 0 0 0 8 s a 7 8 ] 0 8 0 0 0 0 0 0 0 0 0 0 = 8 0 0 0 0 0 0 0 8 g ) s 8 8 v 7 0 0 0 0 0 0 0 0 0 0 8 = s _ 0 8 ",
"R.B.Z.Q.R.Q.V.hXZ.M.Q.Z.Q.w.) _ _ _ _ _ _ _ _ _ _ _ _ _ _ _ _ _ _ _ _ _ _ _ _ _ _ _ _ _ _ _ _ _ _ _ _ _ _ _ _ _ _ _ _ _ _ _ _ _ _ _ _ _ _ _ _ _ _ _ _ _ _ _ _ _ _ _ _ _ _ _ _ _ _ _ _ _ _ _ _ _ _ _ _ _ _ _ _ _ _ _ _ _ _ _ _ _ _ _ _ _ _ _ _ _ _ _ _ _ _ _ _ _ _ _ _ _ _ _ _ _ _ _ _ _ _ _ _ _ _ _ _ _ _ _ _ _ _ _ _ _ _ _ _ _ _ _ _ _ _ _ _ _ _ _ _ _ _ _ _ _ _ ) = 7 v y.w.R.v w.t.r.w.r.,.V.w.7 = 7 0 8 0 0 0 0 0 0 0 7 r.x ,.B.Q.M.8 0 0 0 0 0 0 0 0 0 0 = 8 0 8 0 0 0 0 a 1 r.Q.w.w.t.D.t.V.a 8 0 0 0 0 0 8 0 8 = y.w.v t.",
"D.hXR.Q.hXQ.Z.B.C.hXjXR.V.y.v ` _ _ _ _ _ _ _ _ _ _ _ _ _ _ _ _ _ _ _ _ _ _ _ _ _ _ _ _ _ _ _ _ _ _ _ _ _ _ _ _ _ _ _ _ _ _ _ _ _ _ _ _ _ _ _ _ _ _ _ _ _ _ _ _ _ _ _ _ _ _ _ _ _ _ _ _ _ _ _ _ _ _ _ _ _ _ _ _ _ _ _ _ _ _ _ _ _ _ _ _ _ _ _ _ _ _ _ _ _ _ _ _ _ _ _ _ _ _ _ _ _ _ _ _ _ _ _ _ _ _ _ _ _ _ _ _ _ _ _ _ _ _ _ _ _ _ _ _ _ _ _ _ _ _ _ _ _ _ _ _ _ ) = 1 ` t.) B.V.hXQ.M.D.M.hXQ.w.7 = 7 0 8 0 0 0 0 0 0 a 1 t.,.Q.D.M.y.7 0 0 0 0 0 0 0 0 0 0 = 8 0 8 0 0 0 0 a 7 t.R.C.V.C.B.B.C.8 0 0 0 0 0 0 8 0 8 = M.y.R.hX",
"w.` ,.w.] ] w.,.] w.,.] ] ` _ ` _ _ _ _ _ _ _ _ _ _ _ _ _ _ _ _ _ _ _ _ _ _ _ _ _ _ _ _ _ _ _ _ _ _ _ _ _ _ _ _ _ _ _ _ _ _ _ _ _ _ _ _ _ _ _ _ _ _ _ _ _ _ _ _ _ _ _ _ _ _ _ _ _ _ _ _ _ _ _ _ _ _ _ _ _ _ _ _ _ _ _ _ _ _ _ _ _ _ _ _ _ _ _ _ _ _ _ _ _ _ _ _ _ _ _ _ _ _ _ _ _ _ _ _ _ _ _ _ _ _ _ _ _ _ _ _ _ _ _ _ _ _ _ _ _ _ _ _ _ _ _ _ _ _ _ _ _ _ _ _ ` ) = 8 8 ,.] g ` w.) v ) x _ ` x 8 = 7 0 8 8 8 8 8 8 8 0 8 ) w._ _ x ` 0 8 8 8 8 8 8 8 8 8 0 = 7 0 8 8 8 8 8 0 8 x v _ w.R.v x ] s 8 0 8 8 8 8 8 0 8 = v w.,.,.",
"v ) v v ) ) v ) ) v v ) ) ) ) ) ) ) ) ) ) ) ) ) ) ) ) ) ) ) ) ) ) ) ) ) ) ) ) ) ) ) ) ) ) ) ) ) ) ) ) ) ) ) ) ) ) ) ) ) ) ) ) ) ) ) ) ) ) ) ) ) ) ) ) ) ) ) ) ) ) ) ) ) ) ) ) ) ) ) ) ) ) ) ) ) ) ) ) ) ) ) ) ) ) ) ) ) ) ) ) ) ) ) ) ) ) ) ) ) ) ) ) ) ) ) ) ) ) ) ) ) ) ) ) ) ) ) ) ) ) ) ) ) ) ) ) ) ) ) ) ) ) ) ) ) ) ) ) ) ) ) ) ) ) ) ) ) ) ) ) ) ) ) ) ) ) v = 8 a 7 8 8 8 7 8 8 8 8 8 8 8 a = 7 a 0 0 0 0 0 0 0 0 a 8 7 8 8 8 8 0 0 0 0 0 0 0 0 0 0 0 = 8 a 0 0 0 0 0 0 0 8 8 7 v v 8 8 8 0 0 0 0 0 0 0 0 a 8 = 8 7 7 7 ",
"8 8 8 8 8 8 8 8 8 8 8 8 8 8 8 8 8 8 8 8 8 8 8 8 8 8 8 8 8 8 8 8 8 8 8 8 8 8 8 8 8 8 8 8 8 8 8 8 8 8 0 8 8 8 8 8 8 8 8 8 8 8 8 8 8 8 8 8 8 8 8 8 8 8 8 8 8 8 0 0 8 0 8 8 8 8 8 8 8 8 8 8 8 8 8 8 8 8 8 8 0 8 8 8 8 0 8 8 8 8 8 8 8 8 8 8 8 8 8 8 8 8 8 8 8 8 8 8 8 8 8 8 8 8 8 8 8 8 8 8 8 8 8 8 8 8 8 8 8 8 8 8 8 8 8 8 8 8 8 8 8 8 8 8 8 8 8 8 8 8 8 8 8 8 8 8 8 8 = 1 7 7 7 7 7 7 7 7 7 7 7 7 7 7 = = 7 7 7 7 7 7 7 7 7 7 7 8 7 7 7 7 7 7 7 7 7 7 7 7 7 7 7 = 1 7 7 7 7 7 7 7 7 8 8 8 1 1 8 8 8 7 7 7 7 7 7 7 7 7 = = a p p a ",
"0 0 0 0 0 0 0 0 0 0 0 0 8 8 8 8 7 8 0 0 7 0 0 0 0 0 0 0 0 0 0 0 0 0 0 0 0 0 0 0 0 0 8 8 8 7 8 7 s 8 7 a 8 8 8 8 8 8 a 8 0 0 0 0 0 0 0 0 0 0 8 0 8 7 8 8 8 8 7 7 8 7 8 0 0 0 0 0 0 0 0 0 0 8 0 8 7 8 8 8 1 8 0 8 0 7 8 8 0 0 0 0 0 0 0 0 0 0 0 0 0 0 0 0 0 0 8 8 8 a 0 a 8 0 0 0 0 0 0 0 0 0 0 0 0 0 0 0 0 0 0 0 0 0 0 0 0 0 8 8 8 a 0 a 0 0 0 0 0 0 0 0 0 0 0 0 0 8 = = = = = = = = = = = = = = = = = = = * * * * * * * * * * * * * * * * * * * * * * * * * = = = = X o o o o o o o o o X X o o o o o o o o o o X = = - E W W W ",
"0 0 0 0 0 0 0 0 0 0 0 7 ` t.r.w.) s B.` v 8 0 0 0 0 0 0 0 0 0 0 0 0 0 0 0 0 0 0 0 7 ) ` s _ g _ t.v x t.r.s ) v g w.t.1 a 0 0 0 0 0 0 0 0 0 8 B.B.) v ) v v ` ] g ] s 8 0 0 0 0 0 0 0 0 8 0 C.r.v v v x r.w.) s ] y.x g 0 0 0 0 0 0 0 0 0 0 0 0 0 0 0 0 0 7 ] v w.r.B.` 8 0 0 0 0 0 0 0 0 0 0 0 0 0 0 0 0 0 0 0 0 0 0 0 0 8 ,.` y.r.M.r.8 0 0 0 0 0 0 0 0 0 0 0 0 8 = 8 0 0 0 a a 0 0 0 0 0 0 0 0 a = 7 a K P P P P P P P P P P P P P P P P P P P P P P P J 8 = 7 s 4.4.4.4.4.4.4.4.4.4.4.4.4.4.4.4.4.4.4.4.4.4.4.s 8 X 4.jXkXr.",
"0 0 0 0 0 0 0 0 0 0 0 7 ` Q.R.R.B.D.V.Q.D.0 8 0 0 0 0 0 0 0 0 0 0 0 0 0 0 0 0 0 0 7 ] w.w.C.Z.M.hXM.V.hXB.Q.Q.V.hXZ.t.1 a 0 0 0 0 0 0 0 0 0 8 D.y.B.V.Q.V.hXD.Z.B.Z.r.7 0 0 0 0 0 0 0 0 8 a Q.Z.Q.V.Q.D.y.C.Z.C.Z.C.V.y.7 0 0 0 0 0 0 0 0 0 0 0 0 0 0 0 a 1 r.` M.8 R._ 8 0 0 0 0 0 0 0 0 0 0 0 0 0 0 0 0 0 0 0 0 0 0 0 0 7 C.D.hX8 B.r.7 0 0 0 0 0 0 0 0 0 0 0 0 8 = 8 0 0 8 7 8 8 8 8 8 8 0 8 8 0 = 2 j 3X#X:X:X:X#X#X#X#X#X#X#X#X:X#X#X#X#X#X#X:X:X#X3X$X4 : 7 [ MXmXmXmXmXmXmXmXmXmXmXmXmXmXmXmXmXmXmXmXmXmXMX[ 7 X 0XVXVX4.",
"8 8 8 8 8 8 8 8 8 8 0 8 x y.t.r.t.w.M.t.w.8 0 0 8 8 8 8 8 8 8 8 8 8 8 8 8 8 8 8 0 8 v B.w.t.w.t.r.y.V.y._ y.t.B.M.M.] 7 0 8 8 8 8 8 8 8 0 8 0 ,.0 ` ` y.M.B.] ` t.R._ 8 0 8 8 8 8 8 8 0 8 a ,.w.y.y.V.y.w.t.,.t.] ,.C.` 7 0 8 8 8 8 8 8 8 8 8 8 8 8 8 8 0 7 ] y.w.r.,.8 0 0 8 8 8 8 8 8 8 8 8 8 8 8 8 8 8 8 8 8 8 8 8 8 0 8 ] ) r.t.w.s 8 0 8 8 8 8 8 8 8 8 8 8 0 8 = 8 0 8 g B._ s s x 0 y.s 8 0 0 = 2 j :X(.^.^.^./././.).)././.)./././././././.^.^.^.).^.4 : 1 [ mXeXeXeXeXeXeXrXrXrXeXeXeXeXeXeXeXeXeXeXeXeXmX} 7 X 5.VXVX4.",
"0 0 0 0 0 0 0 0 0 0 0 0 8 7 8 8 8 8 8 7 0 0 0 0 0 0 0 0 0 0 0 0 0 0 0 0 0 0 0 0 0 0 8 0 8 8 8 8 7 8 8 8 8 7 8 8 7 8 8 0 0 0 0 0 0 0 0 0 0 0 0 8 0 8 8 8 8 8 8 7 x ) 7 0 0 0 0 0 0 0 0 0 0 0 8 8 8 8 7 8 0 8 8 8 8 0 ,.0 0 0 0 0 0 0 0 0 0 0 0 0 0 0 0 0 0 0 8 0 8 0 8 0 0 0 0 0 0 0 0 0 0 0 0 0 0 0 0 0 0 0 0 0 0 0 0 0 0 0 8 8 7 0 8 0 0 0 0 0 0 0 0 0 0 0 0 0 0 8 = 8 0 7 ) Q.M.C.R.V.B.D.s 8 0 0 = 2 j 3X/./././.3X#X/.$X#X:X#X:X/.3X#X).$X3X#X/././.$X@X4 : 1 [ mXeXeXeXtXmXtXrXmXmXmXmXtXrXMXtXrXmXrXeXeXeXmX[ 7 X 0XVXVX4.",
"8 8 8 8 8 8 8 8 8 8 8 8 8 8 8 8 8 8 8 8 8 8 8 8 8 8 8 8 8 8 8 8 8 8 8 8 8 8 8 8 8 8 8 8 8 8 8 8 8 8 8 8 8 8 8 8 8 8 8 8 8 8 8 8 8 8 8 8 8 8 8 8 8 8 8 8 8 8 8 8 8 7 8 8 8 8 8 8 8 8 8 8 8 8 8 8 8 8 8 8 8 8 8 8 8 8 7 8 8 8 8 8 8 8 8 8 8 8 8 8 8 8 8 8 8 8 8 8 8 8 8 8 8 8 8 8 8 8 8 8 8 8 8 8 8 8 8 8 8 8 8 8 8 8 8 8 8 8 8 8 8 8 8 8 8 8 8 8 8 8 8 8 8 8 8 8 8 8 = 8 0 8 v D.C.E.M.,.B.B.a 8 0 0 = 2 j :X/././.).#X#X).).$X#X$X$X/.:X).).).:X)./././.$X^.4 : 1 [ mXeXeXeXtXmXtXrXrXtXtXtXrXrXmXrXeXtXrXeXeXeXmX[ 7 X 0XVXVX4.",
"= = = = = = = = = = = = = = = = = = = = = = = = = = = = = = = = = = = = = = = = = = = = = = = = = = = = = = = = = = = = = = = = = = = = = = = = = = = = = = = = = = = = = = = = = = = = = = = = = = = = = = = = = = = = = = = = = = = = = = = = = = = = = = = = = = = = = = = = = = = = = = = = = = = = = = = = = = = = = = = = = = = = = = = = = = = = = = = = = = = 8 0 0 8 s 0 a 0 8 0 s 8 0 8 0 = 2 j 3X/./././././././././././././././././././././.#X@X4 : 1 } mXeXeXeXeXeXrXrXeXrXeXeXrXeXeXeXeXrXeXeXeXeXmX} 7 X 0XVXVX4.",
"8 8 8 8 8 8 8 8 8 8 8 8 8 8 8 8 8 8 8 8 8 8 8 8 8 8 8 8 8 8 8 8 8 8 8 8 8 8 8 8 8 8 8 8 8 8 8 8 8 8 8 8 8 8 8 8 8 8 8 8 8 8 8 8 8 8 8 8 8 8 8 8 8 8 8 8 8 8 8 8 8 8 8 8 8 8 8 8 8 8 8 8 8 8 8 8 8 8 8 0 0 0 8 8 8 8 8 8 8 8 8 8 8 8 = = = = = = = = = = = = = = = = = = = = = = = = = = = = = = = = = = = = = = = = = = = = = = = = = = = = = = = = = = = = = = = = = 8 0 0 0 8 8 8 8 0 8 8 0 0 8 0 = 2 z :X:X:X:X:X:X:X:X:X:X:X:X:X:X:X:X:X:X:X:X:X:X:X:XI 4 = 7 ^ VXtXtXtXtXtXtXtXtXtXtXtXtXtXtXtXtXtXtXtXtXtXVX^ 7 X 0XVXVX4.",
"8 8 8 8 8 8 8 8 8 8 8 8 8 8 8 8 8 8 8 8 8 8 8 8 8 8 8 8 8 8 8 8 8 0 8 8 0 0 0 0 0 0 0 0 0 0 0 0 0 3 3 3 8 0 0 0 0 0 0 0 0 0 0 0 0 0 0 0 0 0 0 0 0 0 0 3 3 3 8 0 0 0 0 0 0 0 0 0 0 0 0 0 0 0 0 0 0 0 0 4 4 4 3 0 0 0 0 0 0 0 0 0 0 8 1 = = = = = = = = = = = = = = = = = = = = = = = = = = = = = = = = = = = = = = = = = = = = = = = = = = = = = = = = = = = = = = = = 8 0 0 0 0 0 0 0 0 0 0 0 0 8 0 = 7 0 8 0 0 0 0 0 0 0 0 0 0 0 8 0 0 0 0 0 0 0 0 0 0 0 8 0 = 8 0 8 0 0 0 0 0 0 0 0 0 0 8 0 0 0 0 0 0 0 0 0 0 8 0 8 o 0XVXVX4.",
". . X = X . * = = = = = = = = = = = = = = = = = = = = = = = = = =   = = 0 8 0 0 0 0 0 0 0 0 0 8 8 S Z Z t 3 0 0 0 0 0 0 0 0 0 0 0 0 0 0 0 0 0 8 0 8 3 S A Z t 3 0 0 0 0 0 0 0 0 0 0 0 0 0 0 0 8 0 8 8 P (.(.G 4 0 8 0 0 0 0 0 0 0 8 = 1 0 0 0 0 0 0 0 0 0 0 0 0 0 a a 0 0 0 0 0 0 0 0 0 0 a 8 = = = 8 0 0 0 0 0 0 0 0 0 0 0 0 0 0 a a a 0 0 0 0 0 0 0 0 0 0 0 0 1 = = 8 0 8 8 8 8 8 7 8 7 8 8 0 8 0 = 7 0 8 8 8 8 8 8 8 8 8 8 8 a s 8 0 8 8 8 8 8 8 8 8 8 0 0 = 8 0 8 8 8 8 8 8 8 8 8 8 8 g 8 8 8 8 8 8 8 8 8 8 8 0 8 o 0XVXVX4.",
"a s 0 = 0 s 8 * = = = = = = = = = = = = = = = = = = = = = = = = = 1.1 = 0 8 0 0 0 0 0 0 0 0 0 8 A B M M N Z 8 0 0 0 0 0 0 0 0 0 0 0 0 0 0 0 0 0 8 s `.B M M N D 3 0 0 0 0 0 0 0 0 0 0 0 0 0 0 0 8 q )./.U U _.U 2 0 0 0 0 0 0 0 0 0 = a v s s s s s s s s s s s s a s s s s s s s s s s s g x = = 7 v s s s s s s s s s s s s s s s s s s s s s s s s s s s s v a = = 8 8 a V.w.g x ) s _ s v 8 0 0 = 7 0 0 0 0 0 0 0 0 0 0 0 8 r.B.a 8 0 0 0 0 0 0 0 0 0 0 0 = 8 0 0 0 0 0 0 0 0 0 0 8 v Z._ 7 0 0 0 0 0 0 0 0 0 0 8 o 0XVXVX4.",
"y.V.D.] R.B.a * = = = = = = = = = = = = = = = = = = = = = = = = a E.g = a 8 0 0 0 0 0 0 0 0 3 D B * * * * N S 3 0 0 0 0 0 0 0 0 0 0 0 0 0 0 0 0 4 /.(.2.2 & = N t 8 0 0 0 0 0 0 0 0 0 0 0 0 0 0 4 /.(.& & O o _.G 3 0 0 0 0 0 0 0 0 = a s 8 8 8 8 8 8 8 8 8 8 s a ) ) s 8 8 8 8 8 8 8 8 8 0 g = = 7 g 8 8 8 8 8 8 8 8 8 8 8 a s s ) ) g 8 8 8 8 8 8 8 8 8 8 8 s a = = 8 8 s hXy.V.Q.V.C.B.Q.R.a 8 0 = 7 0 8 0 0 0 0 0 0 0 0 0 8 t.B.x 8 0 0 0 0 0 0 0 0 0 0 0 = 8 0 8 0 0 0 0 0 0 0 0 7 ` B.,.7 0 0 0 0 0 0 0 0 8 0 8 o 0XVXVX4.",
"y.V.y.R.y.w.,.  = = = = = = = = = = = = = = = = = = = = = = = = p gXg = a 8 0 0 0 0 0 0 0 8 0 N > * o = * , A 3 0 0 0 0 0 0 0 0 0 0 0 0 0 0 0 8 y _.o hXQ.o * M A 3 0 0 0 0 0 0 0 0 0 0 0 0 0 8 y _.: = X _ 2.U (.4 0 0 0 0 0 0 0 0 = a s 8 0 0 0 0 0 0 0 8 s ] ] ) n.g 8 0 0 0 0 0 0 0 8 a g = = 7 g 8 0 0 0 0 0 0 0 0 0 8 v n.M.v r._ 8 0 0 0 0 0 0 0 0 0 8 s a = = 8 8 s r.y.D.M.` y.D.B.r.8 0 0 = 7 0 8 0 0 0 0 0 0 0 0 0 8 _ r.8 0 0 0 0 0 0 0 0 0 0 0 0 = 8 0 8 0 0 0 0 0 0 0 0 8 a y.g 8 0 0 0 0 0 0 0 0 8 0 8 o 0XVXVX4.",
"8 a g s s ) 0 X = = = = = = = = = = = = = = = = = = = = = = = = = [ = = 0 8 0 0 0 0 0 0 0 8 9 N : = _ = * , A 8 0 0 0 0 0 0 0 0 0 0 0 0 0 0 0 3 j _.* X 8 = * , A 3 0 0 0 0 0 0 0 0 0 0 0 0 0 3 S ).* =   Z.jX, A 3 0 0 0 0 0 0 0 0 = a s 8 0 8 8 8 8 8 0 8 a 1.] ` ] a 8 0 8 8 8 8 8 0 8 a g = = 7 g 8 0 8 8 8 8 8 8 8 0 8 x ` 1.] ] g 8 0 8 8 8 8 8 8 8 0 8 s a = = 8 0 8 8 8 7 8 7 x y.8 0 0 0 0 = 7 0 8 0 0 0 0 0 0 0 8 8 0 7 1 8 8 8 0 0 0 0 0 0 0 0 0 0 = 8 0 8 0 0 0 0 0 0 0 0 8 8 7 7 8 8 0 0 0 0 0 0 0 8 0 8 o 0XVXVX4.",
"* = X X X . = = = = = = = = = = = = = = = = = = = = = = = = = = = . = 1 0 8 0 0 0 0 0 0 0 0 8 N $ 2.PX  & M A 3 0 0 0 0 0 0 0 0 0 0 0 0 0 0 0 8 0 _.t & X = & M Z 3 0 0 0 0 0 0 0 0 0 0 0 0 0 8 0 _., * = o O M Z 3 0 0 0 0 0 0 0 0 = a s 8 0 0 0 0 0 0 0 0 8 s a s 8 8 0 0 0 0 0 0 0 0 0 a g = = 7 x 8 0 0 0 0 0 0 0 0 0 0 0 0 8 s 0 8 0 0 0 0 0 0 0 0 0 0 8 s a = = 8 0 0 0 0 _ s x a g 8 8 0 8 0 = 7 0 8 0 0 0 0 0 0 8 v a 0 s s s a x 8 0 0 0 0 0 0 0 0 0 = 8 0 8 0 0 0 0 0 0 0 8 a s a v v 0 8 0 0 0 0 0 0 8 0 8 o 0XVXVX4.",
"0 0 0 0 0 0 8 0 8 8 8 8 8 8 8 8 8 8 8 8 8 8 8 8 8 8 8 8 8 8 8 8 8 a 8 8 0 0 0 0 0 0 0 0 0 0 3 S `.J s . , N r 8 0 0 0 0 0 0 0 0 0 0 0 0 0 0 0 0 4 U _.: = * , N 9 8 0 0 0 0 0 0 0 0 0 0 0 0 0 0 4 U _.: = * , N 9 8 0 0 0 0 0 0 0 0 = 8 x g g g g g g g g g g g g g g g g g g g g g g g g x s = = 1 x g g g g g g g g g g g g g g g g g g g g g g g g g g g g x 8 = = 8 0 0 8 v Z.B.B.M.V.g 8 0 8 0 = 7 0 8 0 0 0 0 0 0 8 w.t.M.V.V.V.V.V.) 8 0 0 0 0 0 0 0 0 = 8 0 8 0 0 0 0 0 0 0 8 C.` M.w.C.s 8 0 0 0 0 0 0 8 0 8 o 0XVXVX4.",
"= = = = = = = X = = = = = = = = = = = = = = = = = = = = = = = 1 = X = 1 0 8 0 0 0 0 0 0 0 0 0 3 F S 1 2 S S 3 0 0 0 0 0 0 0 0 0 0 0 0 0 0 0 0 0 0 3 U u 2 2 S t 3 0 0 0 0 0 0 0 0 0 0 0 0 0 0 0 0 3 U u 2 2 S t 3 0 0 0 0 0 0 0 0 8 1 = = = = = = = = = = = = = = = = = = = = = = = = = = = = = = = = = = = = = = = = = = = = = = = = = = = = = = = = = = = = = = = = 8 0 0 7 _ V.y.C.B.y.v 7 0 8 0 = 7 0 8 8 8 8 8 8 0 8 w.B.hXD.C.V.R.B.] 7 0 8 8 8 8 8 8 0 = 7 0 8 8 8 8 8 8 0 8 s Z.R.hXt.w.8 0 8 8 8 8 8 8 8 0 8 o 0XVXVX4.",
"= = 1 = X 8 . s 1   = = = = = = = = = = = = = = = = = = = = = = = ) = = 0 8 0 0 0 0 0 0 0 0 0 0 3 8 a 0 8 8 0 0 0 0 0 0 0 0 0 0 0 0 0 0 0 0 0 0 0 0 2 8 0 0 8 8 0 0 0 0 0 0 0 0 0 0 0 0 0 0 0 0 0 0 4 8 0 0 8 8 0 0 0 0 0 0 0 0 0 8 1 = = = = = = = = = = = = = = = = = = = = = = = = = = = = = = = = = = = = = = = = = = = = = = = = = = = = = = = = = = = = = = = = 8 0 0 8 s w.8 v ] w.a 0 0 0 0 = 7 a 0 0 0 0 0 0 0 0 M.` ) w.,.w.] r.s 8 0 0 0 0 0 0 0 0 = 8 a 0 0 0 0 0 0 0 0 8 ] ] ) ,.x 8 0 0 0 0 0 0 0 0 a 8 o 0XVXVX4.",
"M.` Z.v w.y.] Z.` ` 1 = = = = = = = = = = = = = = = = = = = = = p gXg = 0 8 0 0 0 0 0 0 0 0 0 0 0 0 8 8 0 0 0 0 0 0 0 0 0 0 0 0 0 0 0 0 0 0 0 0 0 0 0 0 8 8 0 0 0 0 0 0 0 0 0 0 0 0 0 0 0 0 0 0 0 0 0 0 8 8 0 0 0 0 0 0 0 0 0 0 0 8 1 = = = = = = = = = = = = = = = = = = = = = = = = = = = = = = = = = = = = = = = = = = = = = = = = = = = = = = = = = = = = = = = = 7 8 8 8 7 7 8 7 1 7 8 8 8 8 8 = 1 8 8 8 8 8 8 8 8 8 = 7 1 1 1 1 1 = 7 8 8 8 8 8 8 8 8 8 = 7 8 8 8 8 8 8 8 8 8 8 1 1 1 1 7 8 8 8 8 8 8 8 8 8 8 7 o 0XVXVX4.",
"t.R.Z.Z.y.Z.M.B.Z.Q.0 X = = = = = = = = = = = = = = = = = = = = a F.g = a 8 0 0 0 0 0 0 0 0 0 0 0 0 0 0 0 0 0 0 0 0 0 0 0 0 0 0 0 0 0 0 0 0 0 0 0 0 0 0 0 0 0 0 0 0 0 0 0 0 0 0 0 0 0 0 0 0 0 0 0 0 0 0 0 0 0 0 0 0 0 0 0 0 0 0 0 8 1 = = = = = = = = = = = = = = = = = = = 1 = = = = = = = = = = = = = = = = = = = = = = = = = = = = = = 1 = = = = = = = = = = = = = = = = = = 1 = = 1 1 = = = = = = = = = = = = = = = = 1 1 1 1 1 1 1 1 1 = = = = = = = = = 1 = = = = = * = = = = = 1 1 1 1 1 = 1 = = 1 = = = : * = o 0XVXVX4.",
"s ` v v ] ) ] _ x ` = = = = = = = = = = = = = = = = = = = = = = = t.7 = 0 8 0 0 0 0 0 0 0 0 8 8 8 8 8 8 8 8 8 0 0 0 0 0 0 0 0 0 0 0 0 0 0 0 0 0 0 0 8 8 8 8 8 8 8 8 0 0 0 0 0 0 0 0 0 0 0 0 0 0 0 0 8 8 8 8 8 8 8 0 0 0 0 0 0 0 0 8 1 = = = = = 1 7 = = = = = = = = = = = = = = = = = = = = = = = = = = = = = 7 = = = = = = = = = = = = = = = = = = = = = = = = = = = s s s s s s s s s s s s s s s s s s s s s s s s s s s s s s s s s s s s s s a z j a s s a g ^ q a J %.J a s s s s s s s s s 0 v v a s s s 5 U F   0XVXVX4.",
".   . .   .   . . . = = = = = = = = = = = = = = = = = = = = = = =   * = 0 8 0 0 0 0 0 0 0 0 8 y.,.x M.t.t.M.` 8 0 0 0 0 0 0 0 0 0 0 0 0 0 0 0 0 8 8 y.w.B.v t.t.M.g 8 0 0 0 0 0 0 0 0 0 0 0 0 0 0 7 w.,.M.x w.t.8 0 0 0 0 0 0 0 0 8 1 = = = 1 b J J J 9 = = = = = = = = = s ) _ x a ] 2 = = = = = = = = = z J J J z = = = = = = = = = = = _ ` ) 8 1.8 = = = = = = = = 8 = 1 1 1 1 = 0 7 = 1 1 1 1 8 1 1 1 1 1 = 0 7 = 1 1 1 = 8 1 1 1 1 1 = 0 7 = = e S * 8 7 X p { X * X.@XX.. 7 1 = 8 8 = 1 = 8 7 ` _ X 1 7 * S _.j   0XVXVX4.",
"8 0 8 8 8 8 8 8 8 8 8 8 8 8 8 8 8 8 8 8 8 8 8 8 8 8 8 8 8 8 8 8 8 0 8 8 0 0 0 0 0 0 0 0 0 8 s M.t.w.B.D.Z.C.r.8 0 0 0 0 0 0 0 0 0 0 0 0 0 0 0 8 x v y.t.r.) y.Q.M.] 7 0 0 0 0 0 0 0 0 0 0 0 0 0 0 7 ,.V.y.w.r.M.s 8 0 0 0 0 0 0 0 8 1 = = = J j = = 9 J 9 = = = = = = = = p 1.` _ ) ] s = 1 = = = = = = j J 7 = 7 J b = = = = = = = 1 = g V.1._ ) ] x = 1 = = = = = = 8 = 1 1 1 1 = 0 7 1 1 1 1 1 8 1 1 1 1 1 = 0 7 1 1 1 1 1 8 7 1 1 1 1 = 0 7 = = e S * 8 7 = p { X * H ;.H * 7 1 = 8 8 = = g ` ` w.v = 7 = w _.S 5 o 0XVXVX4.",
"= = 1 1 1 1 1 1 1 1 1 = = = = = = = = = = = = = = = = = = = 1 1 = = = 7 0 0 0 0 0 0 0 0 0 0 8 y.y.,.M.y.y.B.] 7 0 0 0 0 0 0 0 0 0 0 0 0 0 0 0 8 a x y.t.] _ M.y.B.v 8 0 0 0 0 0 0 0 0 0 0 0 0 0 0 7 v ,.M.w.t.y.8 0 0 0 0 0 0 0 0 8 1 = = z b . = = . 9 J = = = = = = = = 7 x ` ` ) 1.8 = = = = = = = 8 J   O = * = J 8 = = = = = = = = a ] ] ] x 1.a = = = = = = = = 8 = 1 1 1 7 = 0 7 1 1 1 1 1 8 1 1 1 1 7 = 0 7 1 1 1 1 1 8 7 1 1 1 7 = 0 7 1 = e S * 8 7 = p { + * H ;.H * 7 1 = 8 8 = 1 v _ ) w.) = 7 = _.U 4 s o 0XVXVX4.",
"= 1 .     .   .   X   1 = = = = = = = = = = = = = = = = = = = = * p = = 0 8 0 0 0 0 0 0 0 0 8 8 0 8 8 8 8 8 8 0 0 0 0 0 0 0 0 0 0 0 0 0 0 0 0 0 8 8 a 8 7 7 8 8 8 8 0 0 0 0 0 0 0 0 0 0 0 0 0 0 0 0 8 8 0 8 8 8 8 0 0 0 0 0 0 0 0 8 1 = = J 9 *   * = = J 8 = = = = = = = = = = = = = = = = = = = = = z y 1.D.= = * j z = = = = = = = = = . = = = = = = = = = = = = = 8 = 1 1 = = = 0 7 1 1 = = = 8 1 1 1 = = = 0 7 = 1 = = = 8 7 1 1 1 = = 0 7 = = e S * 8 7 = p { X * H @XH * 7 = = 7 8 = = 7 8 7 _ ) X * (.(.& 8 s o 0XVXVX4.",
"w.w.8 ] _ g x x _ 8 s w.7 = = = = = = = = = = = = = = = = = = = 8 hXs = 0 8 0 0 0 0 0 0 0 0 0 0 8 8 8 8 0 0 0 0 0 0 0 0 0 0 0 0 0 0 0 0 0 0 0 0 0 0 8 a ] ] v 8 0 0 0 0 0 0 0 0 0 0 0 0 0 0 0 0 0 0 8 8 8 8 0 0 0 0 0 0 0 0 0 0 0 8 1 = = b 9 . hXx . = J 7 = = = = = = = = 8 1 8 = = = = = = = = 1 * b q.t.D.= = * b z = = = = = = = = = 8 7 8 1 = = = = = = = = = = 8 1 = = 0 8 8 0 7 1 = 8 8 8 0 1 1 = 0 s a 0 7 1 = 7 0 a 0 1 1 = 1 0 0 0 7 1 = r L 2 8 7 = p { 9 4 X.;.X.. 7 0 a 0 7 = 1 = 1 X v ` 4 U _.* = 7 s o 0XVXVX4.",
"M.` D.M.B.Q.D.,.V.r.D.D.= = = = = = = = = = = = = = = = = = = = a F.g = a 8 0 0 0 0 0 0 0 0 0 7 ] D.M.r.r.8 0 0 0 0 0 0 0 0 0 0 0 0 0 0 0 0 0 0 0 8 a M.D.R.M.8 0 0 0 0 0 0 0 0 0 0 0 0 0 0 0 0 0 8 ) Z.B.w.y.8 0 0 0 0 0 0 0 0 0 8 1 = = z b g jX1 . y J = = = = = = = 1 * ) 1.] ] 7 = = = = = = = = 8 !.: O = = 7 J 7 = = = = = = = 1 = g 1.] ] a = = = = = = = = = 0 _ v 7 v w.) 0 7 1 = v ] ] s = 1 7 a v x s 7 1 1 v ` ) x = 7 1 v ,.] s 7 1 1 y 0.` a 7 = p { x ` $.;.X.* a v s g 7 1 1 1 7 = v 1.J XXw 1 7 7 s o 0XVXVX4.",
"] ,.] ` ,.w.) a x ,.y.,.= = = = = = = = = = = = = = = = = = = = = N.8 = 0 8 0 0 0 0 0 0 0 0 a 7 w.M.y.y.V.0 8 0 0 0 0 0 0 0 0 0 0 0 0 0 0 0 0 0 0 8 g C.V.R.B.8 0 0 0 0 0 0 0 0 0 0 0 0 0 0 0 0 0 7 ] B.y.y.C.s 8 0 0 0 0 0 0 0 0 8 1 = = = J J   * 7 J 7 = = = = = = = 1 * ) ] w.] = = = = = = = = 1 * J b.= = = J z = = = = = = = = 1 = g ] 1.1.1 = = = = = = = = = 0 v g 8 s ) v a = = 7 v ) ) a = = 7 a s v 8 1 = 7 g _ v s = = 7 g _ ) a 1 = 1 y K ^ s 1 X p } v c %.;.H * 8 s v 8 7 = = = = X x 8.}.u * : = 7 s o 0XVXVX4.",
". =   . . . X X X       = = = = = = = = = = = = = = = = = = = = *   X = 0 8 0 0 0 0 0 0 0 0 0 8 s g s x ) 8 0 0 0 0 0 0 0 0 0 0 0 0 0 0 0 0 0 0 0 0 8 ) v _ v 8 0 0 0 0 0 0 0 0 0 0 0 0 0 0 0 0 0 8 s g s x ) 0 8 0 0 0 0 0 0 0 0 8 1 = = = 1 8 = = 1 7 = = = = = = = = = = 8 = a g 1 = = = = = = = = = = 8 1 = = 7 = = = = = = = = = = = 7 1 a g 1 = = = = = = = = = a a a 0 a a a x a a 0 a a 8 g a a 0 a s s x s a 0 0 a a g a a 0 8 0 a g s a 8 j L p s s 8 g { q 2 X.@X%.2 a a s s s 0 a a a 8 ) .XU 3 s a a s s o 0XVXVX4.",
"8 8 8 8 8 8 8 8 8 8 8 8 8 8 8 8 8 8 8 8 8 8 8 8 8 8 8 8 8 8 8 8 8 8 8 8 0 8 8 8 8 8 8 8 8 8 8 0 8 8 8 8 8 0 8 8 8 8 8 8 8 8 8 8 8 8 8 8 8 8 8 8 8 8 0 7 8 7 8 0 8 8 8 8 8 8 8 8 8 8 8 8 8 8 8 8 8 0 8 8 8 8 7 8 0 8 8 8 8 8 8 8 0 8 1 = = = = = = = = = = = = = = = = = = = = = = = = = = = = = = = = = 1 = = = = = = = = = = = = = = = = = = = = = = = = = = = = = = v w.w.w.w.w.w.r.w.w.w.w.w.w.w.w.w.w.w.w.,.w.w.w.w.w.w.w.w.w.w.w.w.w.,.w.w.w.1.9.f.1.w.w.8.t.G.8.,.l.1Xl.,.w.w.,.w.w.w.w.w.8.2.*X/.1.w.w.,.,.w.x o 0XVXVX4.",
"0 0 0 0 0 0 0 0 0 0 0 0 0 0 0 0 0 0 0 0 0 0 0 0 0 0 0 0 0 0 0 0 0 0 0 0 0 0 0 0 0 0 0 0 0 0 0 0 0 0 0 0 0 0 0 0 0 0 0 0 0 0 0 0 0 0 0 0 0 0 0 0 0 0 0 0 0 a 0 0 0 0 0 0 0 0 0 0 0 0 0 0 0 0 0 0 0 0 0 0 0 0 a 0 0 0 0 0 0 0 0 0 0 0 1 = = = = = = = = = = = = = = = = = = = = = 1 1 = = = = = = = = = = = = = = = = = = = = = = = = = = = = = 1 1 = = = = = = = = = = 8 X = = = = X 8 = = = = = = 7 = = = = = X 8 = = = = = = 7 = = = = = X 8 = X * w S . 7 1 X p { X . G ;.H . = = X 1 1 X = = & V .Xc   = = 8 a 7 a o 0XVXVX4.",
"= = = = = = = = = = = = = = = = = = = = = = = = = = = = = = = = = = = = = = = = = = = = = = = = = = = = = = = = = = = = = = = = = = = = = = = = = = = = = = = = = = = = = = = = = = = = = = = = = = = = = = = = = = = = = = = = = = = = = = = = = = = = = = = = = = = = = = = = = = = = = = = = = = = = = = = = = = = = = = = = = = = = = = = = = = = = = = = = = = = 8 1 7 7 7 7 1 a 7 7 7 7 7 7 0 7 7 7 7 7 1 a 7 1 7 7 7 1 0 7 7 7 7 7 1 0 7 7 1 e S * 8 8 = p { + * H @XX.* 7 7 1 8 8 1 7 * S _.` ) = 7 v ] ,.s a o 0XVXVX4.",
"7 7 7 7 7 7 7 7 7 7 7 7 7 7 7 7 7 7 7 7 7 7 7 7 7 7 7 7 7 7 7 7 7 7 7 7 7 7 7 7 7 7 7 7 7 7 7 7 7 7 7 7 7 7 7 7 7 7 7 7 7 7 7 7 7 7 7 7 7 7 7 7 7 7 7 7 8 7 7 7 7 7 7 7 7 7 7 7 7 7 7 7 7 7 7 7 7 7 7 7 8 7 7 7 7 7 7 7 7 7 7 7 7 7 = = = = = = = = = = = = = = = = = = = = = = = = = = = = = = = = = = = = = = = = = = = = = = = = = = = = = = = = = = = = = = = = = 8 = 1 1 1 1 = 0 7 1 1 1 1 1 8 1 1 1 1 1 = 0 7 1 1 1 1 1 8 7 1 1 1 1 = 0 7 = = e S * 8 7 = p { X * H ;.H * 7 1 = 8 8 : = w _.t ^ _ X 7 v v _ s a o 0XVXVX4.",
"0 0 0 0 0 0 0 8 8 8 8 8 8 8 8 8 8 8 8 8 8 8 8 8 8 8 8 8 8 8 0 0 8 0 0 0 0 0 0 0 0 0 0 0 0 0 0 0 0 0 p p 0 0 0 0 0 0 0 0 0 0 0 0 0 0 0 0 0 0 0 0 0 0 0 8 3 3 0 0 0 0 0 0 0 0 0 0 0 0 0 0 0 0 0 0 0 0 0 8 3 3 0 0 0 0 0 0 0 0 0 0 0 0 1 = = = = = = = = = = = = = = = = = = = = = = = = = = = = = = = = = = = = = = = = = = = = = = = = = = = = = = = = = = = = = = = = 8 = 1 1 1 1 = 0 7 1 1 1 1 1 8 1 1 1 1 1 = 0 7 1 1 1 1 1 8 7 1 1 1 1 = 0 7 = = e S * 8 7 = p { X * H ;.H * 7 1 = 8 8 = * _.U & _ _ X 1 7 7 7 7 s o 0XVXVX4.",
". X * = * X = = = = = = = = = = = = = = = = = = = = = = = = = = =   = = 0 8 8 8 8 8 8 8 8 8 8 0 3 9 S t 0 8 0 8 8 8 8 8 8 8 8 8 8 8 8 8 8 8 8 8 8 0 4 y F G 8 3 0 8 8 8 8 8 8 8 8 8 8 8 8 8 8 8 8 0 4 y F G 8 3 0 8 8 8 8 8 8 8 0 8 1 = 1 1 1 1 1 1 1 1 1 1 1 1 1 1 1 1 1 1 1 1 1 1 1 1 1 1 1 = = = 1 1 1 1 1 1 1 1 1 1 1 1 1 1 1 1 1 1 1 1 1 1 1 1 1 1 1 1 1 1 = = = 8 = 1 1 1 1 = 0 7 1 1 1 1 1 8 1 1 1 1 1 = 0 7 1 1 1 1 1 8 7 1 1 1 1 = 0 7 = = e S * 8 7 = p { X * H ;.H * 7 1 = 8 8 & (.(.& X ) _ X 7 1 1 = 7 s o 0XVXVX4.",
"8 a 8 = 8 a 8 * = = = = = = = = = = = = = = = = = = = = = = = = = ] = = 0 8 0 0 0 0 0 0 0 0 0 3 S N B B N t 3 0 0 0 0 0 0 0 0 0 0 0 0 0 0 0 0 0 0 3 U _./.)._.G 3 0 0 0 0 0 0 0 0 0 0 0 0 0 0 0 0 3 U _./.)._.S 3 0 0 0 0 0 0 0 0 0 = 8 v g g g g g g g g g g g g s s g g g g g g g g g g x g = = 1 v g g g g g g g g g g g g g g s s g g g g g g g g g g g g v 0 = = 8 = 1 1 1 1 = 0 7 1 1 1 1 1 8 1 1 1 1 1 = 0 7 1 1 1 1 1 8 7 1 1 1 1 = 0 7 1 = e S * 8 7 = p { X * H ;.H * 7 1 = 8 4 U _.* 7 X ) _ X 7 1 1 = 7 s o 0XVXVX4.",
"y.V.Z.] R.B.a * = = = = = = = = = = = = = = = = = = = = = = = = a gXg = a 8 0 0 0 0 0 0 0 0 3 S N : * * , N r 8 0 0 0 0 0 0 0 0 0 0 0 0 0 0 0 0 4 U _.> & O D (.9 0 0 0 0 0 0 0 0 0 0 0 0 0 0 0 4 U _.: & & D '.y 8 0 0 0 0 0 0 0 0 = a s 8 8 8 8 8 8 8 8 8 8 0 8 g s a 8 8 8 8 8 8 8 8 8 0 g = = 7 g 8 8 8 8 8 8 8 8 8 8 8 0 8 8 s s s 8 8 8 8 8 8 8 8 8 8 8 s a = = 8 = 1 1 1 1 = 0 7 = 1 1 1 = 8 1 = 1 1 1 = 0 7 = 1 1 1 = 8 1 = 1 1 1 = 0 7 = = e S * 8 7 X p { X * H ;.H . 7 1 : 4 S _.w = 7 X ) _ X 1 1 1 = 7 s o 0XVXVX4.",
"y.V.y.R.M.w.,.  = = = = = = = = = = = = = = = = = = = = = = = = p gXg = a 8 0 0 0 0 0 0 0 0 8 N , * = = & M A 3 0 0 0 0 0 0 0 0 0 0 0 0 0 0 0 8 0 _., & X hXW.M D 3 0 0 0 0 0 0 0 0 0 0 0 0 0 8 0 _., & = : & (.(.4 0 0 0 0 0 0 0 0 = a s 8 0 0 0 0 0 0 0 8 s _ _ ` t.g 8 0 0 0 0 0 0 0 8 a g = = 7 g 8 0 0 0 0 0 0 0 0 0 8 x r.r._ w.) 8 0 0 0 0 0 0 0 0 0 8 s a = = 8 7 7 7 7 7 7 a 7 7 7 7 7 7 0 7 7 7 7 7 7 a 7 7 7 7 7 7 0 7 7 7 7 7 7 a 8 7 1 r S 4 8 8 1 d { : 4 X.@XX.1 7 7 1 9 _.S 4 7 7 = _ _ = 7 7 7 7 8 s o 5.VXVX4.",
"0 s x x s _ a X = = = = = = = = = = = = = = = = = = = = = = = = = ] = = 0 8 0 0 0 0 0 0 0 8 9 N : . = = * , A 8 0 0 0 0 0 0 0 0 0 0 0 0 0 0 0 3 j _.= = = M.p # A 3 0 0 0 0 0 0 0 0 0 0 0 0 0 3 S ).* =   E.PXS N 3 0 0 0 0 0 0 0 0 = a s 8 0 0 0 0 0 0 0 8 a 1.1.) r.s 8 0 0 0 0 0 0 0 8 a g = = 7 g 8 0 0 0 0 0 0 0 0 0 8 v r.n.) 1.v 8 0 0 0 0 0 0 0 0 0 8 s a = = 0 8 8 8 8 8 8 s 8 8 8 8 8 8 a 8 8 8 8 8 8 s 0 8 8 8 8 8 a 8 8 8 8 8 8 s 0 8 8 y S 2 a 0 7 f { 7 2 X.@XX.2 0 8 2 _.U 4 9 8 8 7 ` ` 1 8 8 8 8 0 s o 0XVXVX4.",
"X X . . X . * = = = = = = = = = = = = = = = = = = = = = = = = = =   = = 0 8 0 0 0 0 0 0 0 8 0 N + _ jX= * , A 3 0 0 0 0 0 0 0 0 0 0 0 0 0 0 0 8 q _.: * = o & M A 3 0 0 0 0 0 0 0 0 0 0 0 0 0 8 y _.: * = 8 4 M A 3 0 0 0 0 0 0 0 0 = a s 8 8 8 8 8 8 8 8 8 8 v g v a 8 8 8 8 8 8 8 8 8 8 0 g = = 7 g 8 8 8 8 8 8 8 8 8 8 8 a a a v s 8 8 8 8 8 8 8 8 8 8 8 8 s a = = 8 = = = = = = 0 1 = = = = = 8 = = = = = = 0 7 = = = = = 8 1 = = = = = 8 7 = = e S * 8 7 X p { X * H ;.H . 7 & (.(.4 : = = 1 X ) v 7 s s 7 = 7 s X 4.vXvX4.",
"8 0 0 0 0 0 8 8 8 8 8 8 8 8 8 8 8 8 8 8 8 8 8 8 8 8 8 8 8 8 8 8 8 0 8 8 0 0 0 0 0 0 0 0 0 0 3 D B 1.t.  = N S 3 0 0 0 0 0 0 0 0 0 0 0 0 0 0 0 0 4 /.(.* = = : N t 8 0 0 0 0 0 0 0 0 0 0 0 0 0 0 4 /.(.* = . + N t 8 0 0 0 0 0 0 0 0 = a v s g g g g g g g g g s s s s g g g g g g g g g g x g = = 2 v g g g g g g g g g g g g s s s s g g g g g g g g g g g s v a = = 8 = 1 1 1 1 = 0 7 1 1 1 1 1 8 1 1 1 1 1 = 0 7 1 1 1 1 1 8 7 1 1 1 1 = 0 7 1 = e S * 8 8 = p { + * H ;.X.= * U _.4 8 = 1 1 7 = ) ` 0 x x 8 = 8 a = a f f f ",
"= = = = = = = = = = = = = = = = = = = = = = = = = = = = = = = 1 = * = 1 0 8 0 0 0 0 0 0 0 0 0 3 (.S . 2 S Z 3 0 0 0 0 0 0 0 0 0 0 0 0 0 0 0 0 0 8 0 ).S = 4 Z D 3 0 0 0 0 0 0 0 0 0 0 0 0 0 0 0 8 q ).t = 2 Z D 3 0 0 0 0 0 0 0 0 8 = 1 8 8 8 8 8 8 8 8 8 8 8 8 8 8 8 8 8 8 8 8 8 8 8 8 8 8 7 = = = 8 8 8 8 8 8 8 8 8 8 8 8 8 8 8 8 8 8 8 8 8 8 8 8 8 8 8 8 8 8 1 = = 8 = 1 1 1 1 = 0 7 1 1 1 1 1 8 1 1 1 1 1 = 0 7 1 1 1 1 1 8 7 1 1 1 1 = 0 7 = = e S * 8 7 = p { X * H ;.X.& S _.w 2 8 = 1 1 7 X ) ` 7 s v 7 = 7 a = f ^ ^ g ",
"= = = = . 7   a =   = = = = = = = = = = = = = = = = = = = = = = = g = = 0 8 0 0 0 0 0 0 0 0 0 8 8 a a 0 0 8 0 0 0 0 0 0 0 0 0 0 0 0 0 0 0 0 0 0 0 8 3 0 0 0 0 8 0 0 0 0 0 0 0 0 0 0 0 0 0 0 0 0 0 8 3 0 0 0 0 8 0 0 0 0 0 0 0 0 0 8 1 = = = = = = = = = = = = = = = = = = = = = = = = = = = = = = = = = = = = = = = = = = = = = = = = = = = = = = = = = = = = = = = = 8 = 1 1 1 1 = 0 7 1 1 1 1 1 8 1 1 1 1 1 = 0 7 1 1 1 1 1 8 7 1 1 1 1 = 0 7 = = e S * 8 7 = p { X * H @XG 7 '.S * 8 8 = 1 1 7 X ) ) X 1 = 1 = 7 a = f ^ ^ g ",
"M._ C.g ,.t.` Z.` _ 1 = = = = = = = = = = = = = = = = = = = = = 8 gXg = 0 8 0 0 0 0 0 0 0 0 0 0 0 8 8 8 8 0 0 0 0 0 0 0 0 0 0 0 0 0 0 0 0 0 0 0 0 0 0 8 8 8 8 0 0 0 0 0 0 0 0 0 0 0 0 0 0 0 0 0 0 0 0 8 8 8 8 0 0 0 0 0 0 0 0 0 0 8 1 = = = = = = = = = = = = = = = = = = = = = = = = = = = = = = = = = = = = = = = = = = = = = = = = = = = = = = = = = = = = = = = = 8 = 1 1 1 1 = 0 7 1 1 1 1 1 8 1 1 1 1 1 = 0 7 1 1 1 1 1 8 7 1 1 1 1 = 0 7 = = e S * 8 7 = p { X * H @XG _.U & 7 8 8 = 1 1 7 X ) _ X 7 1 1 = 7 a = f ^ ^ g ",
"y.R.Z.Z.M.Z.M.B.Z.Q.0 X = = = = = = = = = = = = = = = = = = = = a F.g = a 8 0 0 0 0 0 0 0 0 0 0 0 0 0 0 0 0 0 0 0 0 0 0 0 0 0 0 0 0 0 0 0 0 0 0 0 0 0 0 0 0 0 0 0 0 0 0 0 0 0 0 0 0 0 0 0 0 0 0 0 8 0 0 0 0 0 0 0 0 0 0 0 0 0 0 0 8 1 = = = = = = = = = = = = = = = = = = = 1 = = = 1 = = = = = = = = = = = = = = = = = = = = = = = = = = 1 1 = = 1 = = = = = = = = = 8 = 1 1 1 1 = 0 7 1 1 1 1 1 8 1 1 1 1 1 = 0 7 1 1 1 1 1 8 7 1 1 1 1 = 0 7 1 = e S * 8 8 = p { + * H ;.#X(.* 7 = 8 8 = 1 1 7 X ) _ X 7 1 1 = 7 a = f ^ ^ g ",
"g ] ) ) ] ` ] ] v ] = = = = = = = = = = = = = = = = = = = = = = = n.7 = 0 8 0 0 0 0 0 0 0 0 8 8 8 8 7 7 8 7 8 0 0 0 0 0 0 0 0 0 0 0 0 0 0 0 0 0 0 0 8 8 8 8 7 8 8 0 0 0 0 0 0 0 0 0 0 0 0 0 0 0 8 0 8 8 8 8 8 8 8 0 0 0 0 0 0 0 0 8 1 = = = = = = 1 = = = = = = = = = = = = = = = = = = = = = = = = = = = = = 7 = = = = = = = = = = = = = = = = = = = = = = = = = = = 8 = = = = = = 0 1 = = = = = 8 = = = = = = 0 7 = = = = = 8 1 = = = = = 8 7 = = e S * 8 7 X p { X * H %X$XX = = = 7 7 = = = 1 X ) ) X 1 = = = 7 a = f ^ ^ g ",
".   . .         . . = = = = = = = = = = = = = = = = = = = = = = =   X = 0 8 0 0 0 0 0 0 0 0 8 t.,.x M.r.r.y._ 8 0 0 0 0 0 0 0 0 0 0 0 0 0 0 0 0 0 8 t.,.x M.r.r.8 0 0 0 0 0 0 0 0 0 0 0 0 0 0 0 0 7 w.] M.g ,.r.8 0 0 0 0 0 0 0 0 8 1 = = = = b J J J 8 = = = = = = = = = s ) ) g a ] 1 = = = = = = = = = y J J J z = = = = = = = = = = = ) ` ) 8 ] 8 = = = = = = = = 0 8 8 8 8 8 8 s 8 8 8 8 8 8 a 8 8 8 8 8 8 s 8 8 8 8 8 8 a 8 8 8 8 8 8 s 8 8 2 y S 2 q 0 7 f { 7 2 X.4XX.4 8 8 8 0 0 8 8 8 8 1 ` ` 1 8 8 8 8 0 a = f ^ ^ g ",
"8 8 8 8 8 8 8 8 8 8 8 8 8 8 8 8 8 8 8 8 8 8 8 8 8 8 8 8 8 8 8 8 8 0 8 8 0 0 0 0 0 0 0 0 0 8 s M.t.w.B.D.Z.C.r.8 0 0 0 0 0 0 0 0 0 0 0 0 0 0 0 0 8 s M.t.w.B.E.y.g 8 0 0 0 0 0 0 0 0 0 0 0 0 0 0 0 7 ,.V.y.w.r.M.s 8 0 0 0 0 0 0 0 8 1 = = = J j : = 9 J 9 = = = = = = = = a 1.` _ ) ] s = 1 = = = = = = z J 8 = 7 J j = = = = = = = 1 = g V.1._ ) ] x = 1 = = = = = = 0 8 8 8 8 8 8 s 8 8 8 8 8 8 s 8 8 8 8 8 8 s 0 8 8 8 8 8 s 8 8 8 8 8 8 s 0 8 8 y S 2 a a 7 f { 7 2 $.3XX.2 8 8 8 a a 8 8 8 8 7 ` ` 7 8 8 8 8 0 a = f ^ ^ g ",
"= 1 1 1 1 1 1 1 1 1 1 = = 1 1 1 1 1 1 1 1 1 1 1 1 1 1 1 1 = 1 7 1 = = 7 0 0 0 0 0 0 0 0 0 0 8 y.M.w.B.M.M.B.] 7 0 0 0 0 0 0 0 0 0 0 0 0 0 0 0 0 0 8 y.M.w.B.M.y.8 0 0 0 0 0 0 0 0 0 0 0 0 0 0 0 0 7 v w.M.r.t.y.8 0 0 0 0 0 0 0 0 8 1 = = z b . = = . 9 J = = = = = = = = 7 ) ` ] ) 1.8 = = = = = = = 8 J   O = * = J 8 = = = = = = = = s 1.] ] x 1.a = = = = = = = = 8 = = = = = = 0 1 = = = = = 8 = = = = = = 0 7 = = = = = 8 = = = = = = 8 7 = = e S * 8 7 X p { X 3 :.%XH . : = = 7 7 = = = 1 X ) v 1 g g 7 = 7 a = f ^ ^ g ",
"= =       . . .   X   = = = = = = = = = = = = = = = = = = = = = X 8 * = 0 8 0 0 0 0 0 0 0 0 8 0 a 0 a 8 8 0 8 8 0 0 0 0 0 0 0 0 0 0 0 0 0 0 0 0 0 8 0 a 8 7 7 a 8 0 0 0 0 0 0 0 0 0 0 0 0 0 0 0 0 0 0 8 a 0 0 0 8 0 0 0 0 0 0 0 0 8 1 = = J 9 *   X = = J 7 = = = = = = = = = = = = 1 = = = = = = = = z y ] C.= = * j z = = = = = = = = = * = = = 1 = = = = = = = = = 8 = 1 1 1 1 = 0 7 1 1 1 1 1 8 1 1 1 1 1 = 0 7 1 1 1 1 1 8 7 1 1 1 1 = 0 7 1 = e S * 8 8 = p { 9 0 /.;.X.* 7 1 = 8 8 = 1 1 7 = ) ` 8 _ w.0 = 8 a = f ^ ^ g ",
") ] s _ ) s s g v 8 a w.7 = = = = = = = = = = = = = = = = = = = 8 hXs = 0 8 0 0 0 0 0 0 0 0 0 0 8 8 8 8 8 0 0 0 0 0 0 0 0 0 0 0 0 0 0 0 0 0 0 0 0 0 8 8 ` ` v 8 0 0 0 0 0 0 0 0 0 0 0 0 0 0 0 0 0 0 8 8 8 8 8 0 0 0 0 0 0 0 0 0 0 8 1 = = b 9 . E.g . = J 7 = = = = = = = = 8 1 8 = = = = = = = = 1 * b q.n.Q.= = * j z = = = = = = = = = 8 1 8 = = = = = = = = = = = 8 = 1 1 1 1 = 0 7 1 1 1 1 1 8 1 1 1 1 1 = 0 7 1 1 1 1 1 8 7 1 1 1 1 = 0 7 = = e S * 8 7 = p { 0 w #X;.H * 7 1 = 8 8 = 1 1 7 X ) _ a g 0 7 = 7 a = f ^ ^ g ",
"x B.M.V.B.Q.D.,.V.r.D.D.= = = = = = = = = = = = = = = = = = = = a F.g = a 8 0 0 0 0 0 0 0 0 0 7 ] Z.y.w.w.8 0 0 0 0 0 0 0 0 0 0 0 0 0 0 0 0 0 0 0 8 a y.D.R.M.8 0 0 0 0 0 0 0 0 0 0 0 0 0 0 0 0 0 8 v C.M.w.t.8 0 0 0 0 0 0 0 0 0 8 1 = = z b f jX7 . q J = = = = = = = 1 * ) 1.] ] 8 = = = = = = = = 9 !.: O = = = J 7 = = = = = = = 1 = g 1.] ] a = = = = = = = = = 8 = 1 1 1 1 = 0 7 1 1 1 1 1 8 1 1 1 1 1 = 0 7 1 1 1 1 1 8 7 1 1 1 1 = 0 7 = = e S * 8 8 X d } . t 3X;.H * 7 1 = 8 8 = 1 1 7 X ) _ . = = 1 = 7 a = f ^ ^ g ",
"v r.g ] 1.w.` s v w.M.w.= = = = = = = = = = = = = = = = = = = = 1 C.8 = 0 8 0 0 0 0 0 0 0 0 a 7 w.B.M.y.V.0 8 0 0 0 0 0 0 0 0 0 0 0 0 0 0 0 0 0 0 8 x C.V.R.B.8 0 0 0 0 0 0 0 0 0 0 0 0 0 0 0 0 0 7 ] V.M.y.C.s 8 0 0 0 0 0 0 0 0 8 1 = = = J J   * 7 J 8 = = = = = = = 1 * ) ] w.] = = = = = = = = 1 * o.b.= = = J z = = = = = = = = 1 = g ] 1.1.2 = = = = = = = = = 8 = 1 1 1 1 = 0 7 1 1 1 1 1 8 1 1 1 1 1 = 0 7 1 1 1 1 1 8 7 1 1 1 1 = 0 7 = = e S * 8 7 = ) { . D #X;.H * 7 1 = 8 8 = 1 1 7 X ) _ = 7 1 1 = 7 a = f ^ ^ g ",
"X . X . . X X * X . . . = = = = = = = = = = = = = = = = = = = = X   X = 0 8 0 0 0 0 0 0 0 0 0 8 s x g v _ 8 0 0 0 0 0 0 0 0 0 0 0 0 0 0 0 0 0 0 0 0 8 _ ) ` v 8 0 0 0 0 0 0 0 0 0 0 0 0 0 0 0 0 0 8 s x g x ` a 8 0 0 0 0 0 0 0 0 8 1 = = = 7 9 = = 7 7 = = = = = = = = = = 8 = s x = = = = = = = = = = = q 1 = = 7 = = = = = = = = = = = 8 1 a x 1 = = = = = = = = = 8 = 1 1 1 1 = 0 7 1 1 1 1 1 8 1 1 1 1 1 = 0 7 1 1 1 1 1 8 7 1 1 1 1 = 0 7 1 = e S * 8 7 q g { . U $X;.X.* 7 1 = 8 8 = 1 1 7 X ) _ X 7 1 1 = 7 a = f ^ ^ g ",
"7 8 8 8 8 8 8 8 8 8 8 8 7 7 7 7 7 7 7 7 7 7 7 7 7 7 7 7 7 7 8 8 7 8 7 8 0 8 8 8 8 8 8 8 8 8 8 0 8 8 8 8 7 0 8 8 8 8 8 8 8 8 8 8 8 8 8 8 8 8 8 8 8 8 0 7 7 7 8 0 8 8 8 8 8 8 8 8 8 8 8 8 8 8 8 8 8 0 8 8 8 8 7 8 0 8 8 8 8 8 8 8 0 8 1 = = = = = = = = = = = = = = = = = = = = = = = = = = = = = = = = = = = = = = = = = = = = = = = = = = = = = = = = = = = = = = = = 8 = = = = = = 0 1 = = = = = 8 = = = = = = 0 7 = = = = = 8 1 = = = = = 8 7 = = e S * 7 s 8 p { . (.I ;.H . 7 = = 7 7 = = = 1 X ) ) X 1 = = = 7 a = f ^ ^ g ",
"a a a a a a a a a a a a a a a a a a a a a a a a a a a a a a a a a a a a 0 0 0 0 0 0 0 0 0 0 0 0 a a a a a 0 0 0 0 0 0 0 0 0 0 0 0 0 0 0 0 0 0 0 0 0 0 a a a a 0 0 0 0 0 0 0 0 0 0 0 0 0 0 0 0 0 0 0 0 a a a a 0 0 0 0 0 0 0 0 0 0 0 1 = 1 1 1 1 1 1 1 1 1 1 1 1 1 1 1 1 1 1 1 1 1 1 1 1 1 1 1 1 1 1 1 1 1 1 1 1 1 1 1 1 1 1 1 1 1 1 1 1 1 1 1 1 1 1 1 1 1 1 1 1 1 = = 0 8 8 8 8 8 8 s 8 8 8 8 8 8 a 8 8 8 8 8 8 s 8 8 8 8 8 8 a 8 8 8 8 8 8 s 0 8 2 y S 2 s v 7 f { 7 (.:.;.X.2 8 8 8 0 0 8 8 8 8 7 ` ` 1 8 8 8 8 0 a = f ^ ^ g ",
"= = = = = = = = = = = = = = = = = = = = = = = = = = = = = = = = = = = = = = = = = = = = = = = = = = = = = = = = = = = = = = = = = = = = = = = = = = = = = = = = = = = = = = = = = = = = = = = = = = = = = = = = = = = = = = = = = = = = = = = = = = = = = = = = = = = = = = = = = = = = = = = = = = = = = = = = = = = = = = = = = = = = = = = = = = = = = = = = = * = 8 7 7 7 7 7 7 a 8 7 7 7 7 7 0 7 7 7 7 7 7 a 8 7 7 7 7 7 0 7 7 7 7 7 7 a 8 7 2 r S 2 v 8 7 f { e _.X.;.X.1 8 7 7 8 8 7 7 7 7 = _ _ 1 8 7 7 7 8 a = f ^ ^ g ",
"a s g s s g g g g g g g g g g g g g g g g g g g g g g g g g g g g g g g g g g g g g g g g g g g g g g g g g g g g g g g g g g g g g g g g g g g g g g g g g g g g g g g g g g g g g g g g g g g g g g g g g g g g g g g g g g g g g g g g g g g g g g g g g g g g g g g g g g g g g g g g g g g g g g g g g g g g g g g g g g g g g g g g g g g g g g g g g g g g s = 8 = 1 = = 1 = 0 7 = = = = = 8 1 = = = 1 = 0 7 = = = = = 8 1 = = = 1 = 0 7 = = e S a 0 7 X p | S (.G @XH . 7 1 = 7 7 = 1 = 1 X ) ) 7 _ v 1 = 7 a = f ^ ^ g ",
"y.r._ ] ] ) ` ` ` ` ` ` ` ` ` ` ` ` ` ` ` ` ` ` ` ` ` ` ` ` ` ` ` ` ` ` ` ` ` ` ` ` ` ` ` ` ` ` ` ` ` ` ` ` ` ` ` ` ` ` ` ` ` ` ` ` ` ` ` ` ` ` ` ` ` ` ` ` ` ` ` ` ` ` ` ` ` ` ` ` ` ` ` ` ` ` ` ` ` ` ` ` ` ` ` ` ` ` ` ` ` ` ` ` ` ` ` ` ` ` ` ` ` ` ` ` ` ` ` ` ` ` ` ` ` ` ` ` ` ` ` ` ` ` ` ` ` ` ` ` ` ` ` ` ` ` ` ` ` ` ` ` ` ` ` ` ` ` ` ` ` ` ` ` ` ` ` _ 1 8 = 1 1 1 1 = 0 7 1 1 1 1 1 8 1 1 1 1 1 = 0 7 1 1 1 1 1 8 7 1 1 1 1 = 0 7 1 1 e K 2 7 8 = p | D (.G @XH * 7 1 = 8 8 = 1 1 7 = ) ] 8 ] ] 8 = 8 a = f ^ ^ g ",
"D.r.M.Q.Z.R.w.) _ _ _ _ _ _ _ _ _ _ _ _ _ _ _ _ _ _ _ _ _ _ _ _ _ _ _ _ _ _ _ _ _ _ _ _ _ _ _ _ _ _ _ _ _ _ _ _ _ _ _ _ _ _ _ _ _ _ _ _ _ _ _ _ _ _ _ _ _ _ _ _ _ _ _ _ _ _ _ _ _ _ _ _ _ _ _ _ _ _ _ _ _ _ _ _ _ _ _ _ _ _ _ _ _ _ _ _ _ _ _ _ _ _ _ _ _ _ _ _ _ _ _ _ _ _ _ _ _ _ _ _ _ _ _ _ _ _ _ _ _ _ _ _ _ _ _ _ _ _ _ _ _ _ _ _ _ _ _ _ _ _ _ _ _ _ _ _ _ ) 1 8 = 1 1 1 1 = 0 7 1 1 1 1 1 8 1 1 1 1 1 = 0 7 1 1 1 1 1 8 7 1 1 1 1 = 0 7 1 = j L * 8 7 = d | C U G @XH * 7 1 = 8 8 = 1 1 7 X ) _ 7 a a 7 = 7 a = f ^ ^ g ",
"D.Q.hXhXR.jXw.) _ _ _ _ _ _ _ _ _ _ _ _ _ _ _ _ _ _ _ _ _ _ _ _ _ _ _ _ _ _ _ _ _ _ _ _ _ _ _ _ _ _ _ _ _ _ _ _ _ _ _ _ _ _ _ _ _ _ _ _ _ _ _ _ _ _ _ _ _ _ _ _ _ _ _ _ _ _ _ _ _ _ _ _ _ _ _ _ _ _ _ _ _ _ _ _ _ _ _ _ _ _ _ _ _ _ _ _ _ _ _ _ _ _ _ _ _ _ _ _ _ _ _ _ _ _ _ _ _ _ _ _ _ _ _ _ _ _ _ _ _ _ _ _ _ _ _ _ _ _ _ _ _ _ _ _ _ _ _ _ _ _ _ _ _ _ _ _ ` ) 1 8 = 1 1 1 1 = 0 7 1 1 1 1 1 8 1 1 1 1 1 = 0 7 1 1 1 1 1 8 7 1 1 1 1 = 0 7 = 8 b S * 8 7 = d | (.D G @XH * 7 1 = 8 8 = 1 1 7 X ) _ X = = 1 = 7 a = f ^ ^ g ",
"t.r.r.w.w.w.` _ _ _ _ _ _ _ _ _ _ _ _ _ _ _ _ _ _ _ _ _ _ _ _ _ _ _ _ _ _ _ _ _ _ _ _ _ _ _ _ _ _ _ _ _ _ _ _ _ _ _ _ _ _ _ _ _ _ _ _ _ _ _ _ _ _ _ _ _ _ _ _ _ _ _ _ _ _ _ _ _ _ _ _ _ _ _ _ _ _ _ _ _ _ _ _ _ _ _ _ _ _ _ _ _ _ _ _ _ _ _ _ _ _ _ _ _ _ _ _ _ _ _ _ _ _ _ _ _ _ _ _ _ _ _ _ _ _ _ _ _ _ _ _ _ _ _ _ _ _ _ _ _ _ _ _ _ _ _ _ _ _ _ _ _ _ _ _ _ ` ) 1 8 = 1 1 1 1 = 0 7 1 1 1 1 1 8 1 1 1 1 1 = 0 7 1 1 1 1 1 8 7 1 1 1 1 = 0 7 7 s e S * 8 7 = p | (.S G @XH * 7 1 = 8 8 = 1 1 7 X ) _ X 7 1 1 = 7 a = f ^ ^ g ",
") ) ) ) ) ) _ _ _ _ _ _ _ _ _ _ _ _ _ _ _ _ _ _ _ _ _ _ _ _ _ _ _ _ _ _ _ _ _ _ _ _ _ _ _ _ _ _ _ _ _ _ _ _ _ _ _ _ _ _ _ _ _ _ _ _ _ _ _ _ _ _ _ _ _ _ _ _ _ _ _ _ _ _ _ _ _ _ _ _ _ _ _ _ _ _ _ _ _ _ _ _ _ _ _ _ _ _ _ _ _ _ _ _ _ _ _ _ _ _ _ _ _ _ _ _ _ _ _ _ _ _ _ _ _ _ _ ` ` ` _ _ ` ` _ _ _ _ _ _ _ _ _ _ _ _ _ _ _ _ _ _ _ _ _ _ _ _ _ _ _ _ _ _ _ _ ` ) 1 8 1 1 1 1 1 = 0 7 1 1 1 1 1 8 1 1 1 1 1 = 0 7 1 1 1 1 1 8 7 1 1 1 1 = 0 7 s 2 e S * 8 8 = p { _.w G @XX.* 7 1 = 8 8 = 1 1 7 X ) _ X 7 1 1 = 7 a = f ^ ^ g ",
"s s s s s s a a a a a a a a a a a a a a a a a a a a a a a a a a a a a a a a a a a a a a a a a a a a a a a a a a a a a a a a a a a a a a a a a a a a a a a a a a a a a a a a a a a a a a a a a a a a a a a a a a a a a a 0 a s s s a s s a a a a a a a a a a a a a a a a a a a a a 0 a 0 a a 0 0 a a a a a a s a a a a a a a a a a a a a a a a a a a a a a a a a a a = 8 = = = = = = 0 1 = = = = = 8 = = = = = = 0 7 = = = = = 8 = = = = = = 8 s 8 * e S * 8 7 X 5 } _.= G ;.H . : = = 7 7 = = = 1 X ) ) X 1 = = = 7 a = f ^ ^ g ",
"8 8 8 8 8 8 8 8 8 8 8 8 8 8 8 8 8 8 8 8 8 8 8 8 8 8 8 8 8 8 8 8 8 8 8 8 8 8 8 8 8 8 8 8 8 8 8 8 8 8 8 8 8 8 8 8 8 8 8 8 8 8 8 8 8 8 8 8 8 8 8 8 8 8 8 8 8 8 8 8 8 8 8 8 8 8 8 8 8 8 8 8 8 8 8 8 8 8 8 8 8 8 8 8 8 8 8 8 g 0 7 7 7 8 7 7 8 8 8 8 8 8 8 8 8 8 8 8 8 8 8 8 8 8 8 8 8 v g ) 8 a x v 8 0 a 0 0 s g a 0 8 8 8 8 8 8 8 8 8 8 8 8 8 8 8 8 8 8 8 8 8 8 8 8 8 = 0 8 8 8 8 8 8 s 0 8 8 8 8 8 s 8 8 8 8 8 8 s 0 8 8 8 8 8 s 8 8 8 8 8 8 s x 8 8 y S 2 a a 7 f &._.4 X.@XX.2 0 8 8 a a 8 8 8 8 7 ` ` 7 8 8 8 8 a a = f ^ ^ g ",
"0 0 0 0 0 0 0 0 0 0 0 0 0 0 0 0 0 8 0 0 0 0 0 0 0 0 0 0 0 0 0 0 0 0 0 0 0 a 0 0 0 0 0 0 0 0 0 0 0 0 0 8 0 0 0 0 0 0 0 0 0 0 0 0 0 0 0 0 a 0 0 0 0 0 0 0 0 0 0 0 0 0 0 0 0 0 0 0 0 0 0 0 0 0 0 0 0 0 0 0 0 0 0 0 0 0 7 ` y._ x ] ,.x ` ] 8 0 0 0 0 0 0 0 0 0 0 0 0 0 0 0 0 0 0 a 1 w.Z.Q.y.V.C.C.Z.R.t.D.D.M.M.B.a 8 0 0 0 0 0 0 0 0 0 0 0 0 0 0 0 0 8 0 8 0 0 0 0 8 = 0 8 8 8 8 8 8 s 8 8 8 8 8 8 a 8 8 8 8 8 7 s 8 8 8 8 8 8 a 8 8 8 8 7 a v 8 8 2 y S 2 q 0 7 5 *.(.4 X.@XX.1 8 8 8 0 0 8 8 8 8 1 _ ` = a a 8 8 0 a = f ^ ^ g ",
"0 0 0 0 0 0 8 8 0 7 8 7 7 7 8 7 8 0 7 0 0 0 0 0 0 0 0 0 8 8 8 8 8 8 8 8 8 1 8 0 7 8 7 0 0 0 0 8 8 8 8 0 0 8 8 8 8 7 8 0 0 0 0 0 0 8 8 7 1 8 8 8 0 8 8 0 0 0 0 0 8 8 8 7 0 0 8 8 8 8 8 8 0 0 0 0 0 0 0 0 0 0 0 0 0 a 1 M.v w.B.R.w.R.Q.Q.a 8 0 0 0 0 0 0 0 0 0 0 0 0 0 0 0 0 0 0 7 ,.r.y.R.,.D.M.Z.V._ D.t.D.M.V.x 8 0 0 0 0 0 0 0 0 0 0 0 0 8 8 8 7 a 8 0 0 8 0 0 8 = 8 = = = = = = 0 1 = = = = = 8 = = = = = = 0 7 = = = = = 8 1 = = = 7 s 0 7 = = e S * 8 7 X 5 v.`.& H ;.H . 7 = = 7 7 = = = 1 X ) ) 8 ] ` 8 = 7 a = f ^ ^ g ",
"0 0 0 0 0 8 g M.) v g ) ] ] x v ` r.x 0 0 0 0 0 0 0 0 8 v Z._ x g B.v s x w.] x v x _ 8 0 0 8 M._ M.s w._ g v s g ` s 8 0 0 0 0 8 v r.] t.) x g y._ 0 8 0 0 0 8 8 B.r.s w.] g x v v x x 8 0 0 0 0 0 0 0 0 0 0 0 0 0 8 x y.] M.] a w._ w.8 0 0 0 0 0 0 0 0 0 0 0 0 0 0 0 0 0 0 0 8 a 7 ) w.a g s s s 8 s g s s x 0 0 0 0 0 0 0 0 0 0 0 0 0 8 ] _ ] x w.) M.a 8 0 0 8 = 8 = 1 1 1 1 = 0 7 1 1 1 1 1 8 1 1 1 1 1 = 0 7 1 1 1 1 1 8 7 1 1 1 g 7 8 7 1 = e S * 8 8 : 5 =XC & H ;.X.* 7 1 = 8 8 = 1 1 7 = ) ` g ,.] 8 = 8 a = f ^ ^ g ",
"0 0 0 0 a 1 t.` ] V.Z.V.D.C.y.M.C.C.B.0 8 0 0 0 0 0 0 7 ` hXC.hXZ.D.M.M.B.M.C.C.M.D.Z.x 8 0 8 R.R.D.B.hXD.Z.hXt.V.Z.r.7 0 0 0 a 1 y.hXV.Z.r.hXB.B.Q.7 0 0 0 0 8 0 Q.D.Q.R.R.Q.B.Q.V.hXV.7 0 0 0 0 0 8 8 8 0 0 0 0 0 8 8 8 8 7 7 8 7 8 8 8 8 0 0 0 0 0 0 8 0 0 0 0 0 0 8 8 8 0 0 0 0 0 0 8 8 8 8 8 8 0 8 8 8 7 7 8 8 8 8 8 0 0 0 0 0 0 0 0 8 C.R.R.M.D.V.Z.a 8 0 0 8 = 8 = 1 1 1 1 = 0 7 1 1 1 1 1 8 1 1 1 1 1 = 0 7 1 1 1 1 1 8 7 1 = s 0 = 0 7 = = e S * 8 7 : 5 -XD & H ;.H * 7 1 = 8 8 = 1 1 7 X ) _ X 7 8 7 = 7 a = f ^ ^ g ",
"0 0 0 0 0 8 v M.w.y.w.` t.y.x y.t.w.M.s 8 0 0 0 0 0 0 8 v w.y.y.t.M.y.V.t.w.y.t.y.w.,.x 8 0 8 w.M.t.Z.V.y.M.r.M.V.D.` 8 0 0 0 0 0 w.,.M.w.B.Z.y.t.y.a 8 0 0 0 8 a w.r.M.r.y.y.V.M.y.C.] 8 0 0 0 0 8 g v g 7 7 8 7 1 g 8 8 0 0 0 0 0 0 8 s v 8 7 7 7 7 7 0 8 0 0 0 0 8 s v v 8 7 7 7 1 a a 8 0 0 0 0 0 0 8 g B._ a a s 0 a 8 0 0 0 0 0 0 0 8 ,._ M.y.r.y.M.8 8 0 0 8 = 8 = 1 1 1 1 = 0 7 1 1 1 1 1 8 1 1 1 1 1 = 0 7 1 1 1 1 1 8 7 = 0 a = = 0 7 = = e S * 8 7 : 5 -XS & H ;.H * 7 1 = 8 8 = 1 1 7 X ) _ X 1 = 1 = 7 a = f ^ ^ g ",
"0 0 0 0 0 0 8 0 0 8 8 8 8 0 8 0 8 0 8 8 0 0 0 0 0 0 0 0 8 8 8 8 8 8 8 8 8 a 8 8 0 8 8 8 0 0 0 8 7 8 8 7 8 8 0 8 x _ 7 0 0 0 0 8 0 8 7 8 0 8 8 8 0 7 0 8 0 0 0 0 0 8 8 8 8 7 0 8 8 8 7 0 8 0 0 0 0 7 w.Z.Z.` ,.` w.] V.y.8 8 0 0 0 0 0 8 s D.w.` ,.] ` ` 8 0 0 0 0 0 8 x Z.Z.r.` ] ,.,.t.C.s 8 0 0 0 0 0 8 0 y.M.M.C.B.D.B.8 0 0 0 0 0 0 0 0 8 8 8 0 7 8 8 8 0 0 0 8 = 8 = 1 1 1 1 = 0 7 1 1 1 1 1 8 1 1 1 1 1 = 0 7 1 1 1 1 1 8 = 8 s = 1 = 0 7 = = e S * 8 7 = 5 -X, & H ;.H * 7 1 = 8 8 = 1 1 7 X ) _ X 7 1 1 = 7 a = f ^ ^ g ",
"0 0 0 0 0 8 0 8 8 0 0 0 0 0 0 0 0 0 0 0 0 0 0 0 0 0 0 0 0 0 0 8 0 0 0 0 0 8 0 0 0 0 0 0 0 0 0 0 0 0 0 0 0 0 8 0 8 8 0 8 0 0 0 0 8 0 0 0 0 0 0 0 8 0 8 0 0 0 0 0 0 0 0 0 8 0 8 0 0 0 0 8 0 0 0 0 0 7 v t.y.D.M.C.Q.C.Z.V.) 7 0 0 0 0 0 8 ) y.y.C.Z.B.jXM.7 0 0 0 0 0 0 8 r.t.V.D.t.hXC.D.V.r.7 a 0 0 0 0 7 ] C.t.B.t.w.R.r.8 0 0 0 0 0 0 0 0 0 0 0 0 0 0 0 0 0 0 0 8 = 8 = 1 1 1 1 = 0 7 1 1 1 1 1 8 1 1 1 1 1 = 0 7 1 1 1 1 1 8 7 g 7 1 7 = 0 7 1 = e S * 8 8 = 5 =X@ * H ;.X.* 7 1 = 8 8 = 1 1 7 X ) _ X 7 1 1 = 7 a = f ^ ^ g ",
"0 0 0 0 0 0 0 0 0 0 0 0 0 0 0 0 0 0 0 0 0 0 0 0 0 0 0 0 0 0 0 0 0 0 0 0 0 0 0 0 0 0 0 0 0 0 0 0 0 0 0 0 0 0 0 0 0 0 8 0 0 0 0 0 0 0 0 0 0 0 0 0 0 0 0 0 0 0 0 0 0 0 0 0 0 0 0 0 0 0 0 0 0 0 0 0 0 8 g ` v ] v ) ,.,.w.) g 8 0 0 0 0 0 7 ] y.,.w.) ) w.) 8 0 0 0 0 0 0 0 ` ) ) ] s w.` t.) v 8 0 0 0 0 0 8 a x s s 8 0 0 s 8 0 0 0 0 0 0 0 0 0 0 0 0 0 0 0 0 0 0 0 8 = 8 = = = = = = 0 1 = = = = = 8 = = = = = = 0 7 = = = = = 8 s 7 = = = = 8 7 = = e S * 8 7 X h =X+ * H ;.H . 7 = = 7 7 = = = 1 X ) ) X 1 1 = = 7 a = f ^ ^ g ",
"0 0 0 0 0 0 0 0 0 0 0 0 0 0 0 0 0 0 0 0 0 0 0 0 0 0 0 0 0 0 0 0 0 0 0 0 0 0 0 0 0 0 0 0 0 0 0 0 0 0 0 0 0 0 0 0 0 0 0 0 0 0 0 0 0 0 0 0 0 0 0 0 0 0 0 0 0 0 0 0 0 0 0 0 0 0 0 0 0 0 0 0 0 0 0 0 0 0 8 8 8 8 8 8 8 8 7 8 8 0 0 0 0 0 0 0 8 7 8 7 8 8 7 8 0 0 0 0 0 0 0 0 8 8 8 8 8 7 8 7 8 8 0 0 0 0 0 0 0 8 8 8 8 0 8 8 8 0 0 0 0 0 0 0 0 0 0 0 0 0 0 0 0 0 0 0 0 8 = 0 8 8 8 8 8 8 s 8 8 8 8 8 8 s 8 8 8 8 8 8 s 0 8 8 8 8 8 x s 8 8 8 8 8 s 0 8 8 y S 2 a 0 2 J v.7 2 X.@XX.2 8 8 8 a 0 8 8 8 8 7 ` ` 1 8 8 8 8 0 a = f ^ ^ g ",
"= = = = = = = = = = = = = = = = = = = = = = = = = = = = = = = = = = = = = = = = = = = = = = = = = = = = = = = = = = = = = = = = = = = = = = = = = = = = = = = = = = = = = = = = = = = = = = = = = = = = = = = = = = = = = = = = = = = = = = = : : = = = = = = = = = = = = = = = = = = = = = = = = = = = = = = = = = = = = = = = = = = = = = = = = = = = = = = = = = = 8 7 7 7 7 7 7 a 7 7 7 7 7 7 0 7 7 7 7 7 7 a 7 7 7 7 1 a x 1 7 7 7 7 7 a 8 7 1 r S 4 8 8 * K c.= 1 X.@XX.* 7 7 7 8 8 7 7 7 7 = _ _ 1 a s 7 7 8 a = f ^ ^ g ",
"8 8 8 8 8 8 8 8 8 8 8 8 8 8 8 8 8 8 8 8 8 8 8 8 8 8 8 8 8 8 8 8 8 8 2 2 2 2 8 8 8 8 8 8 8 8 8 8 8 8 8 2 4 2 7 8 8 8 8 8 8 8 8 8 8 8 8 8 2 2 2 7 8 8 8 8 8 8 8 8 8 8 8 8 8 > > > 8 8 8 8 8 8 8 8 8 8 8 8 8 7 4 4 2 8 8 8 8 8 8 8 8 8 8 8 8 8 2 4 4 2 8 8 8 8 8 8 1 = = = = = = = * * = = = = = = = = = = = = = = * * = = = = = = = 1 8 8 8 8 8 8 2 4 2 8 8 8 8 8 8 7 = 8 = 1 1 1 1 = 0 7 = 1 1 1 = 8 1 = 1 1 1 = 0 7 = 1 = 8 s 8 1 = 1 1 1 = 0 7 = = e S * 8 8 . P *.. * H ;.H . 7 1 = 7 7 = 1 1 1 X ) ) g ` ) 0 = 7 a = f ^ ^ g ",
"4 4 4 4 4 4 4 4 4 4 4 4 4 8 0 8 8 8 8 8 0 8 8 8 8 8 0 0 0 0 0 0 0 3 y S D y 3 0 0 0 0 0 0 0 0 0 0 0 3 G U S q 3 0 0 0 0 0 0 0 0 0 0 0 8 j G G 0 8 0 0 0 0 0 0 0 0 0 0 8 0 T T T 8 8 0 0 0 0 0 0 0 0 0 a 2 s %.:...2 8 0 0 0 0 0 0 0 0 0 0 3 y U U G 3 0 0 0 0 0 7 = = = = = = 9 z q 1 = 1 = = = = = = = = 1 = 7 b b q = = = = = = 8 0 0 0 0 0 p t D S q p 0 0 0 0 8 = 8 = 1 1 1 1 = 0 7 1 1 1 1 1 8 1 1 1 1 1 = 0 7 1 = 7 g 1 8 7 1 1 1 1 = 0 7 1 = e S * 8 8 * ^.*.. * H ;.H * 7 1 = 8 8 = 1 1 7 X ) ` s ` ) 8 = 7 a = f ^ ^ g ",
"P P P P P P P P P P P P P j a s s s s s 0 s s s s s 0 8 8 8 8 0 3 D N M B N D 3 0 8 8 8 8 8 8 0 0 3 (._.N B N S 3 0 8 8 8 8 8 8 0 8 0 X.H G H :.z 8 0 8 8 8 8 8 8 0 8 n 7.7.T 7.7.a 8 0 8 8 8 8 8 8 0 2 ..2X@X;.%X%X8 8 0 8 8 8 8 8 8 0 2 U _.(.(._.(.8 0 0 8 0 7 = = = = 1 b j y j J 8 = = = = = = = = 1 = z q.J J q.J = = = = = 8 0 8 8 8 8 A B M B N t 8 0 8 0 8 = 8 = 1 1 1 1 = 0 7 1 1 1 1 1 8 1 1 1 1 1 = 0 7 = 1 s 8 = 8 7 1 1 1 1 = 0 7 = = e S * 8 8 . /.*.. * H ;.H * 7 1 = 8 8 = 1 1 7 X ) ) X 7 7 1 = 7 a = f ^ ^ g ",
"3X#X:X:X3X3X3X:X3X#X#X#X3X^.5 v s g s v s v s s s v s 8 0 0 0 3 S N : * * = N S 3 0 0 0 0 0 0 0 4 U ).O N.] + N t 8 0 0 0 0 0 0 0 8 H G * . . , :.q 8 0 0 0 0 0 0 8 8 7.T o o o T 7.8 0 0 0 0 0 0 0 8 z 2Xj O   O ;.@X2 0 0 0 0 0 0 0 3 G _.> & O . ).D 3 0 8 0 7 = = = = b y     O : J 1 = = = = = = = = q q.: O O O K J * 1 = = 8 0 8 0 3 A B * * & , N 9 8 0 0 8 = 8 = 1 1 1 1 = 0 7 1 1 1 1 1 8 1 1 1 1 1 = 0 7 = s 0 = 1 8 7 1 1 1 1 = 0 7 = = e S * 8 7 *  X&.. * H ;.H * 7 1 = 8 8 = 1 1 7 X ) _ X 7 1 1 = 7 a = f ^ ^ g ",
"#X(./.).$X$X)./.).#X/.(.$X^.5 0 ) ) 7 x s s ) t.v s s 8 0 0 0 3 A , * X = * , A 8 0 0 0 0 0 0 8 q _.e O hXt.O M A 3 0 0 0 0 0 0 8 z X.  O = = . G G 3 0 0 0 0 0 0 9 T 7.o = = x z 7.T 8 0 0 0 0 0 0 4 ;.:.O = 7 ] x %Xz 8 0 0 0 0 0 0 4 ).D & X &.PXr B 0 0 8 0 7 = = = 8 J   . . = * j z = = = = = = 1 * J y O . = f 8 @.1 = = = 8 0 0 8 r N = = X = & M D 3 0 0 8 = 8 = 1 1 1 1 = 0 7 1 1 1 1 1 8 1 1 1 1 1 = 0 1 0 s = 1 1 8 7 1 1 1 1 = 0 7 = = e S * 8 9 M (.&.X * H ;.H * 7 1 = 8 8 = 1 1 7 X ) _ X 7 1 1 = 7 a = f ^ ^ g ",
"#X^.$X#X#X).).$X#X3X#X^.#X^.5 a ) ] 8 x s s ) V.v s s 8 0 0 0 0 N > . a = = : N 9 8 0 0 0 0 0 8 j _.= = = = * , A 3 0 0 0 0 0 0 8 l Z ] jXs X * t H 2 0 0 0 0 0 0 > 7.T o = 1 jXF.6 T 9 0 0 0 0 0 0 4 @XH . X g PX1.Z l 8 0 0 0 0 0 0 3 ).t *   ] 1.X N 9 8 0 0 7 = = = q j   .   N.N.: q = = = = = = 1 * q.w     f gXf r 7 = = = 8 0 0 3 t B * = a = * M A 3 0 0 8 = 8 = 1 1 1 1 = 0 7 1 1 1 1 1 8 1 1 1 1 1 = 8 0 s = 1 1 1 8 7 1 1 1 1 = 0 7 1 = e S * 8 9 `.'.*.+ * H ;.H * 7 1 = 8 8 = 1 1 7 X ) _ X 7 1 1 = 7 a = f ^ ^ g ",
"#X(./././././././././.(.#X^.5 s a a 8 x s g 8 a 8 g s 8 0 0 0 3 A # ^ PX7 * , A 8 0 0 0 0 0 0 8 0 _., * = = & M A 3 0 0 0 0 0 0 8 k @X` y.= = . G G 3 0 0 0 0 0 0 9 T 7.o = = X o T 6 8 0 0 0 0 0 0 4 ;.:.O = =   . X.q 8 0 0 0 0 0 0 4 /.D & =   O > N 8 0 8 0 7 = = = 8 J     . * * : 7 = = = = = = 1 * J j O .   O   y = = = = 8 0 0 8 r N O D.hXo & M D 3 0 0 8 = 8 = 1 1 1 1 = 0 7 = 1 1 1 = 8 1 1 1 1 1 = a x 1 = 1 1 = 8 1 = 1 1 1 = 0 7 = = e S * 8 8 D (.} X * H ;.H . 7 1 = 8 7 = 1 1 1 X ) _ X 7 1 1 = 7 a = f ^ ^ g ",
"3X:X:X:X:X:X:X:X:X:X:X:X3XI 5 v g g x x a v g g g v a 8 0 0 0 3 S N ..1.  : N S 3 0 0 0 0 0 0 0 4 U _.= = * > N t 8 0 0 0 0 0 0 0 2 %X;.O = * , :.0 8 0 0 0 0 0 0 0 8 7.T X = = 6 T 8 0 0 0 0 0 0 0 8 z 2XG . = = H H 3 0 0 0 0 0 0 0 3 G '., * = = N S 3 0 8 0 7 = = = = b y       X w = = = = = = = = = 9 q.7     . r 9 = = = = 8 0 8 0 3 A B w.g   , N 9 8 0 0 8 = a 0 a 0 0 a 0 g a 0 0 0 0 0 s a 0 0 a 0 0 v s 0 a 0 a 0 s a 0 0 0 a 0 s a 0 a j L 3 s 5 F |.{ 9 3 X.@X%.2 a a 0 s s 0 a 0 a 8 ` ] 7 0 8 0 0 s a = f ^ ^ g ",
"z j j j j j j j j j j j j s a s s s s a a a s s s a 0 0 0 0 0 0 3 U D * 2 t D 3 0 0 0 0 0 0 0 0 0 3 (.S 2 2 S S 3 0 0 0 0 0 0 0 0 8 a ;.s 1 2 G z 8 0 0 0 0 0 0 0 0 8 c 7.7 7 8 T 0 8 0 0 0 0 0 0 0 0 2 X.:.1 7 9 H 0 8 0 0 0 0 0 0 0 0 4 U F 4 2 t D 8 0 0 8 0 7 = = = = 7 j = * = w 7 = = = = = = = = 1 * j b * = 7 q = = = = = 8 0 8 0 0 8 U , = 2 Z t 3 0 0 0 8 = 8 1 7 1 1 7 1 0 7 1 1 1 1 1 8 7 1 1 7 = s g 7 1 1 1 7 1 8 7 1 1 1 7 = 0 7 1 1 e S * 9 4 V ^.| + * H @XX.* 7 7 1 8 8 1 7 1 7 = ) ) 7 v g 7 = 8 a = f ^ ^ g ",
"x g g g g g g s s a s s s s s s s s g x x x x x g v a 8 0 0 0 0 0 3 8 a 0 a 3 0 0 0 0 0 0 0 0 0 0 0 3 0 a 0 8 8 0 0 0 0 0 0 0 0 0 0 8 2 0 0 0 8 8 0 0 0 0 0 0 0 0 0 0 8 9 a 0 0 8 8 0 0 0 0 0 0 0 0 0 0 2 2 a 0 0 8 8 0 0 0 0 0 0 0 0 0 0 3 3 a 0 a 3 0 0 0 0 0 7 = = = = = = 1 1 1 = = = 1 1 = = = = = = 1 = = 1 1 1 = = = 1 = = 8 0 8 8 0 0 3 a a 0 8 8 0 0 0 0 8 = 8 = 1 1 1 1 = 0 7 1 1 1 1 1 8 1 1 1 = 0 a 8 7 = 1 1 1 = 8 1 1 1 1 1 = 0 7 = = e S * 9 4 C I | + * H ;.H * 7 1 = 8 8 = 1 1 7 X ) ` 7 v v 8 = 7 a = f ^ ^ g ",
"s 8 8 8 8 8 0 x ) ] ` ] ] ] ` ] _ ] x 8 8 8 8 8 8 g s 8 0 0 8 7 7 8 0 7 8 7 0 0 8 7 8 0 0 0 0 8 7 0 8 8 7 8 0 8 7 7 0 0 0 0 0 8 7 0 7 8 8 8 8 0 0 0 0 0 0 0 0 0 0 8 8 8 8 7 8 0 0 0 0 0 0 0 0 0 0 8 7 8 8 0 7 8 7 0 0 8 7 8 0 0 0 0 8 8 8 8 0 7 8 8 0 0 8 7 8 0 7 = = = = = = = = = = 1 = = = = = = = = = = = 1 = = = = = = = = = 8 0 8 0 8 8 0 7 0 0 0 0 0 0 0 0 8 = 8 = 1 1 1 1 = 0 7 1 1 1 1 1 8 1 1 = 8 s = 0 7 1 1 1 1 1 8 7 1 1 1 1 = 0 7 = = e S * 9 4 (.P | + * H ;.H * 7 1 = 8 8 = 1 1 7 X ) ` 8 s v 7 = 7 a = f ^ ^ g ",
"s 8 0 0 0 0 0 t.t.t.1.1.t.n.n.1.r.w.] 8 0 0 0 0 8 g s 8 0 8 g ] ` v 8 _ x ) 7 0 _ _ g 8 0 0 8 0 ` 8 v x ) s 7 v _ ) 8 0 0 0 8 g ) 8 _ x ) g g 8 7 8 7 8 0 8 0 0 8 g g v x _ 8 7 7 8 7 0 0 0 0 0 8 0 _ v ) 8 ) x _ 0 7 ) _ v 8 0 0 8 a v g v a _ x v 8 8 _ _ g 8 7 = = 8 8 a 1 1 a s 8 * 0 s s 1 = = = = a 0 a = 8 a a = = s s 8 = 8 0 0 8 ) x a _ 8 7 7 8 7 0 0 0 8 = 8 = 1 1 1 1 = 0 7 1 1 1 1 1 8 1 = 7 s 7 = 0 7 1 1 1 1 1 8 7 1 1 1 1 = 0 7 = = e S * 8 4 (.H | + * H ;.H * 7 1 = 8 8 = 1 1 7 X ) ) X 1 1 1 = 7 a = f ^ ^ g ",
"s 8 8 8 8 8 8 s s s v s ) x v ) ) v x 8 8 8 8 8 8 g s 8 8 a s V.w.y.) V.D.M.x y.D.R.y.7 0 0 7 ` C._ t.D.C.] _ D.Z.D.s 8 0 0 8 r.B.) B.D.y.V.] g C.M.,.r.8 0 0 0 7 ,.V.y.D.V.) r.V.w.t.v 8 0 0 8 a 0 r.w.M.s r.R.B.) ,.D.D.C.8 0 8 a x B.M.D.7 r.R.C.v y.D.R.y.7 7 = = ) ] w.x ` ] _ _ 8 w.w.t.a = = 1 8 1.s 1.8 t.g w.8 _ r.t.] = 8 0 8 a B.r.] C.v t.V.w.t.v 8 0 8 = 8 = 1 1 1 1 = 0 7 1 1 1 1 1 8 1 = s 8 = = 0 7 1 1 1 1 1 8 7 1 1 1 1 = 0 7 = = e S * 8 7 _.j { + * H ;.H * 7 1 = 8 8 = 1 1 7 X ) _ X 7 1 1 = 7 a = f ^ ^ g ",
"x s s s s s s s s s a s a s a a a a s s s s s s s v s 8 8 ) _ w.w.t.,.B.R.y.] C.C.R.y.7 0 0 7 ` V.t.t.R.C.,.y.C.D.R.x 8 0 0 8 r.B.r.M.R.y.t.` _ C.M.y.C.s 8 0 0 8 x M.y.R.B.] M.B.y.V.w.7 0 0 8 x ` M.w.M.x w.Q.M.] M.C.D.Z.a 0 8 ) v w.B.R.) M.w.D.` V.C.R.M.8 7 1 s s ) 1.] ] 1.] _ ) w.w.t.s = = a a ) s 1.) r.` 1.g 1.1.t.1.= 8 0 8 s M.M.r.B.` M.B.y.C.,.7 a 8 = 8 = 1 1 1 1 = 0 7 1 1 1 1 1 8 = s 0 = 7 = 0 7 1 1 1 1 1 8 7 1 1 1 1 = 0 7 1 = e S * 8 9 _.h { + * H ;.H * 7 1 = 8 8 = 1 1 7 X ) _ X 7 1 1 = 7 a = f ^ ^ g ",
"s s s s s s s s s s s s s s s s s s s s s s s s s s 0 8 0 8 s x ] ,.v ] ) ] 8 ] _ ,.v 8 0 0 8 a ,.v ` ) ] s v ] _ ] 0 8 0 0 8 x ] x ] v ] s s s v x v ] a 8 0 0 8 s g ` v ] a x x x ` v 8 0 8 0 8 s w.,.w.) ] v ] 8 _ ` ] ` 8 0 0 8 8 x ) ` ` w.) ) 8 ] _ ] v 8 7 = = 8 8 s a a g g 8 8 x s x 1 = = = = 8 s g a s g g = g g g s = 8 0 0 8 _ ` v ] a x x x ` x 8 0 8 = 8 = 1 1 1 1 = 0 7 = 1 1 1 1 8 0 a = 1 1 = 0 7 = 1 1 1 = 8 1 1 1 1 1 = 0 7 = = e S * 2 u _.p { X * H ;.H * 7 1 = 8 7 = 1 1 7 X ) _ X 7 1 1 = 7 a = f ^ ^ g ",
"8 8 8 8 8 8 8 8 8 8 8 8 8 8 8 8 8 8 8 8 8 8 8 8 8 8 0 0 0 a 8 8 7 7 8 7 8 7 0 7 8 7 8 0 0 0 0 0 7 8 8 8 7 8 8 7 8 7 0 0 0 0 0 8 7 8 7 8 7 8 8 8 8 8 8 7 0 0 0 0 0 8 8 7 8 7 0 8 8 8 8 8 0 0 0 0 0 8 7 7 7 8 7 8 7 0 8 7 7 8 0 0 0 0 0 8 8 7 8 7 8 8 0 7 8 7 8 a 7 = 1 = = = = = = = = = = = = = = = = 1 = = = = = = = = = = = = = 8 0 0 0 8 8 8 7 0 8 8 8 8 8 0 0 8 = 8 1 7 7 7 7 1 a 7 1 7 7 7 = s s 1 7 7 7 1 0 7 1 7 7 7 1 0 7 7 7 7 7 1 0 7 7 1 e S = 2 S (.5 { + * H @XX.* 7 7 1 8 8 1 7 7 7 = ) _ = 7 7 7 1 8 a = f ^ ^ g ",
"8 8 8 8 8 8 8 8 8 8 8 8 8 8 8 8 8 8 8 8 8 8 8 8 8 8 8 8 8 8 8 8 8 8 8 8 8 8 8 8 8 8 8 8 8 8 8 8 8 8 8 8 8 8 8 8 8 8 8 8 8 8 8 8 8 8 8 8 8 8 8 8 8 8 8 8 8 8 8 8 8 8 8 8 8 8 8 8 8 8 8 8 8 8 8 8 8 8 8 8 8 8 8 8 8 8 8 8 8 8 8 8 8 8 8 8 8 8 8 8 8 8 8 8 8 8 8 8 1 = = = = = = = = = = = = = = = = = = = = = = = = = = = = = = = = 7 8 8 8 8 8 8 8 8 8 8 8 8 8 8 8 7 = 0 8 8 8 8 8 8 s 0 8 8 8 8 0 v 8 8 8 8 8 8 s 0 8 8 8 8 8 s 8 8 8 8 8 8 s 0 8 8 y S 2 3 U (.5 { 7 2 X.@XX.2 0 8 8 a a 8 8 8 0 7 ` ] 7 8 8 8 8 0 a = f ^ ^ g ",
"= = = = = = = = = = = = = = = = = = = = = = = = = = = = = = = = = = = = = = = = = = = = = = = = = = = = = = = = = = = = = = = = = = = = = = = = = = = = = = = = = = = = = = = = = = = = = = = = = = = = = = = = = = = = = = = = = = = = = = = = = = = = = = = = = = = = = = = = = = = = = = = = = = = = = = = = = = = = = = = = = = = = = = = = = = = = = = = = = = = 8 = 1 = = 1 = 0 7 = = = = s a = 1 = = 1 = 0 7 = = = 1 = 8 1 = = = 1 = 0 7 = = e S = 4 U C 5 { X * H ;.H . 7 1 = 7 7 = 1 = 1 X ) v 8 x s 7 = 7 a = f ^ ^ g ",
"0 0 0 0 0 0 0 0 0 0 0 0 0 0 0 0 0 0 0 0 0 0 0 0 0 0 0 0 0 0 0 0 0 0 3 3 8 3 0 0 0 0 0 0 0 0 0 0 0 0 8 4 3 3 3 0 0 0 0 0 0 0 0 0 0 0 0 8 4 2 2 2 0 0 0 0 0 0 0 0 0 0 0 0 8 > 8 > 8 0 0 0 0 0 0 0 0 0 0 0 0 2 2 2 4 8 0 0 0 0 0 0 0 0 0 0 0 0 4 3 3 4 8 0 0 0 0 0 7 = = = = = = = = = = = = = = = = = = = = = = * * = * = = = = = = 8 0 0 0 0 0 8 3 8 3 3 0 0 0 0 0 8 = 8 = 1 1 1 1 = 0 7 1 1 = s 0 8 7 1 1 1 1 = 0 7 1 1 1 1 1 8 7 1 1 1 1 = 0 7 1 = e S = 4 (.V 5 { X * H ;.X.* 7 1 = 8 8 = 1 1 7 = ) ` v w.w.8 = 8 a = f ^ ^ g ",
"8 8 0 8 0 8 8 8 8 8 8 8 8 8 8 8 8 8 8 8 8 8 8 8 8 8 8 0 0 0 0 0 8 8 D A A D 0 8 0 0 0 0 0 0 0 0 0 3 q (./.A D 8 0 0 0 0 0 0 0 0 8 0 2 l @X%X%X%.2 0 0 0 0 0 0 0 0 0 0 8 T 7.7.7.6 9 0 0 0 0 0 0 0 0 0 0 2 %.%X%X@Xk 2 0 8 0 0 0 0 0 0 0 8 8 U ).).(.q 3 0 0 8 0 7 = = = = = 8 j J b q = = = = = = = = = = = = b q.q.J 7 = = = = = 8 0 8 0 0 8 r A A A S 3 0 0 0 0 8 = 8 = 1 1 1 1 = 0 7 1 = 0 s = 8 1 1 1 1 1 = 0 7 1 1 1 1 1 8 7 1 1 1 1 = 0 7 = = e S = 4 ).S 5 { X * H ;.H * 7 1 = 8 8 = 1 1 7 X ) _ 8 g s 8 = 7 a = f ^ ^ g ",
"v g s g s x s g g s g x v s s v g g x g a v g g g x a 8 0 0 0 8 q N M # , B N 9 8 0 0 0 0 0 0 0 8 y _.U G , B A 8 0 0 0 0 0 0 0 0 2 G 2XX.t G %X;.2 0 0 0 0 0 0 0 0 8 T 7.T 6 T 7.T 8 0 0 0 0 0 0 0 0 2 ;.%XG j :.2XG 2 0 0 0 0 0 0 0 8 8 )./.S S (._.y 8 0 8 0 7 = = = = 9 J 9 : w J z = = = = = = = = = = J K w w J q.8 = = = = 8 0 8 0 8 t N M , # N Z 3 0 0 0 8 = 8 = 1 1 1 1 = 0 7 = 8 s = 1 8 1 1 1 1 1 = 0 7 1 1 1 1 1 8 7 1 1 1 1 = 0 7 = = e S * 8 ).t 5 { X * H ;.H * 7 1 = 8 8 = 1 1 7 X ) ) X = = 1 = 7 a = f ^ ^ g ",
"s x ) x v s ) v x ) x a s g g s g g 0 x s g s x s g s 8 0 0 0 4 ^.(.4.g . & M Z 3 0 0 0 0 0 0 0 4 ).U O jXn.O A S 3 0 0 0 0 0 0 8 8 2XG O . O 8 %Xl 2 0 0 0 0 0 0 8 n 7.4 o = O m 7.a 8 0 0 0 0 0 0 2 X.%X. .   O G 1X8 0 0 0 0 0 0 0 4 U /.& * * & U /.4 0 8 0 7 = = = = J : O     . J 8 = = = = = = 1 * b K O     O j K * 1 = = 8 0 8 0 8 N # & = * * N t 8 0 0 8 = 8 = 1 1 1 1 = 0 7 7 g 7 = 1 8 1 1 1 1 1 = 0 7 1 1 1 1 1 8 7 1 1 1 1 = 0 7 = = e S * 9 _.: p { X * H ;.H * 7 1 = 8 8 = 1 1 7 X ) _ X 7 1 1 = 7 a = f ^ ^ g ",
"0 w.n.w.w.n.w.` ] w.F.) 0 g g 0 _ ` 8 x s s _ C.) s s 8 0 0 0 8 _.# C.hX  = > N 0 0 0 0 0 0 0 8 y _.:   y._   , A 3 0 0 0 0 0 0 2 ..%X. = X jXhX, H 2 0 0 0 0 0 0 > T 7.o = = E.n.T T 9 0 0 0 0 0 0 4 @XX.& = s PXr.P z 8 0 0 0 0 0 0 3 ).S * = =   : _.q 8 0 0 7 = = = 9 j   . . = O r z = = = = = = 1 * @.9   . . O   q.7 = = = 8 0 0 8 t B * X   = * M Z 3 0 0 8 = 8 = 1 1 1 1 = 0 7 s 8 = 1 1 8 1 1 1 1 1 = 0 7 1 1 1 1 1 8 7 1 1 1 1 = 0 7 1 = e S * u _.= p { X * H ;.X.* 7 1 = 8 8 = 1 1 7 X ) _ X 7 1 1 = 7 a = f ^ ^ g ",
"a v ] _ 1.` v s ) ` ] ) 0 g g a x _ 8 x s s g w.s s s 8 0 0 0 8 _.,   = = = : N 0 8 0 0 0 0 0 8 y _.= =   X * , A 3 0 0 0 0 0 0 2 X.%X. = = ) 1 S H 2 0 0 0 0 0 0 > T T o = = D.&.6 6 9 0 0 0 0 0 0 4 @XX.. = a r.2 H z 8 0 0 0 0 0 0 3 ).t *   M.jXw _.q 8 0 0 7 = = = 9 j   .   F.2.w j * = = = = = 1 * q.w   O [ F.= q.8 = = = 8 0 0 8 t A . g t.X * M A 3 0 0 8 = 8 = = = = = = 8 s 8 = 1 = = 8 = = = = = = 0 7 = = = = = 8 1 = = = = = 0 7 = = e S & D (.. p { X * H ;.H . 7 = = 7 7 = = = 1 X ) ) X 1 = = = 7 a = f ^ ^ g ",
"g 8 0 0 0 8 0 a 0 0 8 8 s g g s a 0 a x s x 0 8 0 x s 8 0 0 0 4 /.U & = = & M A 3 0 0 0 0 0 0 0 3 _.D & = = & B D 3 0 0 0 0 0 0 8 s 2X9 . =   . H j 8 0 0 0 0 0 0 8 6 7.= = = O   T 0 8 0 0 0 0 0 0 2 %.%X  = = O > :.0 8 0 0 0 0 0 0 4 (.(.& = 8 n.F (.3 0 8 0 7 = = = 7 J =     1 f e 9 = = = = = = 1 * J J O . * [ z J = = = = 8 0 8 8 0 N o gXE.O * B S 3 0 0 8 = 8 7 7 7 7 8 7 s g 7 7 7 7 7 a 7 7 7 7 7 7 a 8 7 7 7 7 7 a 8 7 7 7 7 7 a 8 7 2 r S & U (.* f { 7 4 X.@XX.1 8 7 7 8 8 7 7 7 8 = _ ` = 8 7 7 7 8 a = f ^ ^ g ",
"x g g g g g g g g g x g x a a x g g g s 0 g g g g g a 8 0 0 0 8 y '.S * = , N r 8 0 0 0 0 0 0 0 3 G '.e * * M N 0 8 0 0 0 0 0 0 0 2 =.%X= = * G X.8 0 0 0 0 0 0 0 0 > 7.7.= = = T T 9 0 0 0 0 0 0 0 0 8 1X:.. = : X.G 8 0 0 0 0 0 0 0 8 q '.D * * + N r 8 0 8 0 7 = = = = z J . .   + w = = = = = = = = = = q.y     o u 8 = = = = 8 0 8 0 3 S `.z * * M A 8 0 0 0 8 = 0 8 0 0 0 8 s v 8 0 0 0 0 8 s 0 0 0 0 0 8 s 0 8 0 0 0 8 s 0 8 0 0 0 8 s a 8 8 y D 4 (.U 4 g { w 2 X.@XX.2 0 0 8 a a 8 0 0 0 7 ` ] 7 0 0 0 8 a a = f ^ ^ ^ ",
"s s s s s s s s s s s s s s s s s s s s s s s s s s 0 8 0 0 0 0 3 j S 2 8 r r 8 0 0 0 0 0 0 0 0 0 3 G y 8 8 t 9 8 0 0 0 0 0 0 0 0 0 2 ..s 8 8 j 0 8 0 0 0 0 0 0 0 0 8 8 T 8 8 8 6 8 0 0 0 0 0 0 0 0 0 8 s G 8 8 q z 8 0 0 0 0 0 0 0 0 0 3 j G 2 8 y t 8 0 0 8 0 7 = = = = = 9 1 = = 7 = = = = = = = = = = = 8 q = = 7 7 = = = = = 8 0 8 0 0 3 G 9 8 8 t 9 8 0 0 0 8 = 8 = = = = 7 s a 1 = = = = = 8 = = = = = = 0 7 = = = = = 8 = = = = = = 8 7 = = e S & (.D . p { X * H ;.H . : = = 7 7 = = = 1 X ) v 0 _ v 1 = 7 a = a f a a ",
"x s s s s s s s s s x v x g g x x g g s s s s s s v s 8 0 0 0 0 0 8 3 a 0 0 8 0 0 0 0 0 0 0 0 0 0 0 3 8 a 0 8 0 0 0 0 0 0 0 0 0 0 0 a 2 0 a 0 8 0 0 0 0 0 0 0 0 8 0 0 0 9 0 0 0 0 0 0 0 0 0 0 0 0 0 0 0 0 2 a a 0 8 0 0 0 0 0 0 0 0 8 0 0 8 3 0 0 8 8 0 0 0 8 0 7 = = 1 = 1 = = 1 1 = = = = 1 = = = = = = 1 = = 1 1 = = = 1 1 = = 8 0 8 0 0 0 3 a 0 0 8 0 0 0 8 0 8 = 8 = 1 1 1 g 7 0 7 1 1 1 1 1 8 1 1 1 1 1 = 0 7 1 1 1 1 1 8 7 1 1 1 7 = 0 7 1 1 e S * _.u * p { + * H ;.X.* 7 1 = 8 8 = 1 1 7 = ) ] a w.] 8 = 8 a = 8 8 f g ",
"s 8 8 8 8 8 8 ] 1.y.] w.w.t.w.1.] 1.) 7 8 8 8 8 8 g s 8 0 0 8 7 8 7 8 7 7 7 0 8 8 7 8 0 8 0 0 8 7 8 8 7 7 8 8 8 8 7 8 0 0 0 0 0 8 7 7 8 8 7 8 8 8 8 8 8 0 0 0 8 0 8 7 8 7 7 8 8 8 8 8 8 0 0 0 8 0 0 8 8 7 0 7 7 7 8 8 8 8 7 8 0 0 8 0 8 8 0 7 7 7 8 8 8 8 8 8 0 7 = 1 = = = = = = = = = = = = = = = = 1 = = 1 = = = = = = = = = = 8 0 8 0 7 8 8 7 8 8 8 8 8 8 0 0 8 = 8 = 1 = s 0 = a 7 1 1 1 1 1 8 1 1 1 1 1 = 0 7 1 1 1 1 1 8 7 1 1 1 1 = 0 7 = = e S 7 _.w = p { X * H ;.H * 7 1 = 8 8 = 1 1 7 X ) _ 1 a a 7 = 7 a = a { 5.{ ",
"s 8 0 0 0 0 0 1.] ] 1.] w.w.t.] r.1.] 8 0 0 0 0 8 g s 8 0 7 g y.x ,.s y.w.r.7 v y.y.` 8 0 0 8 g M.a w.w.y.v 8 r.y.t.a 8 0 0 0 8 ] w.y.x ` t.8 x x a g a 8 0 0 0 7 ` ] w.w.y.a s v s s s 8 0 0 0 8 8 y.v w.a r.w.y.a s y.y.w.8 0 0 0 7 x w.8 t.,.y.a s y.y.w.8 0 7 = * x g ) a g ) _ s = ) ` ` 7 = = 1 = 8 ) = ) ) ` 8 1 _ ` ) = = 8 0 0 8 r.` g y.a s v s s s 8 0 8 = 8 1 = 0 s = 1 0 7 1 1 1 1 1 8 1 1 1 1 1 = 0 7 1 1 1 1 1 8 7 1 1 1 1 = 0 7 = = e S t _.2 = p { X * H ;.H * 7 1 = 8 8 = 1 1 7 X ) ) . = = = = 7 a = a { 4.^ ",
"s 8 8 8 8 8 8 8 8 0 s 0 s 0 a s s s a 8 8 8 8 8 8 g s 8 8 v g r.Z.Z._ B.Q.y.] V.D.E.y.7 0 0 7 ] B.w.w.E.V.,.w.D.D.R.g 8 0 0 0 8 s D.M.w.r.M.` D.D.y.V.s 8 0 0 0 7 _ C.r.Q.M.] B.R.M.V._ 7 0 0 8 g x ] V.Q.) y.Q.M.] y.D.R.Z.0 8 0 8 g B.C.) y.Q.M.] y.D.R.Z.0 0 7 1 p ) v g x ) r.w.) x r.r.y.s = 1 = 8 ] w.s _ y.] x _ r.t.r.1 = 8 0 8 s M.r.w.B.` V.R.y.V.) 8 0 8 = 8 = 8 s = 1 = 0 7 1 1 1 1 1 8 1 1 1 1 1 = 0 7 1 1 1 1 1 8 7 1 1 1 1 = 0 7 = = e t D (.4 : p { X * H ;.H * 7 1 = 8 8 = 1 1 7 X ) _ 7 7 8 s = 7 a = 8 7 8 8 ",
"v x x x x x x x x x g x g x x g g g x x x x x x x v a 8 8 s w.C.r.D.w.B.B.M.v B.M.Z.t.8 0 0 8 v C.w.y.B.V.` w.V.B.C.s 8 0 0 0 7 M.y.M.t.t.M.v r.w.w.B.) 8 0 0 0 8 g w.y.B.B.) w.w.w.M.w.7 0 0 8 s _ Z.r.D.r.M.B.V.v y.B.C.B.0 8 0 8 g w.C.w.M.B.V.v y.B.C.B.0 0 7 = 8 a ) w.x _ 1.1.x x 1.] w.a = 1 = 8 x 1.) ] ] 1.a _ 1.1.1.1 = 8 0 8 0 M.M.w.V.v r.w.w.M.,.7 a 8 = 8 7 g 7 = 1 = 0 7 1 1 1 1 1 8 1 1 1 1 1 = 0 7 1 1 1 1 1 8 7 1 1 1 1 = 0 7 1 = e t U U 4 : p { X * H ;.H * 7 1 = 8 8 = 1 1 7 = v w.) ) ` v = 8 a = 8 { 4.{ ",
"0 a a a a a a a a a a a a a a a a a a a a a a a a 0 8 8 0 8 a x 7 8 a s 0 s 8 s a s 0 8 8 8 0 8 s 0 s 0 s 8 0 s a s 8 0 8 8 8 8 s s s a a a 8 0 0 a s 8 8 8 8 8 8 0 8 s 0 s 8 0 0 0 s 0 8 8 8 0 8 8 x 8 7 a s 8 s 8 a a s a 8 0 8 0 8 8 s 0 s 8 s 8 a a s a 8 0 7 = = = 1 8 8 1 1 1 1 = 8 1 8 = = = = = = 7 = 7 = 7 = 1 7 7 7 = = 8 0 0 8 a a a s 8 0 0 0 s 0 8 0 8 = 8 s 8 = 1 1 = 0 7 = 1 = 1 = 8 1 = = = 1 = 0 7 = 1 = 1 = 8 1 = = = 1 = 0 7 = = e t (.F 4 X p { X * H @XX.. 7 1 = 7 7 = 1 = 1 X ) ] 0 s g 0 = 7 a = f 4.4.{ ",
"0 0 0 0 0 0 0 0 0 0 0 0 0 0 0 0 0 0 0 0 0 0 0 0 0 0 0 0 0 a 0 8 a 0 0 8 0 8 a 8 0 8 0 0 0 0 0 0 8 0 8 0 8 0 0 8 0 8 0 0 0 0 0 0 8 8 8 0 0 0 0 0 0 0 8 0 0 0 0 0 0 0 0 8 0 8 0 0 0 0 8 0 0 0 0 0 0 0 8 0 a 0 8 0 8 a 0 0 8 0 0 0 0 0 a 0 8 0 8 0 8 a 0 0 8 0 0 a 7 = 1 = = = = = = = = = = = = 1 = = = 1 1 = = = = = 1 = = = = 1 = 8 a 0 0 0 0 0 8 0 0 0 0 8 0 0 0 8 = g a 7 7 7 7 7 a 7 7 7 7 7 7 0 7 7 7 7 7 7 a 8 7 7 7 7 7 0 7 7 7 7 7 7 0 8 7 1 w S _.y 8 7 p { 7 1 G :.G 1 7 7 7 8 8 7 7 7 7 = v v = 7 1 7 7 8 s = 8 a f s ",
"1 1 1 1 1 1 1 1 1 1 1 1 1 1 1 = 1 1 1 1 1 1 1 1 1 1 = = = = 1 1 1 1 1 1 1 1 = 1 1 1 1 = = = = 1 1 1 1 1 1 1 1 1 1 1 = = = = = = 1 1 1 1 1 1 = 1 1 1 1 1 = = = = = 1 1 1 1 1 1 1 1 1 1 1 = = = = = 1 1 1 1 1 1 1 1 = 1 1 1 1 = = = = = 1 1 1 1 1 1 = 1 1 1 1 = 1 = = = = = = = = = = = = = = = = = = = = = = = = = = = = = = = = = = 1 = = 1 1 1 1 = 1 1 1 1 1 = 1 = = 8 7 7 7 7 7 7 7 7 7 7 7 7 7 7 7 7 7 7 7 7 7 7 7 7 7 7 7 7 7 7 7 7 7 7 7 7 7 7 7 8 r 7 7 7 7 7 7 7 7 7 7 7 7 7 7 7 7 7 7 7 7 7 7 7 8 8 8 8 7 8 7 = 1 = = = ",
"1 1 1 1 1 1 1 1 1 1 1 1 1 1 1 7 1 = 1 = 1 1 1 1 1 1 1 1 1 1 1 1 1 1 1 1 1 1 1 1 1 1 1 1 1 1 1 1 1 1 1 1 1 1 1 1 1 1 1 1 1 1 1 1 1 1 1 1 1 1 1 1 1 1 1 1 1 1 1 1 1 1 1 1 1 1 1 1 1 1 1 1 1 1 1 1 1 1 1 1 1 1 1 1 1 1 1 1 1 1 1 1 1 1 1 1 1 1 1 1 1 1 1 1 1 1 1 1 7 7 7 7 7 7 7 7 7 7 7 7 7 7 7 7 7 7 7 7 7 7 7 7 7 7 7 7 7 7 7 7 7 7 1 1 1 1 1 1 1 1 1 1 1 1 1 1 1 1 7 1 1 1 1 1 1 1 1 1 1 1 1 1 1 1 1 1 1 1 1 1 1 1 1 1 1 1 1 1 1 1 1 1 1 1 1 1 1 1 1 1 1 1 1 1 1 1 1 1 1 1 1 1 1 1 1 = 1 1 1 1 1 : : = 1 1 1 1 1 1 = 7 1 1 1 1 ",
"v ) ) a 0 0 0 0 0 0 0 0 0 0 0 8 g ] _ _ a 0 0 0 0 0 0 0 0 0 0 0 a v v ) s 8 0 0 0 0 0 0 0 0 0 0 0 0 0 0 0 0 0 0 0 0 0 0 0 0 0 0 0 0 0 0 0 0 0 0 0 0 0 0 0 0 0 0 0 0 0 0 0 0 0 0 0 0 0 0 0 0 0 0 0 0 0 0 0 0 0 0 0 0 0 0 0 0 0 0 0 0 0 0 0 0 0 0 0 0 0 0 0 0 0 0 0 0 0 0 0 0 0 0 0 0 0 0 0 0 0 0 0 0 0 0 0 0 0 0 0 0 0 0 0 0 0 0 0 0 0 0 0 0 0 0 0 0 0 0 0 0 0 0 0 0 0 0 0 0 0 0 0 0 0 0 0 0 0 0 0 0 0 0 0 0 0 0 0 0 0 0 0 0 0 0 0 0 0 0 0 0 0 0 0 0 0 0 0 0 0 0 0 0 0 0 0 0 0 a a a 0 s s a a 0 a n n 0 0 0 0 0 a f c c a 0 c f ",
",._ ` a 8 8 c f 8 a a a 8 8 0 8 v ] ] ,.s 8 8 c f 8 0 a a 8 0 8 a _ 1.w.x 8 8 f c 8 0 a a 0 8 8 8 8 8 8 8 8 8 8 8 8 8 8 8 8 8 8 8 8 8 8 8 8 8 8 8 8 8 8 8 8 8 8 8 8 8 8 8 8 8 8 8 8 8 8 8 8 8 8 8 8 8 8 8 8 8 8 8 8 8 8 8 8 8 8 8 8 8 8 8 8 8 8 8 8 8 8 8 8 8 8 8 8 8 8 8 8 8 8 8 8 8 8 8 8 8 8 8 8 8 8 8 8 8 8 8 8 8 8 8 8 8 8 8 8 8 8 8 8 8 8 8 8 8 8 8 8 8 8 8 8 8 8 8 8 8 8 8 8 8 8 8 8 8 8 8 8 8 8 8 8 8 8 8 8 8 8 8 8 8 8 8 8 8 8 8 8 8 8 8 8 8 8 8 8 8 8 8 8 8 8 8 0 8 s x ) x g x ) s a 0 R R R R n 8 8 a f c ( a 0 c c ",
"] ] t.a 8 a / c 8 a c c 8 0 0 8 v ,._ g s 8 0 ( ( 8 a c c 8 0 8 s a ) ] a 8 8 c / a 0 c c a 8 0 0 0 0 0 0 0 0 0 0 0 0 0 0 0 0 0 0 0 0 0 0 0 0 0 0 0 0 0 0 0 0 0 0 0 0 0 0 0 0 0 0 0 0 0 0 0 0 0 0 0 0 0 0 0 0 0 0 0 0 0 0 0 0 0 0 0 0 0 0 0 0 0 0 0 0 0 0 0 0 0 0 0 0 0 0 0 0 0 0 0 0 0 0 0 0 0 0 0 0 0 0 0 0 0 0 0 0 0 0 0 0 0 0 0 0 0 0 0 0 0 0 0 0 0 0 0 0 0 0 0 0 0 0 0 0 0 0 0 0 0 0 0 0 0 0 0 0 0 0 0 0 0 0 0 0 0 0 0 0 0 0 0 0 0 0 0 0 0 0 0 0 0 0 0 0 0 0 0 0 0 0 0 8 a _ _ ` s x ` s p n R R R R R p 8 a a c f a 0 c c ",
"_ ] w.0 8 8 a 0 8 8 8 8 0 0 0 8 g ` v g a 8 8 a 0 8 8 8 8 0 0 8 a g ) ` s 8 8 0 a 8 0 8 8 8 0 0 0 0 0 0 0 0 0 0 0 0 0 0 0 0 0 0 0 0 0 0 0 0 0 0 0 0 0 0 0 0 0 0 0 0 0 0 0 0 0 0 0 0 0 0 0 0 0 0 0 0 0 0 0 0 0 0 0 0 0 0 0 0 0 0 0 0 0 0 0 0 0 0 0 0 0 0 0 0 0 0 0 0 0 0 0 0 0 0 0 0 0 0 0 0 0 0 0 0 0 0 0 0 0 0 0 0 0 0 0 0 0 0 0 0 0 0 0 0 0 0 0 0 0 0 0 0 0 0 0 0 0 0 0 0 0 0 0 0 0 0 0 0 0 0 0 0 0 0 0 0 0 0 0 0 0 0 0 0 0 0 0 0 0 0 0 0 0 0 0 0 0 0 0 0 0 0 0 0 0 0 0 0 8 s v 8 s g s a s 0 8 n n 0 n n 8 8 0 f c f a 8 ( f ",
"0 8 8 0 0 0 8 0 0 0 0 0 0 0 0 0 8 8 0 a 8 0 0 8 8 0 0 0 0 0 0 0 8 0 0 8 0 0 0 8 8 0 0 0 0 0 0 0 0 0 0 0 0 0 0 0 0 0 0 0 0 0 0 0 0 0 0 0 0 0 0 0 0 0 0 0 0 0 0 0 0 0 0 0 0 0 0 0 0 0 0 0 0 0 0 0 0 0 0 0 0 0 0 0 0 0 0 0 0 0 0 0 0 0 0 0 0 0 0 0 0 0 0 0 0 0 0 0 0 0 0 0 0 0 0 0 0 0 0 0 0 0 0 0 0 0 0 0 0 0 0 0 0 0 0 0 0 0 0 0 0 0 0 0 0 0 0 0 0 0 0 0 0 0 0 0 0 0 0 0 0 0 0 0 0 0 0 0 0 0 0 0 0 0 0 0 0 0 0 0 0 0 0 0 0 0 0 0 0 0 0 0 0 0 0 0 0 0 0 0 0 0 0 0 0 0 0 0 0 0 8 s 0 8 8 8 8 8 8 8 0 p p 8 8 8 0 0 8 0 0 0 0 0 8 0 "
};
